P3
400 225
255
188 199 198
206 216 226
203 213 222
208 218 228
192 203 206
98 126 76
97 125 75
96 123 74
92 118 70
98 125 75
97 125 75
95 122 73
95 122 74
98 126 76
97 124 74
93 120 72
97 124 74
98 126 76
98 125 75
98 125 75
98 126 75
97 124 75
98 126 76
97 125 75
97 125 75
99 127 76
98 126 76
95 122 73
96 124 75
96 124 74
99 126 76
95 123 74
156 171 159
204 213 221
202 212 220
204 214 222
207 216 224
209 218 229
203 214 222
209 219 230
200 211 220
205 213 220
206 216 225
211 219 227
207 218 229
178 191 193
129 149 128
96 123 74
97 124 74
98 125 75
95 122 73
96 124 74
95 122 73
98 124 74
98 125 75
97 124 74
97 125 75
99 127 77
99 127 76
101 128 77
98 125 74
167 181 177
210 219 227
200 210 219
209 218 226
212 220 231
210 220 230
196 207 215
211 221 231
206 216 226
202 212 221
207 216 226
206 216 224
207 216 225
210 220 230
201 210 217
210 219 228
203 213 220
204 215 225
207 217 229
212 222 231
201 211 221
211 219 229
205 214 222
210 219 227
208 217 226
204 213 221
209 219 230
204 214 223
200 210 217
210 220 230
103 129 85
95 123 74
95 122 73
101 129 77
98 126 76
101 129 78
99 127 76
97 125 76
98 126 76
98 126 76
96 123 74
97 125 75
100 127 76
97 125 76
96 124 74
109 133 95
145 163 146
185 197 197
205 215 223
207 218 228
207 217 226
213 222 233
205 215 226
206 216 225
202 211 216
203 212 219
203 214 222
208 218 227
206 216 225
203 213 220
97 125 75
97 124 75
95 123 74
94 121 72
97 124 74
96 123 74
98 126 77
100 127 76
100 128 77
96 123 74
98 126 76
98 125 75
94 121 73
98 125 75
95 122 73
97 124 75
95 123 73
98 126 76
96 124 75
99 127 77
97 125 75
97 124 75
91 119 70
100 128 77
100 128 77
97 125 75
96 123 73
96 123 73
98 126 76
96 123 74
195 206 209
202 213 221
202 212 219
208 218 227
206 216 225
208 217 227
202 212 219
200 211 219
199 210 221
209 218 228
209 219 228
211 220 228
203 212 220
210 220 230
201 211 219
206 216 225
210 219 228
209 219 228
208 218 226
204 213 219
211 220 231
209 219 229
207 217 227
207 217 227
205 215 224
204 214 222
207 217 225
210 220 230
207 217 226
211 220 230
145 162 144
96 123 73
97 125 76
99 126 76
100 127 76
100 128 77
97 124 75
98 126 75
98 126 76
94 122 73
97 125 76
99 127 77
96 123 74
96 123 74
97 124 74
92 120 72
98 125 75
96 123 74
98 126 76
97 124 75
104 130 90
131 151 128
155 171 158
169 183 178
188 200 202
204 214 220
212 220 229
207 216 224
205 215 224
210 219 228
128 148 120
100 128 77
98 126 75
97 124 75
96 124 75
96 123 74
97 125 75
95 122 73
96 124 74
97 125 75
97 124 74
96 123 74
93 120 72
95 123 73
96 124 74
100 128 77
96 124 74
99 127 77
97 125 75
98 126 76
99 127 76
95 123 74
96 124 74
99 127 76
96 123 73
97 124 74
96 124 74
97 124 74
96 123 74
130 151 125
199 210 217
205 214 223
207 216 223
209 219 230
201 212 221
207 217 227
202 212 220
207 217 226
203 213 222
204 213 221
207 217 226
206 216 227
204 214 222
200 211 219
208 218 226
205 215 225
205 216 226
209 217 227
206 215 225
209 218 230
199 210 219
208 218 228
204 214 222
201 212 221
203 213 223
207 217 226
203 214 222
203 213 222
172 184 182
96 124 75
96 123 74
98 126 76
95 123 74
97 125 75
99 127 77
98 126 75
100 128 77
95 123 74
98 126 75
95 123 74
97 124 75
97 125 75
97 124 74
97 124 74
98 125 75
99 127 76
97 125 75
93 121 72
97 124 75
99 127 77
99 127 76
98 126 76
97 125 75
98 125 75
98 126 75
99 126 76
128 148 124
208 218 229
201 210 215
203 214 224
206 216 227
209 219 230
212 221 229
199 210 218
207 216 224
207 216 225
204 214 224
211 220 231
204 213 221
207 217 226
208 217 224
202 213 223
205 215 226
212 222 233
208 218 225
203 213 220
203 213 221
207 217 227
204 214 223
208 218 226
206 216 226
205 215 224
202 213 223
204 214 221
109 134 92
94 121 72
98 125 75
97 125 75
97 124 74
97 125 75
95 122 72
95 123 73
98 125 75
96 124 74
95 123 74
97 125 75
100 127 76
98 125 74
94 122 73
99 127 77
94 121 72
100 128 77
99 127 76
99 126 75
97 125 75
96 124 75
96 124 74
95 122 73
97 125 75
111 135 97
193 204 207
204 214 223
206 216 225
203 213 222
203 213 223
203 213 221
205 214 220
198 208 218
205 214 223
205 214 221
204 215 225
204 213 222
209 217 225
203 213 222
205 216 227
210 219 230
203 213 220
206 215 223
206 216 225
206 215 223
200 210 218
206 215 224
201 211 218
203 213 222
186 198 202
103 130 83
97 125 75
96 123 74
95 123 74
96 123 74
98 126 76
99 126 75
96 123 74
97 125 75
97 124 75
98 126 75
98 126 76
94 121 73
98 126 76
98 125 74
97 124 74
96 124 74
94 121 72
98 125 75
97 125 75
97 124 74
99 127 76
97 125 75
173 186 182
96 123 74
124 146 113
172 186 180
202 213 221
180 193 193
100 127 77
97 124 74
95 123 73
99 127 76
97 124 75
99 126 76
100 128 77
95 122 73
97 124 74
97 124 74
97 124 74
99 127 76
94 122 73
97 124 74
98 125 75
93 120 72
92 119 71
97 125 75
96 124 75
96 124 74
98 126 76
95 122 74
98 126 76
100 128 76
97 124 75
97 124 74
97 125 75
147 165 151
205 216 227
206 215 224
208 218 228
207 217 227
209 219 230
211 221 231
201 211 219
207 217 227
203 213 220
213 222 231
206 216 227
197 208 217
205 215 225
206 215 224
189 200 203
156 172 162
115 138 102
98 126 76
97 124 74
98 126 75
95 122 72
97 124 74
99 128 78
102 130 79
96 123 73
97 125 76
95 123 74
97 125 75
165 180 172
211 220 229
207 216 224
207 216 226
204 214 223
203 213 221
206 216 226
205 215 224
214 224 236
202 212 221
203 212 219
205 214 222
211 220 229
203 214 223
208 218 227
209 218 227
209 219 231
203 214 224
202 213 221
203 212 221
199 210 218
205 215 224
205 215 224
206 215 224
206 217 228
209 218 228
204 214 222
205 215 224
203 213 220
206 216 225
99 127 76
98 126 76
96 123 74
97 125 75
96 124 75
95 122 73
97 125 76
95 122 73
96 124 74
99 127 76
98 125 75
101 129 77
96 124 74
99 127 76
101 128 76
98 126 75
94 121 72
98 126 76
106 131 86
141 160 143
165 179 173
197 208 214
208 217 226
208 217 226
205 214 222
202 213 222
211 220 229
204 213 220
205 215 225
190 202 205
96 123 74
97 125 75
99 127 77
98 126 76
94 121 73
96 123 74
97 125 75
97 124 74
96 124 74
96 124 74
96 123 74
97 125 75
99 126 76
93 121 72
94 121 73
99 127 76
94 122 74
98 126 76
101 129 78
96 123 73
97 125 75
97 124 74
93 120 72
97 125 75
99 127 75
98 126 75
98 126 76
98 125 75
97 124 75
105 131 89
206 216 224
209 218 227
206 215 222
206 216 224
205 215 225
202 213 221
199 210 217
202 213 222
208 218 227
213 222 232
204 214 224
209 219 229
206 216 226
208 218 229
204 214 223
206 216 224
206 216 224
202 212 221
208 218 227
212 221 230
211 220 230
204 214 222
211 220 230
205 215 224
203 213 221
201 211 220
198 209 218
202 213 222
206 215 224
205 214 222
106 130 92
99 126 76
100 128 77
97 124 74
100 128 77
96 123 73
95 122 73
98 126 77
98 125 75
96 123 75
98 126 75
99 126 76
96 124 75
96 124 74
96 123 74
98 126 76
97 125 75
96 123 74
98 126 76
94 121 72
97 125 75
97 124 74
96 124 74
97 124 74
97 125 75
100 126 81
115 139 103
141 159 140
163 177 170
183 195 195
126 147 121
95 123 74
96 124 74
96 124 74
99 127 76
99 127 76
98 125 75
99 126 76
92 119 71
93 121 73
96 123 74
95 123 74
96 124 74
97 125 75
93 121 73
98 126 76
96 123 74
94 121 73
98 125 75
99 126 76
97 124 74
96 123 74
92 118 70
97 125 75
97 125 76
99 127 77
99 126 76
96 124 74
96 123 74
162 176 168
206 215 224
208 217 225
209 219 230
202 212 219
208 217 226
204 213 221
197 208 216
205 215 224
208 217 225
210 220 230
211 221 231
201 211 219
209 219 229
204 214 223
206 215 225
206 216 224
206 216 227
204 215 224
206 216 224
202 212 219
206 216 226
203 213 219
200 211 219
208 217 227
206 216 228
206 216 225
203 214 224
206 216 226
133 152 129
98 126 75
98 126 75
95 122 72
99 127 76
97 125 76
96 123 74
97 125 75
98 126 76
98 126 75
98 126 76
96 123 73
95 122 72
96 123 74
98 126 76
97 125 76
98 125 75
96 123 74
99 127 76
97 124 74
96 123 74
96 124 74
98 125 75
97 125 75
100 128 77
94 121 73
97 125 74
98 126 75
185 198 200
207 217 227
210 219 226
200 210 217
210 219 227
202 212 220
199 210 220
211 221 233
204 215 225
198 209 218
200 210 218
206 216 225
208 218 227
206 216 227
208 217 228
213 222 232
208 217 225
210 218 226
200 210 219
202 212 220
199 209 217
207 217 229
207 216 224
199 210 217
202 211 219
195 205 212
200 211 220
151 168 157
98 125 75
98 125 75
96 124 75
97 125 75
97 125 75
95 122 73
98 126 76
94 121 72
97 124 75
96 124 74
97 125 75
96 124 75
98 126 75
95 123 74
94 122 73
96 124 74
96 123 74
95 122 74
100 127 76
98 125 74
96 124 74
99 127 76
99 126 76
94 121 72
98 125 75
165 179 172
202 212 221
203 213 221
208 218 228
200 210 217
210 219 229
209 218 228
206 217 228
210 219 229
210 219 228
210 219 229
202 212 220
207 217 226
207 216 224
203 213 222
206 216 226
205 215 223
209 218 226
205 214 222
209 219 229
206 216 225
210 219 228
206 216 223
208 218 228
208 217 227
127 148 120
96 123 73
99 127 76
95 122 73
99 127 76
98 126 76
97 125 75
95 123 74
95 123 74
97 125 75
97 124 75
96 123 73
98 125 76
97 124 75
96 123 74
100 127 76
94 121 72
94 121 73
98 125 75
95 122 73
97 125 75
97 125 75
97 124 75
141 159 143
209 218 226
94 121 72
96 123 74
98 126 76
101 127 81
151 168 153
122 144 114
97 125 75
100 128 77
99 127 76
99 127 77
96 124 75
102 130 79
98 126 75
98 126 76
95 122 73
96 124 75
94 121 72
97 125 76
95 123 73
98 125 75
98 125 75
97 124 74
95 123 74
97 124 74
98 125 75
99 126 76
96 123 74
98 127 77
96 123 73
98 125 75
96 124 74
93 121 72
126 147 118
206 216 227
205 215 224
203 213 222
204 214 223
214 223 233
209 219 230
199 209 218
210 219 230
205 215 226
209 219 231
206 215 225
207 216 224
207 217 226
208 217 226
207 217 226
203 213 222
209 218 227
182 195 196
151 166 152
102 129 82
98 125 75
99 126 76
94 122 73
95 123 73
96 123 74
98 126 76
100 127 75
98 126 75
172 186 184
198 209 218
206 216 226
206 216 223
201 212 219
202 211 217
209 219 230
199 210 218
201 212 221
203 212 219
203 213 223
209 218 226
206 216 225
206 216 226
205 214 222
213 222 231
210 220 231
204 214 224
207 217 228
199 209 217
202 213 223
202 212 221
200 210 217
200 210 217
207 216 226
211 221 232
211 220 230
202 212 221
210 219 228
202 213 221
93 120 71
98 125 75
95 122 73
99 126 76
97 124 75
100 128 77
96 124 74
98 125 75
96 124 74
97 125 75
97 125 74
99 127 76
97 125 76
92 119 71
96 124 75
94 122 73
94 121 72
98 125 75
97 125 75
99 126 76
95 122 73
103 130 85
131 151 127
158 174 167
194 205 209
207 217 228
202 212 222
208 218 227
213 221 231
186 198 199
96 124 75
97 124 74
94 121 74
95 123 73
98 125 74
94 121 73
95 123 74
99 126 76
101 129 77
95 122 74
97 124 74
96 124 75
98 126 75
95 123 73
98 125 75
95 123 73
99 127 76
98 125 75
98 125 75
98 125 75
96 124 74
100 128 77
98 126 75
100 127 77
96 123 74
97 125 76
97 124 74
97 125 75
99 126 75
114 139 103
206 215 224
208 217 226
208 217 226
200 210 218
207 217 227
204 213 222
202 211 219
207 217 226
207 217 227
204 214 224
204 213 222
207 217 228
200 211 220
209 219 229
203 213 222
204 214 222
213 222 231
214 223 234
193 204 210
202 213 222
207 216 223
202 212 220
201 212 220
206 216 223
204 214 222
205 215 224
202 213 222
207 216 224
213 222 231
198 208 212
97 125 76
95 122 73
98 126 76
97 125 75
95 123 73
97 125 75
98 126 76
99 127 77
98 126 76
97 125 75
96 124 74
97 124 74
96 124 74
95 123 73
97 125 74
94 121 73
96 124 74
95 122 73
96 124 75
96 123 74
98 126 75
97 124 75
99 127 76
96 124 74
97 125 75
98 126 76
93 120 71
101 128 77
97 125 75
140 158 137
207 217 227
205 215 224
192 203 207
175 188 185
163 178 169
149 166 149
116 139 106
92 119 71
96 123 74
97 125 75
95 122 73
99 127 77
93 120 71
98 126 76
95 123 74
98 125 75
97 125 75
97 125 75
97 124 74
96 123 74
100 128 77
93 120 72
99 126 75
96 124 75
97 125 75
98 125 75
97 124 75
99 127 76
102 130 81
199 209 212
212 221 230
209 219 229
205 215 226
203 214 223
206 216 226
200 211 219
207 216 224
203 212 220
210 219 229
205 215 222
208 218 229
203 213 223
204 213 222
199 209 215
207 217 226
200 211 220
204 214 224
206 216 224
207 216 225
211 219 228
210 218 227
200 211 220
210 219 227
211 220 230
211 220 229
203 213 219
203 214 224
193 204 209
96 123 74
100 127 76
97 124 75
96 123 74
98 125 75
97 124 74
94 122 73
96 123 74
96 123 74
98 125 75
96 123 74
97 124 74
95 122 73
98 125 75
97 124 74
93 120 71
94 121 73
96 123 73
100 128 77
95 122 72
94 121 73
96 123 73
98 125 75
101 128 77
95 122 73
97 124 75
95 122 73
127 147 126
213 222 231
206 216 224
210 218 227
204 214 223
207 217 226
209 218 228
210 219 229
209 219 229
211 221 231
202 212 220
202 213 222
208 217 226
200 211 218
204 214 222
207 216 225
208 217 225
210 219 228
200 211 218
204 214 224
205 215 223
207 216 224
199 209 216
205 215 224
208 218 227
206 216 225
198 209 216
194 205 209
102 129 82
95 123 73
96 123 74
99 127 77
97 125 75
96 123 74
97 124 75
96 123 74
97 125 75
97 124 74
99 127 76
100 128 77
98 126 76
95 122 73
97 125 75
94 122 73
97 125 75
98 125 75
99 127 76
96 124 75
97 125 76
97 124 74
95 122 73
98 126 76
98 126 76
122 144 117
211 219 227
207 217 226
207 217 227
203 213 222
200 211 220
210 220 231
209 218 227
209 218 228
204 213 221
203 213 221
206 215 222
204 213 220
206 216 225
210 220 230
208 218 227
202 211 219
206 215 223
202 212 221
198 208 213
211 219 228
204 214 222
200 210 217
201 211 219
206 216 226
163 178 172
97 124 74
95 122 72
98 126 76
99 126 76
99 126 76
99 126 75
98 125 75
96 123 74
95 122 72
99 127 76
95 122 73
93 120 72
96 123 74
101 128 77
97 125 75
96 123 73
96 123 74
97 124 74
99 126 75
98 126 75
97 125 75
99 127 77
115 137 105
201 212 220
198 209 217
98 125 75
96 124 74
96 124 74
97 124 74
96 123 73
198 209 215
183 195 198
140 158 140
97 124 74
100 128 77
97 124 75
100 128 77
97 124 74
99 126 76
96 124 74
95 122 73
97 125 75
96 124 74
98 126 75
100 127 76
95 122 73
99 127 77
91 119 71
98 126 75
97 125 74
98 126 75
99 127 76
96 124 74
97 124 75
98 125 75
96 124 74
93 119 71
129 150 123
206 216 226
204 213 218
204 215 225
202 212 220
207 217 227
203 212 220
210 219 229
209 218 226
205 215 222
209 218 227
204 214 223
202 212 218
204 214 221
206 216 224
204 214 223
203 213 222
203 213 222
209 219 228
214 222 232
197 208 214
174 187 182
138 157 135
99 125 80
97 124 74
96 124 74
96 123 74
99 127 76
95 123 73
168 182 174
205 215 225
206 216 224
205 214 223
198 209 219
209 218 227
204 213 221
208 217 226
210 219 229
198 209 217
205 215 224
207 217 228
206 215 224
196 206 212
207 216 225
206 215 224
211 220 230
211 220 231
204 215 225
202 212 221
210 219 230
206 215 224
196 206 213
200 210 218
207 217 228
209 218 227
203 214 222
208 218 226
205 215 222
194 204 208
99 127 77
98 125 75
97 125 75
95 123 74
96 123 74
97 125 75
94 121 73
97 124 74
96 123 74
98 126 76
96 122 73
96 124 75
97 125 76
96 124 74
97 124 75
96 123 74
98 125 75
97 125 75
95 123 73
95 122 73
96 124 74
95 122 73
94 122 74
97 124 74
97 125 75
123 145 115
157 173 163
179 192 192
208 216 224
169 183 178
95 123 73
95 122 73
94 121 73
97 124 75
98 126 76
95 122 72
97 125 75
95 122 73
95 122 73
96 124 75
94 121 73
97 125 75
99 126 75
98 125 75
96 124 75
96 124 75
95 122 73
97 124 74
98 126 76
95 122 73
97 125 75
97 124 74
95 123 74
97 124 74
100 128 77
96 123 74
98 126 77
95 123 73
97 125 75
151 167 156
204 215 225
209 218 227
206 215 225
202 213 224
200 212 222
210 220 231
209 220 231
207 217 227
207 216 225
205 214 222
208 218 229
202 213 222
204 214 224
207 217 227
203 213 222
203 214 224
207 217 228
203 214 223
204 215 225
206 216 224
208 217 225
213 221 230
206 215 224
198 208 214
204 214 222
206 216 226
207 217 227
205 215 225
209 218 227
176 189 187
99 126 75
96 123 74
96 123 74
92 119 72
93 121 73
99 127 76
95 122 73
98 125 74
98 126 75
95 122 73
98 126 76
97 124 74
97 125 75
97 125 75
100 128 77
97 124 75
97 125 75
98 126 76
100 127 76
99 128 77
98 125 76
98 126 75
97 125 75
97 125 75
93 120 71
95 122 74
96 123 73
97 125 75
96 123 74
174 187 180
211 220 231
204 214 223
202 211 220
209 219 230
212 222 232
205 215 226
202 211 219
207 217 228
189 200 204
169 183 176
155 172 158
146 163 149
125 147 117
96 124 74
94 122 73
99 126 75
95 122 74
99 127 76
96 124 74
99 127 76
98 125 75
99 127 77
101 129 78
96 123 74
99 127 77
94 121 73
95 123 74
95 123 74
124 144 117
213 222 231
210 219 228
203 213 220
208 217 226
206 216 226
205 215 226
200 211 222
208 217 228
207 216 224
210 219 230
209 219 228
208 217 226
206 215 223
199 210 218
205 215 224
201 211 219
210 218 226
204 213 221
200 210 219
204 215 225
203 213 223
209 218 227
208 218 227
203 213 221
200 211 220
211 220 229
211 221 231
212 222 232
153 170 157
97 125 75
98 125 75
98 126 76
98 125 75
96 123 74
94 122 73
98 126 75
97 124 74
96 123 74
97 125 75
97 124 73
98 126 75
98 125 75
98 125 75
96 124 74
95 122 74
95 122 72
95 123 74
96 123 74
99 127 77
96 123 74
97 124 75
96 124 75
99 126 76
93 120 72
99 127 77
93 121 72
171 185 179
210 220 230
209 218 228
210 219 228
209 219 228
201 211 218
201 211 218
203 214 223
208 217 226
207 217 225
212 221 232
207 216 227
210 219 229
199 210 218
209 218 228
206 216 226
201 211 221
203 213 223
213 221 232
204 215 224
205 215 225
205 214 223
201 210 217
212 221 230
203 213 221
208 218 228
213 222 232
147 165 152
94 121 73
95 122 73
95 123 74
92 120 71
96 124 75
97 125 74
97 124 75
98 125 75
96 124 75
96 123 75
97 124 75
98 126 76
98 126 75
95 122 73
94 121 73
95 122 73
97 124 75
98 125 75
96 123 73
96 124 74
95 123 74
98 126 76
96 123 74
98 126 76
98 125 75
179 192 191
208 217 225
209 219 230
200 211 220
206 215 223
203 213 219
207 217 224
206 216 225
205 215 226
210 219 228
208 217 226
204 214 222
211 220 229
206 215 224
204 214 223
205 214 223
208 217 226
207 216 225
207 216 224
207 216 224
197 207 214
203 215 226
207 216 223
206 216 226
202 212 220
102 127 85
95 123 74
96 123 73
96 123 74
97 125 75
97 124 74
96 123 74
95 122 73
99 127 77
95 123 73
94 121 73
98 125 75
95 122 72
98 125 75
95 122 73
94 122 73
98 126 76
96 123 74
94 121 73
98 126 76
94 122 73
97 125 75
98 125 75
181 193 192
201 212 223
203 213 222
104 132 79
98 125 76
94 121 73
96 123 74
97 124 75
183 195 197
204 214 222
209 220 231
196 206 211
154 170 159
100 126 79
97 124 74
99 127 77
94 121 72
100 127 76
96 123 74
94 121 72
96 124 74
97 125 75
95 123 74
96 123 73
98 126 76
98 125 75
96 123 73
97 125 75
93 120 72
98 126 76
96 124 74
95 122 74
98 125 75
100 127 77
93 120 71
117 139 104
211 220 229
207 217 229
204 213 220
212 220 228
204 213 220
211 220 230
207 218 229
203 213 225
203 213 221
203 213 222
210 219 229
203 214 222
205 215 224
197 207 214
210 220 230
201 211 219
206 215 225
206 216 225
206 216 226
215 223 233
208 218 227
203 213 221
195 206 212
168 182 176
122 144 113
95 123 74
97 124 74
94 121 72
151 169 157
201 211 221
208 218 228
211 220 228
209 218 227
210 220 231
201 210 217
212 221 230
205 215 223
199 209 217
203 213 223
205 214 221
204 214 222
212 221 229
198 209 216
208 218 230
209 218 227
203 213 221
202 213 222
205 215 225
202 213 223
205 216 226
206 215 223
206 216 227
201 210 219
208 218 229
199 209 218
203 213 222
208 217 225
194 204 207
96 124 74
94 122 73
96 124 74
95 122 73
93 120 73
94 122 73
97 124 75
95 123 74
96 123 74
97 124 74
96 123 73
98 126 76
98 126 76
95 121 72
97 124 74
98 126 76
96 124 75
96 124 75
96 124 74
98 125 75
93 120 72
96 124 74
97 125 75
94 121 72
93 121 73
92 119 71
96 123 74
97 125 75
104 129 89
152 167 156
136 156 132
106 131 90
98 126 76
97 125 75
97 124 75
97 124 74
98 126 76
99 126 76
99 126 76
97 125 76
98 126 75
96 123 74
95 123 74
95 123 74
95 123 75
97 124 74
100 128 77
94 122 74
95 123 74
101 128 77
96 124 75
96 123 74
96 123 74
96 123 74
96 124 74
99 127 76
93 120 72
101 129 78
99 127 76
169 183 176
210 219 228
203 212 220
205 215 223
201 212 220
207 216 225
205 215 223
207 216 224
201 212 221
203 213 222
197 207 214
206 216 225
202 212 221
207 218 228
203 214 226
210 219 228
209 218 226
207 217 227
211 220 230
202 212 219
202 212 221
212 221 230
208 218 227
201 211 220
211 220 230
207 216 225
208 217 226
214 223 232
205 214 221
208 218 228
140 158 138
94 122 74
96 123 74
94 122 73
93 120 72
98 126 76
97 125 75
96 123 74
96 124 74
96 123 74
98 125 75
97 125 75
99 127 76
95 122 73
96 124 75
97 125 75
97 125 75
98 126 76
98 126 76
95 123 74
100 127 77
95 123 74
97 125 75
96 124 74
98 126 76
96 123 73
93 120 72
96 123 72
98 126 75
99 127 77
206 216 224
208 217 226
206 215 224
204 213 220
207 216 223
205 215 223
207 218 228
209 218 228
201 212 220
199 209 216
205 215 223
208 217 225
205 215 223
204 214 223
200 210 218
177 190 188
168 182 177
165 179 172
148 165 151
127 147 123
110 135 97
97 124 74
97 124 75
99 126 76
99 127 77
97 124 74
99 127 76
98 126 76
97 124 74
174 187 185
207 216 225
206 215 223
212 222 233
207 216 224
210 219 229
205 216 226
202 212 221
211 220 228
202 211 218
205 214 222
202 212 219
194 206 214
203 213 222
202 213 222
201 211 220
211 220 230
207 217 228
203 213 222
205 215 224
210 219 229
193 203 208
206 216 224
203 214 224
200 211 220
208 218 228
202 212 221
205 215 224
194 205 212
102 128 82
97 124 75
99 126 75
97 125 75
99 127 77
99 127 76
100 127 76
97 124 75
98 126 75
101 129 77
96 123 74
99 127 77
98 125 75
93 120 71
98 125 75
96 124 74
100 128 77
97 125 75
95 122 73
99 126 75
94 122 73
96 124 74
97 124 75
97 125 75
96 124 74
96 123 74
98 126 75
115 138 106
210 219 229
203 212 219
208 218 227
206 216 226
202 212 221
202 212 220
206 216 225
208 218 229
205 216 227
201 212 221
208 217 227
203 214 223
209 219 228
205 215 225
203 212 218
204 215 225
207 217 228
203 213 222
204 215 225
201 212 220
196 207 213
199 210 218
202 213 223
205 215 225
208 217 226
197 208 216
183 196 198
95 123 74
96 124 74
100 128 78
95 122 74
97 125 75
98 125 75
97 124 74
96 123 74
96 124 74
98 126 76
95 123 74
95 122 73
95 122 73
96 123 74
96 124 75
92 119 71
95 123 73
96 124 75
98 125 75
97 124 74
99 126 76
95 123 74
99 127 76
99 127 76
97 125 74
135 154 131
205 215 224
211 221 230
205 215 225
206 216 226
202 212 221
204 214 224
207 216 226
196 208 217
208 218 227
205 215 224
205 215 224
202 212 220
214 222 234
213 222 232
209 219 231
199 210 217
200 210 217
201 211 216
214 222 231
210 220 230
209 218 226
205 215 224
210 218 227
210 219 229
138 157 138
98 125 76
99 127 77
96 123 74
97 124 74
96 123 74
95 122 74
96 123 74
93 121 73
99 126 76
96 124 75
98 125 75
101 128 77
98 125 76
96 124 75
95 123 74
98 125 75
97 125 75
95 122 72
99 127 77
96 124 74
97 125 74
98 125 74
150 166 155
208 217 225
207 216 225
205 214 222
96 124 75
95 123 74
96 123 74
96 123 74
97 125 74
180 192 191
202 212 221
205 215 223
206 216 226
208 218 227
210 219 227
173 187 185
114 138 100
94 122 74
100 127 76
98 126 75
95 122 73
97 125 74
100 127 76
97 124 75
99 126 76
93 120 71
94 121 73
98 126 75
97 125 75
96 124 75
96 124 74
96 123 74
98 126 76
98 125 75
98 126 75
97 125 74
101 128 80
208 219 230
204 214 223
202 212 220
210 219 229
205 215 225
210 219 229
206 217 228
202 212 219
206 216 225
205 215 223
209 219 229
201 211 219
207 216 224
207 217 227
209 219 229
201 211 219
208 217 225
208 218 227
204 214 223
208 218 229
197 208 216
208 217 225
201 210 219
205 216 227
202 212 220
181 193 194
161 176 169
106 131 90
163 178 171
204 213 222
205 215 226
211 220 231
207 217 227
201 212 223
209 218 228
202 213 222
208 218 230
203 214 222
209 218 227
205 215 223
210 220 230
201 212 220
205 214 222
208 217 226
195 207 215
205 214 222
206 216 224
202 213 222
203 214 225
204 213 219
203 213 222
206 216 225
200 211 219
198 209 218
202 212 220
206 215 223
206 215 224
183 195 196
98 125 75
98 125 75
96 124 75
94 122 73
98 126 76
97 124 74
96 123 74
96 124 75
96 124 74
97 124 74
92 120 72
99 126 76
98 126 76
95 122 73
96 123 74
92 119 71
96 124 74
97 125 75
98 125 75
96 124 74
96 123 73
96 123 74
95 122 73
95 123 73
96 123 75
96 124 75
96 124 74
95 122 73
97 124 75
171 184 181
197 208 217
205 214 222
186 198 200
161 176 168
136 155 133
99 126 78
98 126 76
97 124 74
100 127 76
95 123 73
96 124 75
98 125 75
97 125 75
96 123 74
96 124 75
93 120 71
98 126 75
95 122 74
94 121 72
98 125 75
98 126 76
95 122 73
100 128 77
99 126 76
96 123 74
94 122 73
97 125 75
94 121 72
99 127 76
180 193 195
203 214 225
205 215 223
204 214 224
206 215 225
207 216 225
207 217 227
203 214 223
208 217 228
203 214 224
213 222 233
209 218 227
205 215 224
205 215 225
206 216 226
203 214 224
201 212 221
212 221 230
207 216 225
209 219 230
210 219 229
205 215 223
207 215 222
203 213 220
201 212 220
203 213 222
202 213 222
207 217 228
208 217 226
203 213 220
111 135 104
96 124 74
96 124 74
94 121 72
100 127 77
96 123 74
98 125 75
97 125 75
95 122 73
97 125 75
96 123 73
98 126 75
98 125 75
98 125 75
96 124 74
97 125 75
98 125 75
103 131 79
96 124 74
94 121 73
95 122 73
96 123 73
98 126 76
98 126 75
98 126 76
96 124 75
98 126 76
101 129 78
96 124 75
126 146 122
211 220 229
204 215 224
209 219 229
203 213 221
205 215 222
200 210 217
202 211 218
208 217 225
206 216 225
205 215 223
199 209 215
203 212 220
197 207 213
204 215 225
204 214 223
206 216 225
207 216 225
203 213 223
206 216 226
202 213 222
206 216 225
194 205 213
196 207 215
163 179 174
163 178 171
148 166 151
127 148 121
108 133 93
109 134 97
200 210 217
200 210 218
207 217 227
204 214 223
208 217 225
205 215 224
208 218 229
201 211 220
199 210 218
202 212 220
205 215 226
204 214 222
203 213 221
203 213 220
200 211 219
208 217 225
199 209 217
207 216 226
203 213 222
203 214 223
207 217 226
203 213 220
209 218 228
202 212 222
202 212 223
206 216 225
207 216 225
205 214 223
169 182 178
96 123 74
95 123 74
96 125 75
93 121 73
92 119 70
96 123 74
98 126 75
92 119 71
96 124 74
96 124 75
97 125 75
95 122 72
93 119 71
93 120 72
96 124 74
100 128 77
97 124 74
93 119 71
96 124 75
96 124 74
95 123 73
95 122 72
95 122 73
98 126 76
96 124 74
99 127 76
95 123 74
170 184 179
206 216 224
212 222 233
205 215 224
204 214 223
207 217 227
205 215 224
207 217 226
207 215 222
203 214 223
205 215 223
201 211 218
203 213 221
204 214 221
205 215 225
209 218 227
205 215 225
210 220 230
200 210 217
206 216 224
203 214 224
201 211 219
203 212 221
207 216 225
208 218 228
206 216 224
207 216 223
139 158 139
95 123 74
95 122 73
92 119 72
97 125 76
92 119 70
98 125 75
98 125 75
96 124 74
96 123 74
93 120 72
96 124 74
100 128 77
97 125 75
97 125 75
97 124 74
98 125 75
97 125 75
97 124 75
96 123 74
96 123 74
96 123 73
98 126 75
95 123 74
97 125 75
98 125 77
192 204 210
205 214 222
199 210 218
208 218 226
202 213 223
213 221 231
205 215 224
200 211 218
204 214 225
208 218 227
201 211 221
208 218 226
200 211 221
206 216 226
206 215 224
207 216 224
208 217 228
211 220 230
200 211 221
205 216 226
209 218 227
207 215 222
204 213 220
214 223 232
178 191 191
91 118 70
96 123 73
98 126 76
95 123 74
98 125 75
97 125 75
97 124 74
99 127 76
97 124 74
97 125 75
95 122 73
97 124 75
99 126 75
95 122 74
99 127 77
99 126 76
97 125 75
96 124 75
99 127 76
96 123 74
98 126 76
98 126 75
121 143 114
204 213 221
207 217 228
207 216 224
208 217 225
96 123 75
97 124 75
97 124 75
98 126 75
99 127 77
163 178 169
206 215 223
210 219 227
212 222 233
205 214 222
201 212 221
210 219 230
215 224 235
182 195 196
146 164 149
98 124 79
97 125 75
96 124 75
91 119 71
99 127 77
97 125 75
99 127 76
98 126 75
100 128 77
99 127 77
96 124 75
99 127 76
95 122 74
97 124 74
98 125 75
98 126 75
98 125 75
96 124 74
201 211 220
197 207 214
203 212 219
203 214 223
204 213 221
209 218 227
201 211 217
202 213 222
202 213 222
213 221 228
195 206 214
208 217 226
206 216 224
204 213 222
209 218 228
207 217 227
208 218 228
211 219 227
202 212 219
207 217 228
206 215 225
207 216 226
211 220 230
208 218 228
206 215 224
202 213 222
205 215 223
202 212 221
172 185 180
183 196 197
207 216 224
208 218 228
200 210 218
200 211 220
210 219 229
207 216 224
206 216 227
202 212 219
204 214 222
196 207 215
201 211 221
200 210 219
208 217 225
206 216 226
202 213 222
207 217 227
203 213 221
205 215 224
209 218 227
205 215 224
203 214 223
203 213 222
210 220 230
209 218 226
204 213 221
203 213 221
196 208 216
181 194 195
94 121 72
96 123 74
99 126 75
95 122 73
94 121 72
100 128 76
96 124 74
98 126 76
93 120 72
99 127 76
94 121 72
98 125 75
94 121 72
93 121 72
96 123 73
96 123 73
98 125 75
96 124 74
97 125 75
99 127 77
98 125 75
93 120 72
98 126 76
95 122 73
97 125 75
96 124 75
98 126 76
95 123 74
96 123 74
175 188 182
203 213 221
210 219 227
206 215 225
207 216 226
205 214 222
209 219 228
179 192 192
151 168 153
116 138 104
97 125 75
95 122 73
99 126 76
97 125 75
98 125 75
96 124 74
98 126 76
92 119 71
97 124 74
98 126 75
95 123 74
98 126 75
96 123 74
95 121 72
93 120 71
99 128 77
98 125 75
99 126 75
99 127 76
99 127 77
203 214 221
205 216 226
198 209 217
205 214 223
210 218 226
203 213 221
201 210 217
206 216 226
207 217 225
204 214 224
207 217 228
203 214 222
201 211 218
207 217 226
205 216 226
207 216 224
205 215 224
202 212 222
210 219 228
202 212 220
208 217 227
198 209 217
210 219 229
203 213 222
206 215 222
210 220 229
209 217 227
209 219 229
199 210 218
193 204 207
97 124 74
96 123 74
97 124 75
98 125 75
96 123 73
97 125 76
99 127 77
96 124 74
94 122 73
97 124 74
95 122 73
93 120 71
100 127 76
98 125 75
97 124 74
96 124 74
96 123 74
96 124 74
96 123 73
98 126 76
92 119 72
94 122 73
95 122 73
95 122 74
97 125 74
98 125 75
92 120 72
97 125 75
95 123 73
163 177 168
205 215 225
203 213 220
207 217 227
205 214 224
207 216 224
210 219 227
203 212 221
209 217 225
210 219 229
202 213 225
205 215 223
207 216 225
205 215 225
208 217 224
206 215 224
207 217 226
202 213 224
201 212 221
206 215 224
204 214 223
209 219 229
199 210 219
204 213 222
206 215 224
207 216 226
210 218 228
205 215 224
203 212 218
178 190 187
117 139 106
134 153 132
153 168 155
165 179 173
176 190 186
190 202 206
199 210 215
209 219 229
205 215 224
200 210 217
210 219 228
206 216 226
205 214 222
206 215 222
209 220 231
208 217 225
208 218 228
204 215 224
212 221 231
206 216 224
208 217 226
212 221 231
212 222 232
211 220 228
201 212 219
208 217 226
209 219 231
212 221 231
136 156 134
97 125 75
97 124 74
97 124 74
96 123 73
98 126 75
96 123 74
96 123 73
97 125 75
96 124 74
96 123 74
97 125 75
98 126 75
94 121 72
98 126 76
93 120 72
94 121 73
96 123 74
98 126 76
96 123 74
97 125 75
94 122 74
97 124 74
93 120 71
93 120 72
95 122 73
97 125 75
107 132 88
196 206 214
202 213 223
202 212 221
205 214 221
202 212 221
209 219 229
202 212 220
210 219 229
206 216 225
200 211 220
205 215 225
210 220 230
205 216 226
201 212 220
209 219 228
207 217 228
205 214 223
205 215 223
205 215 224
192 203 210
208 218 228
203 213 221
202 212 220
204 213 221
203 213 220
203 214 223
186 198 198
97 124 77
96 124 75
96 123 74
97 125 76
95 122 73
93 120 72
94 121 72
95 122 73
97 124 74
96 124 75
96 123 74
96 124 75
96 123 74
96 124 74
98 125 75
95 122 73
95 122 73
95 122 73
93 120 71
97 125 75
98 126 76
97 124 74
96 123 74
96 124 74
96 123 73
170 184 178
207 216 225
204 214 224
204 214 224
203 212 221
203 214 224
196 208 216
202 212 220
211 220 230
205 214 222
204 213 221
202 212 220
206 216 226
209 218 229
206 216 224
202 211 218
211 220 230
209 218 227
213 222 233
206 217 228
201 210 217
207 216 224
211 219 226
206 216 225
197 208 216
111 133 99
97 124 75
98 125 75
98 126 76
97 124 75
96 123 74
97 124 74
92 119 71
95 122 74
93 120 71
96 123 74
97 124 74
95 122 73
97 124 75
96 123 73
97 125 75
96 124 75
97 125 76
97 124 75
98 125 75
98 125 77
116 139 104
130 150 128
153 170 155
159 175 169
142 160 141
129 148 125
99 126 83
99 127 76
92 120 72
95 122 73
98 125 75
97 125 76
149 165 149
206 216 225
206 216 225
204 214 224
202 211 218
208 218 227
201 212 222
204 215 224
213 221 231
202 212 219
199 209 214
152 167 156
109 133 95
94 122 73
97 125 75
96 124 74
97 125 75
96 123 73
100 128 77
96 123 74
98 126 76
95 122 74
96 123 74
97 125 75
97 124 74
93 120 72
98 125 75
95 123 74
184 197 201
208 218 228
203 214 223
209 218 226
206 215 223
207 217 228
200 210 219
208 217 226
202 212 221
210 219 228
209 218 228
204 214 220
201 211 220
212 221 231
207 216 225
201 211 217
205 215 226
213 222 231
211 220 231
204 214 222
210 219 228
205 215 225
206 216 224
201 211 218
203 214 224
208 217 226
205 214 222
199 210 220
176 189 187
97 125 76
111 135 101
147 163 148
186 199 203
200 209 215
206 216 227
198 208 216
211 220 230
206 216 226
206 215 224
195 205 211
207 216 223
209 218 226
207 217 226
201 211 220
210 220 229
201 211 220
204 213 220
206 216 225
203 214 223
209 218 227
206 215 224
213 221 230
208 217 226
208 217 227
195 206 212
205 214 221
212 221 231
180 193 192
96 123 74
101 129 78
98 126 76
95 122 73
97 124 74
93 120 72
97 124 74
94 122 73
96 123 74
96 123 74
96 124 74
96 123 74
95 123 74
94 121 73
96 124 74
94 121 72
96 123 74
91 118 70
95 122 73
94 122 74
99 126 76
95 122 72
95 123 74
94 121 72
96 124 75
95 122 74
100 128 78
95 122 73
99 126 76
187 200 205
202 212 221
203 212 219
209 219 231
204 213 222
207 216 225
199 210 219
201 212 221
205 215 223
207 216 224
200 211 218
164 178 174
138 156 136
103 128 88
98 126 76
99 127 77
97 124 74
98 126 75
97 125 75
97 124 75
94 121 73
98 125 75
96 124 75
98 125 75
95 122 73
95 123 74
97 124 75
94 121 72
98 125 75
120 142 109
208 217 226
204 214 223
206 215 224
215 223 232
208 218 229
202 213 222
207 217 228
202 213 222
210 219 227
202 213 223
206 215 223
205 215 222
203 213 222
205 215 225
206 217 226
206 216 224
210 220 232
198 209 217
208 218 227
201 212 222
197 208 215
209 218 229
204 214 224
198 209 218
204 215 224
202 212 221
209 219 229
213 222 231
198 208 215
165 178 172
96 124 75
93 120 71
97 125 75
96 123 73
92 118 70
98 126 75
97 124 75
97 124 74
96 124 74
96 124 74
98 126 76
95 123 74
98 125 75
97 124 75
97 125 75
96 124 75
97 124 74
98 126 76
94 121 72
97 125 75
98 126 75
94 121 72
100 128 77
94 121 73
97 125 75
100 128 77
94 121 73
92 119 71
95 123 73
198 208 213
207 216 225
202 212 220
208 218 227
206 216 226
207 216 225
203 213 221
208 218 227
198 208 216
207 217 227
210 219 228
204 213 221
203 213 222
201 211 219
209 218 226
205 215 225
205 215 224
203 212 219
197 207 215
205 215 225
210 218 226
207 216 225
202 212 221
203 213 223
204 214 223
200 211 220
205 215 225
210 220 231
205 216 225
138 156 135
97 125 75
98 125 75
96 124 74
96 123 74
97 125 76
100 127 76
98 125 75
102 129 82
127 148 117
127 148 121
151 167 151
164 178 170
178 191 189
184 195 197
187 199 200
202 211 218
199 210 218
203 212 220
212 221 231
201 211 217
208 218 227
202 213 222
207 217 228
208 218 228
197 208 216
204 214 224
207 215 222
193 203 207
98 126 75
97 124 74
97 124 75
95 123 74
96 124 75
98 125 76
96 124 74
96 124 74
94 121 72
99 127 77
94 122 74
99 126 76
96 124 75
95 122 74
96 124 74
97 125 75
98 126 76
97 124 75
95 122 73
94 121 72
96 123 74
96 123 73
96 123 74
95 121 73
93 120 72
96 123 75
96 123 74
160 176 168
209 218 227
198 208 216
205 215 225
208 217 226
207 216 224
207 217 227
210 220 230
205 215 223
206 216 224
205 215 225
202 212 221
209 218 229
203 213 220
206 217 227
210 219 228
206 215 224
204 213 221
206 217 228
206 216 227
212 220 230
206 215 223
210 220 231
201 211 219
210 219 228
210 220 230
206 215 223
123 143 119
99 126 76
98 126 75
95 122 73
100 128 77
96 123 74
95 122 73
99 127 77
94 121 73
95 123 74
94 120 72
96 124 75
98 125 75
97 125 75
96 123 74
96 124 75
100 128 77
93 120 72
95 122 73
99 127 77
99 126 76
100 127 77
95 123 73
99 126 76
98 126 76
114 137 105
204 214 223
210 219 229
204 214 223
209 219 230
209 218 228
201 211 220
205 215 223
207 217 227
205 215 224
213 222 232
211 220 230
203 213 222
210 220 230
207 218 229
204 214 222
208 218 228
202 212 219
198 208 217
209 218 227
203 213 221
209 218 227
205 215 225
211 220 230
208 217 225
148 164 148
95 123 74
97 124 75
97 125 75
97 125 75
98 125 75
95 122 73
94 120 71
96 124 75
95 122 73
97 125 75
99 126 76
98 125 75
101 126 85
122 142 114
130 149 129
144 162 144
170 184 180
174 187 184
180 193 192
199 210 216
207 217 227
211 219 227
163 177 170
94 121 73
96 123 73
96 124 74
95 122 72
94 122 73
97 125 75
98 126 76
94 121 72
95 122 73
99 126 76
135 155 130
204 214 222
203 214 224
196 207 215
209 218 227
202 211 219
207 217 227
212 221 232
200 210 217
203 213 220
212 221 231
208 217 227
204 214 221
184 195 193
130 150 128
90 117 69
98 126 76
97 124 75
98 125 76
99 127 76
94 121 73
93 120 71
97 125 75
93 120 71
98 125 75
97 125 75
98 125 75
96 124 75
189 201 203
197 207 216
202 212 220
206 217 228
205 215 224
201 213 223
209 218 226
201 212 219
211 219 228
203 213 221
199 209 217
211 220 231
205 216 227
205 215 225
200 211 221
203 213 221
199 211 221
195 206 211
208 217 225
205 215 225
204 215 224
200 211 221
202 212 220
202 213 221
205 215 224
204 214 221
208 217 224
206 216 224
166 180 172
99 127 77
97 126 76
95 123 74
92 118 70
113 137 101
167 182 176
191 202 205
203 213 221
201 212 220
206 216 226
206 216 224
206 217 229
199 210 218
202 212 221
198 209 219
208 217 225
203 213 221
209 218 227
207 217 226
202 212 221
208 218 229
211 220 229
203 213 221
214 223 234
203 213 222
201 212 221
207 216 224
210 219 228
172 185 179
94 121 72
97 124 75
99 127 76
93 120 72
99 126 76
97 124 74
98 126 76
101 128 77
94 121 73
95 123 73
100 128 77
95 122 73
98 125 75
97 124 75
92 119 71
96 123 73
98 125 74
97 125 75
99 127 76
96 123 74
98 125 75
96 124 74
96 123 73
97 125 74
98 126 76
97 124 74
97 124 74
95 123 74
98 126 75
203 213 220
200 211 219
208 217 226
209 218 225
208 218 230
205 215 225
203 212 219
204 215 224
210 219 228
208 217 225
199 210 217
204 214 223
207 217 228
199 209 216
184 196 198
157 173 163
130 150 124
98 125 77
96 124 74
96 123 74
96 124 74
95 122 73
97 124 74
97 124 75
98 126 76
95 122 73
96 123 74
96 124 75
97 125 75
135 154 133
204 214 223
197 209 217
206 216 225
205 215 223
204 214 223
209 218 225
201 212 220
206 215 224
204 214 222
208 217 225
209 217 226
204 215 225
205 215 223
207 216 223
207 216 225
208 218 230
206 216 225
202 213 225
198 207 213
212 221 230
207 217 227
206 215 223
205 215 224
200 210 218
207 216 224
207 216 225
201 211 220
204 214 223
208 217 228
147 165 151
97 125 75
96 123 74
97 125 76
96 124 74
99 126 75
97 124 75
97 125 76
97 124 75
95 123 74
96 123 73
96 123 73
94 122 73
99 127 76
95 122 73
94 120 72
96 123 74
96 123 74
99 127 77
93 120 72
94 122 73
96 124 75
96 124 74
93 121 72
97 125 75
96 123 74
95 123 74
96 123 73
98 125 75
114 135 104
201 211 220
211 220 229
203 213 220
196 207 216
209 218 226
199 210 218
208 217 228
201 210 216
203 214 224
204 214 223
209 218 228
206 216 225
206 216 226
204 214 223
200 211 220
209 218 228
210 218 226
202 213 221
205 214 224
205 214 222
201 211 220
208 217 226
207 218 229
208 217 226
201 211 218
204 214 222
206 216 225
211 220 231
193 204 207
100 127 79
100 128 77
95 123 74
98 125 75
96 124 74
98 126 76
95 123 74
97 125 75
95 122 73
93 120 71
96 124 74
96 123 74
98 126 75
93 120 71
97 124 74
98 125 75
94 122 73
101 128 81
130 150 127
134 154 131
139 158 137
151 168 158
163 177 170
165 179 173
178 190 189
197 207 214
202 212 221
208 217 226
151 167 154
97 125 75
95 123 74
97 125 75
95 122 73
94 121 72
97 125 75
97 124 74
97 124 75
96 123 73
97 124 75
97 124 74
98 126 77
97 125 75
93 121 72
95 122 73
94 121 73
101 129 77
97 125 75
97 124 75
100 128 77
97 124 75
98 125 75
94 121 72
96 123 74
98 126 76
100 127 76
104 130 87
196 207 210
203 213 221
206 216 226
204 214 222
207 216 225
202 213 222
201 212 221
210 219 228
205 215 225
202 211 218
202 212 219
206 216 225
206 216 226
209 219 228
198 208 215
205 215 223
206 215 224
205 215 224
208 218 228
205 215 223
205 215 224
211 220 231
208 219 230
204 214 224
210 219 229
211 220 229
178 190 188
98 126 76
92 118 70
99 127 76
99 127 76
97 125 75
97 125 75
96 124 74
97 125 76
96 123 74
96 123 73
99 126 76
96 123 74
94 121 73
97 124 74
93 120 71
98 126 75
99 127 77
100 128 77
100 128 77
95 123 74
96 123 74
97 124 75
95 122 73
99 127 76
98 125 74
178 190 190
204 213 221
205 215 224
204 213 223
211 220 231
209 217 226
207 216 222
207 217 226
206 216 226
207 217 226
210 219 227
202 213 222
205 215 222
202 212 220
202 212 219
198 209 217
206 215 225
209 218 227
200 209 215
202 213 220
203 213 221
202 213 222
209 219 230
202 212 220
184 197 199
95 122 73
100 128 76
93 121 73
94 122 73
114 137 104
130 149 124
142 160 139
150 167 155
158 174 166
184 196 196
174 187 184
202 212 217
197 207 213
198 209 216
201 211 220
200 211 220
204 214 220
206 215 222
204 214 223
203 213 222
207 216 223
211 220 230
192 203 206
98 125 77
95 122 73
97 124 74
96 123 73
95 123 74
96 123 74
98 125 75
96 123 74
97 125 76
99 127 76
96 124 74
98 125 78
203 213 221
205 215 225
199 209 217
204 215 226
201 212 220
203 212 219
205 215 223
203 212 220
201 211 217
205 215 225
208 218 228
206 216 224
207 217 226
203 213 222
190 202 207
155 171 157
100 126 81
97 124 74
95 123 74
99 127 75
98 125 75
98 125 75
96 124 74
95 122 73
99 126 76
100 127 76
95 122 74
182 194 193
197 208 216
196 207 214
208 217 224
203 212 219
208 217 227
210 219 228
215 224 234
202 212 222
196 207 214
200 210 216
207 217 227
200 211 220
212 220 229
202 213 222
199 209 217
211 220 229
204 214 224
203 213 222
209 218 227
211 221 233
205 215 225
206 216 226
206 216 226
205 214 224
201 211 220
204 214 223
205 215 223
170 185 178
95 123 73
101 129 78
92 119 71
96 123 74
97 124 75
96 123 75
100 127 77
130 151 125
160 175 165
192 203 207
207 217 228
204 215 224
205 215 225
207 217 226
205 216 225
211 219 227
205 214 221
204 214 223
206 215 223
203 214 224
202 212 220
202 211 219
202 212 220
214 222 232
202 212 221
202 212 222
200 211 218
208 218 228
172 185 182
98 126 75
97 125 75
91 119 71
95 123 73
95 123 73
96 123 73
99 127 77
96 124 74
98 126 76
97 125 75
94 121 72
96 123 74
97 124 74
96 124 74
92 119 71
96 123 74
95 123 74
95 122 72
94 121 72
97 124 74
94 121 72
97 124 74
93 120 71
96 125 75
97 124 75
94 121 73
97 125 76
98 125 75
118 139 108
208 218 230
206 216 227
202 211 218
211 220 232
213 223 234
204 213 221
208 218 226
209 218 227
211 221 233
204 215 224
207 217 227
208 218 227
197 208 218
199 209 217
206 216 226
207 216 226
209 219 231
202 212 220
179 192 193
151 168 156
122 143 116
97 124 75
97 125 75
97 125 75
97 124 74
100 127 77
95 123 73
98 126 76
94 121 73
158 174 163
204 214 223
207 217 226
204 214 223
199 210 217
210 219 228
206 215 224
208 217 227
204 215 224
202 212 219
203 213 220
199 210 219
201 211 218
207 218 228
204 215 225
202 213 223
199 210 219
209 218 227
205 216 226
201 211 218
208 218 228
208 217 227
201 210 217
208 217 226
198 209 215
208 217 227
206 216 226
204 214 223
201 212 221
201 211 220
121 143 110
95 122 73
92 119 71
97 125 75
93 120 72
97 125 76
96 123 74
98 126 75
96 124 74
96 124 75
97 125 75
96 123 73
95 123 74
98 126 76
97 125 75
96 123 74
96 124 74
94 122 74
95 122 73
95 122 73
95 122 73
94 122 73
98 126 75
94 121 72
96 123 74
97 125 76
95 123 74
95 122 73
100 127 76
160 176 166
206 215 223
208 219 230
208 218 227
206 215 222
206 216 224
202 213 222
205 214 221
201 211 220
209 218 225
204 213 223
205 216 226
203 214 224
203 213 223
205 216 226
209 219 230
206 215 222
209 218 225
211 220 231
208 218 226
209 217 226
200 210 218
202 212 220
204 214 223
209 219 229
203 213 221
204 215 225
209 217 226
206 215 224
167 181 174
93 120 72
94 122 73
96 123 74
98 126 76
93 120 71
94 121 72
97 125 76
94 121 73
95 122 73
96 123 74
97 124 75
99 126 76
93 120 71
95 123 74
97 124 74
99 127 77
95 122 73
95 123 74
97 124 74
91 118 70
98 125 74
97 125 75
96 124 75
96 123 75
95 122 73
99 126 76
94 122 73
131 151 127
189 200 204
196 207 212
169 183 177
168 182 177
167 182 177
154 169 160
142 160 142
134 154 131
119 141 108
116 139 107
107 131 92
95 121 74
99 126 75
99 126 75
99 127 77
97 125 75
94 121 73
94 121 73
96 124 74
96 123 73
96 123 74
100 128 77
96 123 74
95 122 73
99 127 76
95 122 73
97 125 75
163 178 170
209 218 226
199 209 214
209 218 227
205 215 225
204 214 221
203 213 222
216 224 233
199 210 218
204 214 221
210 220 230
203 213 222
202 212 221
204 214 222
203 213 221
211 221 231
200 211 221
211 221 231
201 211 219
197 209 218
205 215 223
200 210 217
202 213 221
199 210 220
207 217 226
210 219 229
204 214 222
128 147 121
98 125 76
96 124 75
95 123 73
98 125 75
100 128 77
98 126 76
95 122 73
96 123 74
96 123 74
96 123 73
97 124 74
99 127 77
98 126 75
95 122 73
94 121 73
100 128 77
97 125 75
96 123 74
95 123 74
96 124 74
100 127 76
94 122 73
96 123 74
94 121 73
125 146 118
205 216 227
211 220 228
205 215 225
203 213 221
206 216 226
205 215 224
202 212 220
205 215 225
206 217 227
203 213 221
211 220 231
207 217 227
209 218 227
204 214 222
199 210 218
204 214 223
202 212 221
205 214 220
182 194 196
183 196 197
177 190 186
176 189 188
160 176 165
165 180 171
180 192 190
180 193 194
189 200 201
202 211 216
206 216 225
203 213 222
200 210 218
209 219 229
199 209 218
209 219 228
205 215 224
204 215 225
199 209 217
208 218 227
203 214 224
205 215 225
207 216 223
210 219 228
206 215 225
206 216 225
206 215 223
211 221 233
201 213 223
116 140 107
96 124 74
100 128 78
95 122 72
97 125 75
96 124 74
97 125 76
94 121 73
95 122 74
99 127 77
96 124 74
96 123 74
96 123 73
204 214 222
201 211 219
203 214 224
205 215 225
207 216 225
208 218 229
205 215 223
199 209 217
207 217 227
202 211 219
199 210 219
207 215 223
204 215 226
211 220 231
207 217 228
200 211 219
203 214 223
178 191 187
127 148 124
97 124 74
95 122 73
95 123 74
97 124 74
97 125 75
99 126 75
96 123 73
96 123 74
165 180 176
205 214 222
205 215 223
205 214 220
206 216 224
206 215 223
207 217 227
203 212 220
205 215 224
211 221 231
209 218 226
200 211 220
204 214 223
212 221 231
202 211 218
205 214 222
198 207 215
203 214 223
201 212 223
208 217 227
204 214 222
201 211 218
202 213 221
199 209 216
199 210 220
200 210 217
211 220 230
207 216 225
171 185 180
97 124 74
97 124 74
96 124 74
94 122 73
96 123 74
96 123 73
99 127 76
99 127 76
99 126 75
97 125 76
128 147 123
167 180 174
197 208 214
209 218 228
209 218 228
205 214 221
212 220 229
209 219 229
202 213 222
205 215 224
210 219 228
205 214 222
211 221 232
210 219 230
203 213 221
210 220 230
209 218 228
208 216 225
144 161 148
93 120 71
94 121 72
97 124 75
98 125 75
95 122 73
92 119 71
95 122 74
97 124 75
92 119 71
97 124 75
98 126 76
98 125 76
94 121 72
95 123 74
97 125 75
96 123 73
98 125 76
95 122 73
97 125 75
99 126 76
95 123 74
94 121 72
100 127 77
93 121 72
96 124 75
97 124 74
99 126 75
97 125 75
120 141 114
203 213 221
200 210 219
211 220 230
209 218 227
204 214 223
203 213 222
199 209 216
202 212 222
204 213 221
205 215 224
203 213 221
201 210 217
205 215 225
207 216 224
210 219 230
199 210 218
208 218 228
204 214 223
203 212 221
208 216 224
210 219 228
194 205 211
185 197 197
145 162 146
122 144 116
100 128 77
91 117 70
98 125 75
96 123 73
175 188 186
205 214 221
199 209 215
205 215 224
203 214 224
200 210 220
203 213 221
207 217 227
197 208 216
206 216 225
203 212 220
205 215 223
205 214 222
203 214 223
199 210 218
210 220 230
202 212 221
207 217 227
200 210 217
201 210 218
201 211 219
206 216 226
208 217 226
196 206 211
207 216 225
200 210 218
205 214 223
202 212 220
208 217 226
191 203 207
95 122 73
97 124 74
98 126 76
94 121 72
93 121 72
94 121 72
97 124 74
97 125 75
100 128 76
98 125 75
95 122 73
96 123 74
98 126 76
95 122 73
98 125 75
95 123 74
97 125 75
97 124 74
96 123 74
92 119 71
94 122 73
98 126 75
97 124 75
97 125 75
98 125 75
97 125 75
98 126 76
96 124 74
97 124 75
182 193 193
202 212 221
210 219 228
203 214 225
203 214 223
203 213 221
207 217 227
203 213 220
207 216 224
207 217 225
203 213 222
206 215 224
203 214 223
205 214 224
204 214 222
197 208 214
203 212 219
212 221 231
205 215 224
204 213 220
201 211 219
208 218 228
209 219 228
201 212 221
211 220 227
207 217 226
207 216 225
203 213 221
205 215 225
115 138 104
95 123 73
96 123 74
93 120 71
96 124 75
95 122 74
99 127 76
94 121 72
94 121 72
97 124 75
96 123 74
99 126 75
96 123 74
96 123 73
96 123 74
99 126 76
98 125 75
94 121 72
97 125 74
93 120 72
97 124 74
95 123 74
99 127 77
98 126 76
94 121 72
98 125 75
98 126 76
93 121 72
169 183 176
209 218 226
209 219 228
206 216 226
207 217 226
205 215 222
207 216 225
203 213 222
206 216 225
204 215 225
203 212 220
211 220 231
212 221 231
193 204 210
187 199 200
192 204 210
192 203 206
175 189 189
165 180 172
156 172 162
152 168 160
148 164 151
129 148 127
142 160 143
136 155 135
128 149 123
117 140 110
120 142 109
196 206 211
205 215 221
205 215 224
205 214 221
208 217 227
204 213 223
200 210 219
205 215 225
209 219 229
204 214 223
201 211 221
205 215 226
202 212 220
205 215 224
209 218 227
205 215 223
208 217 226
206 216 226
204 214 223
201 211 219
205 216 227
199 210 217
205 215 224
207 216 224
203 213 221
209 218 229
166 181 176
96 123 74
98 125 75
100 128 77
95 123 74
100 128 77
97 124 74
98 126 76
95 122 73
95 122 72
96 123 73
99 126 76
97 124 73
95 121 72
92 119 71
98 125 75
96 123 74
95 122 74
96 124 75
96 123 73
99 126 76
96 124 75
99 126 76
93 120 72
96 124 75
99 126 77
186 198 201
204 214 221
196 207 213
191 203 208
200 210 215
183 195 197
166 180 175
180 193 191
160 176 169
148 165 151
151 168 156
145 163 146
137 157 137
148 165 151
129 149 123
117 140 107
105 129 89
95 123 74
97 124 74
99 127 77
96 123 74
97 125 74
95 123 74
96 123 73
165 179 174
204 214 223
202 212 219
203 213 223
205 215 224
214 223 233
199 209 217
203 213 223
210 219 228
205 215 224
205 215 223
203 213 222
209 218 228
211 220 229
201 211 220
212 222 233
201 212 221
206 215 224
210 220 230
207 217 228
208 218 229
211 220 230
214 223 232
147 164 149
92 118 71
99 127 77
97 125 75
94 122 73
95 122 72
93 121 72
97 125 75
95 122 73
97 124 74
97 124 74
98 125 75
95 122 73
92 119 71
187 198 200
207 216 225
206 216 225
199 210 220
205 214 220
202 213 222
202 213 223
204 214 223
205 215 223
206 215 225
199 209 215
211 220 228
210 219 229
203 213 221
206 216 225
208 218 228
201 211 219
208 217 227
206 216 227
187 198 200
158 173 163
101 125 82
94 122 73
95 122 72
97 125 74
100 127 76
96 124 75
169 183 178
209 218 229
207 215 223
208 218 229
204 214 224
206 216 224
199 209 218
195 206 213
202 211 220
203 214 223
197 208 216
208 217 227
204 214 223
206 216 225
204 214 221
201 212 222
208 219 232
209 217 227
206 216 226
203 213 222
205 215 224
199 210 217
209 219 228
207 216 225
206 216 226
207 217 228
201 211 220
207 217 226
155 170 160
96 122 72
97 124 75
97 124 74
95 122 72
96 123 73
97 125 76
96 123 74
97 124 74
97 124 75
92 119 71
96 123 74
99 126 76
98 125 77
141 158 139
162 177 169
197 208 213
203 213 220
194 204 211
206 216 226
204 214 223
207 217 226
204 215 225
208 218 227
200 210 217
214 222 231
195 207 215
205 215 223
208 217 225
160 174 166
94 121 72
96 124 75
97 125 75
97 124 74
96 123 74
95 122 73
94 121 72
95 122 73
93 120 73
96 124 74
97 125 75
97 124 75
94 121 72
96 123 74
97 125 75
96 123 74
91 117 69
95 122 73
96 123 74
95 122 73
94 121 72
97 124 74
95 122 73
95 123 74
96 123 73
99 127 77
100 127 77
97 124 74
134 153 128
210 218 225
200 210 219
199 210 219
198 208 215
208 218 228
204 214 221
208 217 226
205 214 222
205 215 223
201 211 219
208 217 225
206 216 224
207 217 226
208 217 226
204 214 224
208 217 227
204 213 220
207 216 225
206 216 226
207 216 223
203 213 222
213 222 232
204 214 222
205 214 222
209 218 228
202 212 219
159 174 168
153 169 157
126 147 118
200 211 217
207 217 227
209 218 228
206 217 228
205 215 224
212 221 231
206 216 226
210 219 230
208 218 227
211 221 231
205 215 224
203 214 225
198 209 215
206 216 226
208 217 225
205 215 223
208 217 226
203 214 223
210 220 230
199 209 216
208 217 226
204 214 222
205 215 225
210 219 229
204 214 223
199 210 219
206 215 224
204 215 226
205 215 223
170 184 178
95 123 73
93 120 72
94 121 72
95 122 74
96 123 74
94 121 72
98 126 75
94 121 72
96 124 74
93 120 71
93 120 71
97 125 75
97 124 75
94 122 73
96 124 74
95 122 74
94 121 72
96 123 74
93 121 72
100 128 77
96 123 74
95 122 73
96 124 75
98 125 75
97 125 75
95 122 74
97 124 75
99 127 76
111 134 99
203 213 222
203 214 223
206 215 224
201 211 219
199 209 217
208 218 228
204 214 221
203 213 221
204 214 224
202 213 222
206 216 225
212 221 232
206 215 225
209 218 226
200 210 218
210 218 226
201 211 218
205 215 224
201 212 220
205 216 227
212 221 231
210 220 230
206 216 227
205 214 222
207 216 226
207 217 225
212 220 228
205 214 222
190 201 202
97 124 75
95 122 73
93 120 72
94 122 73
97 125 75
96 124 74
97 124 74
95 123 74
93 121 72
92 120 72
99 126 76
94 121 73
100 127 76
97 125 75
95 123 73
94 122 73
96 124 74
95 123 73
92 120 71
96 123 74
96 123 74
99 127 76
95 122 73
93 121 73
95 123 74
98 126 76
98 125 74
103 129 89
202 212 217
209 218 227
209 218 229
208 218 226
206 215 224
200 210 217
203 214 223
207 217 226
208 217 226
210 219 229
202 212 219
202 213 222
209 218 227
206 216 227
207 216 224
197 207 213
208 217 225
206 216 225
203 213 222
203 212 220
208 218 227
197 208 216
204 214 222
207 217 226
208 217 227
206 215 224
206 215 223
157 173 164
97 125 75
91 118 70
99 126 78
106 131 88
115 137 104
111 134 98
119 141 112
131 150 126
134 152 131
144 162 147
140 158 139
138 156 140
147 164 151
145 162 146
151 168 154
142 160 144
151 168 153
156 172 159
151 168 155
140 158 142
158 174 167
164 180 174
156 172 160
157 173 165
165 180 173
170 183 178
158 174 168
163 177 170
160 175 168
163 177 171
172 185 180
164 178 170
166 180 174
165 180 173
163 178 168
158 173 162
163 179 174
159 175 168
174 187 185
172 186 180
174 187 184
186 198 198
177 190 191
176 189 187
168 182 177
192 203 208
195 205 207
193 204 207
200 210 215
189 200 203
201 212 220
155 171 161
100 127 76
94 122 73
96 124 75
96 123 74
97 124 74
97 125 75
98 126 76
94 122 73
94 121 72
100 128 77
95 123 73
93 120 72
95 122 73
98 125 75
94 122 72
95 123 74
96 123 74
93 121 73
95 122 73
96 123 74
97 125 75
97 125 75
94 122 73
137 156 135
208 217 226
204 214 223
208 218 228
205 215 223
205 215 224
199 210 217
209 218 228
209 218 227
205 215 224
200 211 219
200 211 219
197 208 214
205 214 223
208 217 224
205 215 224
209 218 226
202 212 222
204 214 224
208 217 227
206 216 227
202 212 220
212 221 230
179 191 190
97 124 74
97 124 74
98 125 75
95 122 73
95 122 73
93 120 72
97 124 74
96 124 74
94 122 73
97 124 74
95 122 73
93 119 71
92 119 71
97 125 75
178 191 191
202 213 222
203 212 219
196 208 216
205 215 225
195 205 209
206 216 226
212 221 232
206 216 225
200 211 221
204 215 225
203 214 223
198 208 215
207 217 226
207 216 225
210 219 229
204 213 220
208 217 225
203 212 219
206 215 224
207 218 228
191 202 207
175 188 186
122 143 116
96 123 74
97 125 75
95 122 73
153 169 156
199 210 218
206 216 224
209 218 228
203 213 221
206 216 225
204 214 224
200 210 219
196 207 215
200 210 218
199 209 217
205 216 226
206 217 228
207 217 227
195 206 215
203 213 222
199 210 218
200 210 216
200 211 219
201 212 222
197 208 215
207 216 226
202 212 222
203 213 221
204 214 223
204 214 223
202 212 221
202 212 220
177 190 188
94 122 73
97 124 75
94 121 72
95 122 73
97 125 75
98 126 76
97 124 74
97 124 75
98 125 75
96 124 74
96 124 75
96 123 73
93 120 71
95 122 73
97 125 75
94 121 75
139 158 136
170 184 182
197 208 212
209 218 226
206 217 228
206 216 223
210 219 229
208 218 230
197 209 218
193 203 211
213 223 234
200 210 217
144 162 145
91 118 71
98 126 76
97 125 75
95 122 73
99 127 77
96 123 74
95 123 73
99 127 76
97 124 74
97 125 76
92 120 71
95 123 73
99 127 76
93 120 72
98 125 74
93 121 72
96 123 74
94 122 73
98 126 75
97 124 75
94 121 72
98 125 75
98 126 75
94 122 73
101 128 77
93 121 72
96 124 74
95 122 73
157 173 163
207 217 227
202 212 221
207 217 225
207 216 226
207 216 224
201 211 219
204 214 224
202 212 219
201 212 222
209 219 230
202 212 220
202 213 221
205 215 224
211 220 229
207 216 225
206 217 227
198 208 217
203 213 222
197 208 216
212 221 229
201 212 222
208 217 225
212 220 230
212 221 232
201 211 218
210 220 229
200 211 222
202 212 220
195 206 212
111 136 97
137 155 136
167 182 177
202 212 219
204 214 224
203 212 219
199 210 220
204 214 223
205 215 224
206 217 228
210 220 230
206 216 227
209 219 229
209 220 231
210 219 229
210 219 227
199 210 218
201 212 221
205 215 224
205 215 225
206 216 225
206 216 224
204 215 226
208 219 232
208 217 226
210 219 228
203 214 222
207 217 228
204 214 222
134 153 134
97 124 74
92 119 71
95 122 74
95 122 73
95 123 73
97 125 75
96 123 74
96 123 74
93 120 71
98 125 76
97 124 74
97 124 75
97 124 74
95 123 73
95 123 74
96 123 73
94 121 72
98 126 76
94 121 73
96 123 74
95 122 74
95 123 73
96 123 73
96 123 73
96 123 74
96 123 73
95 123 74
96 124 74
143 161 145
197 208 214
203 213 222
200 211 219
204 213 220
204 214 225
205 215 224
210 219 230
204 214 223
204 214 222
208 218 228
210 220 231
199 209 217
210 219 228
203 214 224
211 220 229
204 214 222
198 209 217
206 215 223
208 217 227
206 216 225
202 211 219
206 216 225
201 211 218
213 222 232
197 207 213
211 220 229
201 212 222
204 213 221
160 175 166
99 126 75
98 125 75
97 124 74
97 124 75
98 125 75
96 123 73
97 124 74
97 124 74
98 126 75
94 121 72
97 125 75
95 123 74
92 119 71
93 120 72
96 123 73
98 126 76
97 124 75
97 125 76
93 120 72
95 122 73
96 123 74
96 124 75
95 123 74
94 121 73
95 122 73
96 124 74
96 123 73
148 165 151
199 210 220
202 213 221
201 211 219
208 217 226
212 220 229
208 217 226
206 216 224
209 218 227
201 211 219
204 214 223
206 215 224
211 220 228
202 213 222
203 213 221
208 217 225
204 214 223
207 216 225
205 214 223
204 214 223
202 212 220
208 217 225
205 214 223
208 218 229
202 212 218
207 217 227
205 215 224
198 208 214
109 133 93
95 123 74
100 127 76
97 125 75
94 121 73
92 118 70
97 124 74
95 123 74
95 123 74
98 125 75
96 123 74
95 122 73
94 121 72
95 122 73
96 124 74
93 120 71
92 119 72
96 123 74
96 123 74
94 121 72
97 125 76
97 125 75
97 125 75
98 126 75
95 122 73
96 123 74
161 176 170
199 210 217
205 214 222
207 217 226
201 211 220
210 219 229
202 212 220
211 220 230
208 217 226
203 213 220
205 215 224
206 216 227
201 212 220
201 211 222
210 220 231
205 215 224
207 216 226
207 216 224
203 212 220
208 217 227
199 208 216
203 213 221
206 216 224
197 207 213
207 216 226
194 206 213
98 125 80
97 125 75
95 122 73
94 121 72
93 120 71
95 122 73
95 123 74
96 123 74
94 121 73
95 122 73
96 123 74
96 124 75
95 123 73
97 124 75
93 120 72
94 121 73
97 125 75
98 126 76
98 125 75
93 120 72
97 125 75
96 124 75
99 127 76
109 134 94
183 195 198
207 216 224
208 217 227
205 215 223
205 215 224
206 216 225
202 212 219
202 212 220
202 212 221
205 215 225
201 211 217
202 212 220
202 211 219
202 211 218
208 217 226
209 218 227
208 217 225
208 217 227
204 214 223
197 208 217
200 210 217
208 217 227
192 203 208
110 134 96
98 126 75
97 124 74
94 121 72
95 122 74
96 123 73
99 127 77
98 125 76
96 124 74
95 122 73
96 123 74
94 121 72
93 121 72
95 123 73
96 123 74
156 172 161
199 209 218
203 213 221
208 217 226
202 211 218
205 214 224
205 214 223
198 209 217
207 215 223
210 219 227
199 210 218
194 205 213
204 213 222
203 213 223
204 214 224
198 209 216
206 216 226
203 214 224
205 216 226
204 215 225
199 210 219
209 218 228
195 206 213
200 210 216
189 201 206
148 164 150
105 130 92
140 159 142
198 208 214
202 213 221
207 216 226
196 207 214
202 212 219
202 212 220
200 210 219
207 216 224
203 212 221
210 219 228
206 216 225
206 215 223
205 215 226
207 217 228
205 214 223
206 215 224
204 214 225
201 211 216
198 208 216
207 216 225
206 216 226
207 217 228
203 213 222
208 218 227
201 211 218
200 210 218
204 214 223
178 191 191
97 125 75
95 122 74
93 120 71
92 120 71
93 120 71
95 122 74
96 123 74
97 124 74
97 124 75
97 125 76
94 121 72
98 126 76
98 125 75
96 124 75
97 124 75
96 124 74
97 125 75
96 123 74
96 123 74
135 154 132
175 188 184
201 212 219
205 214 223
206 215 222
205 216 225
206 216 226
204 213 222
202 213 223
126 147 120
98 125 75
94 121 73
93 120 71
91 118 70
94 121 73
96 123 74
96 124 74
95 122 73
94 121 72
97 124 74
96 123 74
98 125 75
95 122 73
96 123 73
96 123 73
94 122 73
97 124 75
97 125 75
93 120 72
99 126 76
98 125 75
97 124 74
97 125 75
98 125 75
94 121 73
98 126 76
98 126 76
96 123 74
169 182 178
201 211 219
205 215 224
204 214 222
200 211 222
201 212 222
205 214 222
199 209 216
201 211 219
209 219 228
203 213 222
205 215 225
208 218 228
206 215 225
208 217 225
200 210 218
204 214 222
206 217 226
208 218 227
202 212 223
208 218 230
199 210 217
212 220 229
198 208 215
209 219 229
208 217 225
204 214 224
196 206 211
205 215 223
181 193 193
94 121 72
92 119 71
97 124 74
97 124 74
102 127 85
135 153 136
166 180 177
181 194 196
203 213 223
198 208 215
202 212 222
207 216 223
204 214 224
205 214 223
201 210 218
209 218 226
207 217 225
201 212 220
205 214 223
205 215 224
204 214 222
209 219 229
210 219 228
205 215 225
216 225 235
196 207 213
202 213 222
202 212 220
204 215 223
127 148 119
97 124 74
95 123 74
97 125 75
96 123 74
95 122 73
97 125 74
95 123 74
97 125 75
97 124 74
93 120 72
96 123 74
94 121 72
95 122 73
95 122 73
97 125 76
94 122 73
99 126 76
95 122 73
96 123 73
99 126 75
97 124 74
95 122 73
94 122 73
97 125 75
96 123 73
94 121 72
96 123 73
96 123 73
180 193 193
206 215 224
203 213 223
200 211 219
208 218 227
205 215 224
205 215 222
210 220 231
202 212 219
200 210 218
207 217 225
203 213 221
204 214 221
209 219 228
203 213 222
207 217 228
204 215 224
209 218 227
205 215 224
207 217 227
206 215 223
207 217 228
197 207 215
210 219 231
209 218 226
207 217 226
204 213 223
200 211 220
197 207 214
101 126 85
98 125 76
96 123 74
96 124 74
98 126 75
96 123 73
96 123 74
97 125 74
97 124 74
96 123 74
97 124 75
96 123 74
93 120 72
95 123 74
97 124 74
96 123 74
96 123 74
94 121 73
96 123 73
94 121 72
98 126 75
94 121 72
95 122 73
94 122 73
96 123 74
98 125 75
98 126 76
97 124 75
183 196 199
209 218 229
208 218 228
204 214 223
200 211 220
200 210 218
204 214 225
202 213 222
205 215 224
205 215 223
203 213 220
209 218 227
201 211 220
206 216 225
208 217 227
211 220 231
196 207 216
198 209 217
207 216 226
211 220 231
209 218 226
203 213 221
205 216 227
210 218 226
199 210 220
198 208 216
210 219 228
158 174 166
91 119 71
95 122 73
96 124 74
93 121 73
96 123 74
97 124 75
94 122 74
98 125 75
89 116 68
99 126 75
95 122 73
96 123 73
93 120 71
95 122 73
97 125 75
95 122 73
98 126 75
96 123 74
96 123 74
94 122 73
92 119 71
95 122 73
93 120 72
96 123 74
95 122 73
110 135 95
191 203 207
209 219 228
204 214 223
196 206 212
199 209 218
203 213 222
207 216 223
206 215 222
200 211 219
212 221 232
203 213 222
200 210 217
200 211 221
208 217 225
195 206 211
204 214 224
203 213 220
206 217 229
204 214 222
211 220 230
206 215 225
209 218 227
203 212 220
214 223 233
203 213 222
142 159 144
96 124 75
99 127 77
97 124 74
97 124 74
96 123 74
93 121 72
96 123 74
97 125 74
98 126 75
99 126 76
94 122 73
98 125 75
96 123 73
98 125 75
96 123 73
94 121 72
93 120 72
94 121 72
93 120 72
96 123 74
97 125 75
97 124 74
97 125 76
166 181 173
205 215 225
203 214 222
204 214 223
215 224 233
198 209 218
201 211 220
208 217 227
206 216 226
205 214 223
205 215 225
208 217 225
208 217 227
205 215 224
204 214 221
208 217 225
204 213 220
204 215 224
207 216 226
209 218 227
203 212 221
211 220 230
200 210 218
136 155 135
95 123 74
96 124 74
96 122 72
95 122 73
98 125 75
96 123 74
96 123 74
96 123 74
95 123 74
96 123 74
94 121 73
95 122 73
96 123 73
94 121 72
97 125 75
125 147 117
197 208 216
202 213 221
209 218 228
198 208 216
208 217 227
201 212 220
206 215 224
202 212 221
212 221 233
212 221 230
205 215 222
195 206 214
205 215 224
208 218 228
208 218 228
206 215 225
200 211 221
202 213 224
198 208 216
209 219 230
206 216 226
203 213 223
205 214 223
208 217 224
203 214 223
201 211 217
186 197 199
190 202 204
209 218 226
205 215 226
204 213 219
206 217 227
205 215 224
203 213 222
198 209 219
208 218 228
206 215 224
208 218 227
206 216 223
197 207 213
201 211 218
205 215 226
196 207 214
210 220 229
204 215 224
213 222 232
209 218 226
200 211 221
197 207 215
202 213 223
197 208 216
195 207 214
203 214 223
202 212 221
185 198 197
94 121 72
94 122 73
98 125 75
94 121 72
99 127 77
95 123 73
97 124 75
98 126 76
94 121 73
94 122 72
96 124 75
97 124 75
98 125 74
98 126 75
96 123 73
96 124 74
91 118 70
95 122 73
97 124 74
95 122 73
96 123 73
99 126 81
126 147 123
163 178 169
201 212 222
206 216 225
205 215 224
200 211 221
122 144 115
96 122 73
97 124 74
96 123 74
96 123 74
96 124 75
96 123 74
95 123 74
96 123 73
98 126 76
99 127 76
97 125 75
96 124 75
95 123 74
93 120 72
95 123 73
93 120 71
101 129 78
98 126 76
96 123 74
93 121 72
97 125 75
97 125 75
96 123 74
96 124 74
99 127 77
98 127 77
96 123 74
95 123 73
176 190 187
206 215 224
205 214 222
207 216 226
204 214 221
203 213 221
203 213 221
202 212 221
203 213 224
209 218 228
203 212 219
206 216 225
200 210 217
202 213 223
205 215 225
202 212 220
210 219 228
207 217 227
209 219 228
197 207 214
208 217 225
201 211 221
201 211 220
197 207 214
203 212 219
200 211 219
211 220 231
210 219 229
206 215 223
172 185 182
93 120 72
98 126 75
95 123 74
98 125 75
96 123 73
99 127 77
95 122 74
98 126 76
106 131 88
133 152 131
150 165 153
177 190 188
198 209 218
210 219 227
205 215 224
206 216 227
210 219 227
203 213 224
208 218 227
205 214 223
195 206 213
207 217 227
204 214 224
204 214 223
204 214 220
204 214 223
202 212 219
206 215 223
191 202 207
92 119 70
94 121 72
95 122 73
93 121 72
97 124 75
98 126 76
96 124 75
97 124 75
102 130 78
94 121 73
96 124 74
98 125 75
97 124 74
94 121 72
98 125 75
97 124 74
98 125 75
94 122 73
96 123 73
96 123 73
95 122 73
97 124 74
93 121 73
99 126 76
98 125 75
97 124 74
95 122 73
96 124 74
107 131 96
200 210 217
209 218 227
211 220 230
204 214 222
205 215 225
202 212 220
199 210 218
205 214 220
205 215 225
195 206 214
208 218 228
207 217 227
191 203 211
206 216 226
206 216 225
206 215 224
201 211 220
201 212 220
201 212 222
204 214 224
201 211 220
208 217 227
208 217 225
205 215 223
206 215 223
192 203 211
204 213 220
204 214 222
173 187 185
96 123 74
98 126 76
98 125 74
96 123 74
98 125 76
96 123 74
93 120 72
93 120 71
97 125 75
95 122 73
99 127 77
96 124 75
94 121 73
96 124 75
96 124 75
99 127 76
92 119 72
97 124 74
99 127 76
98 125 75
97 124 75
97 125 75
98 125 75
96 123 74
92 119 71
94 121 72
97 124 75
136 155 133
208 217 225
211 219 228
199 210 217
195 205 212
205 215 225
204 214 223
200 211 220
208 218 227
198 209 216
209 219 230
203 214 224
198 208 215
203 213 222
203 213 221
197 208 215
203 213 224
197 208 216
203 214 224
208 218 228
195 206 214
211 221 232
200 209 218
196 208 215
204 215 225
202 213 222
205 215 225
190 202 208
122 144 111
95 122 73
95 123 74
93 120 71
97 124 74
97 125 76
101 128 77
96 124 75
95 122 73
93 120 72
98 125 75
94 122 73
98 126 75
99 126 75
97 124 74
95 123 73
95 122 73
95 123 74
95 122 73
95 123 73
98 126 76
98 125 75
97 124 74
97 124 75
94 121 73
97 124 74
175 188 184
207 216 225
196 206 214
203 213 223
207 216 225
202 211 219
208 217 226
209 217 225
199 210 219
201 211 219
198 209 218
204 214 224
209 218 228
211 220 229
199 209 215
205 216 226
203 213 221
202 212 220
204 214 223
198 209 217
207 217 227
203 214 223
207 217 227
208 217 225
207 217 227
190 202 206
99 127 76
99 127 76
97 124 75
93 119 71
99 127 77
94 121 72
95 123 74
93 121 72
95 123 75
93 120 72
94 122 72
99 127 76
94 122 73
93 120 72
95 122 73
93 120 71
96 123 74
94 121 72
95 123 73
92 119 71
96 124 74
95 122 73
99 127 77
142 160 142
203 213 223
206 217 227
208 218 228
199 210 220
192 203 209
199 209 215
204 214 224
205 215 226
209 219 228
201 211 220
208 217 226
203 213 220
205 215 223
210 219 228
199 209 216
202 212 221
208 217 227
207 215 223
208 218 230
211 220 231
206 216 224
202 212 222
161 176 167
97 125 75
96 124 74
96 124 74
97 124 74
97 125 75
97 125 76
96 123 74
98 126 76
97 125 75
97 125 75
95 122 74
96 123 73
98 126 76
94 122 74
95 123 74
92 119 72
115 138 109
208 217 227
199 210 219
212 221 231
206 215 225
207 217 229
202 213 222
198 208 217
202 212 219
204 214 224
207 217 225
202 212 219
206 215 223
194 205 213
204 214 222
193 203 210
199 209 218
210 219 230
209 218 226
211 220 228
209 218 227
205 214 223
215 224 237
202 212 221
202 212 220
201 211 220
207 218 229
175 188 186
97 124 74
123 145 116
161 176 166
195 206 213
201 211 219
204 214 223
205 215 224
202 212 221
198 209 215
205 215 222
205 215 225
210 219 228
201 211 218
208 217 226
202 213 223
205 216 227
199 208 215
199 209 216
197 207 216
204 214 223
203 214 222
206 215 223
207 216 225
206 216 224
204 214 222
205 215 225
203 214 223
170 184 180
99 127 76
95 123 74
97 124 74
94 122 73
99 126 76
96 123 74
96 124 75
95 122 74
95 123 74
99 127 77
96 124 74
96 123 74
100 128 78
97 125 76
97 125 75
98 126 76
93 120 72
95 122 73
93 120 72
98 126 75
95 122 73
95 123 73
97 124 74
97 125 74
98 126 75
125 146 121
160 175 167
200 211 219
114 137 101
95 122 73
96 124 74
95 122 73
97 124 74
97 125 75
95 122 73
93 121 72
96 123 74
96 123 74
99 127 76
93 120 72
98 125 76
97 125 74
98 125 75
97 124 74
94 121 73
97 125 75
97 124 73
100 128 77
96 124 74
99 126 76
100 127 76
92 119 71
92 119 71
95 123 74
95 122 73
95 123 73
93 121 72
193 204 208
202 213 221
202 213 222
213 222 231
204 214 221
207 216 224
206 215 222
201 211 221
201 212 220
207 217 228
201 210 216
206 216 225
200 210 216
202 213 221
205 214 222
202 212 220
199 210 218
207 216 225
200 210 216
202 213 221
198 209 216
198 209 218
204 215 224
206 216 228
200 210 221
199 210 219
204 214 223
207 217 227
203 213 223
148 166 153
97 125 75
95 122 73
93 120 71
100 128 77
98 126 76
96 124 74
97 124 74
93 120 71
94 122 73
94 121 72
98 126 75
96 124 74
98 125 75
125 146 123
146 163 148
166 179 176
190 201 205
207 217 226
206 215 224
205 214 221
207 215 222
203 214 224
204 213 222
209 219 229
202 212 219
196 207 215
206 216 224
202 213 223
174 188 183
92 120 72
94 122 73
97 125 74
99 127 77
95 123 74
99 126 76
95 122 74
96 123 73
95 123 74
95 122 73
101 128 77
95 123 73
97 124 74
94 121 72
92 119 71
95 122 73
99 127 76
97 125 75
96 123 74
98 125 75
95 122 73
98 125 75
96 123 74
95 123 74
96 123 74
96 124 74
97 125 75
96 123 74
149 166 155
202 212 220
207 216 226
207 216 225
206 216 225
207 217 225
201 212 223
207 216 225
199 210 217
204 214 221
205 214 224
202 212 220
212 222 233
205 214 222
204 214 223
195 205 211
200 211 221
211 220 231
205 213 219
200 210 220
197 207 215
206 216 226
204 213 221
203 212 219
209 218 228
201 211 217
207 218 229
214 223 233
203 214 222
127 148 123
93 120 71
95 121 72
94 121 72
97 125 75
98 126 76
95 122 73
95 123 74
100 127 76
95 122 73
93 120 71
97 125 75
97 125 76
97 124 74
92 119 70
92 119 71
95 123 74
97 124 74
97 124 74
96 123 73
97 125 76
98 126 75
98 126 77
95 122 72
98 125 75
97 125 75
95 122 74
98 125 75
177 189 189
203 214 224
196 207 215
200 210 219
200 210 219
202 213 223
196 206 213
203 213 221
204 214 223
205 215 223
198 208 217
202 212 221
210 219 230
206 215 224
205 215 225
208 217 225
210 219 229
198 208 215
208 218 228
203 212 220
206 216 227
205 216 227
205 215 225
198 209 218
208 217 226
205 215 224
209 219 228
156 172 164
95 123 74
92 118 71
98 126 76
96 123 74
96 124 74
96 123 73
98 126 76
97 124 75
93 121 73
94 121 71
96 123 74
96 123 73
94 121 72
97 125 75
96 123 73
95 123 74
98 125 75
97 125 75
96 123 74
95 122 73
95 122 72
92 119 71
97 124 74
96 123 74
97 124 74
118 141 109
205 214 219
206 215 223
203 213 222
206 216 226
213 222 233
202 213 221
209 219 229
205 214 223
200 210 217
201 212 222
204 214 223
206 216 226
208 217 225
209 219 229
210 220 230
203 213 221
205 214 221
203 212 219
201 211 220
209 218 228
203 214 225
204 214 225
206 216 226
205 215 225
200 211 219
114 137 103
97 124 75
99 127 76
97 125 75
99 127 77
96 123 73
93 120 72
96 123 73
94 120 72
95 122 73
97 124 74
97 125 76
96 124 74
98 125 75
93 120 72
97 124 74
96 123 73
95 123 74
92 119 71
95 123 74
95 122 72
99 126 76
94 121 73
98 123 81
192 203 206
200 211 218
202 212 219
203 214 223
202 213 223
211 219 228
199 210 220
210 219 230
207 215 222
210 219 229
208 217 226
198 208 216
204 214 223
203 212 220
203 212 219
202 213 223
203 213 222
208 218 227
204 214 222
204 215 225
199 210 218
209 219 229
196 207 212
97 124 77
95 122 73
99 126 75
96 124 74
97 124 75
93 120 72
95 123 74
95 123 74
95 123 74
96 123 74
96 123 74
125 146 120
94 121 72
97 125 75
95 123 74
94 121 72
93 121 72
98 124 79
202 212 221
207 217 227
209 218 227
206 216 224
202 212 220
207 217 226
200 211 218
209 219 229
201 212 219
204 214 224
211 219 227
208 217 227
206 215 224
208 217 227
210 218 225
202 212 219
204 213 221
201 212 222
198 209 218
197 208 215
199 210 219
210 219 228
201 211 217
203 214 223
203 213 222
211 220 230
198 209 215
96 123 73
93 120 71
96 123 74
96 123 73
137 156 136
177 189 187
203 212 221
201 210 218
200 211 222
199 210 218
199 209 218
199 210 219
209 218 227
206 216 227
204 213 222
205 215 223
200 210 216
204 214 221
209 219 229
201 211 219
205 215 223
201 211 220
204 214 223
205 215 223
206 216 227
203 213 222
208 218 228
164 178 172
98 125 75
97 124 75
94 121 72
95 122 73
95 123 73
96 123 74
95 123 74
94 122 73
101 129 77
100 127 77
98 126 75
95 123 74
97 124 75
96 123 74
95 123 73
99 126 76
97 124 74
97 124 74
99 126 75
99 126 77
99 126 76
98 126 76
95 123 74
95 121 72
95 122 73
93 120 71
96 123 74
95 121 72
178 191 193
157 173 162
117 139 110
98 126 76
96 124 75
97 125 75
97 125 75
97 125 75
95 122 72
94 122 73
95 122 73
96 123 74
96 123 74
95 123 74
91 117 70
99 126 76
96 124 75
100 128 77
95 122 73
93 120 71
98 125 75
96 124 74
94 121 73
96 124 74
96 124 75
92 119 70
98 125 75
97 125 75
97 123 76
207 217 225
206 216 225
201 211 218
200 210 218
205 214 223
204 214 223
202 213 221
197 207 215
205 215 224
203 213 221
197 207 214
206 215 225
203 213 223
207 216 225
208 217 226
205 215 224
205 215 223
207 217 226
204 214 223
206 217 227
199 210 218
205 215 225
202 212 221
201 211 221
202 213 221
210 219 229
206 216 227
197 209 219
201 211 219
119 141 113
98 126 76
96 124 74
96 124 74
97 124 74
96 123 74
98 125 75
96 124 74
95 122 73
96 124 75
97 124 75
98 125 75
96 123 74
91 117 70
96 124 75
99 127 76
94 121 73
97 125 76
108 133 93
141 158 144
145 161 146
172 186 184
198 209 214
202 212 222
207 216 224
205 215 222
207 216 224
202 212 219
198 209 217
139 158 143
91 118 70
97 124 74
98 126 76
97 124 74
97 124 75
96 124 74
94 121 72
99 127 76
95 122 72
98 125 75
98 127 77
98 126 75
97 124 74
95 122 74
97 124 75
95 122 73
95 122 73
95 123 74
96 123 74
97 124 75
96 124 74
96 124 75
97 124 74
95 123 74
99 126 76
95 122 73
95 122 73
97 124 75
177 190 189
202 212 219
201 211 218
208 217 226
195 207 217
207 217 226
198 208 215
204 214 223
199 209 219
210 219 229
203 214 223
206 216 226
206 216 225
199 209 217
202 212 220
197 208 216
199 210 219
204 214 222
201 211 220
199 209 217
204 213 222
210 219 228
198 209 217
205 215 224
207 217 226
206 215 224
200 211 219
208 216 225
196 207 213
98 125 78
94 121 73
97 124 75
99 126 75
94 121 73
97 124 75
97 124 75
94 121 73
95 122 73
97 125 75
93 120 72
93 120 71
95 123 73
94 121 73
99 126 75
94 121 73
100 127 75
95 122 73
94 120 72
95 122 73
93 120 72
93 120 72
95 123 74
96 123 74
99 127 76
95 122 73
96 123 73
116 139 105
204 214 224
198 209 218
201 211 218
199 209 217
204 215 225
203 213 223
198 207 214
200 210 218
203 213 222
204 214 223
196 207 216
210 219 229
200 210 219
209 219 231
204 215 224
208 217 225
205 214 223
208 218 227
208 218 228
210 219 228
199 209 215
205 215 226
198 208 217
201 211 218
207 216 225
207 216 226
200 211 217
108 131 96
92 119 71
95 123 73
94 121 72
95 122 73
100 128 77
97 125 76
95 123 74
97 125 75
95 123 74
96 123 74
98 126 76
99 127 76
96 123 73
97 124 75
95 122 73
93 121 72
96 123 73
94 121 72
96 123 74
98 125 75
97 125 75
94 122 73
95 123 74
95 123 74
93 120 72
173 187 184
204 213 222
208 218 229
202 213 223
205 215 223
202 211 218
200 210 217
203 213 221
206 216 225
204 213 220
199 210 218
205 215 224
207 217 227
207 217 225
196 207 214
202 212 221
208 217 226
204 214 223
205 215 225
202 211 220
208 217 226
204 214 224
205 215 223
202 211 219
205 215 225
160 175 165
97 124 74
96 123 74
94 121 73
91 118 70
97 124 74
95 122 74
96 124 74
98 125 76
97 125 75
93 121 72
95 122 72
95 122 73
94 121 72
92 119 70
99 126 75
96 123 74
95 122 73
97 124 74
95 123 74
96 124 74
97 124 75
93 121 72
97 125 75
163 177 168
203 213 223
202 213 223
200 211 219
202 211 218
207 217 226
203 214 224
207 216 226
196 207 214
203 214 225
201 212 222
205 215 224
200 211 218
201 213 223
205 215 224
198 209 216
208 218 227
196 206 212
207 217 226
208 217 225
198 208 215
208 218 228
204 214 223
113 137 102
91 118 70
95 122 73
97 124 75
96 124 75
97 124 74
97 124 74
97 124 75
97 124 74
94 121 73
95 122 74
96 124 74
206 216 226
177 189 190
145 162 145
101 127 81
92 120 72
92 120 71
92 120 72
196 206 211
200 210 219
208 218 227
205 215 222
204 214 222
203 213 222
209 218 228
194 206 214
206 216 227
198 209 217
205 214 223
204 214 222
204 214 224
195 206 212
208 218 228
205 214 223
211 220 229
206 215 224
206 215 222
206 216 225
205 215 223
200 211 220
203 214 224
201 212 224
201 211 218
200 210 219
200 209 213
95 122 73
95 123 74
97 124 74
96 123 74
96 124 74
93 121 73
104 129 87
154 171 157
189 200 201
202 213 222
190 202 207
203 213 221
198 208 215
208 217 227
208 217 226
207 217 226
204 214 224
204 214 223
208 217 225
212 221 229
205 215 224
207 217 226
201 212 223
205 214 222
203 213 221
198 208 215
209 218 227
170 184 181
94 122 73
97 124 74
93 120 72
98 125 75
98 126 76
96 124 75
94 122 73
95 122 74
92 120 73
96 123 74
99 127 76
93 121 73
95 123 74
96 124 74
99 127 76
95 123 74
98 125 75
97 124 75
97 125 75
96 123 74
95 123 73
92 120 72
97 124 74
95 122 73
91 118 70
99 127 76
95 122 73
97 125 75
205 215 224
194 204 210
205 216 225
194 204 208
173 186 183
131 150 129
101 128 77
97 124 74
97 124 74
98 125 74
100 128 77
97 124 75
96 124 75
98 126 76
94 121 72
95 122 74
96 123 73
96 123 74
96 123 73
98 125 75
93 120 71
98 125 75
97 125 75
97 125 74
95 122 73
96 124 75
94 121 72
96 123 74
111 135 100
205 214 223
202 213 223
204 214 224
203 213 221
201 211 219
203 212 220
199 210 218
211 221 233
200 211 219
212 222 232
203 214 223
208 217 225
211 221 232
205 215 223
206 217 228
207 217 225
202 213 221
203 213 221
204 212 218
198 209 217
198 209 218
203 213 222
209 219 230
211 220 229
204 213 221
202 212 222
199 209 217
205 214 221
202 212 220
105 130 90
96 124 75
96 123 74
96 123 74
94 121 73
95 122 73
94 121 73
97 124 74
94 121 73
94 121 72
95 122 74
93 120 72
97 124 75
97 124 75
96 123 74
94 121 72
97 125 75
97 125 76
96 124 74
98 125 76
96 124 74
92 119 71
96 124 74
129 149 125
144 162 146
168 181 174
189 201 205
209 218 226
200 211 220
112 137 98
100 128 77
96 123 75
94 121 73
94 121 72
95 123 74
95 122 73
92 118 70
96 124 75
96 124 74
99 126 75
93 120 72
94 121 72
96 123 74
95 123 73
91 118 71
93 121 72
96 123 73
94 121 73
98 126 76
95 122 72
97 124 75
95 122 73
95 122 73
99 127 77
94 122 74
94 121 73
96 123 74
99 126 78
202 212 218
207 216 226
199 209 217
205 215 224
212 221 230
203 213 221
206 216 225
204 214 223
207 217 225
202 213 221
199 209 216
204 213 222
207 217 226
197 207 216
206 216 227
207 217 226
205 215 224
208 217 226
207 216 226
210 220 232
202 212 219
200 211 218
201 212 219
202 212 222
199 210 218
205 214 222
206 215 224
203 212 220
167 181 174
96 124 75
98 125 75
95 122 74
96 123 74
99 126 76
96 123 74
95 123 74
96 123 74
94 122 72
92 118 70
94 121 73
99 126 75
94 122 73
94 121 72
95 122 73
99 127 76
97 125 75
96 123 74
97 124 75
95 122 73
96 123 74
96 124 74
95 122 74
94 121 72
97 124 74
94 121 72
97 124 74
162 178 171
202 212 220
210 218 227
200 210 217
201 211 219
192 204 211
204 215 225
203 212 219
207 217 227
209 218 227
208 217 225
203 213 222
198 208 215
207 216 224
204 214 223
200 210 217
207 216 225
201 212 221
205 215 226
201 211 219
205 215 224
199 209 218
206 216 224
197 208 215
202 212 222
201 211 218
205 216 225
169 184 179
96 124 75
96 123 74
94 120 72
95 123 74
93 121 72
97 125 75
96 123 74
96 124 75
95 122 73
96 124 75
94 121 73
98 126 75
95 122 73
94 121 73
96 124 74
94 121 73
96 123 74
94 121 72
94 122 73
96 124 74
96 124 74
96 123 74
98 125 75
95 122 73
94 121 72
141 159 141
204 214 222
198 209 218
211 221 232
202 211 219
205 215 223
211 221 232
202 212 222
208 217 226
195 206 212
204 213 218
199 210 218
200 210 220
207 216 224
207 217 226
199 209 216
207 216 224
199 209 218
208 218 227
209 218 228
209 219 229
212 221 231
197 208 217
201 211 220
205 215 224
194 205 208
98 124 80
98 125 75
90 118 70
99 127 76
95 123 74
96 124 74
98 126 76
97 124 74
96 123 74
94 121 71
95 122 74
96 124 74
96 123 74
96 123 73
99 127 76
96 123 73
95 122 74
96 123 74
95 123 73
96 124 75
97 124 75
92 119 71
97 125 75
118 140 108
206 216 225
205 215 224
205 216 225
198 209 216
201 211 220
203 214 223
207 216 222
197 208 217
204 214 223
202 211 218
203 213 221
196 206 213
210 218 227
204 215 224
203 213 221
200 210 218
199 210 218
205 214 225
203 212 220
200 210 219
203 214 222
200 210 217
143 161 145
94 122 73
94 122 73
96 124 75
97 125 75
95 122 73
96 123 73
93 120 71
94 121 72
94 122 74
96 124 75
94 122 73
94 122 73
207 217 227
209 218 226
206 217 228
200 210 218
159 174 166
111 135 100
97 124 74
191 203 206
209 217 225
207 216 226
214 223 232
200 211 220
205 215 223
204 214 222
202 212 221
205 215 225
206 216 224
195 206 215
206 217 229
204 214 222
200 209 216
202 213 222
211 220 228
205 215 223
197 207 214
201 211 218
208 218 227
205 215 224
205 215 227
205 214 222
205 215 223
206 215 224
206 215 224
203 213 220
98 125 78
99 126 76
99 126 76
98 125 75
95 122 73
92 119 72
96 123 73
101 129 77
94 121 72
124 145 116
176 189 188
194 205 210
205 215 224
205 215 223
202 212 221
201 211 219
202 213 223
212 222 232
198 209 218
203 213 223
206 215 224
201 211 220
204 213 222
203 213 223
201 211 218
208 218 229
196 207 216
172 186 183
95 122 73
94 121 73
97 124 75
97 124 74
97 124 74
95 123 73
99 127 76
95 123 73
95 123 73
95 122 73
95 123 74
94 121 73
95 122 73
97 125 75
93 119 71
97 125 75
93 120 72
92 119 71
101 129 78
95 122 73
96 124 74
95 122 73
95 122 73
98 125 75
96 124 74
97 124 74
98 125 75
100 127 81
210 220 230
207 217 225
193 204 210
207 216 224
207 216 224
203 213 222
196 207 213
168 182 179
148 165 151
105 130 92
95 122 73
98 125 75
95 122 73
96 124 74
98 126 76
94 121 73
96 124 74
96 123 74
97 125 75
96 123 74
96 123 74
96 124 75
98 126 75
98 126 76
96 124 75
96 123 73
97 125 75
95 122 73
134 153 132
198 210 219
200 210 218
210 219 228
198 209 218
208 217 227
200 210 217
208 217 225
201 212 220
202 212 220
201 211 220
206 216 225
202 212 221
198 209 217
208 216 224
212 221 230
204 214 224
202 212 221
205 215 226
210 219 227
202 212 220
209 218 224
203 213 220
205 214 220
207 217 227
195 207 214
198 208 214
207 216 225
206 214 221
186 197 198
96 123 74
96 123 74
94 121 72
93 120 72
100 128 76
98 126 76
96 124 74
94 122 73
97 124 74
94 121 72
97 124 74
96 124 74
97 125 74
93 120 71
95 123 74
94 121 72
94 121 72
101 129 78
99 127 76
95 122 73
93 121 72
95 123 73
96 123 74
96 124 74
95 122 73
98 125 76
97 125 76
105 132 87
145 162 143
160 175 168
139 157 139
134 152 130
98 125 78
95 122 73
96 124 74
99 127 76
96 124 74
96 124 74
92 118 70
96 124 74
94 121 72
95 122 73
94 121 71
97 125 75
97 124 74
96 123 74
93 120 72
96 123 74
99 126 75
94 122 74
100 128 78
97 125 75
93 121 72
99 127 76
96 123 74
92 118 70
94 121 73
140 158 137
203 212 220
204 214 222
202 213 223
204 214 221
195 206 214
203 213 223
203 214 222
201 211 221
207 216 225
210 219 228
202 212 221
189 201 207
210 219 227
207 216 226
200 211 219
205 215 226
204 215 226
204 214 222
210 219 229
202 212 221
200 211 221
199 210 218
204 214 221
206 215 225
212 221 230
205 215 222
204 214 225
203 213 221
109 133 99
96 124 74
97 124 75
91 118 71
95 122 73
96 123 74
93 121 72
95 122 73
98 126 75
94 121 72
95 122 73
98 126 76
94 121 72
94 122 73
95 122 73
98 126 75
97 125 75
96 123 74
94 121 73
95 122 74
92 119 71
93 120 72
94 122 73
94 121 72
95 122 73
98 125 75
98 125 75
105 130 89
204 214 223
202 212 220
207 217 226
207 216 225
206 216 226
213 222 232
207 217 225
199 210 218
200 211 221
196 207 213
196 207 214
209 217 225
201 212 223
207 216 225
208 218 228
201 212 221
203 213 222
205 216 226
205 215 223
207 217 227
206 216 226
207 217 225
203 213 221
203 213 221
198 208 216
204 213 221
199 210 219
117 139 108
97 125 75
95 122 73
96 123 74
99 127 77
95 122 73
99 126 76
96 123 73
97 125 75
94 121 73
96 123 73
95 122 73
93 121 72
99 126 76
98 125 75
96 124 75
95 123 74
96 123 74
96 124 74
96 124 75
96 124 75
99 127 76
97 124 74
99 127 76
100 127 76
98 125 78
191 203 208
199 209 217
203 213 221
201 212 220
194 206 214
202 212 220
203 212 221
203 213 222
208 218 228
210 220 229
205 214 222
207 217 226
211 220 231
209 218 228
204 214 222
210 219 228
209 219 229
202 212 222
203 213 219
206 215 223
198 208 216
196 206 213
200 211 220
206 216 224
202 213 223
147 164 148
99 126 76
97 124 75
94 121 72
95 123 73
99 127 76
94 122 74
98 125 76
95 122 73
93 120 73
94 121 72
92 119 72
93 120 71
95 122 72
96 124 75
94 121 73
98 125 75
97 125 75
96 123 73
98 126 76
97 125 75
93 120 72
96 124 74
98 124 77
191 203 207
206 215 223
194 204 208
205 215 225
212 220 229
208 218 228
209 219 230
197 209 219
203 214 225
206 215 225
206 215 221
201 211 219
200 210 217
203 213 220
198 209 216
202 213 220
201 211 219
201 210 218
202 213 222
206 215 225
203 213 223
206 216 225
177 190 190
94 121 72
96 123 74
97 125 75
95 122 73
95 122 73
96 124 74
94 121 72
97 125 76
94 121 73
95 123 74
95 123 74
97 125 75
90 117 69
207 216 226
201 211 219
197 207 215
207 217 226
200 210 218
201 211 219
168 183 176
169 182 179
202 212 221
208 217 224
205 215 225
196 206 212
204 213 221
197 207 216
194 205 213
209 217 226
205 215 224
212 221 231
197 207 214
205 215 223
205 215 223
204 214 222
199 210 216
198 209 219
211 220 231
208 218 228
209 219 228
204 213 222
199 209 216
209 218 227
203 213 221
198 208 216
194 205 213
201 211 219
111 135 98
96 124 75
97 125 75
96 123 73
91 117 70
92 119 71
96 124 74
98 126 76
96 123 74
96 123 74
96 124 75
98 125 75
130 150 126
182 194 194
203 213 222
206 216 227
204 214 224
206 214 221
202 212 219
212 221 232
206 217 228
197 208 216
201 211 218
201 211 220
199 209 218
201 212 222
206 216 225
178 191 188
95 122 73
97 124 74
91 118 71
94 121 72
92 119 70
97 125 75
95 123 74
92 119 71
95 123 74
96 123 74
93 121 72
97 125 75
95 122 74
94 122 73
94 122 73
96 123 74
97 124 74
97 124 75
96 123 73
97 124 74
97 125 74
95 123 74
97 124 75
93 120 72
93 121 72
97 124 74
95 122 74
107 131 97
201 211 219
202 211 219
199 208 216
205 215 225
201 211 219
212 222 235
204 213 222
204 214 223
196 207 214
200 209 215
177 190 189
150 166 152
113 136 104
95 122 73
94 121 72
97 125 75
93 121 72
91 119 71
96 123 73
96 124 74
93 120 72
99 127 76
97 124 74
97 125 75
95 122 73
96 123 74
98 125 75
95 122 73
140 157 140
200 210 216
200 211 222
201 211 220
202 212 221
196 208 216
199 209 218
202 212 221
204 214 223
203 213 223
200 211 221
207 216 225
201 211 219
203 213 223
202 211 218
209 219 228
203 213 220
204 215 226
213 221 230
207 217 228
207 216 224
202 212 220
199 209 215
202 212 220
202 212 219
206 215 224
201 211 219
198 209 218
204 214 224
168 182 180
95 123 73
95 123 74
100 127 77
96 124 75
97 124 75
97 124 75
95 122 73
97 124 74
96 123 74
95 122 73
96 123 74
96 123 73
94 121 72
95 122 73
94 121 73
92 120 72
97 124 75
95 122 73
98 125 75
99 126 76
96 124 74
93 121 73
93 120 71
97 125 74
97 125 76
92 119 71
95 122 73
96 123 74
157 172 159
204 214 223
206 216 225
204 214 222
196 207 213
196 207 211
165 179 175
144 162 146
113 136 106
100 128 80
94 121 73
98 125 75
94 122 73
96 124 74
97 125 75
98 125 75
93 120 71
94 121 73
93 121 73
93 120 71
97 124 75
97 124 75
98 125 75
93 120 72
98 126 75
94 121 73
96 124 75
99 127 77
96 123 74
177 190 185
208 218 226
198 209 217
206 216 225
200 209 217
201 211 220
205 215 224
203 214 224
202 212 222
202 212 220
197 207 215
203 213 221
195 206 214
200 211 220
192 203 210
204 214 222
206 216 224
212 221 230
205 216 227
199 209 219
206 216 224
200 211 218
207 216 226
199 209 218
199 210 216
205 215 224
209 218 229
201 212 221
184 196 195
98 126 76
98 125 75
95 122 73
97 124 74
95 123 73
93 120 72
95 123 74
96 123 73
94 121 73
99 126 76
91 117 70
95 123 74
94 122 73
93 120 71
90 117 70
95 122 73
98 125 75
98 125 75
97 124 75
97 124 74
92 119 71
96 123 74
96 123 74
94 121 72
98 125 75
95 122 73
95 122 73
157 172 162
202 212 221
206 215 224
208 218 227
204 215 224
200 210 218
202 213 221
202 212 220
203 212 222
206 216 226
199 210 221
209 218 227
203 215 228
203 212 219
202 211 218
206 216 226
200 210 218
195 205 214
200 210 217
199 210 218
213 222 231
200 211 219
203 213 222
204 214 222
194 204 211
202 212 221
205 215 223
159 175 168
95 122 73
91 119 71
100 127 77
99 126 75
95 122 72
93 120 71
96 123 74
95 122 73
98 126 75
97 124 75
91 118 70
94 121 72
94 121 73
95 122 73
95 122 73
98 125 75
97 124 74
94 121 72
95 122 73
96 124 75
92 119 71
96 123 74
95 123 73
96 124 74
94 121 73
132 150 126
198 207 212
209 218 227
196 207 214
205 214 222
210 219 228
205 213 221
196 207 216
203 213 223
207 217 227
203 213 222
198 208 215
198 209 218
203 213 222
205 214 222
205 215 225
205 214 221
195 206 214
199 210 219
204 213 221
204 214 224
204 214 225
204 214 224
205 215 223
207 215 223
179 191 190
92 119 71
92 119 71
95 123 74
97 124 75
94 121 72
95 123 74
93 120 72
94 121 73
93 120 72
95 122 74
95 122 73
94 122 73
98 126 75
97 124 75
94 121 73
100 128 77
96 124 75
99 126 76
96 123 74
95 122 74
98 126 76
94 122 73
94 121 72
162 177 172
199 210 219
201 211 221
199 210 217
197 208 214
205 214 222
208 217 226
204 214 223
202 213 222
207 217 227
200 210 219
208 218 227
198 208 217
206 216 225
210 219 228
194 205 211
208 218 227
202 211 220
203 212 220
205 214 221
207 216 225
195 206 213
196 206 211
98 124 77
94 121 72
98 125 75
97 123 73
94 122 73
98 126 76
94 121 72
95 123 74
96 123 74
94 121 72
98 125 74
94 121 71
92 119 71
95 123 74
200 211 220
206 216 225
203 213 222
206 216 226
194 205 210
195 206 214
198 208 215
178 191 190
144 161 144
177 190 190
197 208 215
203 214 225
200 211 221
209 217 224
202 212 222
205 214 224
205 215 225
197 208 213
205 215 226
200 209 217
193 204 211
205 214 222
195 206 213
211 220 228
201 212 222
192 203 208
210 219 228
210 220 230
207 215 223
201 213 225
206 215 225
204 215 226
201 211 221
201 211 220
122 143 113
97 124 75
98 125 75
97 124 74
98 125 75
92 119 71
95 122 73
94 121 72
95 122 73
96 124 74
96 123 73
93 121 73
97 124 74
98 125 75
102 128 82
147 165 148
180 192 194
206 216 226
208 217 226
204 214 221
201 211 219
207 216 224
204 214 222
205 215 225
202 212 222
206 215 224
195 206 212
162 176 171
90 117 69
96 123 74
94 122 73
96 124 75
97 124 75
99 126 76
95 122 73
95 122 73
97 124 74
98 125 75
95 123 73
99 127 76
96 124 74
95 122 73
95 122 72
95 123 74
96 123 74
97 124 74
96 124 74
96 124 74
92 119 71
96 123 74
97 124 75
97 124 74
96 123 73
96 124 74
96 124 74
119 140 112
203 214 225
200 210 217
202 212 219
194 205 213
200 211 221
209 218 226
204 213 221
211 220 230
204 214 223
202 212 220
205 214 223
209 218 229
197 208 216
188 199 201
153 170 159
133 153 131
100 125 80
93 121 73
94 121 72
96 123 74
96 123 74
91 117 70
93 120 72
99 127 76
95 122 73
95 122 73
93 121 73
91 119 71
153 170 159
202 213 222
204 213 221
202 212 220
200 210 217
200 210 218
202 213 223
203 212 219
202 212 220
200 210 218
206 216 224
205 215 225
206 216 226
203 213 221
203 213 221
211 221 232
209 218 227
201 211 219
206 216 225
207 217 229
203 213 220
199 209 216
206 215 223
199 210 218
206 215 223
207 217 228
207 216 224
187 198 202
198 209 218
144 163 145
95 122 73
97 125 75
94 121 72
96 123 74
100 128 77
93 120 72
93 120 72
94 121 72
95 122 73
96 124 74
95 122 73
96 124 74
98 125 75
95 122 73
91 118 70
95 123 73
91 117 69
96 124 74
97 125 76
95 122 73
95 121 73
94 121 72
93 121 72
97 124 74
93 121 72
96 124 74
97 125 75
94 121 73
184 196 197
203 212 221
199 210 219
203 213 222
208 217 227
206 217 226
199 210 218
199 209 215
204 214 222
200 210 218
184 196 199
178 190 186
156 171 158
129 149 127
104 129 89
97 125 74
97 125 75
96 123 74
95 122 74
98 126 75
93 120 72
94 121 73
96 123 73
97 125 75
93 120 72
97 124 74
100 127 76
96 124 74
101 128 79
188 200 210
202 212 220
201 211 220
195 206 213
209 218 227
194 206 214
199 210 216
201 212 221
198 209 217
199 210 219
200 211 221
206 215 225
205 214 222
202 212 221
205 215 224
198 209 217
205 215 224
209 219 230
203 213 222
198 208 218
201 211 219
206 216 227
200 211 220
202 212 220
205 215 226
206 216 226
204 214 223
199 210 217
155 172 159
92 119 71
94 121 73
98 126 75
95 123 74
98 126 76
94 121 72
95 123 74
92 119 70
95 122 73
96 124 74
96 124 75
93 120 71
95 123 74
96 124 74
94 121 72
95 122 73
97 124 74
96 122 73
93 121 73
95 122 73
94 121 72
98 126 75
95 122 74
98 126 76
96 123 74
95 122 73
92 119 71
188 199 201
204 214 222
207 216 225
203 213 221
204 214 222
204 213 222
205 215 223
205 214 222
205 214 221
205 215 225
209 217 225
204 214 223
195 206 214
197 208 216
206 215 224
204 214 224
203 213 221
199 210 219
204 214 221
198 210 219
202 212 219
203 214 224
201 212 221
206 215 222
201 211 219
197 208 216
194 205 212
97 123 76
95 123 74
93 120 72
94 120 72
98 125 75
97 125 75
97 124 74
97 124 74
97 124 75
99 126 76
94 122 73
96 123 74
94 121 72
93 120 72
92 119 71
98 125 75
94 122 73
96 123 74
98 125 75
98 125 75
95 123 73
96 123 74
97 124 74
95 122 72
97 125 75
104 130 85
196 206 209
199 210 219
208 217 225
199 210 220
204 215 226
202 212 220
208 217 226
199 209 216
208 218 229
201 213 224
198 208 215
203 213 223
202 211 220
202 212 220
196 205 213
202 211 220
209 218 228
204 214 224
205 215 224
211 220 230
206 216 224
205 214 224
205 215 226
204 214 224
204 214 221
113 135 102
94 121 72
94 122 73
93 121 73
96 124 75
96 124 75
94 122 73
92 119 71
97 124 75
96 124 74
95 123 74
92 119 71
92 119 71
96 124 74
98 125 75
97 124 74
95 122 72
94 122 73
97 124 74
93 121 72
95 122 73
98 126 76
97 124 74
129 149 126
205 214 221
202 213 224
211 221 232
207 217 227
209 218 225
206 216 226
200 211 220
204 213 221
201 211 219
207 216 224
200 211 220
204 214 223
203 213 222
201 211 220
200 210 217
205 215 225
203 213 222
203 214 224
201 210 218
202 212 220
202 212 221
208 217 227
135 154 132
97 125 75
95 122 73
92 119 70
100 128 78
98 126 76
95 122 73
94 121 72
95 122 74
95 122 73
95 122 73
92 119 71
95 122 73
95 123 73
96 123 73
204 213 222
200 211 221
203 213 223
203 213 223
206 215 223
206 215 223
203 213 222
191 204 208
98 125 75
95 123 74
105 129 89
157 172 162
196 206 211
202 213 220
197 208 217
212 221 232
206 216 224
202 212 220
205 215 224
201 211 219
203 214 223
204 213 221
199 209 217
207 217 226
208 218 228
201 211 220
204 214 222
205 215 224
204 213 223
214 222 230
202 212 219
211 222 236
206 216 225
201 211 220
124 144 119
94 121 73
95 123 74
98 125 76
96 123 74
96 123 74
96 124 75
97 125 75
96 123 74
94 121 73
94 121 73
90 117 70
93 120 72
96 124 74
91 118 71
98 126 76
96 123 74
112 136 98
159 175 168
189 200 203
202 212 221
201 211 218
205 215 223
203 212 220
200 208 215
198 208 217
206 215 223
160 175 166
96 123 74
97 125 76
96 123 73
97 125 75
96 123 74
96 123 74
95 121 72
95 122 74
99 126 75
92 119 71
95 122 74
95 122 73
100 127 76
95 122 74
93 121 73
95 123 74
95 122 73
98 125 75
94 121 72
93 120 72
97 124 74
98 125 75
95 123 74
97 125 76
96 123 74
97 124 74
93 120 72
117 140 111
208 216 226
204 214 222
201 211 219
208 217 227
213 221 228
200 211 220
208 218 228
204 215 223
197 208 216
204 214 221
199 210 217
200 210 218
202 212 222
210 219 228
201 211 222
209 218 226
205 215 224
176 188 188
138 156 137
118 141 107
94 122 73
95 122 73
96 123 74
98 126 75
95 122 73
97 124 75
97 124 75
96 123 74
180 192 191
202 213 223
203 213 221
204 214 224
206 215 223
194 205 211
204 214 222
201 211 219
202 213 223
197 208 214
205 214 222
196 206 214
200 211 219
208 218 229
207 217 225
203 213 224
214 222 231
205 215 225
199 210 219
207 217 225
207 216 225
205 215 224
202 212 220
206 215 223
203 214 222
207 217 226
198 208 215
203 213 220
208 217 226
123 144 117
94 121 73
94 121 73
98 126 76
93 120 71
95 122 74
97 125 75
93 120 72
95 123 74
96 122 73
97 124 74
96 124 74
93 121 73
97 125 75
95 122 73
94 121 72
96 124 75
96 123 72
98 125 75
99 126 75
96 124 74
95 122 73
93 120 71
99 127 76
98 125 74
96 123 74
95 122 73
97 124 75
93 120 72
182 195 198
203 213 221
203 213 221
201 211 220
199 210 217
204 213 221
207 216 226
202 212 218
203 213 222
200 210 217
203 213 222
206 216 224
201 212 222
199 210 218
204 213 221
183 196 196
187 199 200
167 181 175
145 163 144
111 134 97
102 129 80
94 122 73
96 124 74
95 122 73
95 122 73
95 123 74
98 126 75
95 122 73
134 153 135
200 211 219
207 216 224
204 214 224
198 207 213
205 215 223
206 216 224
199 210 218
198 209 218
198 208 217
208 217 227
204 214 225
206 215 223
202 212 222
202 212 220
211 220 230
213 223 233
203 212 219
203 212 218
204 215 228
205 215 224
206 217 227
203 213 222
208 217 228
202 212 221
197 208 216
206 215 223
208 217 227
201 211 218
105 130 90
99 127 76
95 122 74
94 121 72
96 123 74
100 128 77
93 121 73
91 118 70
97 124 75
96 124 74
98 126 75
94 121 73
93 121 72
96 123 73
97 124 74
97 125 76
92 119 71
93 120 72
98 126 76
97 125 75
96 124 75
96 124 74
99 127 77
95 122 74
95 122 73
95 123 74
96 123 74
146 163 148
199 210 219
210 219 229
202 213 223
203 212 221
210 219 229
206 215 223
207 217 224
209 218 227
203 214 222
200 210 216
198 209 217
204 214 223
206 215 223
202 212 220
205 214 224
200 211 221
200 210 217
204 213 223
203 213 222
207 217 225
207 217 227
211 221 233
204 214 222
204 214 223
199 210 219
206 216 227
158 174 166
95 122 73
94 121 73
92 119 71
96 124 74
93 121 72
96 123 74
96 123 74
99 126 75
97 125 75
97 124 74
95 122 74
95 122 73
94 121 72
92 120 72
99 126 76
98 125 75
94 122 73
94 121 72
97 125 75
96 123 73
93 120 72
97 124 74
94 122 73
96 123 74
99 126 76
160 174 167
203 212 220
208 217 227
207 216 226
205 215 225
202 212 220
199 209 217
202 212 220
208 218 228
198 208 216
197 208 217
199 209 215
200 211 221
199 209 216
204 215 225
209 218 228
193 204 210
198 209 218
204 213 221
204 213 221
203 213 221
205 215 223
201 211 219
196 207 213
203 212 221
165 179 174
96 123 74
98 126 76
98 125 74
94 121 73
97 124 75
95 122 73
96 123 74
94 121 72
97 124 74
96 123 73
94 122 73
95 122 73
95 122 73
96 123 74
91 118 71
97 125 75
94 121 72
95 123 74
97 124 75
95 122 73
99 127 76
96 123 74
101 126 82
190 202 208
199 210 219
202 212 220
206 217 227
206 216 227
202 212 220
199 209 216
202 212 220
202 212 220
202 213 222
205 215 225
205 214 221
200 210 218
199 209 219
205 215 223
202 212 222
200 210 217
204 214 222
203 213 222
201 212 221
205 214 222
205 215 224
155 170 159
98 126 75
95 122 73
94 121 72
96 123 74
97 125 76
99 127 76
97 124 75
95 123 74
94 122 73
96 123 74
96 123 73
94 120 72
95 122 73
99 126 76
96 124 74
204 215 224
196 207 213
209 218 227
203 213 221
204 214 224
208 216 225
202 212 220
197 207 212
97 125 75
95 122 73
98 125 75
98 126 75
96 123 74
134 153 132
168 183 178
201 212 221
204 214 223
201 211 221
191 202 208
197 207 214
202 211 220
205 215 223
195 206 214
207 216 226
203 213 222
202 212 219
203 213 224
201 212 220
204 214 225
207 216 225
200 211 220
206 215 225
200 210 219
198 209 217
125 145 121
96 123 74
98 126 76
97 125 75
96 123 74
99 126 76
96 124 74
95 122 73
94 121 72
92 120 72
93 120 71
97 125 75
96 123 74
97 124 74
94 121 72
95 122 73
99 126 75
92 119 72
94 121 72
93 121 73
120 142 114
167 180 174
193 204 210
200 211 220
198 208 216
203 212 219
208 218 228
176 189 186
96 124 74
100 129 78
95 122 73
98 125 75
96 123 73
95 122 73
97 124 75
96 123 74
97 125 75
94 122 74
97 124 75
95 122 73
97 125 76
98 126 76
93 120 72
95 122 73
97 124 74
94 121 72
95 122 73
96 124 75
97 124 75
88 115 68
95 122 74
95 123 74
97 124 75
97 124 74
96 123 74
137 155 136
198 209 219
208 218 228
207 216 225
208 217 227
203 213 221
203 213 222
199 209 218
209 218 227
208 217 227
203 213 222
201 211 219
207 217 226
202 212 220
199 210 218
205 215 223
205 214 223
203 213 221
205 215 225
197 208 215
208 218 228
187 199 203
164 177 170
133 152 130
99 126 78
95 122 74
94 121 72
97 125 75
96 123 74
185 197 199
201 211 220
200 210 217
208 218 227
203 214 225
202 213 223
200 211 220
210 220 231
206 217 227
207 217 226
195 207 215
206 215 224
199 211 221
205 215 224
198 209 219
197 209 217
200 210 218
207 217 228
199 210 218
207 217 227
201 211 219
204 214 223
204 214 224
201 212 224
206 216 226
199 209 217
197 208 216
194 206 213
197 207 213
97 123 79
97 124 74
92 120 72
95 122 72
94 122 73
95 122 73
95 122 72
94 122 73
96 124 74
98 126 77
95 122 73
96 123 74
98 125 75
98 126 76
94 122 73
96 123 74
98 126 76
92 119 71
96 123 74
95 123 73
96 123 74
95 123 74
96 123 73
99 126 76
96 124 75
92 119 70
96 124 74
96 123 73
123 144 115
205 215 222
202 212 222
202 212 219
204 215 226
201 211 221
203 213 222
199 209 218
198 208 213
206 215 223
197 207 215
203 212 220
198 209 217
197 208 215
209 218 226
201 211 221
200 210 220
197 207 214
206 215 225
200 211 219
205 216 226
199 209 216
186 198 200
176 190 189
160 174 166
138 155 137
109 133 98
97 125 75
95 122 73
179 191 191
206 216 225
203 214 222
205 215 225
204 213 222
199 210 217
204 214 222
204 215 226
196 206 210
203 213 221
197 207 214
203 214 225
196 208 216
204 214 223
202 212 220
203 213 223
199 209 215
200 210 217
210 219 229
206 216 226
195 205 212
203 213 222
197 208 216
199 209 216
200 211 218
201 212 220
199 210 216
202 212 223
162 176 170
96 124 74
93 120 72
96 123 74
95 122 73
98 126 76
95 123 74
95 122 73
94 120 71
96 123 74
94 121 72
97 123 74
92 119 71
96 123 74
94 121 72
96 122 73
96 124 75
97 125 75
95 123 74
93 120 72
95 122 73
95 123 74
98 126 75
95 123 73
97 124 74
99 126 76
98 125 75
95 122 73
184 196 198
206 216 226
205 214 221
200 211 218
198 207 212
210 219 227
199 211 221
198 208 216
199 209 217
208 217 227
206 216 225
198 209 217
204 214 221
207 216 224
199 208 216
198 209 219
200 210 217
201 211 220
202 210 216
209 218 228
204 213 220
206 215 225
191 203 211
197 208 216
200 210 218
205 214 223
207 217 226
107 131 94
96 123 74
96 123 74
90 117 69
96 123 74
96 123 73
97 124 74
97 125 75
94 122 73
97 124 74
97 124 73
96 124 74
96 123 74
94 121 73
95 122 73
93 120 71
94 121 72
99 127 77
97 124 75
98 125 75
98 126 76
96 124 75
93 120 72
97 125 75
97 126 76
114 138 100
198 208 216
200 211 221
196 207 215
204 214 222
209 218 227
204 214 223
206 216 225
203 213 222
200 210 219
204 214 223
199 210 218
198 209 218
202 212 220
203 214 222
203 213 223
203 213 221
204 214 221
208 217 226
206 215 224
203 214 223
201 211 219
201 211 219
207 216 223
201 211 221
192 203 208
95 121 72
97 124 75
94 122 74
94 121 73
98 125 75
96 124 74
96 123 74
99 127 77
96 124 75
96 124 75
95 123 74
97 124 74
94 121 72
92 119 71
96 124 75
97 124 74
94 121 72
97 124 75
92 119 71
94 122 73
96 123 74
94 121 72
94 120 71
165 179 173
207 216 224
201 210 218
211 220 228
208 217 229
204 214 223
204 214 223
198 208 214
211 220 231
204 214 223
206 216 224
209 219 232
198 208 216
203 213 221
197 208 216
207 216 225
203 213 224
205 214 222
195 206 213
209 219 227
203 213 224
214 223 233
178 191 188
92 118 73
98 126 76
100 128 77
97 125 75
96 123 73
97 124 74
97 125 75
97 125 76
94 121 72
93 121 73
95 123 74
97 125 75
92 119 71
94 122 73
96 123 74
95 122 73
151 167 154
154 170 155
160 175 168
152 169 158
148 165 150
140 158 142
156 173 164
156 172 160
157 172 162
163 177 170
163 178 171
172 186 180
165 180 174
175 189 186
160 174 167
184 196 195
196 207 213
176 189 183
146 163 150
161 176 168
145 162 148
145 162 147
147 164 153
161 175 166
157 171 163
156 172 164
165 180 172
157 173 166
156 172 164
159 174 164
168 181 176
152 169 159
160 175 166
171 185 183
143 159 144
148 166 151
160 175 167
144 161 148
163 178 169
144 161 146
154 169 159
157 172 162
151 167 154
150 167 154
158 173 163
142 159 142
145 161 145
153 169 159
145 161 147
152 170 161
144 161 145
151 167 154
145 162 147
145 163 148
153 169 157
152 168 157
150 167 153
173 187 182
190 201 207
184 196 197
172 186 184
161 176 171
142 160 146
154 170 156
144 161 143
135 155 136
139 157 145
136 154 137
143 160 142
139 157 140
132 151 129
143 160 145
141 160 141
150 166 153
130 150 131
145 161 148
150 166 153
143 161 145
133 151 132
131 150 126
141 159 139
142 160 143
142 160 142
140 159 142
142 160 142
140 158 144
135 154 134
146 163 147
136 155 136
154 170 159
181 194 197
183 196 196
185 197 200
184 196 197
175 189 188
187 199 202
179 193 193
179 192 191
186 198 198
186 198 200
186 198 199
186 198 201
185 197 198
179 193 194
185 197 199
169 183 181
188 200 202
182 194 195
182 194 195
180 192 193
175 188 186
171 185 183
182 194 196
179 192 191
148 165 152
127 147 122
116 139 106
127 148 126
183 195 194
188 200 205
191 202 206
183 195 196
188 200 204
181 193 196
188 200 201
186 197 200
176 190 190
175 188 188
182 194 193
182 195 196
192 204 208
174 187 186
190 201 205
183 195 197
195 206 210
189 199 201
182 195 195
192 204 207
189 201 207
195 206 212
192 204 209
189 201 205
191 203 208
184 197 200
181 193 195
178 191 192
184 196 200
123 145 116
121 141 114
119 140 110
118 140 112
119 142 109
127 147 123
118 140 108
115 138 105
113 137 101
117 138 108
116 138 108
103 128 93
119 141 111
110 134 100
127 147 122
120 140 113
111 134 100
117 140 106
124 145 122
119 140 113
126 146 122
123 143 118
118 139 111
116 140 107
125 146 120
114 137 103
112 134 103
113 136 103
139 159 143
191 201 203
185 197 200
194 204 210
191 203 209
187 198 200
190 201 205
191 201 205
195 206 213
198 208 211
199 208 214
194 204 209
194 205 210
189 201 203
182 194 196
192 203 209
186 198 201
191 203 211
185 197 198
196 206 210
195 206 209
195 206 211
184 196 197
194 204 208
188 200 201
185 197 203
192 202 207
179 192 191
160 175 169
152 168 155
174 188 186
189 199 201
211 220 228
194 205 210
190 201 205
193 204 212
194 205 213
190 201 206
195 205 210
190 201 205
193 204 210
191 203 208
190 201 203
199 209 217
194 205 210
192 203 206
201 211 216
195 205 210
182 194 197
187 200 206
189 200 204
191 202 206
192 203 209
179 192 193
200 209 216
190 201 206
186 198 202
151 167 156
117 140 108
105 129 91
118 139 108
114 136 104
122 143 113
126 146 122
116 138 109
120 143 110
128 148 123
118 140 110
122 143 113
112 135 101
111 134 100
127 146 120
135 152 131
121 143 113
130 149 124
129 149 123
121 141 114
115 137 107
119 140 114
109 133 100
128 149 124
113 137 101
129 149 124
116 138 109
133 152 132
188 200 201
186 197 199
188 199 201
184 198 203
192 204 207
186 197 199
183 195 199
198 208 213
192 202 204
190 201 203
187 199 201
200 210 217
173 187 187
189 200 206
191 201 206
184 196 199
195 206 213
184 196 199
188 199 201
191 202 206
191 202 207
193 205 211
188 199 202
181 194 198
179 192 192
183 195 196
175 188 187
124 145 116
132 152 127
127 148 126
114 136 107
126 145 120
130 150 126
132 150 130
122 143 117
130 149 126
133 152 128
130 150 124
136 155 137
135 155 133
134 153 132
135 154 134
131 150 128
136 155 133
138 158 139
130 149 126
123 143 120
118 140 112
129 150 123
134 154 132
117 139 109
133 151 133
150 168 153
181 193 195
169 182 178
178 190 189
175 188 187
176 189 189
176 188 186
166 178 173
179 191 192
168 182 179
177 191 191
176 190 191
179 192 193
176 188 189
184 197 199
182 195 197
189 200 202
178 191 192
176 188 185
181 193 195
169 183 181
171 185 182
162 177 170
176 189 186
177 190 190
163 177 172
150 166 152
138 157 138
150 166 153
156 171 160
137 156 136
137 156 139
151 167 155
155 170 159
142 159 145
147 163 146
152 167 155
145 162 152
148 166 151
159 174 162
150 166 154
160 175 167
153 169 157
149 165 152
149 166 153
149 165 155
163 178 169
146 163 147
130 150 125
167 181 175
170 184 180
167 182 178
172 185 182
157 172 164
161 176 168
171 185 179
151 167 157
160 175 166
159 173 167
145 161 149
157 171 161
161 176 170
159 173 165
160 175 168
151 167 156
157 172 161
145 162 147
151 167 156
146 162 148
153 169 159
172 184 178
167 181 177
165 181 176
160 175 169
167 181 176
169 183 176
158 173 165
180 193 194
174 187 187
175 188 184
169 183 177
161 176 167
164 178 171
175 188 189
173 187 185
169 184 180
158 173 165
142 159 143
96 123 74
95 122 74
95 123 74
92 120 72
95 122 73
93 120 71
97 124 75
97 124 75
178 191 192
200 210 219
202 211 218
201 212 220
206 216 227
202 214 224
200 211 220
201 213 223
195 206 212
196 207 215
183 196 199
130 150 131
103 130 85
94 121 72
91 117 69
98 125 75
97 125 75
92 119 72
96 124 74
94 121 73
94 121 72
94 121 73
94 121 72
96 124 75
98 126 75
100 128 77
162 177 170
204 215 225
201 212 221
203 212 220
210 219 229
207 217 227
200 211 218
197 207 214
207 217 229
196 208 216
206 216 226
210 219 228
201 210 216
193 204 213
207 218 229
202 212 222
203 213 221
206 215 224
197 208 216
200 210 217
204 214 224
206 217 228
204 214 224
202 211 219
204 213 221
206 215 225
178 190 188
166 180 175
202 212 221
204 214 224
201 211 220
200 210 219
209 218 227
201 212 222
209 219 230
203 214 225
197 207 213
202 213 223
205 215 224
200 210 215
198 208 215
192 203 209
209 218 229
208 217 225
198 209 217
209 218 228
202 212 220
195 206 214
207 217 226
201 211 219
207 216 226
205 214 221
205 214 223
208 217 226
200 211 218
171 185 183
96 123 74
96 123 74
93 120 73
97 125 75
95 123 74
91 119 71
93 120 72
95 122 73
95 122 73
94 122 73
94 121 72
97 125 76
95 122 74
93 120 72
100 127 76
93 121 73
98 126 76
96 123 74
96 124 74
97 125 75
93 120 71
94 121 72
97 125 74
95 122 74
94 121 72
95 122 73
96 124 75
126 146 121
156 172 164
127 147 122
100 126 81
98 125 75
91 118 69
95 122 73
95 122 73
93 120 72
97 124 75
98 125 75
99 127 76
95 122 73
95 122 73
95 122 73
92 119 71
96 124 74
92 119 71
95 122 73
96 123 74
98 126 76
96 123 74
93 120 72
97 124 75
96 124 74
99 126 76
96 123 74
93 120 72
96 123 74
140 159 147
210 219 227
198 209 218
193 204 210
201 211 219
197 207 215
204 215 224
203 213 220
198 208 216
194 206 216
200 210 216
204 214 223
215 224 233
204 214 223
208 217 226
200 211 220
202 212 219
202 212 221
196 207 216
205 215 224
204 213 221
199 209 217
199 210 218
203 213 221
202 212 221
196 207 214
200 210 217
206 216 225
201 211 219
133 152 130
98 125 75
96 123 74
97 124 74
95 122 73
94 121 72
99 126 76
94 122 73
96 124 74
96 124 74
99 126 76
98 125 76
96 123 74
95 121 73
96 123 73
95 122 73
97 124 74
93 121 72
98 125 75
96 124 75
96 123 74
93 120 72
92 119 71
97 124 74
94 121 72
97 125 76
95 123 74
98 125 75
126 146 123
202 212 221
203 213 221
206 216 226
200 210 218
210 219 230
193 204 208
182 194 195
170 183 177
150 166 154
130 149 127
106 132 88
94 121 72
96 124 75
94 121 72
93 119 72
92 119 71
95 122 73
95 122 73
93 120 72
96 123 73
92 118 70
92 119 72
97 125 75
94 121 72
95 122 73
97 124 75
96 124 75
119 140 110
205 215 225
206 215 224
210 219 230
207 216 226
196 207 214
203 213 222
195 206 216
205 214 222
204 213 224
204 214 225
200 210 220
193 205 214
201 211 219
209 218 229
195 205 212
202 213 223
194 205 215
201 211 219
205 215 223
194 205 213
203 212 220
203 213 221
202 213 222
205 215 226
194 206 214
207 217 227
207 216 226
131 151 130
97 125 75
90 117 70
96 124 74
96 124 75
98 126 75
94 122 73
96 123 73
94 122 73
94 121 72
95 123 74
94 121 72
94 120 72
95 123 74
96 123 73
94 121 72
95 123 74
94 120 72
95 122 73
96 123 73
93 120 72
96 123 73
94 121 71
95 123 73
96 123 74
97 124 75
104 130 85
202 212 219
205 214 222
198 209 217
198 209 216
202 213 223
202 212 222
209 218 227
202 212 219
203 213 222
205 215 223
200 211 219
206 216 226
211 220 231
205 214 220
202 212 221
209 219 228
204 213 220
204 214 222
198 208 215
204 215 225
205 214 221
205 215 224
203 213 222
202 212 220
201 211 219
188 200 202
98 125 78
95 122 74
97 124 75
95 122 73
96 123 74
97 124 75
91 118 70
94 122 73
94 121 73
94 122 73
94 121 73
95 121 72
96 123 74
95 122 73
94 121 72
93 120 72
95 123 73
96 123 74
93 119 72
99 126 76
92 120 71
96 124 75
95 122 73
92 119 71
160 174 166
200 210 219
199 209 217
209 218 226
201 210 218
198 208 216
199 209 217
207 217 226
204 215 225
196 207 214
195 206 213
209 219 230
209 218 227
208 217 224
211 220 230
210 220 230
205 214 222
200 211 220
197 208 213
194 205 211
210 218 226
201 210 218
206 215 222
203 213 221
112 136 99
92 119 71
95 122 73
97 124 74
95 122 73
94 121 72
94 122 73
94 121 72
94 122 73
95 122 73
98 125 75
93 120 71
99 127 76
92 119 71
96 123 74
98 126 76
94 121 72
95 122 74
96 123 74
95 122 72
98 125 75
98 124 82
179 191 192
199 210 218
205 214 222
205 215 224
205 214 222
199 210 219
206 216 225
205 214 224
203 213 221
199 209 216
185 196 199
181 193 192
151 168 159
145 161 145
111 135 102
100 127 79
95 123 74
94 121 73
94 122 73
95 122 74
96 123 74
92 118 71
93 120 71
95 122 73
97 125 75
97 125 74
169 183 176
198 209 217
200 211 219
209 218 227
203 213 221
206 216 225
205 215 224
200 211 218
203 214 224
203 214 224
203 213 220
202 213 221
193 204 212
163 178 170
116 139 108
95 122 73
94 121 72
95 122 73
92 120 72
94 121 72
95 122 74
94 121 72
91 118 71
95 122 73
95 123 74
95 123 74
160 175 165
198 209 219
195 206 213
205 215 224
206 216 227
199 210 216
202 211 219
197 208 217
202 212 222
202 212 221
199 209 216
202 212 220
202 211 219
202 213 222
205 215 224
205 215 223
205 215 225
205 215 226
201 212 223
207 216 226
201 210 217
210 219 228
211 220 229
197 207 214
199 210 218
198 209 217
205 214 223
162 177 171
109 133 93
141 159 138
174 187 185
202 211 218
200 210 218
203 212 219
206 215 224
194 205 214
209 218 227
205 216 225
203 214 224
188 200 204
205 215 225
205 215 225
207 217 226
205 214 221
205 215 224
193 205 212
200 210 217
203 212 220
203 213 223
205 215 224
193 204 212
194 206 215
206 217 227
196 206 214
208 218 229
155 171 162
95 123 74
95 123 74
96 124 75
93 121 72
91 118 70
98 126 76
94 122 73
95 123 74
91 118 71
93 119 71
93 120 71
97 124 75
96 124 75
95 123 73
96 123 74
93 120 71
95 123 74
92 119 72
92 118 70
97 125 75
98 126 76
99 127 77
94 120 72
95 123 74
91 119 71
98 126 76
98 125 75
115 138 102
205 215 225
203 213 220
198 209 216
178 190 188
150 167 152
115 138 102
96 123 76
93 120 71
98 125 74
96 123 74
96 123 73
95 122 73
93 120 72
95 122 73
93 121 73
93 120 72
97 125 75
96 123 74
97 125 75
96 123 73
95 123 74
95 122 72
99 127 77
94 121 73
95 123 74
98 125 75
92 119 71
96 123 74
172 186 181
203 213 222
206 216 226
202 212 220
198 208 214
201 210 220
199 211 221
198 208 215
202 212 223
206 215 225
206 215 222
202 212 220
206 215 224
205 215 225
206 216 227
196 207 216
199 209 216
202 212 220
196 207 216
207 216 225
203 213 222
206 216 226
205 215 224
202 213 223
202 212 220
197 206 213
200 211 219
203 213 222
199 209 218
97 124 77
95 122 73
94 121 73
95 122 72
94 121 73
91 117 69
91 118 70
97 125 75
94 121 72
98 126 75
95 122 73
95 123 74
90 117 69
94 122 73
98 125 75
94 121 73
97 124 75
98 125 75
100 128 77
94 122 73
95 122 74
95 122 73
96 123 74
95 123 74
95 122 74
95 123 74
97 124 75
96 124 74
165 180 172
199 209 217
207 217 227
205 216 226
204 213 221
196 207 215
201 211 219
204 214 222
208 217 227
203 214 223
205 214 223
200 210 218
195 206 212
185 197 200
183 195 195
160 175 169
142 160 142
121 143 115
113 137 103
98 125 78
92 119 70
93 120 72
96 124 74
95 123 74
95 123 74
95 123 74
94 121 73
95 122 73
155 170 160
204 215 224
205 215 225
200 210 218
198 208 215
207 216 226
203 213 223
208 218 229
206 215 222
197 208 215
199 210 217
199 210 220
210 220 230
208 217 226
204 214 223
205 215 224
202 212 219
205 214 223
204 214 224
200 210 219
204 214 224
196 207 214
198 208 216
209 219 230
208 218 230
203 213 220
196 207 214
187 198 202
97 124 77
92 120 72
97 125 76
96 124 75
94 121 72
92 119 70
95 122 73
96 123 74
95 123 74
93 120 73
95 122 72
91 118 70
94 122 73
93 120 72
97 124 74
96 123 73
96 123 73
95 122 73
94 122 74
97 125 75
94 121 72
95 122 73
96 123 74
96 123 73
93 119 71
95 122 73
148 165 154
202 212 220
206 216 225
202 211 218
210 219 228
198 208 215
203 213 223
203 213 223
195 206 215
199 209 218
204 214 222
195 205 213
202 214 224
200 210 218
201 211 217
201 211 217
201 212 221
204 214 224
207 217 227
195 205 211
203 213 221
201 211 218
193 203 209
204 214 221
214 223 232
209 218 227
131 150 128
96 123 74
94 121 72
94 121 72
94 121 72
97 125 75
97 124 74
97 124 74
95 122 73
96 124 74
93 120 72
95 123 74
95 122 73
94 122 73
94 122 73
95 122 74
97 124 75
95 122 73
92 119 71
97 125 76
95 122 74
96 123 73
91 117 70
95 123 75
108 132 95
207 217 227
193 204 212
201 212 221
204 214 223
201 211 219
204 214 223
200 211 218
203 213 222
208 217 227
202 212 221
202 211 219
196 206 211
199 210 219
196 208 216
209 218 229
202 211 217
203 213 223
210 219 227
200 211 219
210 218 228
205 215 223
202 212 220
199 209 216
152 167 156
95 123 74
93 120 72
96 123 73
96 123 74
90 117 70
94 122 73
94 121 72
98 125 76
95 123 73
97 125 75
95 123 74
98 126 76
94 122 73
97 125 75
97 124 75
94 121 72
97 125 75
95 122 73
98 125 75
92 119 71
98 125 75
164 179 173
203 213 222
199 209 218
206 217 229
199 210 216
172 185 184
163 178 172
143 161 142
130 150 127
108 131 97
98 124 79
96 123 74
96 124 75
95 122 73
92 120 72
95 123 74
97 124 75
95 123 74
96 123 73
96 123 74
94 121 73
94 121 72
93 120 71
94 121 72
97 124 74
95 123 73
97 124 74
151 166 152
202 213 222
198 208 216
200 210 220
211 219 228
196 207 214
205 215 224
204 215 224
206 216 228
203 213 221
207 217 227
202 213 222
201 211 220
195 206 213
197 207 214
181 194 194
153 170 154
100 125 82
93 121 72
95 122 74
89 116 69
96 123 74
95 123 74
94 122 74
93 120 72
98 126 76
149 166 153
207 217 227
198 208 215
208 217 227
205 215 225
209 218 225
203 214 225
209 218 228
204 215 225
194 205 214
202 213 221
209 218 226
202 213 221
199 210 218
202 212 220
201 211 218
207 216 225
199 209 217
206 216 227
202 212 220
203 213 221
197 207 213
203 214 224
195 207 215
204 214 223
197 207 215
206 216 226
185 195 196
96 123 74
96 123 73
95 122 73
98 125 75
149 166 153
173 187 186
204 213 219
197 207 216
196 207 214
203 213 221
204 214 223
207 217 226
203 213 222
196 206 211
205 214 222
205 214 223
196 207 215
207 216 224
199 210 221
207 215 222
196 207 214
205 215 225
206 216 227
205 215 222
202 213 223
201 210 218
195 206 214
164 178 171
94 121 72
90 117 70
95 123 73
95 122 73
93 121 72
93 120 72
96 123 74
95 122 73
96 124 74
91 118 70
97 125 75
97 124 74
93 120 72
96 123 74
97 124 74
93 120 72
94 121 72
97 124 75
93 120 71
97 125 74
91 119 71
98 126 75
93 121 72
96 124 74
97 124 74
95 122 73
94 121 72
150 167 152
210 219 227
194 205 212
210 220 231
203 214 223
206 216 226
201 210 218
201 211 221
171 185 184
155 171 159
118 139 108
93 120 73
94 122 73
94 122 73
94 121 73
97 124 74
95 122 73
96 123 74
96 124 75
92 119 71
98 125 75
96 124 75
95 122 73
97 124 74
98 126 76
92 119 70
97 125 76
95 122 73
95 123 74
180 191 194
207 216 227
198 208 215
201 211 219
211 220 231
198 208 216
199 209 216
204 214 224
207 216 224
197 208 218
203 213 220
202 211 217
202 212 221
196 206 214
206 216 225
203 213 223
198 208 214
204 213 220
199 209 216
203 213 222
203 213 222
206 216 226
204 213 221
199 210 217
206 217 228
199 210 219
206 216 225
200 210 219
188 201 203
98 125 75
96 123 74
94 121 72
95 123 74
94 122 74
94 121 72
95 123 73
96 123 73
96 124 74
94 121 72
95 123 74
95 122 74
96 124 75
98 125 75
93 120 72
96 123 74
95 122 72
95 122 73
98 125 75
91 118 70
95 122 73
96 124 74
100 128 77
98 126 76
92 118 70
94 121 73
95 122 73
94 122 72
196 207 214
204 214 223
212 221 231
195 206 214
197 207 215
204 214 223
206 216 227
198 209 216
203 213 221
208 217 226
199 209 215
200 210 218
198 209 216
195 205 213
206 215 225
200 210 220
200 210 216
198 208 215
205 215 223
196 206 212
187 199 202
177 190 188
162 177 168
154 169 158
150 166 154
118 139 111
106 130 92
101 128 84
199 209 215
205 215 225
208 217 225
202 211 219
199 210 218
209 218 227
208 217 226
207 217 226
203 213 221
206 215 224
202 212 221
205 215 224
206 215 224
192 203 210
198 208 218
206 216 224
205 214 222
202 212 220
203 214 223
202 213 222
201 212 222
203 213 223
197 208 216
204 214 221
199 209 217
207 217 226
210 219 228
162 178 170
97 125 75
93 120 71
94 121 72
95 122 73
97 124 74
93 120 72
93 120 71
99 126 75
92 120 72
96 123 74
92 119 71
96 123 73
98 126 76
94 121 73
94 121 73
98 126 76
98 125 75
95 122 73
97 125 74
94 121 72
95 122 73
97 125 75
94 122 73
92 119 71
96 124 74
103 128 89
194 205 209
200 210 219
195 205 211
195 206 215
202 211 219
207 216 225
213 222 234
207 216 225
207 216 226
206 216 225
193 205 211
198 210 219
206 215 223
199 209 218
201 210 216
198 208 215
201 211 218
202 212 220
203 213 224
204 213 221
210 219 227
192 203 209
205 215 225
202 211 220
204 214 223
182 194 195
94 122 73
98 125 75
97 124 75
96 124 74
93 121 72
95 123 74
91 119 71
96 123 73
98 125 75
92 120 72
92 119 70
94 121 73
95 122 74
93 120 73
94 121 72
99 126 75
95 122 74
97 124 75
94 121 73
96 123 74
96 123 74
96 123 73
95 121 72
96 123 74
188 200 203
210 219 228
203 213 223
201 212 222
203 213 223
205 215 226
205 215 223
210 219 229
205 216 226
195 206 213
200 211 219
198 209 217
204 215 224
203 214 223
202 213 223
196 206 213
205 216 228
203 212 219
196 207 215
205 215 226
197 208 215
198 209 217
206 215 222
175 188 189
93 120 72
98 126 76
98 126 75
92 120 72
94 122 73
96 124 75
93 120 71
97 124 74
96 123 73
94 122 73
92 119 71
94 121 72
97 124 75
92 119 71
92 119 71
95 122 73
96 122 73
91 118 69
99 125 80
129 148 124
130 150 127
135 154 133
145 163 148
136 154 135
120 141 110
97 124 79
94 122 74
94 121 72
95 122 73
95 123 74
98 126 75
95 122 74
97 125 75
93 120 72
94 121 72
96 123 74
94 121 73
97 124 74
98 125 75
96 123 74
95 123 74
97 125 75
93 120 72
93 120 72
94 121 72
90 117 70
94 121 72
93 120 72
97 124 75
126 145 122
200 210 218
208 218 227
205 215 225
203 213 222
196 206 212
203 213 221
193 204 212
203 214 223
202 213 223
202 212 220
207 217 228
204 214 222
207 217 227
201 211 219
201 212 220
206 216 226
200 211 219
169 184 180
114 136 109
96 123 74
97 125 75
96 124 75
96 123 74
97 124 74
92 119 71
127 147 124
202 212 220
199 209 215
203 214 222
208 217 226
200 210 217
200 211 221
194 204 211
213 221 230
195 205 214
205 215 224
198 207 213
199 209 218
202 212 221
205 214 223
203 212 217
198 208 217
199 210 220
196 206 214
195 206 215
204 214 222
207 216 226
205 215 221
197 208 216
203 212 220
202 212 220
203 212 221
183 195 194
95 123 74
95 122 73
94 121 72
94 122 72
94 121 72
95 122 73
105 130 90
134 153 130
162 176 170
194 205 215
201 212 220
204 214 223
203 213 222
208 218 228
198 208 214
198 208 216
199 209 217
205 214 223
208 218 228
203 213 223
201 212 219
204 214 223
203 213 222
210 219 228
195 206 214
201 212 221
200 210 218
149 166 151
93 119 71
92 119 70
93 120 71
94 120 71
97 125 75
100 128 77
92 119 71
97 124 74
95 122 73
94 121 72
96 123 74
96 124 75
96 123 74
99 126 76
93 120 72
96 124 74
95 122 73
96 123 73
94 121 73
98 125 75
98 125 75
93 120 72
98 125 74
95 122 74
97 125 75
91 118 70
95 122 74
161 176 167
203 213 220
204 215 225
195 206 215
200 211 219
197 208 215
204 214 223
210 220 229
206 216 225
202 213 224
210 220 229
200 210 216
167 181 175
152 168 153
110 133 101
96 123 74
96 124 74
93 120 72
95 122 74
93 120 71
98 126 76
95 122 73
97 124 74
96 123 73
94 122 73
94 122 73
91 117 69
95 122 73
100 127 79
196 208 216
202 212 219
203 212 219
216 224 235
199 209 215
202 213 220
196 207 215
200 210 218
202 213 223
210 219 229
207 216 224
205 214 223
203 212 221
203 212 222
205 215 224
205 214 221
198 209 220
203 213 222
205 215 223
196 207 216
206 216 226
198 208 217
207 217 228
195 206 212
198 209 218
202 212 218
183 195 199
208 217 226
157 172 161
96 124 74
92 119 71
94 121 72
95 122 73
95 122 74
91 118 71
97 125 75
95 123 74
92 119 71
100 128 77
94 122 73
93 120 72
95 122 73
96 123 74
97 124 75
95 122 73
95 122 74
96 122 72
94 121 72
95 123 74
94 121 73
98 125 75
98 126 76
95 123 74
99 127 76
94 121 72
94 122 73
130 149 126
204 214 224
196 206 213
200 210 219
205 215 223
204 214 222
206 217 228
203 213 222
205 215 225
203 213 222
203 213 222
197 207 215
212 221 231
201 211 219
208 217 226
199 210 219
205 215 223
199 209 218
202 212 220
193 204 210
202 212 223
195 206 213
207 217 226
196 206 213
202 212 220
204 213 222
207 217 226
209 218 228
185 198 201
127 146 124
136 155 134
157 172 162
168 183 179
172 185 182
187 198 198
188 199 203
195 206 212
198 208 213
200 210 220
201 211 217
197 208 216
202 212 221
205 215 226
202 212 220
199 209 218
208 217 225
200 211 219
200 211 219
204 214 224
204 214 223
204 214 223
202 212 220
196 206 211
193 203 208
206 215 226
192 203 209
104 130 88
93 120 71
97 124 74
94 121 73
95 122 73
95 122 74
97 125 75
94 122 73
96 123 73
96 123 75
94 121 72
98 125 75
94 122 73
92 119 71
89 116 69
94 121 72
94 122 73
98 125 75
96 124 74
97 124 75
98 126 76
94 120 71
96 123 74
93 120 72
95 122 73
95 123 74
155 170 163
198 208 215
200 210 219
202 213 224
197 208 215
201 212 221
204 213 222
205 215 224
196 207 216
205 215 223
194 206 214
201 212 221
212 221 232
205 215 224
200 210 218
199 209 217
207 216 225
199 209 218
203 213 221
207 216 224
199 209 218
205 214 223
200 211 221
190 201 209
204 214 224
195 206 212
112 135 100
92 119 70
99 127 76
97 125 75
95 122 73
95 123 74
93 120 72
96 124 74
93 120 71
95 122 73
95 123 74
97 124 75
97 124 75
98 126 75
96 123 73
95 123 74
95 122 73
97 124 75
98 125 75
92 120 72
98 125 75
95 121 72
96 124 75
95 123 74
134 153 133
214 223 235
204 215 224
205 216 226
197 208 215
204 214 222
207 217 225
203 212 221
203 213 221
194 205 213
190 201 207
201 211 219
201 212 222
206 216 225
204 214 223
208 217 227
203 212 220
203 212 220
202 212 219
205 215 225
204 214 223
203 213 222
204 214 223
198 208 215
110 132 97
97 125 74
95 123 73
93 120 71
97 125 75
95 123 74
94 122 73
97 124 75
92 119 70
96 123 73
91 118 70
115 135 104
115 137 107
129 149 126
156 171 163
161 176 169
180 192 194
189 201 204
204 214 222
200 210 218
200 210 218
188 199 203
112 134 99
98 125 75
92 118 70
96 123 74
94 121 72
95 123 74
97 125 76
95 122 73
98 126 76
93 119 71
93 121 72
93 120 71
96 123 74
94 122 74
95 122 74
94 122 74
94 121 72
96 124 74
96 123 73
90 117 70
98 126 76
94 121 73
92 118 70
95 122 74
94 121 71
91 118 70
95 123 73
95 123 74
105 129 93
207 216 224
201 212 222
201 211 219
192 202 209
196 207 216
202 212 221
200 211 220
198 209 218
201 212 222
201 211 218
203 213 222
198 208 215
208 218 229
212 220 230
205 216 227
200 210 218
197 207 214
200 211 219
203 213 221
192 203 208
151 168 155
111 135 100
93 120 71
94 121 72
95 123 73
130 151 124
200 211 219
200 210 216
207 217 226
207 217 227
207 216 225
202 213 221
203 212 219
196 206 212
203 213 220
201 212 221
204 214 223
205 215 225
204 214 225
202 212 219
201 211 222
192 204 211
205 215 223
203 213 222
200 211 220
196 207 214
204 214 223
211 219 227
203 213 223
197 207 214
202 211 219
199 209 218
181 194 193
97 125 75
95 122 73
99 127 76
94 121 73
96 124 75
95 123 73
95 122 73
93 120 71
98 126 76
99 126 81
132 150 132
177 191 191
205 215 223
204 213 220
206 215 224
203 213 219
195 206 213
193 204 212
203 213 221
204 214 224
197 208 217
204 213 222
199 209 217
198 209 217
202 212 220
199 210 221
200 210 218
144 161 146
96 124 75
91 118 70
95 122 72
96 124 74
97 124 74
97 124 74
94 121 72
95 123 74
96 124 75
99 127 76
95 123 74
96 123 74
94 121 73
94 121 73
96 123 74
93 121 73
93 120 72
102 129 78
97 124 75
94 121 72
95 122 73
91 118 70
95 123 74
96 124 74
97 124 75
94 122 73
96 124 74
156 171 162
201 212 221
206 215 223
205 215 223
204 214 223
198 208 214
208 218 228
194 206 215
201 211 217
206 215 223
202 212 221
206 215 222
196 207 216
205 215 224
202 212 220
185 197 201
174 188 186
140 158 143
112 134 102
94 121 72
94 121 72
96 124 74
95 123 74
91 117 70
93 121 72
93 120 71
93 119 71
99 127 77
122 144 115
202 213 220
196 207 215
202 213 222
191 203 211
200 210 218
211 220 230
203 212 219
201 210 216
207 217 226
200 210 217
208 217 227
202 212 220
200 210 219
207 217 227
202 212 221
197 208 216
202 212 221
206 215 223
197 207 216
207 217 226
200 210 219
207 216 225
204 214 225
198 208 215
202 212 223
200 211 220
200 210 218
204 213 222
120 141 112
96 123 74
93 120 73
96 124 75
97 124 74
96 123 74
92 118 71
96 123 73
90 117 69
94 122 72
93 120 71
95 122 74
96 123 74
92 119 71
95 123 74
97 124 74
96 123 74
98 125 75
97 125 75
98 125 76
98 125 75
94 121 73
90 117 70
96 123 74
98 125 75
93 120 72
97 124 75
92 119 71
163 177 170
200 210 218
199 209 216
203 212 220
204 213 222
202 212 218
201 212 221
197 207 213
203 213 221
191 202 209
205 215 225
206 215 223
198 208 214
197 206 212
208 218 228
207 216 224
202 212 220
200 210 218
198 208 215
203 213 222
198 208 216
200 210 219
205 215 225
203 213 222
204 213 221
200 210 217
198 208 216
205 215 225
128 148 127
96 124 75
98 126 76
95 122 74
95 122 72
97 125 75
98 125 75
95 122 73
94 121 72
97 123 79
115 138 109
139 157 138
160 174 167
163 177 170
162 177 171
166 181 175
186 198 200
185 197 198
193 204 208
211 220 229
208 217 227
198 208 213
198 209 219
207 216 224
209 218 226
205 214 220
203 213 223
157 172 163
95 122 74
96 124 75
92 120 71
96 124 74
94 122 73
96 123 74
95 123 74
98 125 75
97 125 75
94 121 73
94 122 73
99 127 76
94 122 73
93 120 72
92 119 71
94 121 72
97 124 74
97 124 74
96 124 74
96 122 72
95 123 73
96 124 75
99 126 76
94 121 73
95 122 73
105 128 90
192 203 210
198 209 217
199 209 217
205 215 224
200 211 219
210 219 228
196 207 214
195 207 214
203 213 222
200 210 218
205 215 224
200 210 218
201 211 218
201 212 222
206 216 226
211 220 231
200 210 218
198 209 217
198 209 216
200 211 221
206 215 223
204 214 223
191 203 209
195 205 213
207 217 227
150 166 155
93 120 72
97 125 75
96 124 74
95 123 73
94 121 72
96 123 73
98 126 76
95 122 73
92 118 70
95 123 74
93 121 73
94 121 72
96 124 74
99 127 77
92 119 71
96 123 74
96 123 74
94 121 73
94 121 73
97 124 74
95 122 73
95 122 73
97 124 75
109 132 95
197 207 214
207 217 227
205 216 227
205 215 225
206 216 227
198 208 215
199 210 219
197 207 214
200 211 220
205 215 225
204 213 221
204 215 226
205 215 223
205 214 222
194 205 211
199 210 219
197 208 214
205 215 225
202 212 221
203 213 224
208 218 227
200 210 219
209 219 228
134 152 133
96 123 74
107 132 90
116 138 105
123 143 116
136 155 137
156 172 166
164 178 171
178 192 192
175 187 184
200 210 218
190 202 206
207 216 226
202 212 220
199 210 217
202 212 222
205 215 223
198 208 216
199 209 216
202 212 222
207 216 226
198 209 216
122 143 113
94 121 72
95 122 74
92 119 70
93 120 72
92 119 71
98 126 76
93 120 72
93 121 72
93 120 72
97 125 75
95 122 73
96 123 74
95 122 73
96 123 73
93 119 71
94 121 73
94 122 73
96 123 73
92 118 71
138 157 137
93 120 72
95 122 72
95 123 74
94 121 72
95 123 73
96 124 74
94 122 73
92 118 71
96 124 74
200 210 215
206 217 228
203 214 223
204 214 223
199 210 220
198 209 217
196 208 218
202 213 221
204 213 220
204 214 223
198 208 215
195 205 212
208 217 226
198 208 216
203 213 223
204 215 225
196 207 215
202 213 222
202 211 219
198 209 219
204 214 222
205 214 222
169 184 182
141 158 141
100 126 83
100 126 78
200 211 220
199 209 218
197 207 215
205 214 223
204 214 222
203 212 220
205 214 222
203 213 221
196 207 215
212 220 230
201 211 218
198 209 218
198 208 216
207 216 224
200 210 218
200 209 216
204 214 225
204 214 224
195 205 212
202 212 221
206 215 223
204 213 222
209 218 228
203 214 223
206 216 226
204 214 222
185 197 198
93 120 71
94 121 72
91 118 71
96 124 74
96 123 74
94 122 73
91 118 70
96 123 73
94 122 73
96 123 73
95 122 73
99 126 75
101 127 84
125 145 124
167 180 174
195 205 210
203 213 221
196 206 215
202 213 222
206 216 224
191 203 209
195 206 213
201 211 219
190 201 207
207 217 226
200 211 219
201 211 219
121 143 117
92 119 71
92 119 71
94 121 72
95 122 73
93 120 73
91 118 70
96 123 74
92 119 70
92 119 71
96 124 75
91 118 70
96 124 75
97 124 75
95 122 72
96 123 74
95 122 73
94 122 73
94 121 73
94 122 73
95 122 74
96 123 74
92 120 72
89 116 69
93 121 72
97 124 74
95 121 72
97 124 74
170 183 179
202 212 220
203 214 224
200 211 220
198 207 214
212 221 230
200 210 220
198 209 217
199 209 217
197 208 215
203 212 220
201 212 222
204 214 224
201 212 222
204 214 222
202 212 220
200 210 219
201 212 221
200 210 219
189 200 203
171 184 182
150 166 154
121 143 115
94 122 73
91 118 71
94 121 73
97 125 75
92 119 71
142 161 142
195 206 212
208 217 225
205 214 222
201 211 217
201 211 218
200 210 217
208 217 228
200 210 218
208 217 226
197 207 215
204 215 225
204 214 224
199 210 218
208 217 224
207 217 227
196 207 214
205 215 224
204 213 221
205 214 221
203 213 222
201 211 221
205 214 221
200 210 218
200 210 218
198 208 217
204 214 224
206 216 225
198 208 216
91 119 71
95 122 73
97 124 74
98 125 75
94 121 73
95 123 74
94 121 73
93 119 71
94 121 72
95 123 74
98 126 76
92 120 72
98 125 75
97 124 75
95 122 74
94 120 72
94 122 73
95 123 73
98 125 75
93 120 72
95 123 73
94 122 74
98 125 75
92 119 71
96 123 74
98 126 76
92 119 71
93 121 73
193 203 207
200 211 220
203 212 220
203 213 220
204 214 223
197 207 214
190 201 208
210 219 228
204 213 221
202 212 222
207 216 226
197 207 213
201 211 217
198 209 217
208 218 227
200 211 221
204 214 223
206 216 225
199 210 217
203 212 221
200 210 217
204 213 222
198 209 217
199 210 218
207 217 227
202 212 220
203 213 222
184 195 199
93 121 73
95 122 73
95 122 73
93 121 72
96 124 74
97 125 75
98 126 76
93 120 72
94 121 73
97 125 75
98 126 76
98 125 76
97 125 75
96 123 74
99 126 76
97 124 75
94 121 72
96 124 74
94 121 73
101 126 83
111 134 99
119 141 112
139 158 143
140 160 140
152 168 157
156 171 162
158 173 167
144 162 145
132 151 128
116 138 107
108 132 95
95 122 74
96 124 74
95 122 72
94 122 72
94 121 73
96 123 74
94 121 72
93 120 72
95 122 74
93 120 72
94 121 72
95 122 73
97 125 76
94 121 72
95 122 73
96 123 74
95 122 73
93 120 72
92 119 71
93 120 71
98 126 76
98 126 76
159 174 166
201 212 222
200 210 217
204 214 223
200 210 218
203 213 223
194 205 211
201 212 222
204 214 224
201 211 219
192 204 213
200 211 219
199 209 218
200 210 220
202 212 221
205 215 225
199 209 216
202 212 222
209 218 227
200 211 219
206 216 226
202 212 222
197 208 214
196 207 214
199 209 216
192 203 209
101 127 81
95 123 74
95 122 74
98 125 75
98 125 76
91 118 71
94 121 72
96 124 74
92 119 71
97 124 74
94 121 73
97 125 76
90 116 68
95 122 72
96 123 74
90 117 70
95 122 73
96 124 74
98 126 75
93 120 72
95 123 74
96 123 74
99 127 76
93 120 71
175 188 184
206 216 225
201 212 220
207 216 226
201 210 217
205 215 224
199 210 217
199 210 218
200 211 223
206 215 223
196 207 215
195 206 212
200 210 219
204 214 224
197 208 218
192 202 207
184 197 199
185 197 200
178 192 190
165 179 173
157 172 162
134 153 134
138 156 136
170 183 180
192 203 210
205 214 222
196 207 216
200 210 221
207 217 227
205 216 226
207 216 225
194 206 214
202 212 221
205 216 226
197 208 216
199 210 218
197 208 218
204 214 223
198 208 216
204 214 224
206 215 224
203 212 219
201 212 222
193 204 212
201 212 219
158 174 164
94 121 73
94 121 73
97 125 75
96 123 73
94 121 73
94 121 72
92 119 71
95 123 74
95 122 73
95 123 73
93 120 71
95 124 75
96 124 75
93 120 72
95 122 73
92 119 71
91 118 70
98 126 76
95 122 73
119 141 113
192 205 213
164 178 171
137 156 137
95 123 74
97 124 74
98 126 76
91 118 70
97 124 74
97 124 74
93 120 72
177 190 191
200 210 218
205 215 223
197 207 213
201 211 219
207 217 226
203 214 222
204 214 223
202 213 222
193 203 211
201 211 219
205 214 221
198 209 218
199 209 218
203 213 222
198 209 218
203 212 220
203 213 221
203 212 219
212 221 230
196 207 214
205 215 226
198 209 217
203 212 220
204 214 223
163 177 169
184 196 197
205 215 226
204 213 221
204 214 223
202 212 221
201 211 218
197 208 214
197 208 214
201 212 221
202 211 218
209 219 228
206 216 224
205 215 226
206 216 226
199 210 218
200 211 219
195 206 214
201 212 221
201 211 219
203 213 221
202 212 222
207 217 226
200 210 217
208 217 227
212 221 232
202 211 220
175 187 186
95 122 73
92 119 71
96 123 73
93 120 72
95 123 74
92 119 70
94 121 72
95 122 73
94 122 73
96 123 74
95 122 73
96 123 74
94 120 72
93 119 71
94 122 73
106 131 89
134 153 131
173 186 185
197 207 213
202 212 220
200 210 218
204 213 221
206 215 224
206 216 226
196 207 216
202 212 220
198 209 217
136 154 136
94 122 73
94 121 72
97 124 74
95 122 73
97 124 75
93 120 71
96 123 74
94 121 72
96 123 74
94 122 73
96 123 74
96 123 74
98 125 76
93 121 73
96 124 75
95 122 73
94 121 72
93 120 72
93 121 73
93 119 71
92 119 71
99 126 76
97 125 75
94 121 72
95 123 74
96 123 73
95 122 73
182 195 196
206 215 224
205 215 224
197 208 219
203 213 223
202 212 220
205 214 222
211 220 229
197 208 215
199 210 219
205 215 225
202 213 223
205 214 223
201 211 217
203 213 221
193 203 211
204 214 222
203 213 222
200 211 219
203 212 220
202 212 220
202 212 221
199 209 217
192 203 207
170 183 179
140 159 143
119 142 114
95 123 74
160 175 168
203 214 225
198 209 218
208 217 225
194 205 212
201 211 220
199 210 218
209 218 227
192 203 208
200 210 217
205 214 224
198 209 217
189 201 209
199 209 217
203 213 220
205 214 222
199 210 218
205 214 222
204 215 224
202 212 221
199 209 218
200 210 216
198 209 216
198 209 217
203 213 222
202 212 222
197 207 215
201 211 218
174 187 187
96 124 75
93 121 73
96 124 75
91 118 70
92 120 73
95 122 73
96 123 74
94 122 73
96 123 74
94 121 73
91 119 71
96 124 74
98 126 75
95 122 73
94 121 72
99 126 76
92 119 70
97 125 75
93 121 72
96 123 74
92 118 70
96 123 74
93 119 71
95 123 73
95 122 73
90 117 70
94 122 73
130 149 127
211 220 230
188 200 207
208 217 227
208 217 227
209 218 228
204 213 221
204 215 223
198 208 216
192 204 212
197 208 216
203 214 222
201 211 219
205 215 224
197 208 218
199 208 216
204 214 224
199 209 216
204 214 224
204 214 225
207 216 225
203 213 223
199 209 215
208 218 229
196 207 217
206 216 227
195 207 215
196 207 213
151 167 157
96 123 74
93 121 72
92 119 71
93 120 72
95 122 73
92 119 71
96 123 74
93 120 71
98 126 76
97 124 75
96 123 74
93 120 71
94 122 73
93 120 72
93 120 72
91 118 70
94 122 73
93 120 71
97 125 76
95 123 74
98 126 76
94 122 73
92 120 72
95 122 74
93 120 72
94 121 72
152 168 154
203 213 222
201 210 217
202 211 220
200 211 220
199 209 217
196 206 211
193 205 210
193 204 207
179 191 193
181 194 193
164 179 171
156 172 164
148 165 154
154 171 159
149 166 152
141 158 140
124 145 117
122 144 117
123 145 116
109 134 96
99 126 83
98 125 77
99 127 76
93 120 71
93 120 72
115 137 105
194 206 213
205 215 224
203 212 221
199 209 217
200 210 219
201 210 219
196 207 217
199 210 219
205 215 223
200 211 222
209 219 230
202 212 222
198 208 216
202 212 220
204 215 226
195 206 213
205 214 223
199 210 217
198 209 218
203 212 220
201 211 219
203 213 221
201 211 220
203 214 225
204 213 222
140 159 143
93 120 72
94 121 73
95 122 74
98 125 75
96 123 75
97 124 74
97 125 75
94 121 73
97 125 74
90 117 69
95 123 73
96 124 74
95 123 74
92 119 71
96 124 74
96 123 74
91 118 71
94 121 73
97 125 75
94 122 73
95 122 73
101 125 84
97 123 78
128 146 125
188 200 203
175 187 187
183 195 197
174 187 185
164 179 175
167 181 175
156 171 159
154 171 163
147 163 149
142 159 143
129 149 124
115 137 107
112 134 101
98 124 76
92 119 72
92 119 71
96 124 74
92 118 70
95 122 73
97 125 75
94 122 73
97 124 74
112 136 103
206 215 222
201 210 217
200 211 222
204 214 222
199 209 219
202 212 222
199 209 215
202 213 221
207 217 226
202 213 223
198 208 215
195 205 210
206 216 226
209 219 229
203 212 221
197 207 215
197 208 217
203 213 221
203 213 223
201 211 221
203 213 222
186 197 198
93 121 73
94 121 72
92 119 72
94 121 72
94 120 72
94 121 73
92 119 71
93 120 72
96 123 74
94 121 72
93 119 71
94 121 72
97 124 75
97 124 75
96 124 74
93 120 72
91 119 71
97 125 75
93 120 71
105 130 90
192 203 207
200 210 217
209 218 226
198 209 216
183 195 196
142 159 143
112 134 102
94 121 73
92 120 72
96 123 74
98 125 75
176 188 187
198 209 216
206 217 229
195 206 213
198 208 215
197 208 217
206 216 227
199 208 214
200 210 220
198 208 214
197 208 217
200 211 219
200 210 217
194 205 212
194 205 213
204 215 225
199 209 216
200 211 220
205 214 221
196 206 213
203 213 221
203 213 222
196 207 216
209 217 226
202 212 221
211 220 231
102 127 83
108 132 93
164 178 171
195 206 214
205 215 225
206 216 225
194 205 210
205 216 226
200 210 218
197 209 217
205 215 226
203 212 221
203 214 225
207 217 226
198 209 218
209 218 228
202 213 223
204 214 224
195 205 213
208 217 226
206 215 222
206 215 224
202 212 220
198 209 216
202 212 221
201 211 219
175 187 184
95 122 72
91 118 70
93 121 72
95 122 74
96 123 74
98 125 75
93 121 72
96 123 74
96 124 75
97 124 75
95 122 73
95 122 73
96 123 74
98 125 75
95 122 73
93 120 72
92 119 71
99 126 76
92 119 71
128 148 125
159 175 166
186 197 199
206 216 226
198 208 215
197 208 216
196 207 215
209 219 229
107 130 94
91 118 70
95 122 73
96 124 74
98 126 76
93 120 73
93 120 72
92 118 70
96 123 73
94 121 72
94 120 72
98 126 76
99 126 76
95 122 73
93 120 71
95 123 74
95 122 73
95 122 73
95 122 73
92 119 71
94 121 72
92 119 70
98 126 76
96 124 74
94 122 73
95 123 74
98 126 76
92 120 72
204 214 223
199 209 215
205 214 222
207 217 225
201 210 216
206 216 227
199 209 217
200 211 220
208 218 230
205 215 225
207 217 226
200 211 219
203 213 221
199 209 218
206 215 222
211 221 232
204 214 223
207 217 227
203 213 221
205 215 225
197 208 215
204 213 222
197 208 216
197 207 215
200 210 218
195 206 213
206 216 227
191 203 210
135 153 138
160 175 167
182 195 196
203 213 221
205 215 225
204 214 225
203 214 223
208 217 225
203 213 220
207 217 226
203 213 222
201 211 218
202 212 221
207 217 227
198 209 216
209 219 228
203 213 223
196 206 213
195 206 215
194 205 211
205 214 222
205 215 226
197 208 215
202 212 221
206 216 226
210 219 228
200 210 219
208 218 229
161 176 167
95 122 73
94 121 73
97 124 74
91 118 71
95 122 73
96 123 74
97 124 74
97 125 75
96 123 74
96 123 74
97 124 74
92 119 72
97 124 75
95 123 74
98 125 75
94 121 73
95 123 73
96 123 74
97 124 75
94 121 72
94 122 73
95 122 73
97 124 74
92 119 71
97 125 75
90 117 70
95 122 73
168 182 177
206 215 222
200 211 221
199 209 216
199 210 217
199 209 218
197 207 213
206 216 224
200 210 217
211 220 229
200 211 222
197 208 217
202 212 221
196 207 215
201 211 220
206 214 221
204 214 222
203 213 221
199 209 216
202 212 221
200 209 216
200 210 219
210 219 229
204 214 222
204 214 223
205 214 218
198 208 215
201 212 221
109 133 96
91 119 71
97 124 74
90 117 70
94 121 72
93 120 71
96 123 74
94 121 73
94 122 73
91 117 70
94 121 73
100 127 76
96 124 74
93 120 71
91 117 69
97 125 75
94 122 73
95 121 73
95 123 74
96 123 74
91 118 70
95 123 73
99 126 76
94 120 72
97 125 75
93 120 72
100 126 85
187 198 201
202 213 224
199 209 216
200 210 219
200 212 221
205 214 221
201 211 221
202 213 223
205 216 225
197 207 214
210 218 226
200 210 219
197 207 213
198 208 215
197 207 214
207 217 228
206 216 226
200 211 219
194 205 212
200 210 218
201 211 220
200 210 217
196 207 216
202 212 221
200 210 218
191 202 206
138 156 139
125 146 118
128 148 124
133 152 131
138 157 135
128 148 124
135 153 134
138 156 138
154 170 157
141 159 144
151 167 153
155 171 161
156 172 162
161 175 167
159 174 165
162 177 168
171 185 181
161 175 169
148 165 153
159 174 167
162 176 168
164 179 174
153 169 158
163 177 172
160 174 164
172 186 184
164 178 170
155 171 157
161 176 168
147 163 150
147 165 150
154 169 159
157 173 168
171 184 180
163 178 172
169 182 178
172 186 183
170 184 178
170 184 179
159 174 167
176 188 185
185 196 198
183 196 198
176 188 186
205 215 222
206 216 224
199 209 216
201 212 220
197 207 212
198 209 216
119 140 108
94 121 72
91 118 70
92 119 71
97 124 74
94 122 73
95 122 72
93 120 72
92 120 71
95 122 73
99 127 77
96 124 74
95 123 73
95 122 73
91 118 71
96 124 74
94 121 73
95 122 73
93 121 72
95 122 73
96 123 73
93 120 72
105 130 90
175 188 186
205 215 224
188 200 207
198 208 217
199 209 216
203 213 221
202 212 220
197 207 214
207 217 228
201 212 221
203 213 223
201 211 220
209 218 228
203 214 225
202 211 220
201 211 219
202 212 218
199 209 217
195 206 213
202 212 220
201 211 221
188 199 202
109 132 95
94 120 71
95 122 74
96 123 73
95 122 73
92 119 71
95 123 74
96 123 74
92 119 71
95 122 73
95 122 72
95 122 73
94 121 73
90 118 70
91 118 70
95 122 73
94 121 73
98 126 76
93 121 73
99 126 78
167 180 176
199 210 218
201 212 220
198 210 220
196 207 213
201 211 219
199 208 215
192 203 206
167 182 179
107 131 97
97 124 74
93 120 72
157 173 165
203 213 221
200 210 220
196 207 217
207 217 228
197 207 213
206 215 225
201 211 221
196 207 214
205 215 224
208 217 226
204 214 223
205 214 224
204 213 222
207 216 225
200 210 218
206 216 226
199 209 218
203 213 222
198 209 217
203 213 223
201 211 221
191 202 208
198 208 215
198 209 217
199 210 218
115 137 106
95 122 73
91 118 71
96 122 78
142 159 142
169 183 181
193 205 212
204 214 224
204 214 222
206 216 224
198 208 215
208 217 227
206 216 225
205 215 223
193 204 209
208 217 225
207 217 224
199 209 217
194 205 214
202 212 219
204 213 220
195 207 216
199 209 218
199 210 220
189 201 208
204 214 224
177 190 191
96 123 73
94 122 73
97 125 75
97 125 75
95 123 74
90 117 70
93 121 72
94 121 73
95 123 73
94 121 72
93 120 72
95 123 74
98 125 74
94 121 73
93 120 72
96 123 74
96 124 76
90 117 69
94 120 71
98 126 76
95 122 73
95 122 73
112 136 103
153 169 158
182 194 192
194 205 210
194 205 213
107 131 96
95 123 73
91 118 71
92 119 72
95 123 74
92 119 71
98 126 76
94 121 72
98 126 75
94 122 73
98 125 74
96 123 73
91 118 71
98 125 75
95 123 73
94 121 72
91 118 71
96 123 73
100 128 77
96 124 74
93 120 72
100 128 78
93 120 71
90 117 69
96 124 73
99 127 76
93 120 71
95 120 76
208 217 226
197 207 214
203 213 221
196 208 216
209 218 227
201 212 221
203 213 222
195 206 213
204 214 222
203 213 222
198 208 214
205 214 222
196 206 214
200 210 218
206 217 227
202 212 218
204 214 224
201 210 217
197 208 218
201 211 221
198 208 217
191 203 210
197 208 216
198 208 216
205 216 226
201 212 220
195 205 212
200 211 220
96 122 78
93 120 72
95 122 73
97 125 78
135 155 133
152 168 159
162 177 175
194 205 212
201 211 220
196 207 215
197 207 216
200 211 220
203 213 220
196 207 215
201 211 222
202 212 221
201 210 220
205 215 226
204 214 223
204 213 221
202 213 223
206 216 226
203 212 221
202 212 220
202 212 220
199 209 214
198 208 217
207 217 225
107 131 92
95 122 73
91 118 70
93 119 71
91 118 70
95 122 73
97 124 74
94 121 73
95 123 73
94 121 72
97 125 75
98 125 75
92 119 72
98 126 75
97 124 75
98 126 76
92 119 71
95 122 73
93 119 70
94 122 73
92 120 72
91 118 70
94 121 72
96 124 75
94 121 72
95 123 73
92 119 71
94 122 73
194 204 209
203 211 218
199 210 219
200 210 218
202 212 220
201 211 220
195 206 213
196 206 212
205 215 225
207 217 225
201 212 220
203 213 221
197 207 214
198 209 219
207 217 228
206 216 225
204 214 224
195 205 212
199 209 217
204 214 224
207 216 226
206 214 221
205 214 221
208 217 226
202 212 222
198 209 219
199 209 215
164 179 174
96 124 74
96 123 73
97 125 75
96 124 74
95 122 73
96 124 75
95 123 74
93 120 72
93 121 73
94 121 72
94 122 74
94 122 74
91 118 70
92 119 71
97 124 74
96 124 75
92 118 70
90 117 69
97 125 75
95 122 73
92 120 71
94 120 71
92 119 71
98 125 75
92 119 71
95 123 74
153 169 157
195 206 215
202 212 221
204 214 222
208 217 226
201 212 220
196 206 213
201 211 217
201 212 220
197 208 217
203 213 221
197 208 214
191 202 207
204 214 223
204 214 222
199 209 216
188 200 206
195 206 213
202 213 222
206 216 226
202 213 224
202 212 220
201 211 219
204 214 223
196 206 214
194 206 215
188 200 206
99 125 77
96 124 74
93 120 71
96 124 75
96 123 74
94 120 71
94 122 74
96 123 74
95 122 73
97 124 74
93 121 72
93 120 71
95 122 73
95 122 73
94 122 73
96 123 74
97 124 74
94 121 72
97 125 75
93 120 72
97 124 75
96 123 74
95 122 73
100 128 77
95 122 75
191 202 205
203 212 220
198 208 217
200 210 218
195 205 212
209 218 227
198 208 215
200 210 218
199 209 219
205 214 223
202 212 220
200 211 219
200 211 219
194 206 213
197 208 216
212 221 231
203 213 224
197 208 215
198 208 217
198 209 217
202 213 224
195 206 213
210 218 227
200 210 217
149 165 154
95 122 73
96 123 74
95 122 73
95 122 72
97 124 74
92 119 71
88 115 68
100 128 77
94 121 72
96 123 74
94 122 73
92 119 71
97 124 74
91 118 70
93 121 72
93 120 72
92 119 71
95 122 73
96 123 74
92 119 71
93 119 71
96 123 74
154 170 159
205 215 225
200 211 219
202 212 220
209 217 226
200 210 220
196 206 214
197 208 215
202 212 222
198 208 215
204 214 221
202 213 221
201 211 221
204 214 223
203 212 220
202 212 219
198 208 216
201 211 219
201 211 219
198 208 217
193 204 211
196 207 214
124 145 116
95 123 74
98 126 76
92 120 72
97 124 74
92 119 71
93 119 70
97 125 75
95 122 73
93 120 72
94 122 73
98 126 76
97 124 74
95 122 73
94 121 72
97 125 75
93 120 71
97 125 75
94 121 72
97 125 75
170 184 180
198 209 220
205 215 224
207 216 225
199 210 219
196 207 215
201 212 220
202 212 218
201 212 221
205 215 224
199 209 217
174 187 188
137 155 135
127 147 126
206 215 223
202 212 221
198 208 214
206 216 226
200 210 218
197 208 217
196 206 213
207 215 224
198 208 216
196 206 214
200 212 223
204 214 222
203 212 221
206 216 224
200 211 219
201 210 218
201 211 219
197 208 217
199 209 214
205 214 223
195 205 212
191 202 210
199 209 218
204 214 224
208 217 226
121 144 115
96 124 75
96 124 74
91 118 71
96 123 74
93 120 72
100 125 82
129 149 124
195 205 207
197 208 215
203 213 222
204 213 221
205 215 225
198 208 216
198 208 216
199 209 216
195 206 215
209 218 228
196 206 213
208 217 227
200 211 220
200 210 218
196 207 213
201 211 218
199 211 220
201 211 219
178 190 190
95 122 73
95 122 72
90 117 70
98 126 75
95 122 73
97 124 75
93 120 72
97 124 75
97 124 75
96 124 74
98 125 75
93 120 71
96 124 74
95 122 73
94 121 72
97 125 75
93 120 71
95 123 74
93 120 71
95 123 74
94 121 72
93 120 72
96 123 74
93 120 72
94 121 72
97 122 80
135 153 136
149 166 154
101 127 85
92 119 71
96 124 74
90 117 69
93 121 72
95 122 73
92 118 70
90 117 69
92 120 73
98 126 77
97 124 74
96 122 73
99 126 76
94 121 73
94 121 73
92 120 71
93 120 72
95 123 74
97 125 75
95 122 74
95 122 73
95 122 73
93 120 71
96 124 75
95 122 73
92 119 71
128 149 122
196 207 215
207 218 228
210 219 230
202 213 221
208 217 227
201 211 219
204 214 221
205 216 226
199 210 218
203 212 220
200 211 219
201 212 222
203 213 222
199 209 217
207 217 227
203 213 223
199 209 217
207 217 227
192 203 209
199 209 216
199 211 220
194 205 213
198 209 217
202 212 220
207 217 227
204 215 225
196 206 214
196 208 215
96 123 73
96 123 74
95 122 73
91 119 71
97 125 74
92 119 70
94 122 73
94 121 73
107 130 92
137 155 139
165 179 175
182 195 196
199 209 216
201 211 220
194 204 210
199 209 216
205 215 223
197 208 216
200 211 220
201 211 219
201 211 217
199 209 216
202 212 220
200 210 217
199 209 217
199 210 222
201 211 221
189 200 204
95 122 73
96 123 74
96 123 74
95 123 74
90 117 69
96 124 74
97 124 74
101 128 76
93 120 72
96 123 74
89 116 69
96 124 74
97 125 76
94 121 72
95 123 74
94 121 71
92 119 71
94 121 73
89 115 69
96 124 75
98 125 75
93 120 72
94 121 72
97 124 75
93 120 72
95 122 72
93 121 72
127 148 124
197 208 216
198 209 217
203 212 220
201 211 219
196 207 214
205 215 224
197 208 215
196 206 210
197 207 214
202 211 219
195 206 214
194 205 213
197 207 214
191 202 206
196 207 214
199 209 216
198 209 217
202 212 222
199 210 219
196 207 217
200 210 220
198 209 217
204 214 223
194 205 210
195 207 214
194 205 213
203 213 222
125 146 124
96 123 74
95 122 72
93 120 72
97 124 74
95 122 74
94 121 72
93 120 72
94 121 72
94 121 73
94 122 74
94 121 73
97 124 74
92 119 71
98 125 75
97 125 75
97 124 74
92 119 71
91 118 70
94 121 72
93 121 72
92 119 71
95 123 73
94 121 74
95 122 73
94 121 71
93 120 72
183 195 196
208 217 227
201 212 222
202 213 222
205 215 224
201 211 220
205 216 227
197 207 213
202 211 218
202 213 221
201 211 220
199 209 217
207 217 226
199 209 216
207 217 226
193 204 211
192 203 209
192 203 210
203 213 223
201 211 218
192 204 211
206 216 225
189 201 205
202 212 220
198 209 215
202 212 221
149 166 153
92 119 71
93 120 72
99 126 76
92 119 71
93 120 71
93 121 72
94 121 73
93 120 71
96 124 75
89 116 70
93 120 72
96 123 73
92 119 71
93 119 70
96 124 74
96 123 74
98 125 75
94 121 72
96 124 75
93 120 73
93 120 71
94 122 73
91 118 69
93 120 72
140 158 142
199 210 217
200 210 215
200 211 219
203 213 223
204 214 222
197 207 214
201 211 219
202 211 219
193 204 214
199 209 216
207 216 225
201 211 218
203 213 222
200 211 220
200 211 219
198 209 217
201 211 220
207 216 225
195 205 213
197 207 214
208 216 225
188 200 207
202 211 219
177 190 190
98 124 77
89 116 69
95 123 73
90 117 69
93 120 72
96 123 74
98 125 75
94 121 73
96 123 74
94 120 72
98 126 76
91 118 69
91 118 70
94 121 72
95 122 73
98 126 76
94 122 73
95 122 72
95 122 73
94 121 72
94 121 72
94 121 72
123 145 121
205 214 222
198 209 217
198 209 218
198 208 216
202 211 218
203 213 221
209 217 226
193 204 211
200 210 218
199 209 218
199 209 216
202 212 221
204 214 224
195 207 215
201 211 220
199 209 216
202 212 220
209 218 225
199 209 216
196 207 214
202 212 219
147 164 150
97 124 74
96 124 74
94 121 72
94 121 72
95 123 73
92 120 72
99 127 77
92 119 71
96 123 74
96 124 74
95 122 73
92 118 71
97 125 75
95 123 73
96 123 73
96 123 75
93 120 72
94 122 73
94 121 72
140 158 143
202 212 220
203 213 222
192 204 211
200 211 219
200 210 217
190 202 208
191 203 208
206 216 225
198 208 215
196 206 215
199 209 218
202 213 224
194 205 214
190 201 205
158 173 165
189 201 207
204 214 223
199 209 217
205 215 223
198 208 216
199 209 217
196 207 214
197 207 214
204 213 222
204 214 222
204 214 223
208 218 227
201 212 222
203 213 221
207 216 224
208 217 227
195 205 212
202 211 217
196 207 213
195 206 211
206 215 225
201 210 217
206 215 225
204 214 222
143 161 148
95 122 74
98 125 75
93 120 71
92 120 71
96 123 74
92 119 71
94 121 72
93 120 72
110 133 99
151 167 155
191 202 205
200 210 220
196 207 214
196 206 213
205 215 222
204 214 224
200 210 217
197 208 215
197 208 217
207 216 225
203 212 219
206 215 225
195 206 213
201 212 221
213 222 232
171 185 185
95 122 72
94 121 73
94 121 73
92 119 71
99 127 76
98 126 76
97 125 75
94 121 72
92 119 71
95 122 74
94 121 73
93 120 72
92 119 71
95 123 74
93 120 72
94 121 72
96 124 75
94 121 72
96 124 74
94 121 72
95 123 74
92 119 71
95 122 73
100 127 76
94 121 72
96 124 74
103 129 91
196 207 215
202 211 217
178 190 187
153 170 157
119 140 111
92 119 72
94 122 73
93 120 72
93 120 72
93 120 72
97 124 74
91 118 70
95 122 73
93 120 72
91 118 70
97 125 75
93 120 72
95 122 74
95 122 74
93 120 72
92 118 70
92 119 71
94 121 72
97 124 75
98 126 76
98 126 76
98 125 75
137 155 137
200 210 218
204 214 225
204 214 223
190 202 208
202 212 220
209 218 227
195 205 212
199 210 220
195 206 214
197 208 215
205 215 224
199 209 216
204 214 223
200 210 218
203 213 221
199 209 216
197 207 214
206 216 225
194 205 214
207 217 227
204 214 222
197 208 216
207 216 226
202 212 220
202 212 220
205 214 222
198 209 216
167 181 175
90 117 69
98 126 76
91 119 71
98 125 75
95 123 74
95 122 74
92 119 72
96 123 74
89 116 69
95 122 73
91 118 70
94 121 73
94 119 77
115 138 105
145 162 146
171 184 179
184 195 197
204 214 223
198 208 216
205 214 222
209 218 227
200 211 220
202 212 221
205 214 223
204 213 221
203 213 222
202 212 220
165 179 172
95 122 73
94 122 73
98 126 76
94 121 73
98 126 76
95 123 74
96 124 74
94 122 73
91 118 71
91 117 70
95 123 74
96 124 75
95 122 73
96 123 73
98 125 75
92 119 71
96 123 74
93 120 72
95 123 74
98 125 76
92 119 71
93 120 72
93 121 72
94 122 73
95 122 73
93 120 72
95 122 73
163 178 172
195 207 216
199 210 220
204 213 221
193 205 212
192 203 209
205 214 222
205 215 224
196 207 214
201 210 218
196 207 214
203 213 221
195 206 213
204 213 222
195 206 211
197 207 215
203 213 222
205 214 223
200 210 217
197 208 216
200 211 220
197 207 214
197 207 213
198 208 216
202 212 221
202 212 220
196 207 214
186 197 198
96 123 74
95 122 73
94 121 72
97 125 75
96 123 74
91 117 69
96 124 75
96 124 74
94 122 73
93 120 72
96 124 74
98 125 75
96 124 75
93 120 71
92 118 70
95 123 74
95 122 73
96 124 75
96 124 74
94 122 73
98 125 75
92 119 71
94 121 72
91 118 71
95 122 73
94 121 72
139 158 140
208 218 228
196 206 214
198 208 216
199 209 215
201 211 220
207 217 228
204 213 223
201 211 219
202 212 221
199 209 217
198 208 216
202 212 221
200 209 217
198 208 214
201 211 220
199 210 218
196 206 215
207 216 226
200 210 219
197 207 213
197 207 214
200 211 220
199 210 218
202 212 220
208 217 227
185 196 199
94 121 73
95 123 74
97 125 75
96 124 75
95 122 73
94 121 72
94 121 73
94 121 73
94 121 72
93 121 73
97 124 74
96 123 74
96 123 73
97 125 74
96 123 73
94 121 72
95 123 74
99 126 76
95 123 74
92 119 71
95 122 73
96 124 74
94 122 73
93 120 72
103 129 87
192 203 208
199 210 220
202 213 221
202 211 218
205 215 224
203 213 224
205 214 222
196 207 216
194 205 214
205 215 224
197 207 215
204 215 225
205 214 221
202 212 222
200 210 219
200 210 216
200 211 221
200 210 218
198 209 216
200 210 220
202 212 221
204 214 222
205 215 224
196 207 214
121 143 114
96 124 74
96 123 74
95 123 73
97 125 74
95 122 73
96 123 73
94 122 73
94 121 72
96 123 74
91 118 70
93 120 71
94 122 73
94 121 72
93 120 72
91 117 70
93 120 72
93 121 73
92 120 72
94 122 73
99 126 76
93 120 71
109 133 97
194 205 213
199 209 216
200 210 218
201 212 223
199 209 217
196 207 214
197 208 216
191 202 208
203 213 221
203 213 221
204 214 224
198 209 217
199 210 218
206 216 227
203 213 223
202 212 221
203 212 219
201 211 218
201 211 219
204 214 224
201 211 221
168 181 176
93 120 72
95 123 74
89 115 69
94 121 72
94 121 72
94 122 73
96 124 74
92 118 71
96 123 73
96 123 73
95 122 74
95 123 74
95 122 74
93 121 72
95 122 74
91 118 71
94 122 74
96 123 74
89 116 69
128 148 125
197 207 215
202 213 223
199 210 218
211 220 229
203 213 220
200 210 217
198 207 214
203 213 223
205 214 223
204 213 220
201 211 219
199 209 214
202 212 221
206 216 224
198 208 215
97 124 77
98 125 77
137 156 135
157 174 166
197 208 215
203 213 222
203 213 220
197 207 216
202 212 219
201 211 219
207 216 226
194 205 212
196 205 214
197 208 218
203 213 220
204 214 222
196 206 212
205 215 225
200 211 219
203 213 223
197 208 217
197 209 218
200 211 218
197 207 215
202 211 218
142 158 142
94 122 74
95 122 72
95 122 74
97 124 74
94 121 72
96 123 73
91 118 69
90 117 70
94 121 72
97 125 75
97 124 75
121 141 115
159 174 167
189 200 204
200 211 221
193 204 211
203 213 223
205 215 225
203 212 221
189 200 205
204 213 222
203 213 224
198 209 218
200 211 220
201 211 219
181 192 194
98 126 76
98 125 75
94 121 73
97 124 74
98 125 75
94 120 72
92 119 71
94 121 72
93 120 72
96 123 74
95 122 73
94 121 72
98 126 75
98 126 75
94 121 72
95 123 74
92 120 72
98 125 74
95 123 74
93 120 73
97 124 74
92 119 70
89 115 69
96 123 74
93 120 71
96 124 74
107 132 93
205 215 222
202 213 221
203 213 220
194 205 213
202 211 219
189 201 205
154 171 164
134 152 131
96 123 77
95 122 73
96 123 74
98 125 76
96 124 74
96 123 74
98 125 76
94 121 72
96 123 74
96 123 74
95 122 74
94 122 73
91 118 71
96 123 74
96 123 74
98 126 75
99 126 76
97 125 75
95 122 74
159 174 164
194 205 212
206 217 227
200 210 216
190 201 209
200 210 218
196 208 216
204 214 223
202 212 222
200 210 217
206 215 223
201 211 219
195 206 212
202 213 223
198 209 217
205 215 226
201 211 221
202 211 220
193 202 206
199 209 217
204 213 222
197 207 214
205 214 222
206 215 226
198 207 214
203 213 223
202 212 222
204 214 223
146 161 146
96 124 74
94 121 72
94 120 71
93 120 72
93 120 72
94 122 73
94 121 72
96 123 74
99 126 75
94 122 73
92 119 71
93 120 71
93 121 72
95 122 74
93 120 72
93 121 72
96 123 74
101 126 85
117 137 109
146 162 152
173 186 182
195 205 211
203 213 221
198 209 216
198 207 214
204 214 224
195 206 213
130 148 128
94 121 72
94 121 72
95 123 74
96 123 74
94 121 72
96 124 75
96 124 74
92 119 71
92 119 72
96 123 73
94 122 73
98 125 75
96 123 74
93 121 72
95 122 73
94 122 73
96 123 74
95 123 74
92 118 70
96 123 74
97 125 76
93 119 71
94 121 72
92 119 71
96 123 74
93 120 72
89 116 69
196 207 213
195 205 212
202 212 220
203 213 220
201 211 219
206 215 223
200 209 217
200 210 218
198 208 215
210 219 229
202 213 224
204 215 226
197 208 216
198 209 220
200 211 219
202 213 221
205 215 224
196 207 215
197 207 216
197 208 217
200 210 218
209 217 225
204 214 222
204 214 222
203 212 220
205 215 223
200 209 218
136 155 137
93 120 71
96 123 74
96 123 74
94 122 73
93 120 72
95 123 74
93 120 71
95 123 74
95 122 73
90 117 70
94 122 73
92 119 72
97 125 75
92 119 71
97 124 74
96 123 74
93 121 72
95 122 73
96 123 74
99 127 76
94 121 72
92 120 72
95 122 73
91 118 70
96 123 74
94 121 72
178 191 192
205 214 222
201 211 220
199 209 218
196 208 217
200 210 219
197 208 214
199 210 219
198 208 215
205 215 223
203 212 222
193 204 211
204 214 224
198 208 215
201 211 220
201 211 218
200 210 217
197 208 217
206 215 224
195 206 212
204 214 222
196 207 213
192 203 208
205 215 225
199 210 219
202 212 219
115 137 111
97 125 75
94 121 73
95 122 73
98 125 76
94 122 73
95 122 72
91 118 70
93 120 72
96 123 74
95 122 73
90 117 70
93 120 72
94 121 73
92 118 70
96 123 74
93 120 72
95 122 73
97 124 74
95 122 73
93 120 71
97 124 74
93 120 72
99 126 75
95 122 72
168 182 178
193 205 211
201 211 219
196 206 213
199 210 218
200 210 218
198 208 216
198 208 217
201 213 225
199 209 217
196 206 213
195 206 213
201 211 219
196 206 214
199 210 218
199 210 221
203 214 222
200 211 220
201 211 220
203 212 219
205 215 224
200 211 220
195 206 214
200 210 216
161 176 165
95 122 72
89 116 69
97 125 75
92 118 71
93 119 71
97 125 75
94 122 73
95 123 74
95 123 74
96 124 75
93 120 72
96 124 74
91 119 70
95 122 73
95 122 73
94 121 72
95 122 73
94 121 72
96 123 73
91 117 70
96 123 74
96 124 75
176 189 186
203 213 223
199 210 219
200 210 217
205 215 223
198 208 216
202 211 218
204 215 226
199 209 217
204 214 222
198 208 216
195 204 212
206 216 225
206 215 225
200 210 218
198 209 220
201 212 221
201 211 219
205 215 223
204 213 222
201 212 220
183 194 196
101 127 83
93 120 72
92 119 71
93 120 72
92 119 71
93 120 71
93 120 71
95 122 74
97 124 74
93 119 71
95 123 74
96 123 74
94 122 73
97 125 75
93 120 71
93 120 71
95 122 73
97 124 74
91 118 70
121 142 111
196 206 212
205 215 224
199 209 218
199 210 218
194 205 213
209 218 227
198 209 216
203 212 222
203 213 221
204 214 222
204 214 223
200 210 220
200 211 219
198 208 215
197 208 217
198 208 217
113 135 104
96 123 74
90 117 69
95 122 74
110 135 97
143 161 147
180 191 191
203 214 224
194 205 212
202 211 219
200 210 218
195 205 213
200 210 217
199 210 218
201 210 215
200 210 219
200 211 220
200 210 218
198 209 218
206 215 224
200 210 218
210 219 229
204 213 221
197 208 216
199 209 216
149 165 154
95 122 73
96 123 74
93 120 71
92 119 71
93 120 72
95 122 73
95 122 73
96 123 74
94 121 71
93 120 72
96 123 74
90 117 70
94 121 72
95 122 74
123 144 119
157 172 163
188 199 202
200 210 219
195 206 213
199 210 217
190 201 208
198 209 217
200 210 218
202 213 223
200 211 221
176 189 189
93 120 72
93 121 72
95 123 74
94 121 73
94 121 72
93 120 72
96 124 74
95 123 74
93 120 72
97 124 74
96 124 74
97 125 75
93 120 71
94 121 72
95 123 74
94 121 73
96 124 74
96 122 73
96 123 74
96 123 73
97 124 75
92 119 71
96 123 74
92 118 70
93 120 72
96 123 74
122 142 116
198 209 218
202 212 221
204 214 224
199 209 217
203 213 221
203 214 225
199 209 217
196 206 213
193 204 212
170 184 182
149 164 151
119 140 110
97 124 74
90 117 70
98 125 75
93 120 72
92 119 72
90 117 70
92 119 71
97 124 74
96 123 73
92 119 71
92 119 70
95 123 73
94 121 72
95 122 73
97 124 75
176 189 188
203 213 222
201 211 219
203 213 222
200 210 219
190 202 208
209 218 227
194 205 211
202 212 219
201 211 218
201 211 218
203 213 221
202 212 221
195 206 216
200 210 217
206 216 224
199 209 217
198 208 216
202 212 221
202 212 220
196 206 213
204 214 224
196 207 214
192 203 209
200 210 217
202 213 222
204 213 222
199 209 218
126 147 123
91 118 70
97 125 74
98 125 75
93 121 72
97 125 76
93 120 71
95 121 72
97 124 75
96 123 74
96 124 74
94 121 72
94 121 72
95 123 73
95 123 73
94 122 74
92 119 71
94 121 73
93 120 72
95 122 73
95 122 74
94 121 73
90 117 70
96 123 76
134 153 130
139 157 143
164 178 175
184 196 199
109 133 95
89 115 68
94 121 72
93 120 72
92 119 71
95 123 73
92 118 71
92 120 72
94 122 74
90 117 70
96 124 74
96 123 74
94 121 72
96 124 74
97 124 75
97 124 74
94 121 72
96 124 74
93 120 72
95 122 73
94 122 73
96 124 74
88 115 69
94 122 74
93 119 71
96 124 74
94 122 73
145 162 145
202 212 220
203 213 222
201 211 221
203 213 222
199 209 219
209 218 226
202 212 221
195 206 214
207 217 226
191 202 208
200 210 218
203 213 222
202 211 217
200 209 215
199 210 218
196 208 216
196 206 213
210 220 232
199 209 218
194 205 213
191 203 212
209 218 225
198 208 217
198 209 218
202 211 218
202 212 221
198 208 215
105 128 91
94 121 73
97 125 75
91 117 70
94 122 73
94 121 73
92 119 71
93 121 72
97 124 74
96 124 74
93 121 73
92 119 70
97 125 75
97 124 74
93 119 70
95 123 74
95 122 73
94 121 73
95 123 74
95 122 73
96 123 73
92 119 70
95 122 73
95 123 73
93 121 72
94 121 72
129 148 129
197 208 217
202 213 222
204 214 224
193 204 211
199 210 218
197 208 215
198 209 216
196 208 216
193 205 211
196 208 217
197 208 215
206 216 226
198 208 217
197 208 216
198 208 216
203 213 221
200 211 220
203 213 220
196 207 216
205 215 223
196 206 215
196 207 215
202 212 220
196 207 214
205 215 224
177 190 191
91 118 70
95 122 73
94 121 73
95 123 73
94 121 72
93 119 71
93 120 72
96 124 74
96 123 73
95 122 73
97 124 74
95 122 73
98 125 75
97 124 74
89 115 68
97 125 75
93 120 72
94 121 72
93 120 72
93 120 72
89 116 68
96 124 75
95 122 73
90 117 70
118 139 113
208 218 227
201 212 220
201 211 219
199 209 218
201 211 219
198 209 216
207 216 225
206 215 225
203 213 221
200 210 216
197 209 219
202 213 222
206 216 225
209 219 229
199 210 219
202 212 221
196 207 215
200 210 218
204 214 222
199 209 216
204 215 224
209 218 226
195 206 214
173 186 183
92 119 71
92 119 71
95 122 73
94 121 73
95 122 73
97 124 74
93 121 72
92 119 71
96 124 74
92 118 70
95 122 73
91 117 70
94 121 72
96 123 74
93 120 71
97 124 74
95 122 73
92 120 72
95 123 74
95 122 72
97 124 75
95 122 74
152 167 156
199 210 218
203 213 222
194 205 212
205 214 223
198 209 218
188 199 205
196 208 218
201 211 219
195 205 210
198 209 218
199 209 215
201 212 221
205 215 226
202 212 221
201 211 221
202 212 220
197 208 215
202 212 220
205 215 225
201 212 220
197 208 214
107 131 97
94 122 73
96 124 74
95 122 73
96 124 74
93 120 72
90 117 70
93 120 72
97 125 75
96 123 74
93 120 71
92 119 71
94 120 71
94 121 73
94 122 73
95 122 73
93 120 71
91 118 72
95 123 74
110 133 98
190 202 208
205 214 223
197 208 216
199 209 216
191 202 208
195 206 213
206 216 225
200 211 220
202 212 223
203 213 223
195 204 209
204 214 222
203 212 220
202 213 221
203 212 220
199 210 218
191 202 207
137 155 138
93 120 72
95 122 72
93 120 72
90 117 70
91 117 70
93 120 71
141 159 138
182 194 193
192 203 209
199 210 217
201 211 220
204 214 224
202 211 219
200 211 220
205 215 224
197 207 215
206 215 223
203 213 222
206 217 227
202 212 221
198 209 216
192 204 212
206 217 227
201 212 221
168 181 177
94 122 73
96 123 74
94 121 72
93 120 72
93 120 72
95 123 74
91 118 70
95 122 74
95 122 74
96 123 74
90 117 69
96 124 74
96 123 74
95 122 73
93 120 72
96 124 74
98 126 78
129 149 125
164 178 173
192 204 211
194 205 211
201 212 220
206 216 224
199 209 217
191 203 210
176 189 188
93 119 71
95 122 73
92 120 71
97 125 75
95 122 74
95 122 73
95 123 74
93 121 73
92 119 71
95 123 74
96 123 73
94 122 74
93 120 72
95 122 74
92 119 72
90 116 69
94 121 73
90 117 70
94 121 72
93 120 72
96 123 74
94 121 73
93 119 71
91 117 70
98 125 75
96 124 74
116 139 110
196 206 215
194 205 212
193 203 208
198 209 217
203 213 223
203 213 222
205 215 224
200 211 220
200 210 218
195 206 214
199 210 218
211 220 228
180 192 193
154 170 158
131 150 126
95 122 73
96 123 74
91 118 70
94 122 73
94 121 72
94 121 72
95 122 73
94 121 72
93 120 71
92 119 71
92 118 70
95 122 73
187 199 203
201 211 218
202 211 219
204 213 222
195 204 211
205 215 223
200 210 215
209 219 228
201 212 222
203 214 226
197 208 215
206 216 226
200 210 219
199 210 218
200 209 217
199 210 219
199 210 220
202 213 223
202 212 221
206 216 225
208 217 226
204 214 221
199 209 219
201 211 220
198 208 215
209 218 226
205 214 223
197 207 215
94 121 73
94 121 72
93 120 72
95 122 73
97 124 75
96 123 74
89 115 68
95 123 74
92 118 70
96 123 74
94 121 72
95 122 73
97 124 75
94 122 73
95 122 73
90 116 68
93 120 72
96 123 74
96 124 74
97 124 74
96 123 73
95 122 73
97 124 74
95 123 74
97 124 75
97 125 74
93 120 72
123 145 114
198 209 218
175 189 189
168 182 179
145 162 150
134 153 136
104 128 88
91 118 70
91 118 70
96 123 74
93 120 71
97 124 75
96 124 74
94 121 72
92 119 71
91 118 71
90 117 70
93 120 71
95 122 73
92 119 71
96 123 73
92 119 72
94 121 71
92 119 71
92 119 71
97 124 74
91 118 70
96 124 74
175 189 188
194 205 210
189 201 207
198 209 219
209 218 230
203 213 222
204 213 222
202 212 220
195 206 212
203 213 222
198 208 216
203 212 220
201 211 220
194 205 213
202 212 221
203 212 219
207 216 225
197 207 215
206 215 224
204 214 222
200 210 219
201 211 220
187 198 202
205 215 222
190 201 207
200 211 219
197 207 214
171 184 180
94 121 73
94 120 71
94 121 72
93 120 72
97 124 75
94 121 72
90 117 71
89 115 68
93 120 72
93 120 71
93 120 72
96 124 75
95 122 73
92 119 71
95 122 74
95 122 72
92 119 71
96 123 74
93 120 72
96 123 73
98 125 75
92 118 70
90 117 70
94 121 72
95 123 74
95 122 73
184 195 196
203 213 222
201 212 220
202 212 221
195 206 215
196 206 213
197 207 217
202 213 220
197 208 215
213 222 232
202 212 220
200 210 217
203 213 223
207 216 223
199 209 217
206 215 224
193 204 211
199 210 218
199 210 217
194 205 210
195 207 216
190 202 209
203 212 218
202 212 222
196 206 212
201 211 221
109 132 99
92 118 70
95 123 74
90 116 68
94 121 72
94 121 72
93 120 72
94 122 73
96 123 74
92 119 71
95 122 73
93 120 71
94 121 72
93 120 72
93 120 71
87 114 68
98 126 75
96 123 73
91 118 69
97 124 75
94 122 73
95 122 73
93 121 73
93 120 71
98 123 81
188 199 202
201 212 222
201 212 221
197 207 215
198 208 216
207 217 226
200 210 218
201 211 219
200 210 217
199 209 217
202 211 218
198 208 215
200 210 218
201 211 219
198 208 216
202 212 221
190 201 207
197 208 216
203 212 219
193 205 214
200 210 217
200 210 218
202 213 222
187 198 203
116 139 108
94 122 73
92 119 71
94 122 73
97 124 74
94 121 72
98 125 76
94 122 73
93 120 72
92 120 71
90 117 70
96 123 74
92 119 71
92 119 71
94 121 73
96 123 73
93 121 72
90 117 70
96 123 74
94 121 73
93 121 73
93 120 72
122 143 117
196 206 212
197 207 214
199 208 215
202 212 221
200 210 217
203 212 220
196 207 216
199 209 217
204 214 222
199 208 216
198 208 214
190 201 206
200 211 221
198 209 217
200 211 219
205 215 225
203 213 224
207 216 225
196 207 215
199 210 218
190 202 207
121 141 112
96 123 74
96 124 74
89 116 68
90 117 70
94 122 74
93 120 72
93 121 73
93 120 72
92 119 71
95 122 73
94 121 72
93 120 72
97 124 74
95 123 74
96 124 74
95 122 73
94 121 72
93 120 71
95 121 78
179 191 190
202 212 219
202 212 220
199 209 217
200 211 221
203 212 221
197 207 216
189 201 205
206 216 226
208 217 228
189 201 209
208 217 227
200 211 221
203 212 219
199 210 220
191 202 207
199 210 218
192 203 209
154 169 159
90 118 70
93 121 72
89 116 70
94 121 72
95 123 75
92 119 71
96 123 74
94 121 73
100 126 86
155 170 160
178 191 191
195 206 213
206 216 225
202 212 220
198 208 216
199 209 216
202 211 219
203 213 221
202 211 218
201 211 220
202 213 223
191 202 207
200 209 215
204 213 222
171 185 179
94 122 73
91 118 70
95 122 73
92 120 72
91 118 70
92 119 71
95 122 72
93 120 72
94 121 72
94 122 73
99 126 76
96 123 74
94 121 72
92 120 72
96 123 75
93 119 72
99 126 75
93 120 72
98 125 76
99 125 80
131 150 128
169 183 180
196 206 211
199 210 220
196 208 218
165 178 174
96 123 74
93 120 71
94 122 73
95 122 73
100 127 77
98 125 75
94 121 72
98 125 75
92 120 71
93 121 72
92 120 71
94 121 72
94 121 72
90 117 70
93 120 72
91 118 70
91 119 72
96 123 73
93 120 71
94 121 72
98 125 75
91 118 70
96 123 74
97 125 75
91 117 70
93 121 72
140 158 140
199 210 219
207 217 227
200 211 221
203 212 220
202 211 219
199 210 219
204 214 221
195 206 214
202 211 218
207 217 227
206 216 225
200 211 222
209 219 231
194 205 212
201 211 220
191 202 208
175 188 187
143 160 144
120 141 112
94 121 73
92 119 71
91 118 70
92 120 72
98 126 77
97 124 75
94 121 72
95 122 73
185 197 203
204 214 225
198 208 217
190 201 205
188 200 208
198 208 216
203 213 221
200 211 220
201 211 220
199 210 218
202 212 220
203 214 222
205 215 224
197 207 213
202 212 220
195 206 215
189 200 209
204 214 224
194 205 213
200 210 219
206 216 226
201 211 220
200 210 218
200 210 218
202 212 219
194 205 212
199 208 215
183 195 195
99 126 76
89 116 69
93 120 72
95 122 73
93 120 71
91 117 69
95 122 73
95 123 74
96 124 74
93 120 72
88 115 68
94 121 72
93 120 71
97 125 76
95 122 73
94 121 73
98 126 76
96 124 75
96 124 74
97 124 75
92 119 71
96 123 73
90 117 71
93 120 72
97 124 74
93 120 71
93 120 72
165 180 174
206 215 223
195 206 213
203 213 219
200 211 221
202 212 221
205 215 226
192 203 207
178 190 189
154 170 160
141 157 140
130 149 127
89 116 69
96 124 75
96 123 74
93 120 71
92 119 70
92 119 71
96 123 74
95 123 74
94 121 72
94 121 73
95 122 73
93 120 72
93 120 71
93 119 71
90 117 69
99 125 80
197 208 215
208 217 225
200 211 222
193 203 209
187 200 207
198 209 217
205 215 222
197 208 215
199 209 216
211 220 232
204 214 224
214 223 234
205 214 223
203 213 221
201 212 222
197 208 216
200 210 218
202 212 222
198 209 217
202 213 223
191 202 209
197 207 215
191 202 211
195 206 212
198 208 214
203 213 220
204 215 226
130 150 126
93 120 72
93 119 71
97 125 74
95 123 74
92 119 71
94 122 73
92 119 71
95 122 72
96 123 73
93 120 71
93 120 72
95 122 73
93 120 71
95 123 74
98 125 75
96 123 74
95 122 73
95 122 73
92 119 71
93 120 72
93 120 72
95 122 73
96 123 73
99 126 76
94 122 73
121 141 116
201 211 219
198 210 222
197 207 214
204 213 221
207 216 224
200 210 221
206 216 227
208 218 229
204 214 224
202 212 221
202 213 221
203 213 222
202 212 221
201 212 220
203 213 221
201 212 220
202 211 219
193 204 210
207 216 225
203 213 221
199 209 218
200 210 219
199 210 217
202 213 222
195 205 212
159 175 167
93 120 72
94 122 73
95 122 73
94 121 72
98 125 75
94 121 72
93 120 72
97 124 75
94 122 74
93 120 72
91 118 71
92 119 70
95 122 73
95 122 73
94 121 73
96 124 74
98 125 75
96 124 75
94 121 73
93 120 72
94 121 72
90 116 68
94 121 71
96 123 74
142 160 144
206 215 226
191 202 210
206 217 229
199 209 216
200 211 220
191 202 208
197 208 217
190 201 208
198 208 218
200 210 217
202 212 222
203 214 223
201 212 220
206 217 228
198 208 215
195 206 216
196 208 216
194 206 214
197 207 214
201 211 219
196 207 215
198 208 215
197 208 217
159 174 165
99 126 76
95 123 74
91 117 69
95 122 73
94 121 73
96 123 73
98 125 75
93 120 72
97 124 75
92 119 71
92 119 71
93 120 72
91 118 70
94 121 72
91 118 71
95 123 74
96 123 73
93 119 71
94 121 72
93 121 73
95 123 73
107 132 93
182 194 198
205 215 224
196 207 214
193 204 210
196 206 214
203 213 222
200 210 219
199 209 216
208 217 226
208 218 228
206 216 226
198 208 216
195 206 213
195 206 212
205 214 222
204 215 224
202 213 222
200 210 220
198 208 215
197 209 218
195 205 211
151 167 154
93 120 71
91 118 71
93 120 72
92 119 71
93 120 71
95 121 73
93 120 72
92 119 71
95 122 73
97 125 75
94 121 73
94 121 72
95 122 72
91 118 70
92 119 71
89 116 69
91 118 70
90 117 70
98 124 77
173 186 184
200 211 220
201 211 221
193 203 206
169 183 180
155 172 162
148 165 155
112 134 103
93 120 72
191 202 210
195 205 211
194 206 215
199 209 217
197 207 215
198 208 215
205 215 224
207 217 227
204 214 224
203 212 221
184 196 197
97 124 75
92 119 71
93 119 70
89 116 69
95 122 73
96 123 74
95 122 73
95 122 73
96 123 74
92 119 71
96 123 75
116 138 109
163 177 171
186 198 203
207 216 225
197 207 214
207 217 225
204 214 223
203 213 222
197 207 215
200 210 218
198 209 216
205 215 224
203 213 221
181 192 192
94 121 72
95 122 73
97 124 74
90 117 70
95 122 73
92 119 72
94 121 72
93 119 72
95 122 73
90 117 70
94 121 72
94 121 73
97 124 74
94 121 72
93 120 71
95 122 73
98 126 76
96 123 73
94 122 73
94 121 72
97 125 76
95 122 73
91 118 70
133 152 131
169 182 179
163 177 171
93 120 72
95 122 74
93 120 71
94 121 72
92 119 70
94 121 73
95 122 73
94 122 73
95 122 74
93 120 71
96 124 74
92 119 71
92 119 70
96 123 73
93 120 72
93 121 72
91 118 70
95 122 74
93 120 71
95 122 73
95 122 73
98 126 76
96 124 74
89 116 69
96 124 74
91 118 71
156 171 162
195 206 213
198 209 218
202 212 221
202 211 218
195 207 215
206 216 224
192 203 209
206 215 222
197 207 214
206 216 226
200 210 218
200 211 220
199 210 220
197 208 215
206 217 227
201 211 218
205 215 224
208 218 228
198 208 217
180 192 194
172 185 182
141 159 141
109 133 97
94 121 72
91 118 70
94 121 72
112 136 98
197 207 216
198 208 215
198 208 216
200 210 216
198 208 215
200 210 219
200 210 219
189 200 206
196 207 215
197 207 214
200 210 218
198 208 217
203 213 221
200 210 217
198 209 216
201 211 218
197 208 216
206 216 225
202 212 221
198 209 219
199 210 220
208 218 228
201 210 218
198 208 216
197 208 219
192 203 211
200 210 219
157 172 167
92 119 71
97 124 75
91 118 70
95 122 73
94 121 72
91 118 70
91 118 70
94 122 73
94 122 73
95 123 74
92 119 71
95 122 73
96 123 74
94 121 73
95 123 74
97 124 74
94 121 72
93 120 71
93 120 72
95 122 74
93 120 72
93 119 71
97 125 75
97 124 74
97 125 75
92 118 70
95 122 73
185 197 201
200 210 218
200 210 217
204 213 221
190 201 205
196 207 215
198 208 215
190 201 207
201 212 221
194 204 212
195 206 215
194 205 213
204 213 220
195 205 210
173 187 188
152 167 156
130 149 131
121 142 116
92 119 71
95 122 73
95 122 73
94 121 72
92 119 72
97 124 75
95 122 73
96 124 75
95 122 73
152 167 153
200 211 219
203 213 222
205 214 223
200 210 218
192 203 210
209 218 228
198 208 217
200 211 220
199 209 217
196 206 213
199 209 216
197 207 215
203 212 221
198 209 217
201 211 220
198 208 217
200 211 219
198 209 218
199 210 217
207 216 226
199 210 217
200 211 220
203 213 223
196 207 217
202 212 220
202 213 223
172 186 185
93 119 71
88 115 68
91 119 72
94 121 73
96 123 73
95 122 73
93 120 72
97 124 74
92 119 72
96 124 74
96 124 74
95 121 72
92 119 70
95 122 74
91 118 71
94 121 72
93 120 71
94 121 72
94 121 72
93 120 72
94 121 72
89 116 69
95 122 74
94 121 72
95 123 74
97 124 75
177 189 189
199 209 217
198 208 215
202 212 220
199 210 219
194 205 213
197 208 217
192 202 210
183 195 199
202 212 220
198 208 215
195 205 214
198 208 217
198 209 216
198 209 219
200 210 216
204 214 223
202 212 220
201 211 221
204 214 223
201 212 220
207 215 223
201 211 220
191 202 208
202 212 220
202 212 220
111 135 103
95 122 73
90 116 69
98 125 75
97 124 75
94 121 72
89 116 69
94 121 72
95 122 73
93 121 72
97 125 75
92 119 72
95 122 73
93 120 72
91 118 71
90 116 69
96 123 74
96 124 75
97 125 75
96 124 75
95 122 73
95 122 73
91 118 71
93 120 72
105 130 91
202 212 219
203 213 222
193 204 210
204 214 223
198 209 218
197 207 213
202 212 221
198 209 216
207 216 224
197 206 212
201 211 219
202 213 224
203 213 222
205 215 224
205 215 224
199 209 216
195 205 213
201 211 218
194 205 211
198 210 220
207 216 225
204 215 224
192 202 208
170 183 178
101 127 83
96 123 74
91 118 71
95 122 73
95 122 73
95 122 73
92 119 71
95 122 73
92 119 70
97 125 75
89 116 70
94 122 73
96 123 74
96 123 74
92 119 71
95 122 74
93 120 72
94 121 72
94 122 73
95 122 73
95 122 72
89 116 69
155 169 162
206 215 223
200 210 219
201 211 219
197 206 212
188 200 207
204 214 224
194 205 212
195 206 212
194 205 213
206 216 225
200 210 218
202 213 223
202 212 219
190 202 209
194 205 212
198 209 216
198 208 215
198 209 218
194 205 212
202 212 222
160 176 172
95 122 75
92 120 72
96 123 74
94 121 72
95 122 73
92 119 71
100 128 77
94 121 72
94 122 73
91 118 70
95 122 73
90 117 70
94 121 72
97 125 75
92 119 71
95 122 74
92 119 72
97 124 77
118 139 109
131 150 129
155 171 161
144 161 145
100 125 87
97 125 75
88 115 68
94 121 72
92 119 71
92 119 71
93 120 72
190 201 207
203 213 223
203 212 219
197 208 217
206 216 224
190 201 208
193 204 210
202 211 219
199 210 218
201 211 220
197 207 211
92 119 71
97 124 74
94 121 72
92 119 70
96 123 74
91 118 71
92 120 71
96 123 73
97 124 74
93 119 71
94 121 72
96 123 74
98 126 75
91 117 69
121 141 116
171 185 183
195 206 214
205 216 225
199 209 217
198 209 217
204 214 222
203 213 221
194 204 212
205 214 223
185 197 199
92 120 72
92 119 72
93 120 72
94 121 72
95 123 74
97 124 74
93 120 71
96 123 74
94 121 72
100 127 77
91 118 70
94 121 72
95 122 72
91 118 71
90 116 69
95 122 72
94 121 72
90 116 69
94 122 73
92 120 72
95 122 73
96 124 74
96 123 74
94 121 72
95 122 73
129 149 126
173 186 184
146 162 149
102 128 86
93 121 72
95 122 73
90 117 70
92 120 71
94 121 72
93 120 72
93 121 73
95 122 73
93 120 72
94 121 72
94 122 73
94 121 72
94 121 72
96 123 74
96 123 74
95 122 73
93 120 72
91 118 70
94 121 72
90 117 70
97 125 75
92 119 72
94 121 72
156 171 164
197 208 217
203 214 224
200 210 218
201 212 221
200 210 217
203 214 224
191 203 212
204 214 224
191 202 207
192 202 207
206 215 224
199 209 218
198 208 215
200 210 218
196 206 214
195 206 212
200 210 218
196 207 216
200 211 219
202 212 219
199 209 217
202 212 219
196 206 213
190 201 204
152 168 159
123 144 120
129 147 126
203 213 221
196 207 214
194 205 211
205 214 222
201 211 219
203 212 220
200 209 216
200 211 218
198 208 214
199 210 220
205 215 224
193 205 214
203 213 220
197 207 214
197 208 215
211 220 230
200 211 221
203 212 219
202 211 219
205 214 223
203 214 222
206 215 225
197 207 214
200 210 218
209 217 226
204 214 224
201 211 220
125 145 121
94 122 73
96 124 74
95 123 74
93 120 71
92 120 72
94 121 73
97 124 75
95 123 73
94 121 73
94 121 73
95 123 73
95 123 74
94 121 72
95 122 73
92 119 71
94 121 72
96 123 74
96 123 74
95 123 74
94 122 73
90 117 70
92 119 71
95 123 73
95 122 73
95 123 74
95 122 74
111 134 101
195 207 215
202 212 222
188 200 208
201 211 221
205 215 224
195 206 213
206 215 224
202 213 223
202 212 220
198 209 218
204 214 224
195 205 211
198 209 217
199 210 219
203 212 221
200 210 217
191 203 211
201 210 218
196 206 213
186 198 201
179 191 192
159 172 165
144 162 149
117 139 108
110 134 96
93 120 72
95 122 73
179 191 195
199 210 218
202 212 222
197 207 216
208 218 228
205 214 223
203 213 222
196 206 214
196 207 215
200 211 220
195 206 214
199 210 219
200 210 219
201 211 219
190 202 211
209 218 227
205 214 223
196 207 214
196 206 213
209 219 229
196 207 216
206 216 224
201 212 221
192 203 210
203 213 222
198 208 217
202 212 218
142 160 144
97 124 75
94 122 73
92 118 71
94 121 73
91 118 70
97 124 74
89 116 69
93 120 72
95 122 73
93 120 72
95 122 73
92 119 72
94 121 72
96 124 74
96 123 74
96 123 74
95 123 74
97 125 75
92 119 71
95 122 73
95 122 73
93 121 73
97 125 75
97 125 75
95 122 73
129 149 126
201 212 221
193 204 212
207 217 226
195 206 214
202 212 222
207 216 224
205 215 225
192 204 213
200 210 219
197 208 217
197 207 215
198 209 218
195 206 213
199 210 219
205 214 222
199 210 220
198 208 216
202 213 222
202 212 221
191 202 211
194 204 209
199 209 218
195 206 212
200 210 219
200 211 219
170 183 179
91 118 71
97 124 74
95 122 73
92 119 71
92 119 71
89 116 69
94 121 73
92 119 72
93 120 72
96 124 74
92 119 70
97 124 75
96 124 75
94 121 72
99 126 76
93 120 72
92 119 71
94 121 72
94 120 71
94 121 73
94 121 72
95 122 73
93 119 71
92 119 71
172 186 186
191 202 209
199 209 218
191 202 207
197 208 217
192 203 210
205 215 225
200 211 220
206 216 226
203 213 222
197 207 213
198 207 214
197 207 214
201 211 218
200 211 222
194 205 211
205 215 226
201 211 220
205 215 226
206 216 225
189 200 207
204 214 222
201 212 220
193 204 211
113 136 101
98 125 75
95 123 74
96 123 73
97 124 74
98 125 75
96 123 74
98 126 76
95 123 74
96 123 74
95 123 73
92 119 72
92 119 71
92 119 71
98 125 75
97 124 75
94 121 72
98 125 75
91 118 71
94 122 73
92 120 72
94 121 73
154 170 159
190 202 210
202 211 220
201 212 221
198 209 217
205 214 222
194 205 212
200 210 219
201 210 217
200 211 220
194 205 213
197 208 218
204 214 223
209 218 228
193 204 209
201 211 218
194 206 213
203 212 221
196 207 214
196 206 214
193 204 211
183 195 198
98 125 83
96 124 74
95 123 74
94 121 72
94 121 72
96 123 73
97 124 75
92 119 71
92 119 71
94 121 73
93 120 71
96 122 73
98 123 78
110 133 97
131 152 130
153 169 160
180 192 194
189 200 205
205 215 223
163 178 173
97 123 77
96 124 74
95 122 73
91 118 70
90 116 69
98 125 75
95 122 74
96 123 75
94 121 72
92 119 71
179 192 190
201 211 219
193 204 211
201 210 217
198 209 217
209 218 226
196 207 215
202 213 223
191 202 210
206 215 225
203 213 223
99 123 84
92 119 71
95 123 73
93 121 73
93 120 72
96 122 73
91 117 69
95 122 73
94 121 72
97 124 73
95 123 74
94 121 72
98 125 76
95 122 74
94 121 73
94 121 73
109 134 92
141 159 144
181 192 193
202 213 222
195 207 215
203 213 223
205 215 224
198 208 215
183 195 195
95 122 72
91 117 70
96 123 74
96 123 74
95 122 73
96 123 73
91 118 71
93 120 72
97 124 74
96 123 74
96 123 74
96 122 73
96 124 75
97 124 75
94 121 72
90 117 69
92 119 72
95 123 74
94 121 72
95 122 72
92 119 70
92 119 70
95 123 74
96 124 74
96 123 73
116 138 109
203 213 221
206 215 225
195 206 213
165 179 175
154 170 158
108 132 95
94 121 73
94 121 72
91 118 70
92 120 72
94 121 73
92 118 70
93 121 72
94 121 72
95 123 73
96 123 74
93 120 71
91 117 70
92 119 71
92 119 71
91 118 70
93 120 72
96 124 75
94 122 73
90 117 70
93 120 72
152 168 159
201 211 219
200 210 219
189 200 205
205 215 225
194 205 212
203 213 222
202 212 220
197 207 215
202 213 223
199 209 216
189 201 208
201 211 217
197 208 214
195 206 214
203 212 220
199 209 215
193 204 211
202 211 219
198 209 218
200 210 219
192 203 212
189 200 206
197 207 214
196 208 216
208 217 226
202 212 220
175 187 184
138 156 139
157 173 166
179 191 193
196 207 215
191 203 212
206 216 227
203 213 223
199 209 219
202 212 222
199 209 217
190 201 207
210 218 226
201 212 221
203 212 221
198 208 215
195 207 215
197 208 218
209 218 228
203 213 220
203 212 219
197 208 215
197 208 216
201 212 221
193 204 213
203 212 220
198 208 215
204 214 223
111 135 99
96 123 74
93 119 71
94 121 72
95 122 73
92 119 72
96 124 74
94 121 73
94 121 73
93 120 72
94 121 72
95 122 73
97 124 75
95 122 73
93 120 72
97 124 74
94 121 72
94 121 73
92 119 71
96 124 74
90 117 70
96 124 74
96 123 73
90 117 70
95 122 73
96 124 75
93 120 72
150 166 153
197 207 214
199 209 217
197 207 215
190 202 209
202 211 219
200 211 220
205 215 223
200 210 219
202 212 219
203 213 221
191 201 208
198 209 218
198 208 216
196 206 214
206 216 225
192 203 209
195 206 213
202 212 220
200 210 216
203 213 222
193 204 210
198 208 214
198 209 218
202 212 222
188 200 205
193 204 210
169 183 183
149 165 152
146 162 151
176 189 187
197 207 212
194 205 212
203 213 221
192 203 212
198 208 215
201 210 218
203 213 222
203 212 219
207 217 228
204 215 224
198 208 214
193 203 209
204 213 223
201 211 219
200 209 216
195 205 211
198 208 214
196 207 214
204 214 223
200 210 218
193 205 212
199 209 217
196 206 215
201 211 218
101 125 84
94 121 73
93 120 71
95 122 72
92 119 70
92 119 71
95 123 74
94 122 73
96 124 75
94 121 72
95 122 73
94 121 73
95 122 73
92 119 71
92 119 71
93 120 71
94 121 72
95 122 73
91 119 71
93 120 72
93 120 72
97 124 74
92 120 72
96 123 74
95 122 73
95 122 73
170 183 181
189 200 207
202 212 219
196 207 215
203 213 222
206 215 224
199 209 217
199 209 218
196 207 216
198 208 215
200 210 218
197 207 213
200 210 216
194 205 211
199 208 214
208 218 228
195 204 211
208 217 227
196 207 215
201 211 219
202 212 223
200 211 222
199 210 219
189 200 207
195 206 213
196 206 212
106 130 93
96 123 74
89 116 68
89 115 68
95 122 73
94 121 72
94 121 72
96 124 74
94 122 73
95 122 74
95 122 73
92 119 71
96 123 73
92 120 72
93 120 72
96 124 75
89 115 68
95 122 73
93 119 72
97 124 75
95 122 73
97 124 74
91 119 71
93 121 73
131 149 133
199 210 218
196 207 216
201 211 221
201 211 219
202 212 220
199 209 216
199 209 216
202 212 220
199 210 219
202 213 223
193 204 213
202 212 220
198 208 216
193 203 207
192 203 211
198 209 216
197 208 218
206 217 228
202 212 218
200 211 221
205 214 222
198 208 216
192 203 210
141 158 144
93 120 71
97 124 74
96 123 74
94 121 73
92 118 70
96 124 75
94 121 72
92 119 71
97 125 75
97 124 74
92 120 71
92 118 70
93 120 72
91 117 70
96 124 74
89 115 69
94 121 72
95 122 74
94 121 73
93 120 72
96 123 74
115 137 107
194 205 213
202 212 219
200 210 218
196 207 214
202 212 220
202 213 221
191 202 210
199 210 219
198 208 215
200 210 219
192 203 213
202 212 219
192 205 214
203 212 219
199 209 217
196 206 214
197 207 216
205 215 225
201 210 219
197 206 213
187 199 205
117 140 108
95 123 74
93 120 72
96 123 74
89 116 70
96 123 74
90 117 69
113 136 103
137 154 137
149 165 153
160 175 167
174 187 185
196 207 213
191 202 208
202 212 222
199 209 217
201 211 221
191 202 208
209 218 227
173 186 186
93 120 74
93 120 72
93 121 72
92 119 71
96 123 74
93 120 72
95 123 74
97 124 74
97 124 75
94 122 74
94 121 73
94 121 73
115 137 105
142 159 147
176 189 190
191 203 211
199 209 216
187 198 202
204 214 224
197 207 215
196 207 214
201 210 217
129 148 127
93 120 72
91 118 71
93 121 72
92 119 71
95 122 73
93 121 72
96 124 74
93 120 72
94 122 73
90 117 70
96 123 73
94 121 72
96 123 74
94 121 72
91 118 71
94 122 73
90 117 70
94 121 73
116 139 104
161 175 167
189 200 206
199 209 217
208 217 225
201 211 219
92 119 73
93 120 72
97 124 74
96 123 73
95 123 74
93 120 72
96 123 74
90 117 69
92 119 72
95 122 73
94 121 72
94 121 72
93 120 72
93 121 73
96 123 74
93 120 72
95 122 73
91 117 70
94 121 72
89 116 68
95 121 72
96 124 74
95 122 74
92 120 72
97 124 75
123 145 118
200 210 219
196 207 215
202 212 222
201 211 219
198 208 214
198 208 215
180 193 196
147 163 152
122 144 113
100 128 77
91 118 70
96 123 73
89 116 69
91 118 71
88 115 69
94 121 73
94 121 72
98 126 75
91 118 70
94 122 74
94 121 73
96 123 73
94 121 73
96 124 75
93 120 72
91 118 70
180 191 188
189 200 205
196 206 212
195 206 214
210 219 227
200 210 219
197 209 218
193 204 208
203 213 221
199 209 217
192 203 210
199 208 215
206 216 226
205 214 224
198 209 217
192 203 210
198 208 216
198 208 215
201 211 220
199 208 217
196 206 213
192 203 210
207 217 227
190 200 207
202 212 220
196 207 215
199 208 217
151 167 155
95 123 74
98 125 75
96 123 74
99 125 82
138 156 138
162 176 170
172 185 184
201 211 218
200 209 217
192 203 210
191 202 210
202 212 221
205 214 223
211 221 232
194 205 213
205 214 222
196 207 216
202 212 219
208 217 226
186 198 205
203 213 223
198 208 216
199 209 217
200 211 220
194 204 213
202 212 220
197 207 212
93 120 72
90 116 69
95 122 73
94 121 72
91 118 70
91 118 71
91 118 70
91 118 71
93 120 71
93 120 72
92 119 71
95 123 75
88 115 68
99 127 77
91 118 70
92 119 71
95 122 73
96 124 74
93 120 72
94 121 73
94 121 72
95 123 74
94 121 73
97 124 74
95 122 73
93 120 72
95 122 73
167 181 176
191 202 208
203 212 220
206 216 224
193 203 208
196 207 213
206 216 225
202 212 223
200 210 219
205 215 224
201 211 219
198 209 218
203 213 221
195 205 210
191 202 210
190 201 208
202 212 221
196 206 213
196 207 215
206 216 225
203 213 221
204 215 226
196 207 215
202 212 222
204 213 221
195 205 212
200 210 219
171 185 181
98 126 76
88 115 69
94 121 72
91 118 70
105 130 90
112 135 106
132 151 130
157 172 164
154 170 164
175 188 186
188 199 204
187 199 204
199 209 214
189 201 210
193 203 210
199 210 219
192 203 209
204 214 223
195 207 214
203 212 219
206 215 224
204 213 221
196 207 214
199 210 219
199 209 218
197 207 213
159 174 166
98 125 75
90 117 70
95 122 73
97 124 75
95 122 73
93 121 72
91 117 70
89 115 68
89 116 69
95 123 74
95 122 73
95 122 72
96 124 75
95 123 73
93 120 72
97 125 75
95 122 73
93 120 71
93 120 71
96 123 74
96 124 75
93 120 72
93 120 73
95 122 74
94 122 72
118 139 108
194 205 213
206 216 225
199 209 217
197 207 213
197 208 218
199 208 214
194 205 212
195 205 212
208 217 227
202 211 219
203 213 221
198 208 215
194 205 212
201 211 219
200 211 219
205 215 224
195 206 214
198 209 219
200 209 217
202 211 220
208 217 224
195 206 213
202 212 221
209 218 225
198 208 215
149 166 154
95 122 73
91 118 71
92 119 70
92 119 71
94 121 73
93 120 72
94 122 73
96 123 73
93 120 72
92 119 72
93 121 73
94 121 71
92 119 71
94 122 73
92 118 70
95 123 74
97 125 76
92 119 71
92 119 71
95 122 74
93 119 71
95 123 74
91 118 71
90 116 72
188 199 202
199 209 219
196 207 217
204 214 222
198 208 213
192 203 210
206 215 222
204 214 221
201 211 220
200 210 219
202 212 219
196 207 216
200 210 218
196 206 212
202 212 221
195 206 216
202 213 224
205 216 226
195 205 212
204 214 222
191 202 208
201 211 219
196 206 213
180 192 193
93 120 72
91 118 70
94 121 72
94 121 72
94 121 73
95 122 73
95 122 73
95 123 74
95 123 74
95 123 73
91 118 71
96 123 73
95 123 74
92 119 71
96 124 74
92 119 72
93 120 72
90 117 71
95 122 73
92 119 71
94 121 73
97 123 77
180 192 193
201 211 219
200 210 218
204 214 223
200 209 217
205 214 222
207 217 226
193 205 212
194 205 213
202 212 220
198 208 214
201 212 221
201 211 219
203 212 220
201 212 224
197 208 217
199 209 217
198 208 216
210 219 228
206 215 225
195 205 212
126 146 123
97 122 81
123 143 116
130 150 125
150 166 155
161 175 169
180 193 192
189 200 203
197 208 216
192 202 209
201 211 220
200 211 218
204 214 222
200 210 218
195 206 214
193 204 210
204 214 221
198 209 218
198 209 219
177 189 190
104 127 92
98 125 75
94 121 73
96 123 74
94 122 74
92 119 70
95 122 73
91 118 70
96 123 74
92 119 72
92 119 72
93 120 71
88 115 69
91 118 69
93 120 71
95 121 75
130 149 130
184 196 199
207 216 225
201 211 219
199 211 221
196 206 211
197 207 214
146 163 148
88 115 69
91 118 70
94 121 72
94 121 72
93 120 71
96 123 74
93 120 71
94 121 73
93 120 71
92 119 71
89 115 68
93 119 71
93 120 72
94 121 72
94 121 73
90 117 70
92 119 71
94 121 72
93 121 72
94 121 72
91 118 70
120 141 117
162 177 173
191 202 207
98 124 82
95 123 74
93 120 72
93 120 72
93 120 72
94 122 72
95 122 73
92 119 71
96 123 74
94 120 71
95 123 73
91 117 70
95 122 73
92 119 71
93 121 72
99 127 77
94 121 72
91 118 70
93 121 72
96 123 74
93 120 72
91 117 70
93 120 72
94 120 71
91 118 71
115 138 104
203 213 223
198 209 217
198 208 215
197 207 216
201 212 220
194 204 210
192 203 210
193 204 212
199 209 216
192 203 208
155 169 160
124 146 118
96 122 75
93 121 72
92 118 70
94 122 74
92 119 70
94 121 72
93 120 72
92 119 71
93 120 72
93 120 72
95 122 73
93 120 72
96 123 74
89 115 67
166 180 174
200 211 221
194 204 211
185 197 203
193 204 212
201 212 221
197 208 217
202 213 222
200 210 218
204 214 222
206 216 226
202 211 220
202 213 222
200 210 218
210 219 229
200 210 220
196 207 214
193 203 209
189 201 208
188 200 207
197 208 216
205 214 222
201 212 222
200 211 220
198 208 216
197 208 216
199 210 219
134 151 136
94 121 72
96 123 74
96 123 73
95 122 73
94 121 73
93 120 72
92 119 71
98 124 79
130 149 127
161 176 169
182 194 195
210 219 230
189 201 207
194 204 210
205 215 224
196 207 214
193 204 212
194 204 212
195 205 212
199 209 218
204 214 224
199 209 218
199 210 219
202 212 220
201 210 217
195 206 216
173 185 183
92 119 71
92 119 71
92 119 71
94 122 73
94 121 73
96 124 75
94 122 73
95 122 73
91 118 71
93 120 72
93 121 73
94 121 72
96 123 74
98 126 76
94 120 71
96 124 74
93 120 72
92 119 71
90 117 70
96 124 75
96 123 74
93 119 70
92 119 71
89 116 69
96 123 74
94 121 72
101 128 82
193 204 212
200 209 215
204 214 224
200 210 217
204 214 226
202 212 220
197 207 216
200 211 220
197 206 212
206 215 226
197 207 214
197 208 217
198 209 217
200 210 217
195 206 214
198 208 217
204 215 225
198 208 216
194 204 211
197 207 214
203 213 221
190 201 208
204 214 221
198 208 217
194 205 212
196 207 214
197 208 216
126 146 123
93 120 71
92 119 70
93 120 71
93 120 71
90 117 70
94 121 72
93 119 71
92 119 71
94 121 73
93 119 71
92 119 71
95 123 74
105 129 89
135 155 133
137 154 140
144 161 146
164 179 174
167 181 179
184 196 197
201 212 220
200 210 217
198 208 217
200 211 221
197 207 213
192 203 207
191 202 208
106 131 91
96 123 74
95 123 74
94 122 74
95 122 72
91 118 70
95 122 73
94 121 73
90 117 69
93 120 72
91 118 70
95 121 72
90 117 69
94 121 72
94 121 73
94 121 73
94 121 72
90 117 70
95 122 72
91 117 69
95 122 73
94 121 72
91 117 70
93 120 72
93 121 73
91 119 72
161 175 171
197 207 214
197 207 214
202 211 218
201 211 219
210 220 231
193 204 211
193 203 208
198 209 217
201 212 222
203 213 222
201 211 222
196 207 215
203 213 221
198 209 219
195 206 214
202 212 218
196 207 217
194 205 213
194 205 213
198 209 217
196 206 214
200 210 219
198 208 218
198 208 217
190 200 205
95 122 75
96 123 73
91 118 71
95 122 73
94 121 73
96 124 74
95 123 74
98 125 75
91 118 70
92 119 71
94 121 72
93 120 72
91 117 70
92 118 71
92 119 71
92 119 71
89 116 69
99 126 76
94 121 73
97 124 74
97 125 75
92 119 71
96 124 74
97 124 75
163 177 171
200 210 216
202 212 222
203 213 222
199 209 218
202 212 221
198 209 217
192 203 209
195 205 212
196 207 214
203 213 221
195 204 210
200 210 218
204 214 225
199 209 219
186 198 204
205 215 224
205 215 224
194 206 214
205 215 225
196 207 216
195 206 215
205 215 223
194 204 209
108 132 95
91 118 70
94 120 72
93 119 71
91 117 70
93 120 72
92 119 71
93 120 72
97 125 75
96 124 75
95 122 73
92 119 71
91 118 71
91 118 70
90 117 70
92 120 72
92 118 71
92 119 71
97 124 75
89 116 69
94 121 72
90 117 70
167 181 174
196 207 214
203 212 220
194 205 211
191 203 212
199 210 218
206 216 227
200 210 219
191 203 210
203 212 220
202 213 221
205 215 222
196 206 214
205 215 226
191 202 209
192 203 210
196 205 210
187 198 202
172 185 183
156 172 163
137 156 139
172 185 182
194 204 209
192 203 212
195 206 212
193 205 211
193 205 213
199 210 220
194 205 212
201 212 220
197 208 215
196 206 214
204 213 221
202 212 220
198 208 216
200 210 219
191 202 209
200 211 220
198 209 219
193 204 212
197 208 217
104 127 91
94 120 71
92 119 71
96 124 74
92 119 72
95 123 74
98 125 75
91 118 70
89 116 69
96 123 74
91 118 70
95 123 73
96 124 74
94 121 73
94 121 72
93 120 72
95 123 73
93 120 72
96 123 74
106 129 95
156 171 163
195 206 212
202 212 220
196 206 213
160 175 171
93 120 72
93 120 72
91 118 70
90 117 70
93 121 73
93 120 72
96 123 73
92 118 70
93 120 71
89 116 69
96 123 73
93 121 73
92 119 70
94 121 72
97 125 75
94 121 73
93 120 72
93 119 71
92 119 71
91 117 70
94 121 72
90 117 70
93 120 72
98 124 82
156 172 167
126 146 121
98 125 80
94 121 73
91 118 70
91 118 70
95 122 73
93 120 71
90 117 69
93 120 72
91 118 70
89 116 70
93 120 72
93 121 72
97 125 75
98 125 74
92 119 72
92 119 71
93 120 71
91 118 70
91 117 70
94 121 72
90 118 71
97 124 75
90 117 69
123 144 117
196 207 213
193 205 215
196 207 215
206 216 225
204 213 221
196 207 215
187 199 208
199 210 217
203 214 225
197 207 215
203 213 222
202 211 218
182 194 196
166 180 178
126 145 120
95 121 78
93 120 72
92 119 71
96 123 73
87 114 67
94 121 72
88 114 68
93 120 71
93 120 72
94 121 72
95 122 73
173 187 185
198 209 218
193 205 212
207 216 224
196 207 216
198 209 217
198 209 216
194 205 214
203 213 224
203 212 221
201 212 220
205 215 224
200 210 220
196 207 216
195 205 213
204 213 220
203 213 223
200 210 218
201 212 222
199 210 217
199 209 217
203 212 220
193 204 211
199 209 218
199 209 218
198 209 217
201 211 220
117 139 107
93 120 72
90 117 70
90 117 69
97 124 74
98 126 76
96 123 73
91 118 70
95 123 73
95 122 73
91 118 70
91 118 70
97 124 78
125 144 122
158 174 169
180 192 191
195 207 216
196 206 213
202 212 221
206 216 227
205 215 224
190 201 207
199 209 217
202 212 222
200 210 218
190 200 206
197 208 216
140 158 143
92 119 71
95 122 72
94 121 73
93 119 71
98 125 75
94 121 72
95 122 73
94 121 73
95 122 73
95 122 74
92 118 70
90 117 69
92 119 71
92 119 72
93 121 73
94 122 73
93 120 72
93 120 72
93 120 72
95 121 72
94 121 73
92 119 71
93 120 71
94 121 72
96 123 73
96 123 74
132 151 129
201 211 219
198 208 216
205 214 223
203 213 221
201 211 219
204 214 222
200 210 218
202 212 220
193 204 213
195 206 215
205 214 222
196 207 216
201 211 220
200 210 219
199 210 220
196 207 215
204 215 226
198 209 219
198 208 215
204 213 223
195 206 214
201 211 220
198 208 217
203 214 224
198 209 219
201 211 217
193 203 207
93 120 71
93 121 73
90 117 70
91 118 71
91 118 70
90 117 70
91 118 71
94 121 72
94 121 72
91 118 71
94 121 72
92 120 72
94 121 73
93 120 71
94 121 73
92 119 71
96 123 74
92 119 71
92 119 71
94 121 73
95 120 75
111 133 105
128 148 123
135 154 134
147 163 152
149 165 156
170 184 179
120 142 112
119 140 108
98 123 78
90 117 70
95 123 74
92 120 72
92 119 72
94 120 72
94 121 72
92 119 71
97 124 75
92 118 70
90 117 70
96 123 74
95 123 74
96 123 73
93 121 72
94 121 73
92 119 71
93 120 72
95 122 74
93 120 71
95 122 74
95 122 73
92 118 71
113 134 106
199 210 218
197 208 216
200 211 218
190 201 207
203 213 223
199 210 220
194 205 211
198 208 215
196 206 212
203 213 223
195 208 218
198 208 214
196 206 213
192 204 211
196 207 214
192 202 209
203 213 222
198 209 217
192 204 213
204 213 220
199 209 216
193 203 209
197 207 215
203 212 222
203 213 222
135 153 138
91 118 70
93 120 71
90 117 69
92 118 70
92 119 71
95 123 74
97 124 75
93 120 72
93 120 72
95 122 73
95 122 73
95 123 73
92 119 71
93 120 72
91 117 70
93 121 72
91 118 71
93 120 72
97 124 74
93 120 71
89 116 69
96 123 74
97 125 75
118 141 112
199 209 218
199 209 218
201 211 219
194 205 212
194 205 212
201 211 221
200 210 219
191 202 209
198 208 216
196 207 216
193 203 209
194 206 213
204 214 223
200 210 217
190 201 207
200 210 219
196 207 215
198 208 215
207 217 226
191 202 210
197 206 213
199 209 217
195 207 216
134 152 135
95 123 74
90 117 69
93 119 71
96 124 74
96 123 74
94 122 73
92 119 71
88 115 68
94 121 72
91 118 70
95 122 73
93 120 71
91 118 70
90 116 70
100 127 77
91 118 70
97 124 75
95 122 74
92 119 71
92 118 70
98 126 76
152 169 160
194 205 213
209 218 227
192 203 208
201 211 220
199 209 219
200 211 221
196 207 215
201 212 221
185 197 199
180 193 194
164 178 174
149 165 155
145 161 150
125 145 122
117 139 108
92 119 71
92 119 71
93 120 71
96 123 74
91 118 70
150 166 153
196 206 214
194 204 212
196 206 213
195 206 212
198 208 216
201 211 219
205 214 224
200 210 218
195 205 212
193 205 213
197 208 217
197 207 215
198 207 215
199 209 217
206 217 228
204 214 222
198 209 217
199 208 214
193 204 211
112 135 102
93 120 71
95 123 74
91 118 71
94 121 73
92 119 72
95 122 73
91 118 70
94 121 72
91 118 71
93 120 72
94 121 72
94 121 72
90 116 69
95 122 73
90 116 69
95 122 73
93 121 73
95 123 74
95 123 74
94 121 72
90 118 70
96 124 75
132 152 127
159 175 170
168 181 180
90 117 71
91 119 71
98 126 76
97 124 74
95 122 74
91 117 70
93 120 71
89 116 69
95 122 73
92 119 71
92 119 72
92 119 71
93 120 72
89 115 68
97 124 75
93 119 71
96 123 74
94 121 73
97 124 74
93 120 72
91 118 70
94 122 73
94 121 73
94 121 73
176 189 190
194 206 214
196 207 216
168 181 179
131 150 128
98 125 80
89 115 68
96 123 75
94 121 72
94 121 72
95 122 73
94 120 72
90 116 70
95 122 72
94 121 73
96 124 74
95 122 73
95 123 73
89 116 68
91 118 70
93 120 72
91 118 70
91 118 70
94 121 72
95 122 73
124 145 117
198 209 219
197 207 216
196 207 214
201 212 221
197 207 215
193 204 210
195 205 213
192 204 213
201 211 218
203 213 219
192 203 209
204 214 222
191 203 210
198 209 216
200 210 218
188 199 202
171 183 180
144 160 151
108 132 95
95 122 73
90 117 70
95 122 73
93 121 72
94 121 72
95 122 73
91 118 70
188 200 201
188 199 204
197 207 216
193 204 212
206 215 223
193 205 214
198 208 218
203 213 222
194 206 216
194 205 214
201 211 220
196 207 215
189 200 206
194 205 210
203 213 221
199 209 216
201 210 218
197 208 218
198 208 215
198 209 219
204 214 223
206 215 225
187 199 205
203 213 221
205 214 223
193 204 209
198 208 216
98 122 82
94 121 73
92 119 72
90 117 69
92 119 72
92 119 70
99 126 76
94 121 72
91 118 70
91 117 69
89 116 69
97 125 75
94 122 73
96 124 74
95 122 73
93 120 72
98 123 81
117 140 108
136 154 140
177 190 190
186 198 201
193 204 213
201 210 219
194 205 212
205 215 223
202 212 221
193 204 211
123 144 115
93 120 71
93 120 72
98 125 75
96 123 74
94 121 73
93 120 72
92 120 72
96 123 74
94 121 72
93 120 72
91 117 70
93 120 71
91 118 70
92 120 72
88 115 68
94 122 73
94 122 73
88 115 68
90 117 70
92 119 72
92 119 72
94 122 73
96 123 73
94 120 72
92 120 72
94 121 72
161 176 170
203 212 219
200 210 219
197 208 216
204 214 224
201 211 220
201 211 219
196 207 213
199 209 218
201 212 220
199 210 220
206 216 226
196 207 215
202 212 223
195 206 213
207 216 226
199 210 218
198 209 217
197 208 216
192 203 209
205 215 223
193 205 212
198 208 215
203 212 220
201 212 220
191 202 209
201 211 218
153 169 161
96 123 73
91 118 70
93 120 72
94 121 72
96 123 74
92 119 71
92 119 72
90 117 70
93 120 71
87 114 68
91 118 71
96 123 74
96 123 74
98 126 76
92 119 70
93 120 72
94 121 72
94 121 73
91 118 71
90 117 69
90 117 70
95 122 73
91 117 70
91 117 69
92 119 70
93 120 71
174 188 186
198 208 215
195 207 215
199 209 217
199 210 219
177 190 194
184 196 196
164 179 176
154 170 163
154 169 157
144 161 148
119 141 112
103 127 92
97 124 79
94 121 72
91 118 69
96 124 74
92 119 72
91 118 70
91 119 71
91 118 71
93 121 73
94 121 73
92 120 72
93 120 72
95 122 73
174 187 183
195 206 212
197 207 214
196 207 214
199 210 219
202 211 221
196 206 212
197 208 216
191 203 210
204 214 222
195 205 213
197 208 217
194 205 212
201 211 218
196 206 213
197 208 216
197 208 215
202 213 223
200 210 218
199 209 217
188 199 206
202 212 219
195 206 212
203 212 219
202 212 221
182 195 195
95 122 76
96 123 74
95 121 73
93 120 72
92 119 71
91 118 70
95 123 74
92 119 71
95 122 73
92 119 71
95 122 73
93 120 72
91 118 70
93 120 71
93 120 72
96 124 74
91 118 70
96 123 73
94 121 72
91 117 69
92 119 71
96 123 73
94 121 72
91 118 71
181 193 192
197 208 218
195 206 214
202 212 222
194 204 213
201 211 220
200 210 219
194 204 211
198 209 218
197 207 214
195 206 215
200 211 219
190 202 209
197 207 214
197 208 216
194 205 214
195 207 215
201 211 218
189 200 205
194 205 213
199 209 217
199 209 217
194 205 213
173 186 184
90 117 70
94 121 72
93 120 71
94 121 73
92 118 71
97 124 75
96 124 74
96 123 74
94 121 71
93 120 72
95 122 73
93 120 72
97 124 74
90 117 69
95 122 73
100 128 78
97 124 75
94 121 72
94 121 73
94 121 73
95 120 77
113 135 106
184 196 198
179 192 192
161 175 170
155 170 161
160 175 165
128 148 124
113 136 102
100 126 87
93 121 72
95 122 73
92 118 71
91 118 70
97 124 74
92 119 72
93 120 71
95 122 73
95 122 73
94 121 72
94 121 72
91 119 71
132 152 130
203 213 222
202 212 220
199 208 216
203 213 221
197 208 214
194 205 212
199 209 218
197 208 215
202 212 222
198 209 217
200 210 220
204 215 225
204 214 223
196 207 214
202 213 223
205 216 227
203 213 222
189 200 205
197 207 215
132 150 132
93 120 72
91 117 70
89 115 69
93 120 71
96 124 75
95 123 74
87 113 67
89 115 69
95 122 72
93 121 72
89 116 70
95 123 74
91 118 71
92 120 72
112 135 98
99 122 87
99 125 83
95 123 74
92 118 70
93 120 71
94 121 73
92 119 71
93 121 72
92 119 71
90 117 70
105 128 91
171 185 181
112 135 105
94 121 72
94 121 73
89 116 69
92 119 71
96 123 74
92 119 71
93 120 71
94 121 73
95 123 74
91 118 70
94 121 72
93 119 71
95 122 74
92 120 72
88 114 67
93 120 72
96 123 74
94 121 72
94 121 73
96 123 74
90 116 69
93 120 71
162 176 171
196 207 215
204 214 223
198 208 215
201 211 219
191 202 208
165 179 173
137 154 135
89 115 68
91 118 71
93 120 72
91 118 71
91 117 70
95 122 73
92 119 71
95 123 74
92 119 71
93 120 72
94 121 72
94 120 72
94 121 72
91 117 69
91 118 70
90 117 70
93 121 73
116 138 109
189 199 205
195 205 213
198 208 216
191 203 209
198 210 218
199 210 219
199 210 219
203 213 222
193 204 211
189 199 206
200 211 220
193 204 210
203 213 221
194 205 213
191 202 210
205 215 223
200 210 219
199 210 219
197 208 218
172 185 183
160 174 166
106 130 98
95 122 73
93 120 72
90 117 70
95 122 73
194 204 208
186 198 203
194 206 215
197 207 216
197 207 214
197 208 217
194 205 211
206 216 225
206 216 226
195 207 216
205 214 223
201 211 220
197 208 216
190 202 209
195 206 213
191 203 210
202 213 223
200 210 219
196 207 215
195 206 212
198 209 216
194 205 212
196 207 217
193 204 211
202 212 220
202 213 223
184 197 201
91 118 70
92 119 71
92 118 70
93 120 71
93 120 72
92 119 71
91 118 71
96 124 74
93 121 73
93 121 72
90 117 69
95 122 73
95 122 73
92 119 71
94 121 72
92 119 71
90 117 70
93 120 72
96 123 74
94 121 72
95 123 74
116 138 106
139 156 140
167 180 176
178 191 192
185 196 202
193 203 210
99 124 81
95 123 74
95 122 74
93 120 72
95 123 73
95 123 74
96 123 74
93 121 72
94 121 73
93 120 72
95 122 72
93 119 71
92 119 71
93 121 72
91 119 71
94 122 73
93 119 71
96 123 74
93 120 71
93 120 72
97 124 74
92 119 71
92 119 71
95 123 74
90 116 69
95 123 74
94 121 73
185 197 199
198 208 215
192 202 208
199 209 219
199 209 217
195 207 214
189 201 208
200 209 216
191 202 208
202 211 219
192 202 209
196 207 215
203 213 222
200 210 216
201 212 222
202 212 221
196 207 215
197 207 213
194 205 213
199 209 218
196 207 215
190 201 206
195 205 212
197 207 217
191 203 210
203 213 221
197 208 216
121 142 114
93 120 71
95 122 73
93 120 72
99 126 75
96 123 73
95 122 73
92 119 71
93 120 72
95 122 73
92 120 72
96 123 74
91 118 70
95 122 73
95 122 73
91 117 69
95 123 74
93 120 71
94 122 74
97 124 75
93 120 71
94 121 72
92 119 72
93 120 72
91 119 71
93 120 72
121 141 112
204 214 224
197 208 217
203 213 222
204 213 223
191 203 210
199 209 218
205 214 221
201 211 220
202 212 221
199 209 215
200 210 218
197 208 218
198 207 214
198 208 217
197 207 213
186 197 201
183 195 196
175 189 190
164 177 170
161 175 169
153 169 159
151 168 155
139 157 138
126 146 122
107 130 95
121 142 112
196 207 215
194 204 210
194 205 216
193 204 213
201 211 222
200 209 217
204 214 223
207 216 225
195 206 213
200 210 219
202 212 222
197 208 215
200 209 215
201 210 217
186 198 205
195 206 212
196 206 212
199 209 216
204 214 223
194 206 216
197 208 215
197 207 213
194 205 214
194 205 211
196 207 214
123 143 118
89 116 68
92 119 71
91 118 70
93 119 71
90 117 69
95 121 72
95 123 74
95 122 73
93 119 71
90 117 70
96 122 73
94 121 72
91 119 71
94 122 73
94 121 72
96 123 73
92 119 72
96 123 74
94 121 73
95 122 73
94 122 73
94 121 72
95 122 73
138 156 137
200 211 219
197 207 214
204 214 223
187 199 204
193 203 208
199 209 217
197 208 215
201 211 221
194 205 213
203 213 222
194 205 211
197 208 215
197 207 216
199 209 218
198 209 217
203 213 222
197 207 217
204 214 222
199 209 216
203 213 222
200 211 220
197 209 218
188 200 207
111 135 100
93 120 72
93 120 71
96 123 74
93 120 72
94 121 72
95 122 73
94 121 72
91 118 71
95 123 74
116 138 109
120 141 115
133 152 134
141 159 145
140 158 141
148 165 157
174 187 187
165 180 176
179 191 191
187 198 203
195 205 212
199 209 216
114 134 107
90 117 70
92 119 71
92 120 72
93 119 70
94 122 72
94 121 73
92 119 71
90 117 70
87 113 67
92 118 71
92 119 71
93 120 72
95 123 74
94 121 72
95 123 75
91 119 72
93 120 71
96 123 74
94 121 73
120 141 114
178 190 192
199 210 218
204 213 221
200 210 217
200 211 221
200 210 219
204 215 226
201 212 222
197 208 217
193 203 210
195 205 213
193 204 213
199 209 219
208 217 226
198 209 216
197 208 217
200 210 216
200 211 220
197 208 216
131 150 131
94 122 73
91 119 72
92 119 71
93 120 72
95 122 73
91 118 70
97 124 74
93 121 73
93 120 72
90 117 70
92 119 71
89 116 70
93 119 74
101 126 87
102 127 88
204 214 223
199 209 218
202 212 221
196 207 216
198 209 217
196 207 213
186 198 202
197 207 211
187 198 201
180 192 195
173 185 183
167 181 179
136 154 137
128 148 125
122 144 115
132 151 129
151 167 156
162 175 169
164 178 174
167 181 177
160 175 171
158 173 167
156 170 161
157 172 164
135 153 137
148 164 151
139 156 140
143 161 145
136 154 136
130 149 126
127 147 124
131 150 132
127 147 125
120 141 111
131 150 128
103 128 88
164 177 173
193 204 211
193 203 209
189 200 207
188 199 207
187 199 205
202 213 223
197 208 215
186 198 202
148 164 154
115 136 104
90 116 69
94 122 74
93 120 72
94 120 72
92 119 71
91 118 70
93 120 72
92 119 70
92 119 71
97 124 74
93 119 71
91 119 71
95 122 73
93 121 73
127 147 123
197 208 214
193 203 207
195 206 214
199 209 216
192 202 208
204 214 223
202 211 218
201 211 220
199 210 219
202 213 223
200 210 217
197 208 216
195 204 209
200 210 218
201 211 221
196 208 218
190 201 210
199 209 216
194 204 212
196 206 213
195 206 214
200 210 217
190 202 206
163 178 173
125 145 121
98 123 81
200 210 219
195 205 213
203 212 219
196 206 213
193 204 212
207 216 225
203 213 220
193 204 210
199 210 220
197 207 214
195 206 213
201 211 218
185 197 204
203 213 222
187 199 205
202 213 222
206 215 224
205 215 224
202 211 219
196 207 212
192 204 212
193 202 207
199 209 219
200 210 219
198 208 218
196 207 216
182 194 195
89 116 69
94 120 71
94 121 73
96 123 74
93 120 72
92 119 72
92 120 72
92 120 72
95 122 73
92 119 72
91 118 70
95 122 73
92 119 71
92 120 72
95 123 74
92 119 71
96 123 73
91 118 70
93 120 72
94 121 72
93 120 72
94 121 72
92 119 72
90 117 70
93 121 73
97 124 78
140 158 142
165 180 177
138 156 136
111 133 104
93 120 72
95 122 73
90 116 69
93 121 73
90 116 69
94 121 72
92 118 71
93 120 71
93 121 72
95 122 73
94 121 73
90 116 69
92 120 72
95 122 72
94 121 71
89 115 69
93 120 73
95 122 73
94 121 72
95 121 73
91 118 69
92 118 70
90 117 70
112 136 100
202 212 220
200 210 218
192 202 207
198 208 215
194 205 211
200 210 219
191 203 209
198 208 217
193 203 209
201 211 221
200 211 221
196 207 215
194 205 212
198 208 216
207 216 225
195 205 211
199 209 215
210 219 231
205 214 222
199 210 219
204 214 222
191 203 210
202 212 221
200 210 218
194 205 213
191 202 207
185 196 198
90 117 69
91 119 71
91 118 70
96 123 74
93 121 73
93 120 72
93 120 72
92 119 72
95 122 74
92 119 71
94 122 73
96 124 74
91 118 70
92 119 70
92 118 71
94 121 72
93 120 72
92 119 71
92 119 71
93 121 73
94 122 73
95 122 74
92 119 72
94 121 72
96 123 74
95 123 74
170 185 183
196 207 212
195 206 213
193 203 210
201 211 218
193 204 213
196 207 214
193 204 209
209 218 226
197 207 214
196 207 216
195 205 214
199 210 219
185 197 202
204 214 224
193 204 211
190 201 208
205 215 223
197 208 214
199 210 218
200 210 218
194 205 212
203 213 222
193 203 210
202 213 223
194 205 214
126 145 126
97 125 75
97 122 81
108 130 99
126 146 124
122 143 115
129 149 127
135 153 135
141 158 144
150 166 155
155 171 161
163 178 169
178 191 191
167 181 177
179 190 190
173 187 187
191 202 203
192 203 210
190 202 207
196 207 213
196 207 215
205 214 223
198 208 215
199 209 217
192 203 211
164 178 174
90 117 69
90 116 69
91 118 70
92 119 71
91 118 71
95 122 73
93 120 72
93 120 72
95 122 73
92 118 70
93 120 71
94 121 72
93 121 72
96 123 74
93 120 72
90 118 71
92 119 71
93 121 72
93 120 72
93 120 71
94 121 72
92 119 72
92 120 72
110 134 98
202 212 218
195 206 213
207 217 230
197 208 215
195 206 213
196 207 215
197 208 216
196 207 215
197 208 216
194 206 213
198 210 221
199 210 219
198 209 218
197 207 214
194 205 212
188 199 204
187 198 201
188 199 202
181 194 198
171 185 186
172 184 182
174 187 186
169 183 179
180 192 192
144 160 149
167 181 178
168 182 177
177 190 191
164 179 173
179 192 193
187 199 202
188 199 205
196 207 215
192 203 210
206 216 224
201 211 220
199 209 218
197 207 213
197 208 216
197 208 218
195 205 212
196 206 214
193 205 213
196 206 213
203 213 223
143 159 143
92 119 71
93 121 73
95 122 73
94 121 73
90 117 69
93 120 71
92 119 71
92 119 71
95 122 73
91 118 70
94 122 74
93 120 73
95 122 73
96 123 74
97 124 77
99 124 83
100 125 84
100 125 84
110 133 98
111 135 98
176 188 188
188 199 204
165 179 177
181 193 196
172 185 184
178 190 190
173 186 187
174 187 184
168 182 179
170 184 180
161 175 170
162 177 173
152 168 160
155 170 164
159 173 167
150 166 159
152 168 157
147 163 152
149 165 154
175 188 189
176 189 189
164 178 174
172 186 184
180 192 194
175 188 188
172 184 182
181 193 193
179 192 194
183 195 198
195 206 214
193 204 210
192 204 210
199 209 217
195 206 215
198 209 217
200 210 217
196 206 212
193 204 213
195 206 214
198 208 216
198 208 216
202 212 221
202 212 221
202 212 220
201 211 218
195 206 213
198 209 215
199 209 217
142 159 143
96 123 74
89 115 68
92 119 71
102 128 87
133 151 133
188 200 203
191 202 208
190 202 211
190 202 210
194 205 211
193 204 211
195 205 212
199 210 221
207 216 225
191 201 205
197 208 217
196 206 214
200 211 220
196 207 215
204 214 223
198 209 218
192 203 212
198 207 214
157 172 164
95 122 73
91 118 70
96 123 74
96 123 74
94 121 73
102 128 89
99 124 84
106 130 93
110 133 97
113 136 103
101 126 92
150 167 155
173 186 184
188 200 202
178 190 194
177 189 190
179 190 190
177 189 187
175 188 188
163 177 173
172 185 182
156 171 165
168 182 178
166 180 175
168 182 181
155 171 163
139 157 142
144 161 149
154 169 158
152 168 161
167 180 177
165 179 171
163 176 170
154 170 161
163 178 174
168 183 180
159 174 170
159 174 168
155 171 165
158 173 169
173 185 182
177 190 189
164 177 176
183 195 196
170 183 182
170 184 181
176 189 190
178 190 194
165 178 176
171 185 181
183 195 198
154 170 160
173 187 187
191 201 206
196 206 212
185 197 201
193 204 210
189 202 210
190 200 205
185 196 200
190 202 207
198 208 214
198 209 216
191 201 206
193 205 213
201 212 221
202 212 221
200 209 217
202 211 219
189 200 208
203 213 222
209 218 228
207 216 226
199 210 218
197 207 214
199 210 218
199 210 217
170 184 182
93 119 71
92 119 71
94 121 72
95 122 74
90 117 69
95 122 72
94 121 73
94 121 73
91 118 71
90 117 70
93 119 71
93 119 71
94 122 73
97 125 75
93 121 72
90 117 69
94 121 73
89 116 69
96 123 74
92 119 71
92 119 72
95 122 73
91 118 71
91 118 70
96 123 73
90 117 70
149 165 154
197 208 217
194 205 212
207 216 225
186 198 204
177 189 191
146 163 151
124 145 122
104 129 90
92 119 71
90 116 69
94 120 72
97 125 75
93 121 72
91 118 70
93 120 72
95 122 74
92 119 71
94 121 73
93 120 72
88 115 68
90 116 69
94 121 73
94 121 72
95 123 74
93 121 72
91 118 70
144 161 146
196 206 213
195 205 211
201 211 219
202 212 222
190 202 211
198 209 216
201 211 220
200 210 218
196 207 215
196 206 215
195 206 213
195 206 215
200 210 219
200 210 218
197 208 218
194 204 209
199 209 217
203 213 221
203 213 219
201 212 223
198 208 215
198 209 218
198 208 217
203 213 223
194 205 211
193 204 209
163 178 172
94 121 72
92 119 71
92 119 70
90 118 71
93 120 72
94 121 72
92 120 71
95 122 73
93 120 72
94 121 73
94 121 73
93 120 72
92 120 72
96 123 74
89 116 69
95 122 73
96 123 74
91 117 69
96 123 74
91 118 70
94 121 73
89 117 70
95 122 73
93 120 72
92 120 72
126 147 121
190 202 211
199 210 216
203 212 220
207 216 225
206 215 223
192 203 210
207 217 226
200 210 218
189 200 206
192 204 213
204 213 221
189 200 207
195 206 214
206 215 224
197 208 215
189 200 207
206 215 223
203 213 222
197 208 216
201 210 219
204 214 225
195 206 214
195 205 212
200 210 220
201 211 218
190 200 203
102 128 82
90 117 70
93 120 71
95 122 73
92 119 71
92 119 71
87 113 67
93 120 72
93 120 72
94 121 73
93 120 71
90 117 71
95 122 73
91 117 69
92 119 71
91 119 71
91 117 69
91 118 71
94 121 72
88 115 68
93 120 71
98 125 80
107 132 91
117 140 111
121 141 114
192 204 209
198 209 213
189 201 205
181 194 196
177 190 192
173 186 185
173 186 187
159 175 173
186 197 199
174 188 188
176 188 188
172 186 183
170 185 183
169 183 181
175 188 186
168 182 177
164 178 172
167 180 176
168 181 176
165 178 174
172 185 181
166 179 176
165 178 174
168 180 177
145 163 146
132 150 131
129 149 127
129 149 128
137 155 137
150 166 155
130 149 127
122 143 117
124 145 119
117 139 110
123 142 119
129 149 129
122 142 119
117 138 111
116 137 109
126 146 121
122 142 118
131 150 126
124 144 119
124 145 119
122 143 122
141 158 142
124 144 121
135 154 136
175 188 189
175 188 188
167 180 179
167 181 179
168 182 179
174 188 186
167 181 178
160 175 168
153 168 160
157 172 163
153 170 160
150 165 158
150 165 155
147 165 152
157 172 163
154 170 163
142 159 147
151 165 152
145 162 150
140 158 139
137 154 139
165 179 175
173 187 188
176 189 188
173 186 184
169 183 181
178 191 193
178 190 189
183 196 199
194 205 210
181 193 195
190 202 205
184 196 202
191 201 206
199 209 217
201 211 218
191 202 210
198 209 217
195 206 215
199 210 220
197 207 215
197 208 218
125 145 122
94 121 72
96 124 74
93 120 71
92 119 72
94 121 73
96 123 74
92 120 71
95 123 74
89 116 69
91 117 70
92 119 71
92 120 72
92 119 72
94 121 72
91 118 70
93 119 71
93 120 72
93 120 72
147 164 155
191 202 208
201 212 221
197 207 215
200 210 218
201 211 220
200 210 218
199 210 216
193 205 213
195 205 213
198 209 216
199 209 218
196 206 213
193 205 213
194 205 215
198 209 217
195 206 212
194 205 213
196 207 215
200 209 217
196 206 213
201 211 219
192 203 210
206 216 226
191 202 208
203 213 222
198 210 220
197 207 214
199 210 220
197 206 213
153 168 159
95 122 74
92 119 71
90 116 69
92 120 72
88 115 68
93 120 73
105 130 92
148 166 154
189 201 206
198 209 217
188 199 204
199 209 215
188 199 205
198 208 215
194 205 211
198 208 218
207 217 227
203 212 221
195 206 215
203 213 222
197 208 214
201 211 220
192 202 208
168 182 180
87 114 67
97 124 74
95 122 73
93 120 72
94 121 72
92 118 70
92 119 71
93 119 71
90 116 69
91 118 71
91 118 71
94 121 72
95 122 73
123 143 118
152 166 158
186 198 203
197 208 216
193 204 212
198 208 216
196 208 219
197 208 216
190 201 207
196 207 216
198 209 218
184 197 202
89 116 70
93 120 72
91 117 70
96 123 74
95 122 73
96 123 74
92 119 71
91 119 71
96 124 75
93 120 71
94 122 72
92 118 70
90 117 70
90 118 70
92 119 71
95 122 73
90 117 70
93 120 72
94 120 71
95 123 74
90 117 69
96 123 74
93 120 72
91 118 70
92 119 70
116 136 108
194 204 210
198 209 216
189 201 209
194 205 210
158 173 169
128 148 126
96 123 79
92 120 72
90 117 69
94 121 72
92 120 72
95 122 74
91 117 70
93 121 73
94 121 72
96 122 75
98 124 79
103 128 88
102 127 88
104 128 91
101 124 88
111 134 102
108 131 98
112 136 103
119 140 113
109 133 97
155 170 164
179 191 192
191 202 208
183 195 198
183 196 198
183 195 198
180 192 193
183 195 197
181 194 196
185 196 199
176 190 188
182 193 193
180 192 191
174 187 187
179 191 190
170 183 180
175 187 187
161 175 171
175 189 188
168 182 182
172 184 183
169 181 179
177 191 192
174 187 186
171 183 180
175 188 188
154 170 161
139 157 145
142 159 146
139 158 144
151 168 155
140 158 147
157 172 163
154 169 159
137 155 140
143 160 145
130 150 126
103 127 92
117 138 109
137 155 139
159 174 166
145 162 150
153 169 158
156 172 163
154 170 161
156 171 165
158 173 164
147 164 153
158 173 165
149 164 155
156 170 162
154 170 162
153 168 158
167 180 175
148 163 154
155 171 162
157 172 163
158 171 161
149 165 153
159 174 164
154 169 160
160 174 169
156 171 163
162 177 174
154 171 162
155 171 163
162 175 169
160 175 169
164 179 175
158 174 167
152 168 159
168 182 180
166 181 175
163 177 170
160 175 168
149 165 156
165 179 173
154 168 159
170 184 180
165 179 174
166 180 175
156 172 162
147 166 152
135 153 135
148 165 154
153 169 160
146 162 149
138 156 143
145 162 147
156 172 164
152 168 158
146 163 149
143 160 144
136 153 140
147 163 152
156 172 164
150 166 156
141 158 145
140 157 147
155 170 161
149 165 156
138 156 140
134 152 132
145 161 150
151 167 159
160 174 166
138 156 139
144 160 144
170 182 179
165 180 176
163 178 170
167 181 180
153 170 161
151 167 156
155 171 159
153 169 162
155 170 163
157 172 163
150 166 153
155 170 160
154 170 158
155 170 160
159 174 164
159 174 166
159 173 165
153 170 161
169 182 176
150 165 156
146 163 150
140 158 144
147 163 152
150 166 154
144 161 146
166 180 177
157 173 164
158 173 165
169 182 176
164 177 171
161 177 168
161 176 173
167 182 178
173 186 184
170 184 182
172 185 183
165 180 176
168 183 179
169 183 180
161 175 172
163 177 172
181 193 194
176 189 190
177 190 189
172 186 186
178 190 189
168 181 178
177 190 190
162 175 170
172 186 185
143 160 146
121 142 115
132 151 131
124 145 119
118 140 112
124 144 120
129 147 126
120 140 115
120 141 113
115 138 107
111 135 101
125 145 121
113 135 104
121 142 115
108 132 99
105 128 95
113 136 103
101 125 89
106 130 92
108 132 95
100 124 84
100 124 84
103 127 86
97 121 80
125 146 124
194 206 214
203 213 221
201 212 222
198 208 215
198 208 215
197 208 216
194 205 215
201 212 220
200 210 220
204 214 223
199 209 217
195 205 213
195 206 214
191 202 209
200 210 218
197 207 217
200 210 218
204 214 223
192 203 212
194 205 212
206 216 226
196 206 214
183 195 200
96 123 76
89 115 68
94 121 72
93 120 71
90 117 69
93 120 72
92 119 71
93 119 71
92 119 71
94 121 73
95 123 73
94 121 73
93 120 72
88 115 68
90 117 70
96 123 74
91 117 69
95 122 73
93 120 72
96 124 74
95 122 73
136 153 136
202 211 219
193 204 213
192 204 211
202 211 220
198 208 215
204 213 221
195 205 211
193 203 208
200 210 219
193 204 211
199 209 217
193 203 210
187 199 204
202 211 219
193 204 212
192 204 212
199 210 218
198 209 218
193 205 213
193 205 214
147 164 150
95 122 73
92 119 71
93 120 72
90 116 69
91 117 70
96 124 75
95 122 73
91 117 70
92 119 71
91 118 71
89 115 69
93 120 71
91 118 71
92 119 71
90 117 69
90 117 69
92 119 71
94 121 72
149 166 157
201 211 219
201 211 219
197 208 215
198 208 214
203 213 221
193 205 215
204 214 223
207 217 226
191 202 209
197 207 214
195 206 213
195 206 216
192 203 210
199 209 216
193 205 213
190 201 206
176 189 191
185 197 200
200 211 221
193 204 211
192 203 209
195 206 214
200 210 219
202 212 221
195 205 212
204 214 225
196 207 215
203 212 220
197 209 219
196 207 215
176 189 188
95 122 73
93 120 72
94 121 73
91 118 70
95 123 73
94 121 72
92 119 72
89 116 69
93 120 71
127 145 122
173 186 183
192 203 209
203 213 221
196 207 215
202 212 219
194 205 211
194 205 212
196 205 211
196 207 215
197 208 216
193 205 214
197 208 216
201 211 222
179 192 191
93 120 72
92 119 71
93 120 72
92 119 70
93 120 73
94 121 72
93 120 72
91 117 70
92 119 71
94 121 72
88 115 68
94 122 73
91 118 70
88 115 69
93 120 71
91 117 69
106 130 90
160 175 169
180 192 195
197 207 214
188 200 205
191 202 208
202 213 222
196 207 214
182 194 195
93 120 72
94 122 73
93 121 72
92 119 71
94 121 73
94 121 72
85 111 65
94 122 74
94 121 72
96 123 74
95 123 73
92 119 71
91 117 69
91 117 70
91 118 70
90 117 70
92 120 72
91 118 71
93 120 72
89 115 68
93 120 71
90 116 69
93 121 72
93 120 72
89 116 69
127 147 124
194 205 212
198 208 215
193 204 212
201 211 218
199 208 216
200 211 220
187 199 206
175 187 188
153 169 161
129 148 125
96 123 74
92 119 71
93 120 72
91 118 71
91 118 71
96 123 73
93 120 72
95 122 73
93 120 72
94 121 73
95 123 73
90 116 69
92 118 70
93 120 72
91 118 71
94 121 73
172 185 183
195 205 212
198 209 217
193 204 211
203 213 222
193 205 213
199 209 218
199 210 219
183 194 197
198 209 217
200 209 216
203 213 222
195 205 211
194 205 212
201 211 221
199 210 218
200 211 219
203 214 223
202 212 219
198 208 216
193 204 211
197 207 215
198 208 216
200 210 217
194 204 212
199 210 218
195 205 213
108 131 94
95 122 73
93 121 72
91 118 70
89 115 69
90 117 71
91 118 70
93 121 72
97 124 75
95 122 74
87 113 67
93 120 72
95 122 73
96 123 76
120 141 113
142 159 144
165 178 173
182 194 198
191 203 208
193 204 210
195 205 211
197 208 216
201 211 220
199 209 219
196 207 215
192 202 207
200 210 216
99 126 81
93 120 71
94 121 72
94 121 72
93 120 72
92 119 70
91 118 71
96 123 74
92 119 71
95 122 74
93 120 72
92 119 71
92 118 70
96 123 73
91 117 70
93 120 72
94 121 72
91 118 70
93 120 71
94 122 73
95 122 73
92 119 71
87 114 67
92 119 72
91 119 71
94 121 73
136 155 132
196 207 214
199 210 219
199 209 217
198 210 219
196 207 215
192 203 209
198 208 217
200 211 219
202 212 220
193 204 210
201 211 222
190 202 207
201 211 219
197 207 213
200 210 217
196 206 214
197 208 216
189 201 207
205 215 225
196 208 216
203 213 222
196 207 212
193 204 212
197 207 215
199 210 218
198 208 215
105 129 91
90 117 70
96 123 75
96 123 74
93 120 72
90 117 70
91 118 70
95 122 73
96 124 74
93 120 72
94 121 72
90 117 69
92 119 71
96 123 74
94 121 73
94 121 72
92 118 70
94 121 73
93 120 72
96 124 74
95 122 73
90 117 68
93 120 72
96 123 74
93 120 72
121 141 118
193 204 211
192 203 211
201 209 216
200 210 218
198 209 218
201 211 219
193 204 212
203 213 221
189 200 206
184 196 202
201 211 219
192 203 211
193 204 211
197 207 214
201 211 220
196 207 215
200 209 215
200 210 218
195 206 211
199 210 218
193 204 211
193 204 209
195 206 214
195 206 215
189 202 208
95 122 75
90 116 69
91 117 70
96 123 73
92 120 72
92 119 71
92 119 71
94 122 74
91 118 70
89 116 69
95 123 74
95 122 73
93 120 72
89 117 70
92 119 71
92 119 71
91 117 69
99 127 77
93 120 71
90 118 70
94 121 72
93 121 73
95 122 73
106 129 96
195 206 212
197 208 216
193 204 212
192 203 210
193 204 211
201 212 221
203 212 221
201 211 221
200 211 219
194 205 213
197 207 213
200 211 220
196 207 215
200 209 216
194 206 216
199 210 219
197 207 215
196 207 214
201 211 220
193 204 211
192 202 209
196 207 216
182 194 199
118 140 114
91 118 70
92 120 72
90 116 69
93 120 72
96 123 74
91 118 71
91 117 70
93 120 72
92 118 70
96 123 75
94 121 72
95 122 72
91 119 71
93 120 72
94 121 72
96 123 74
95 121 72
91 118 70
93 120 72
95 122 73
101 126 85
189 200 203
202 212 218
190 201 207
193 203 209
202 212 221
196 206 215
203 213 223
203 213 222
200 210 216
200 210 217
196 206 214
199 209 217
192 203 208
186 198 204
197 208 217
191 202 208
202 213 223
189 201 206
196 206 215
187 199 205
167 180 174
95 122 73
91 118 70
92 119 71
92 120 71
95 122 73
89 115 69
93 120 71
91 118 70
95 123 75
91 118 70
93 121 73
89 115 69
92 119 71
93 120 71
94 121 72
97 125 75
93 121 72
92 119 71
142 158 145
192 203 209
195 206 211
200 211 220
192 203 209
191 203 209
203 214 222
190 201 207
194 206 214
194 205 212
190 200 206
200 209 216
188 200 207
171 185 186
152 167 158
132 151 131
103 126 91
99 124 84
166 180 177
205 214 221
106 130 96
146 164 152
189 200 203
194 204 210
197 207 216
206 215 224
195 205 212
203 214 223
192 204 212
197 207 216
196 206 213
191 201 207
181 192 193
92 118 71
97 124 73
90 117 69
90 116 69
94 120 71
92 119 71
91 117 69
91 118 70
94 122 73
94 121 73
94 121 73
89 115 71
138 156 139
172 185 183
196 207 213
200 210 218
194 205 212
195 206 214
188 200 207
202 212 220
195 205 211
193 204 212
196 207 215
177 189 192
94 121 72
91 117 69
88 115 69
90 117 70
89 116 69
93 120 72
90 117 70
92 119 71
89 115 68
93 120 72
96 123 74
90 116 69
95 123 74
94 121 73
91 118 70
91 117 70
89 116 69
91 118 71
92 119 71
108 129 102
148 164 148
180 192 196
200 210 215
196 206 214
181 193 196
92 118 70
90 117 70
92 119 71
94 121 71
92 119 71
93 121 72
88 115 69
95 123 73
92 120 72
93 120 72
91 118 71
94 121 73
92 119 71
88 115 68
94 122 73
89 115 68
91 118 71
93 119 71
90 117 69
92 119 70
93 120 72
91 118 70
90 117 70
91 118 70
93 120 72
144 161 148
193 203 210
187 199 207
193 204 212
189 200 206
198 209 218
201 211 220
194 205 215
194 205 212
196 207 216
200 211 220
192 203 209
166 179 175
138 157 141
110 134 96
93 120 72
94 121 73
93 120 72
93 121 73
95 122 73
95 123 74
93 120 72
93 119 71
94 121 73
91 118 70
92 119 71
94 121 73
188 199 203
199 210 219
196 207 214
199 210 218
195 206 215
197 209 219
201 211 220
185 197 202
197 208 217
195 206 214
203 212 221
201 211 219
198 209 218
195 206 213
199 210 220
191 202 208
194 204 209
200 210 218
198 208 215
193 204 211
199 209 217
197 207 213
202 211 219
193 205 213
191 202 209
198 209 218
186 197 201
93 120 72
91 117 70
94 122 73
96 123 73
89 116 69
91 118 70
93 120 72
95 123 74
94 122 74
90 118 71
94 121 72
94 121 73
92 119 71
92 119 71
92 120 71
97 124 75
98 125 75
95 123 74
97 123 76
119 141 113
144 160 147
157 170 164
172 184 180
193 205 212
205 213 221
197 208 215
168 183 180
90 118 71
92 120 72
93 120 72
94 121 73
91 118 70
91 118 70
97 125 75
87 114 67
92 119 71
94 121 73
92 119 72
94 120 72
94 121 73
91 118 70
91 118 70
94 121 72
94 122 73
94 121 73
93 120 72
92 119 72
92 118 70
95 122 73
93 120 72
93 120 72
91 117 69
94 121 73
175 189 190
194 205 212
198 208 213
200 211 220
198 209 218
195 206 213
195 206 213
199 210 219
198 208 215
194 205 211
202 212 220
191 202 208
203 213 222
194 205 211
201 211 217
202 213 222
197 207 213
192 203 208
198 208 216
195 206 213
197 208 215
206 215 223
200 210 217
205 215 226
201 212 221
192 202 208
166 181 175
89 116 69
94 121 73
95 123 74
92 119 71
93 119 71
91 117 69
95 123 74
93 120 72
92 119 71
92 119 72
95 122 73
89 116 69
94 121 72
92 119 70
94 120 72
94 121 72
95 122 73
89 116 68
91 118 70
93 120 72
90 118 70
89 116 69
89 116 69
92 118 70
93 120 72
176 189 189
187 198 204
192 203 210
193 204 210
204 213 223
197 208 216
206 215 225
197 208 215
194 204 211
199 209 216
197 208 216
194 206 213
200 210 218
201 212 222
198 208 215
192 204 213
194 205 213
189 201 207
193 204 212
192 203 210
190 201 208
194 205 213
196 207 215
199 209 218
195 206 215
143 161 145
96 123 75
92 119 71
93 120 71
94 121 72
94 121 73
92 119 71
89 116 69
92 119 71
95 121 72
94 121 73
90 117 69
92 119 71
94 121 72
91 117 69
90 117 71
92 119 71
95 122 73
93 120 72
91 118 70
93 119 71
91 118 71
97 124 75
91 117 70
161 176 171
207 217 228
196 207 215
195 206 213
202 212 222
196 207 214
194 206 215
194 205 212
195 206 214
194 205 212
195 205 211
198 209 219
194 203 208
199 210 217
199 210 220
194 206 214
196 206 214
187 198 204
205 214 223
196 207 216
195 206 214
191 203 209
197 207 216
150 165 153
94 121 72
91 118 70
89 116 68
88 115 69
92 119 71
95 121 73
93 120 72
96 124 75
91 118 71
93 120 71
92 120 72
92 119 71
94 121 73
92 119 71
92 119 71
90 117 70
92 119 71
92 120 72
97 124 75
94 121 73
91 118 70
175 188 188
200 211 218
198 208 215
197 209 220
199 209 216
199 210 216
194 204 211
195 205 214
199 209 217
201 211 218
197 208 217
191 203 213
201 210 219
187 199 205
192 203 211
198 208 216
200 212 223
195 206 213
207 216 224
198 208 217
160 174 168
95 121 75
85 111 66
95 121 72
92 118 71
91 117 70
92 119 71
96 123 74
94 121 72
97 123 74
91 118 70
95 123 74
92 119 70
90 117 70
94 121 72
93 120 72
90 117 70
91 118 70
92 119 71
134 153 134
197 207 214
194 205 212
205 214 223
195 205 212
202 212 219
193 204 210
196 207 215
192 203 208
175 188 190
153 168 163
131 150 130
101 126 84
97 123 78
91 118 71
94 121 72
92 118 70
94 120 77
174 187 186
194 205 213
204 214 223
89 116 70
93 119 71
91 118 71
121 141 117
169 183 183
194 205 214
188 199 203
188 200 205
194 205 212
196 207 216
192 202 210
194 205 213
198 208 217
101 127 84
94 121 72
93 121 72
93 120 71
90 116 69
93 120 72
90 116 69
96 124 75
91 117 70
91 118 70
91 118 71
93 120 72
90 117 69
93 121 72
105 130 89
143 161 143
185 197 199
196 206 212
203 213 221
196 206 213
194 205 212
195 206 212
189 200 207
186 198 204
96 123 74
94 122 73
93 120 71
93 120 71
90 117 70
92 119 72
94 121 73
90 117 69
90 117 70
94 121 73
92 120 71
92 119 72
94 121 73
92 118 71
95 121 72
88 115 68
89 116 69
94 121 72
91 118 70
91 117 69
96 123 73
94 121 73
120 141 114
151 167 155
166 180 177
95 120 77
92 118 70
92 119 71
93 120 72
92 119 71
94 121 72
95 122 73
92 118 70
95 122 73
90 117 70
93 121 72
91 118 70
94 121 72
95 122 73
91 118 70
95 122 73
95 121 72
92 119 71
92 119 71
88 114 68
96 123 73
92 119 71
90 117 70
89 115 69
90 117 69
145 162 148
196 207 215
201 212 222
201 211 220
195 206 214
201 211 219
199 210 219
199 209 216
201 211 219
201 211 218
198 209 219
201 211 220
188 199 205
206 215 223
200 209 218
182 194 199
152 167 156
135 154 132
98 124 79
94 121 73
96 123 74
93 120 71
89 116 69
91 118 70
90 116 69
95 123 74
98 124 82
193 205 215
196 207 216
202 212 220
195 204 210
202 212 222
201 211 220
195 206 214
192 204 212
199 209 217
193 204 210
190 201 209
195 206 213
195 206 213
202 212 222
188 200 208
197 208 216
194 206 214
201 211 218
198 208 216
192 203 211
191 203 209
192 202 208
197 207 214
190 201 208
192 203 211
197 208 215
173 186 184
92 119 71
89 116 70
91 118 70
92 118 71
91 118 70
96 123 74
95 122 74
91 118 70
92 119 71
91 118 71
90 117 70
94 121 73
91 118 70
93 121 72
91 118 70
91 118 71
93 120 71
97 124 75
91 118 70
92 118 70
92 119 71
91 118 71
91 118 71
92 119 71
117 139 110
121 140 118
161 175 169
151 167 154
112 135 102
101 125 87
92 119 70
90 117 70
89 115 68
95 122 73
91 118 70
94 122 73
89 116 69
100 128 77
93 120 71
91 117 69
94 121 73
93 120 72
92 119 72
91 119 71
90 117 70
93 120 71
96 123 74
93 120 72
94 121 72
93 121 72
95 122 74
91 117 70
96 119 81
196 206 212
197 209 219
202 212 221
188 199 204
194 204 212
201 211 220
201 211 221
196 206 213
192 204 212
190 201 209
190 203 211
201 211 218
206 214 222
197 207 215
192 202 208
189 199 205
194 205 213
204 214 223
195 206 213
195 206 213
200 210 218
191 202 211
196 207 217
195 206 213
194 204 210
202 212 219
116 138 109
90 116 69
93 120 71
93 120 72
95 123 73
92 118 71
94 121 73
93 121 72
91 118 70
92 120 73
94 121 73
93 120 72
90 117 70
90 117 70
95 122 73
91 118 70
92 120 72
90 117 70
95 123 74
96 123 73
93 120 72
89 115 68
95 122 73
89 116 69
90 116 69
121 142 116
191 203 212
201 211 220
199 210 217
208 217 226
196 207 215
188 200 207
197 208 215
196 207 216
200 210 218
195 206 211
191 202 209
204 214 222
187 198 203
195 205 211
208 218 230
198 209 217
197 207 213
195 206 214
194 205 212
196 207 215
190 201 208
198 209 215
198 208 216
200 210 219
181 193 195
94 121 73
93 120 71
92 118 70
92 119 71
89 116 69
89 116 69
92 119 71
94 121 72
93 120 72
91 118 70
91 118 70
95 123 74
89 115 68
93 121 73
89 115 69
94 121 73
92 118 70
92 119 71
89 116 69
92 120 72
91 119 72
93 120 72
93 120 72
116 137 112
196 206 213
200 210 218
200 210 218
188 200 206
196 206 213
195 205 210
188 199 206
191 203 210
200 210 219
203 213 223
196 208 217
194 206 214
198 209 218
197 208 216
197 208 218
196 207 215
189 200 206
197 207 213
191 202 209
193 203 209
194 205 215
199 210 219
169 184 180
93 120 71
95 122 74
88 115 69
94 121 72
94 121 72
90 116 69
92 119 71
91 118 70
93 119 71
92 119 71
95 122 73
95 123 74
93 119 71
89 115 68
96 124 74
91 118 70
93 121 72
95 122 73
95 122 73
91 118 70
94 121 72
157 172 164
186 197 204
191 202 211
188 199 205
196 206 212
192 203 209
194 204 211
186 198 204
205 214 222
195 207 218
201 211 219
203 212 221
193 204 212
191 203 211
200 210 219
203 214 224
189 201 209
191 202 209
194 205 211
186 198 205
190 201 206
101 124 86
96 124 74
90 117 70
90 116 69
93 120 73
94 122 73
90 117 70
93 120 72
87 114 68
90 117 70
91 117 69
92 119 71
86 112 66
91 118 71
95 122 72
91 118 70
91 118 70
91 117 71
124 143 118
192 204 211
195 206 215
200 211 220
190 201 206
179 191 191
166 179 174
144 160 149
118 138 113
95 122 72
92 119 71
85 110 64
93 121 72
93 120 71
92 119 71
92 118 70
92 119 71
101 127 85
173 187 188
194 205 215
206 216 223
211 220 230
92 119 71
91 117 69
89 115 68
91 118 70
91 118 71
95 121 83
149 164 151
179 191 191
199 210 219
197 207 212
196 206 212
196 207 216
195 206 215
120 141 116
91 117 69
93 120 71
90 117 70
93 120 72
93 121 73
93 120 72
89 115 68
94 121 73
93 120 72
91 118 71
91 118 71
94 122 74
92 118 70
91 117 69
91 118 71
91 118 71
114 137 107
159 174 170
184 197 202
196 207 215
201 211 221
193 203 209
185 196 201
91 118 71
93 120 72
88 114 67
91 118 70
90 116 69
91 118 71
91 118 71
96 123 74
95 122 73
95 122 73
92 119 71
95 123 74
95 122 74
88 114 67
91 117 69
92 119 71
94 121 72
93 120 71
92 119 71
93 119 70
92 120 72
95 122 73
90 117 70
90 116 69
115 136 107
183 195 196
160 175 168
131 150 130
89 115 68
92 118 71
91 117 70
91 118 71
91 118 71
93 121 73
92 119 72
93 120 72
93 120 72
92 120 72
91 118 70
90 117 70
93 121 72
90 116 70
93 120 72
94 121 73
96 123 74
94 122 73
92 119 71
91 118 71
95 123 74
91 118 70
153 168 159
195 206 212
199 210 219
195 206 215
201 211 220
193 204 209
195 206 213
200 211 219
201 211 220
194 205 212
201 211 222
190 201 207
192 203 211
194 206 215
196 207 215
195 206 213
190 202 211
204 214 225
199 209 215
171 184 183
154 170 161
127 146 122
93 121 72
93 120 71
96 124 74
94 122 73
117 139 108
196 206 214
199 210 219
195 206 215
199 210 218
194 206 215
198 209 216
196 206 212
195 207 215
203 213 221
198 208 215
190 203 214
190 201 207
202 213 222
197 207 214
193 204 212
193 203 208
195 205 213
190 201 208
201 211 219
209 218 228
203 214 224
196 207 218
190 201 208
190 201 207
195 206 213
199 209 217
145 161 152
95 122 74
91 117 70
91 118 71
91 117 70
91 118 71
93 120 72
89 116 69
89 115 69
90 116 68
96 124 75
87 113 67
90 117 70
90 117 70
95 122 73
91 118 71
91 118 71
93 120 71
93 120 71
92 119 71
91 118 71
89 115 68
95 122 73
92 119 70
92 119 71
89 116 69
97 121 79
188 199 203
196 207 216
198 208 215
193 204 211
191 203 208
159 174 169
153 168 160
130 149 127
111 135 101
98 126 75
90 117 70
93 119 71
91 118 71
95 122 74
92 118 70
94 121 72
92 119 71
90 117 70
91 118 70
90 117 70
90 117 69
91 118 71
92 120 72
88 114 67
96 124 74
93 120 72
143 159 149
202 212 220
202 212 222
201 211 218
196 207 215
196 207 215
198 209 216
202 212 222
200 210 219
198 209 218
190 201 210
195 206 214
200 208 215
200 210 216
193 204 209
195 207 216
193 203 208
200 210 219
184 196 199
198 208 215
191 203 210
203 212 219
204 213 219
202 212 221
193 204 210
189 200 207
165 178 175
91 118 70
91 117 70
91 118 70
94 121 73
93 120 72
94 122 73
97 125 75
91 118 70
91 118 71
93 120 72
93 121 72
90 116 69
94 121 73
96 124 74
93 121 73
94 121 72
91 118 71
94 122 73
93 120 73
89 116 69
95 123 73
90 116 69
92 119 71
93 120 72
92 119 70
179 190 190
196 206 212
198 209 218
191 201 206
204 214 224
201 212 222
208 217 226
199 209 218
194 204 212
191 201 207
202 211 221
191 201 206
203 213 222
198 209 217
203 213 223
193 204 212
193 203 210
199 209 219
197 208 217
200 210 219
196 206 215
198 207 216
200 209 216
192 203 210
196 206 213
112 135 106
92 119 71
89 116 68
88 115 68
88 115 68
88 115 69
92 119 71
95 122 73
94 121 73
92 119 71
94 121 72
92 119 71
90 116 69
93 120 72
87 113 67
91 117 70
90 116 69
94 122 73
93 120 72
96 123 74
90 117 70
90 117 70
93 120 72
99 125 81
188 199 203
192 203 213
193 204 213
189 200 205
198 208 215
186 197 202
199 210 218
193 204 210
203 213 222
198 208 216
196 207 215
196 206 213
200 209 217
197 207 213
196 207 215
202 213 222
191 203 212
199 209 216
194 205 211
193 204 211
197 207 216
193 204 211
180 192 193
111 134 100
95 122 73
91 118 71
93 120 72
94 122 73
92 120 72
93 120 72
93 120 72
87 113 67
93 120 72
93 121 72
90 117 70
92 119 71
91 117 70
92 119 71
93 121 72
89 115 68
89 116 69
93 120 72
91 117 69
87 114 68
135 153 136
193 204 211
193 204 209
189 200 205
196 206 213
200 211 220
190 202 209
194 206 215
203 213 224
198 208 216
203 213 223
191 202 208
189 200 204
194 205 212
196 206 213
195 206 214
201 211 219
194 205 212
198 209 218
198 209 217
200 211 218
102 128 85
88 114 68
91 117 70
90 117 70
90 117 70
92 119 71
92 119 71
92 119 71
93 120 72
92 119 71
89 116 69
95 122 73
96 123 74
94 122 73
94 122 73
89 115 68
87 113 67
89 116 69
115 138 103
164 178 172
152 167 156
145 162 150
121 141 116
93 120 72
86 113 67
92 120 71
94 121 72
91 117 70
93 121 72
90 117 70
91 118 70
94 121 72
91 117 69
92 118 70
96 123 74
97 123 81
178 191 192
198 208 216
193 204 212
196 206 215
198 208 217
91 118 71
95 122 73
93 120 72
92 119 71
94 121 72
92 119 71
91 118 71
93 120 72
120 140 115
167 182 177
191 201 205
187 199 207
194 205 213
155 170 161
96 123 73
93 121 72
91 118 70
89 116 69
92 119 71
96 124 74
90 117 70
94 121 73
88 114 67
92 119 71
88 115 68
94 121 73
91 117 70
91 117 70
97 124 74
95 123 74
93 120 72
93 120 72
90 116 69
104 127 93
158 173 168
174 186 188
195 205 209
93 120 74
93 120 72
93 120 71
92 119 71
94 122 73
92 120 73
92 119 71
95 122 73
90 117 70
93 119 71
95 122 73
89 116 69
91 118 70
91 117 70
94 121 73
89 115 68
91 118 70
93 120 72
90 117 69
89 116 69
91 117 70
88 114 68
93 120 72
91 117 69
127 147 123
195 206 213
196 206 213
198 208 213
186 198 204
165 179 174
133 150 136
107 131 94
90 117 70
94 120 72
92 118 71
90 117 70
93 120 72
92 119 70
92 118 70
94 121 72
93 120 72
91 118 71
91 117 69
93 120 72
91 117 70
90 117 69
93 120 71
92 119 71
94 122 73
95 122 73
163 178 174
193 204 209
197 209 218
188 200 205
203 213 220
195 205 213
201 210 219
207 216 225
193 205 212
202 212 221
194 206 214
188 199 207
195 206 214
199 209 217
200 209 217
189 201 207
196 207 214
196 207 216
188 199 204
194 205 211
200 209 216
187 199 204
192 203 211
182 194 194
154 169 159
117 139 111
135 153 136
192 202 209
186 197 203
196 206 215
199 210 219
198 209 220
199 209 219
207 217 227
200 210 221
195 206 213
196 207 214
204 213 219
195 206 216
195 205 213
199 209 216
198 208 214
200 211 221
205 215 223
197 208 216
192 204 211
191 202 210
201 211 220
194 204 210
196 206 213
191 202 209
195 206 213
198 208 216
119 139 114
90 117 69
93 120 71
92 119 71
95 123 74
94 121 73
91 118 71
92 118 70
93 120 72
93 120 72
92 118 71
86 112 66
91 119 71
95 122 73
93 120 72
92 119 71
90 117 69
92 119 71
88 115 68
94 121 72
93 120 72
90 117 69
95 122 73
93 120 71
94 121 73
95 122 73
122 142 114
193 204 212
194 205 212
198 209 216
196 208 218
188 199 207
200 210 219
195 205 212
201 211 219
200 211 220
194 205 213
184 196 198
174 187 187
150 167 153
134 153 134
119 141 113
92 119 71
93 120 72
92 118 70
91 118 70
91 118 71
94 121 73
93 120 72
93 120 71
89 115 68
91 118 71
93 121 73
193 204 209
198 209 217
190 201 205
202 212 222
193 203 209
200 210 219
198 209 217
194 205 213
191 202 208
198 208 216
196 207 215
208 217 226
193 204 212
194 205 214
199 210 219
192 202 210
201 212 221
195 205 212
203 213 222
196 208 216
191 202 210
194 205 210
196 208 218
199 209 217
197 207 214
189 200 206
127 147 123
93 119 71
90 117 70
95 122 74
93 120 72
92 118 71
93 121 72
92 120 71
92 119 71
88 115 69
94 121 72
93 121 73
91 118 70
90 117 69
91 118 71
94 121 73
93 121 72
96 124 75
94 121 72
92 119 71
91 118 71
91 118 70
93 119 71
92 119 71
96 123 74
128 146 126
197 207 215
193 204 211
199 210 219
185 197 204
200 210 218
197 208 217
197 207 215
200 210 218
196 207 217
196 205 212
195 206 216
201 211 219
198 208 216
183 195 201
189 200 206
198 209 218
200 211 219
196 207 215
193 203 209
202 212 220
191 202 209
197 207 216
199 209 218
200 212 223
151 166 155
91 118 71
93 120 72
94 122 73
88 114 67
94 121 72
94 121 72
91 117 69
94 121 72
91 118 70
91 118 70
90 117 69
96 123 73
91 118 71
91 118 70
87 113 67
91 117 70
92 119 72
93 120 71
92 118 71
93 120 72
95 122 73
96 123 74
91 118 71
163 177 170
197 208 215
197 207 215
187 199 206
200 210 218
192 203 211
193 205 214
205 214 222
205 216 227
189 200 207
194 204 211
202 212 222
191 203 211
193 203 209
203 212 220
195 207 218
187 199 203
193 204 211
203 213 223
199 210 219
197 208 217
199 210 221
192 203 210
125 145 126
94 121 73
92 119 71
92 118 71
91 118 70
88 114 67
93 120 72
91 118 70
90 117 69
91 118 70
92 119 71
94 122 73
92 119 71
92 119 72
92 119 71
90 116 69
93 120 71
93 120 72
96 123 74
91 119 71
91 118 70
119 139 113
194 205 211
189 200 207
199 210 221
198 209 218
196 206 213
194 205 214
192 203 211
201 211 219
194 205 210
199 210 218
198 208 216
192 204 210
198 209 219
200 211 220
204 213 222
196 205 211
200 211 221
193 204 210
192 202 207
185 197 200
116 137 107
93 119 71
97 124 75
90 116 69
93 120 72
91 119 71
92 119 72
94 121 74
92 119 71
93 120 72
91 118 70
92 119 70
92 119 71
111 134 104
128 148 127
147 163 150
168 181 177
176 189 190
170 183 182
108 132 96
92 119 72
92 120 72
90 116 69
91 119 72
91 118 70
92 118 70
92 118 71
90 117 69
93 120 72
90 116 70
91 118 71
93 120 72
91 117 70
92 119 71
94 121 72
100 125 85
177 190 191
193 203 209
196 207 215
195 206 214
196 206 213
192 203 210
90 116 69
92 119 71
90 117 70
90 118 71
89 116 69
91 118 70
88 115 68
91 118 70
94 121 72
92 120 72
96 121 79
140 156 140
170 183 181
171 185 183
92 119 71
92 119 72
93 120 72
92 118 71
91 118 71
93 121 73
92 119 71
90 117 70
88 114 69
96 124 75
93 120 72
90 117 69
90 117 70
92 120 72
93 120 72
92 119 71
87 114 67
97 124 74
92 119 70
99 127 77
85 111 66
96 123 74
123 142 120
137 155 141
108 131 96
93 120 72
96 123 73
91 119 71
91 118 71
88 115 68
88 114 68
90 116 69
91 118 71
95 122 73
94 121 73
91 118 70
92 119 72
92 119 71
94 121 73
91 118 71
88 114 67
87 114 68
87 113 67
95 123 73
91 118 70
91 118 70
94 121 72
117 138 107
197 207 216
199 210 218
191 202 209
193 203 209
188 199 204
196 206 211
194 205 212
176 188 190
137 154 140
113 135 102
92 119 71
91 119 71
92 119 71
91 119 71
90 117 70
90 117 69
89 116 70
87 113 67
86 113 67
93 120 72
94 121 73
90 117 70
93 120 71
90 117 69
85 111 65
170 184 183
203 213 223
200 211 219
198 208 217
197 208 216
195 206 214
192 203 207
195 206 212
206 215 225
189 200 206
187 199 205
193 204 208
192 204 211
195 207 216
193 204 211
199 210 219
209 218 228
200 209 215
191 202 209
191 202 208
189 201 206
198 209 216
194 205 212
197 207 215
195 207 215
199 209 218
149 164 153
119 140 116
159 175 168
182 195 197
188 199 204
197 208 214
184 196 202
183 194 199
186 197 202
197 208 217
191 202 207
204 213 222
197 207 215
193 203 210
194 204 210
198 208 216
199 209 217
198 208 214
200 210 218
199 208 215
201 211 220
202 212 220
201 212 221
199 209 219
201 210 217
197 208 216
198 208 214
86 113 67
92 119 71
89 116 69
97 124 75
91 118 70
92 119 72
91 118 70
93 120 72
92 119 72
97 124 74
90 117 69
94 122 73
88 115 68
93 120 72
96 123 73
92 119 71
89 115 69
94 122 74
92 119 71
92 118 71
90 117 70
88 114 68
92 119 72
94 121 72
94 121 73
94 121 72
157 172 167
199 209 217
195 206 214
199 210 220
200 210 217
197 207 214
195 206 214
202 212 220
203 214 224
195 206 213
198 207 213
202 212 222
203 213 222
194 205 214
192 203 209
194 206 215
189 200 204
182 194 198
170 182 183
157 172 166
149 165 154
131 150 130
92 119 74
91 118 73
93 120 72
96 123 74
123 143 120
196 207 214
193 204 211
203 213 221
196 206 213
203 213 222
204 213 221
200 210 219
194 203 210
192 203 212
199 209 218
198 208 215
198 209 218
197 208 216
196 207 215
193 204 211
190 202 208
193 204 214
198 208 214
198 209 217
202 213 223
189 199 205
196 207 216
197 207 215
197 208 216
192 203 210
179 191 190
94 121 73
93 120 71
87 113 67
91 118 71
92 119 71
90 116 69
95 123 74
96 123 74
92 119 71
93 119 71
91 118 70
93 121 73
93 120 71
90 116 70
90 117 69
94 122 73
93 120 72
90 117 69
95 122 74
91 118 70
92 119 71
92 119 71
90 116 69
92 119 70
90 116 69
169 182 182
205 214 223
201 211 219
193 204 210
188 200 207
193 204 212
200 210 218
197 206 214
190 202 209
206 215 224
195 205 213
201 211 220
197 207 212
200 211 221
190 202 207
191 202 211
203 213 223
199 209 218
197 207 215
198 209 216
200 210 219
198 208 216
197 207 215
193 204 210
188 199 202
99 124 87
93 120 72
94 122 73
91 117 70
92 119 71
91 117 69
90 117 69
90 116 69
93 121 72
90 117 70
89 116 69
96 122 73
94 121 73
92 119 70
95 122 73
92 119 71
92 118 70
94 120 72
91 117 70
87 114 69
93 121 73
90 117 70
95 123 75
135 154 135
198 208 215
200 210 217
202 212 221
190 201 207
200 210 219
206 215 225
199 209 217
198 209 217
195 205 213
195 206 213
188 199 202
198 209 216
201 210 218
196 207 215
188 200 207
193 204 212
194 205 214
195 206 213
200 210 217
184 195 199
193 204 211
197 207 216
158 173 168
93 121 73
90 117 70
94 121 73
88 114 67
90 118 71
92 118 71
89 116 69
92 119 72
95 122 73
89 117 70
92 120 72
91 118 71
88 114 68
92 119 71
94 121 72
94 121 72
88 115 68
92 119 71
94 121 72
93 120 72
101 126 87
185 196 200
194 205 214
191 203 210
189 200 206
197 208 217
197 208 216
198 209 217
200 209 216
191 202 208
195 205 213
197 208 216
193 203 210
202 212 221
198 208 215
206 216 227
195 205 211
193 203 210
198 208 216
194 206 214
191 202 208
119 141 113
91 118 71
91 117 69
94 121 73
91 118 71
96 123 74
95 122 74
94 119 81
109 133 97
133 151 129
147 163 156
171 185 185
175 188 190
189 200 206
189 201 207
190 201 208
196 207 216
191 202 209
193 204 209
104 129 92
90 116 69
88 114 69
92 119 72
88 114 68
91 118 70
94 121 73
89 116 68
91 118 70
89 116 70
94 121 73
88 114 67
92 119 71
88 115 69
94 121 73
95 122 73
107 132 95
178 191 195
195 206 214
188 199 205
190 201 206
196 207 215
195 206 214
189 201 208
91 118 70
88 114 67
90 117 70
97 124 75
90 117 70
92 119 71
88 114 68
92 118 70
91 119 71
94 121 72
92 119 71
91 118 70
88 114 68
110 132 105
159 175 170
107 129 95
90 116 69
90 116 68
94 122 73
89 116 69
94 121 72
93 121 72
91 118 70
93 120 72
91 118 71
89 115 67
91 118 70
97 124 75
93 120 72
91 118 71
90 117 71
90 117 69
88 114 67
94 122 73
92 119 71
93 120 72
88 114 68
190 202 207
192 203 211
161 176 169
135 154 137
95 120 79
91 118 70
91 118 70
91 118 71
86 112 67
89 116 69
87 113 67
94 121 72
91 118 71
89 115 68
91 118 71
86 113 67
94 121 72
95 122 73
90 116 68
91 118 71
88 115 69
92 119 71
91 117 70
86 112 65
112 135 105
201 211 220
201 212 221
191 202 210
197 208 219
199 209 217
198 209 218
203 213 223
191 202 207
189 201 208
201 211 219
180 192 195
149 165 154
112 134 104
96 124 75
96 124 74
91 118 71
89 115 68
92 119 71
91 117 70
91 118 71
92 119 71
89 116 68
95 123 74
87 113 68
93 120 71
167 180 177
194 205 213
192 203 210
193 204 212
191 201 207
201 212 223
189 200 206
198 208 214
197 207 214
194 205 215
191 202 211
193 204 211
198 209 217
192 204 210
194 204 212
193 205 212
195 206 215
204 214 225
194 205 215
185 197 202
193 205 214
197 208 215
191 202 209
197 208 216
198 209 216
196 208 217
135 153 135
94 120 72
91 118 70
95 122 73
106 131 92
137 154 134
151 167 156
170 183 182
195 206 213
202 213 224
194 205 213
194 204 212
198 208 216
199 209 218
198 208 216
191 203 210
202 212 220
188 200 207
193 204 211
201 211 220
188 199 206
198 209 217
207 216 224
198 208 217
190 201 208
196 207 215
175 188 188
90 117 70
93 120 71
91 119 71
91 118 70
92 119 71
95 122 73
91 118 71
92 119 71
90 116 69
93 120 72
97 124 74
93 120 72
93 120 72
91 118 71
90 116 68
89 116 69
92 118 71
88 115 68
93 120 72
94 121 73
90 117 70
90 117 69
94 121 73
90 117 70
91 118 70
99 125 79
184 195 201
196 207 216
195 207 217
200 209 217
192 203 210
182 194 199
197 207 215
199 209 216
198 208 216
193 203 211
198 208 214
197 207 215
194 205 211
201 212 222
204 214 224
196 207 215
199 209 217
193 204 212
197 207 216
194 205 214
193 205 214
191 203 209
193 204 212
192 204 209
184 196 199
171 184 181
151 166 156
161 174 170
188 199 204
191 202 206
199 210 220
197 207 215
195 206 215
204 215 224
197 207 214
200 211 221
190 200 206
202 212 219
195 204 211
192 204 213
189 200 205
201 212 220
195 206 212
193 204 211
192 202 207
193 204 210
201 211 220
190 201 206
193 204 212
194 204 212
184 195 201
183 194 199
135 152 134
94 121 72
94 121 72
92 119 71
92 119 71
93 119 71
87 114 67
93 120 72
90 116 70
94 122 73
93 120 72
96 123 74
90 117 69
94 122 74
92 118 70
92 119 71
92 119 71
89 116 68
92 119 70
94 122 73
94 121 72
89 115 68
94 122 73
91 118 70
88 115 68
137 155 138
195 205 212
191 202 209
199 209 218
188 200 207
195 206 215
188 200 205
189 201 206
189 201 207
192 204 211
200 210 217
189 200 206
202 213 224
200 211 221
195 207 216
207 216 225
194 205 212
195 206 215
195 206 214
199 210 219
198 208 214
200 211 220
198 209 217
185 196 202
197 208 217
125 144 122
90 117 70
93 120 72
92 119 71
92 119 71
96 123 73
95 122 73
91 119 71
93 120 73
91 118 71
93 120 72
87 114 67
91 118 71
92 119 71
91 118 71
93 120 72
90 116 69
94 121 72
91 118 70
92 119 71
92 119 72
92 119 71
90 117 69
103 129 85
190 201 207
195 206 214
192 204 212
193 205 214
190 200 206
189 200 206
197 207 214
203 213 222
191 202 208
205 214 221
190 202 208
193 204 210
198 208 215
197 206 211
194 204 211
191 202 208
194 205 211
200 210 219
196 206 214
198 208 218
197 207 215
189 200 206
164 178 176
91 117 75
89 116 69
95 122 73
92 119 71
90 116 69
95 123 74
91 118 69
92 118 70
92 119 71
91 118 70
92 119 71
94 121 73
90 117 70
93 120 72
90 117 70
93 120 72
94 121 73
92 120 72
89 116 68
89 116 69
93 120 75
164 179 175
195 206 213
197 208 216
195 205 212
190 201 205
192 202 208
200 210 219
201 211 220
186 197 201
189 200 208
205 215 225
194 204 213
191 202 210
189 200 205
196 207 217
196 207 216
195 206 213
196 207 216
192 203 210
204 214 223
142 160 148
91 117 70
118 139 112
124 145 119
145 162 151
163 177 172
173 185 186
179 191 194
192 202 209
187 199 205
188 199 203
199 210 219
189 200 207
196 206 214
194 204 213
192 203 210
196 208 218
190 200 207
189 200 205
108 129 101
94 121 72
89 115 69
94 122 73
92 119 71
91 118 70
89 116 69
92 119 70
91 117 70
94 121 73
94 121 72
91 118 71
92 119 71
90 117 69
89 116 70
88 115 68
105 129 91
180 193 197
185 197 203
201 210 217
185 197 204
200 210 219
191 202 208
191 202 209
196 206 214
96 123 73
95 123 74
94 122 73
91 118 70
89 116 70
88 115 68
95 122 72
92 118 69
89 116 70
90 116 69
88 114 68
90 117 70
93 120 72
93 119 74
195 205 212
208 216 224
165 179 177
131 150 131
108 131 96
89 116 68
94 121 72
93 119 71
92 119 71
93 120 72
92 119 71
92 119 71
91 118 70
90 117 70
88 116 69
92 119 71
87 114 67
92 119 71
91 118 71
93 120 72
89 116 69
91 118 69
89 116 69
161 175 170
192 203 211
188 199 204
192 202 209
193 204 213
162 176 172
136 154 137
98 124 79
92 120 72
95 122 73
92 118 71
88 115 68
89 115 68
93 121 72
92 119 71
95 122 73
91 118 70
92 119 71
92 119 71
88 114 68
90 117 70
93 120 72
94 121 72
89 116 69
114 136 108
210 219 229
197 207 215
192 203 211
196 207 214
193 203 211
198 209 219
205 215 224
196 207 216
194 205 214
197 207 214
199 209 217
192 204 211
204 214 224
194 204 210
163 176 171
133 151 131
99 127 79
92 118 70
95 122 74
93 121 73
90 116 70
91 118 70
91 118 71
92 119 71
95 122 73
181 193 196
192 204 212
198 208 215
192 203 209
197 208 217
194 205 213
194 204 210
194 205 213
195 205 212
200 210 217
193 204 211
204 214 225
195 206 213
199 209 217
188 199 206
197 207 216
190 201 207
199 210 219
194 206 214
184 196 201
196 206 215
192 203 209
193 204 213
192 203 210
189 200 206
196 207 214
114 137 102
91 118 71
92 119 71
90 116 69
93 119 71
92 119 71
93 120 71
91 118 70
89 115 70
130 149 127
138 154 140
167 181 181
183 196 200
197 207 215
199 210 219
193 204 211
190 202 209
201 211 219
196 207 215
200 211 219
195 206 215
194 206 213
195 206 216
191 202 209
194 205 211
200 211 220
143 159 148
92 119 71
89 116 69
92 120 72
92 119 71
97 124 74
90 117 70
91 119 72
90 117 70
95 123 74
95 122 73
93 120 72
90 118 71
90 117 70
91 118 71
93 120 72
95 122 73
92 119 71
92 119 71
94 122 73
92 119 71
94 121 72
94 120 72
92 119 71
95 122 73
93 120 72
127 148 125
206 215 225
190 202 209
199 209 216
197 208 216
188 199 204
195 206 215
194 205 213
200 210 219
194 205 214
195 205 213
197 209 217
198 208 215
191 202 210
191 203 211
191 202 209
191 201 207
197 208 216
187 198 204
194 204 212
196 206 215
199 208 216
195 207 215
190 202 209
195 206 213
190 200 206
198 208 215
90 117 70
89 116 69
94 122 73
94 122 73
96 123 77
118 140 108
123 144 117
150 166 154
150 166 157
162 177 170
177 190 191
189 200 202
197 207 216
189 200 208
196 206 214
196 207 215
193 204 213
199 211 222
194 204 210
195 205 213
204 214 222
197 206 213
194 205 212
198 208 214
196 207 215
179 192 195
94 121 75
93 120 72
95 122 73
89 116 69
91 118 70
90 117 70
93 120 71
94 121 73
90 117 70
94 121 72
93 120 72
92 119 71
93 120 72
92 119 71
93 121 72
89 115 68
93 120 71
90 117 70
94 122 73
91 119 71
90 118 71
92 119 72
94 121 73
92 119 71
92 119 74
184 196 198
193 205 214
195 205 214
200 210 217
199 209 219
194 205 210
203 213 221
188 200 208
195 206 215
196 207 216
197 208 215
200 211 221
194 205 214
204 214 223
199 210 218
198 208 217
195 205 213
196 206 212
200 210 218
190 202 212
191 202 209
194 205 212
199 209 218
199 209 217
180 193 196
92 119 72
92 119 71
89 116 69
90 117 70
90 116 69
92 118 70
93 119 71
95 122 73
94 121 72
94 121 72
92 119 71
91 117 70
93 121 72
89 115 67
92 119 71
93 120 72
96 124 75
95 122 74
87 113 68
91 118 70
88 115 67
90 116 69
92 119 71
161 176 172
199 210 220
201 212 220
186 197 203
194 205 213
198 209 218
194 203 210
193 203 211
188 199 206
199 209 218
193 204 212
192 203 209
197 208 217
194 205 214
192 204 212
190 201 207
202 212 220
196 207 215
196 206 214
193 204 211
198 208 217
199 210 220
178 191 194
101 125 87
92 119 72
93 121 73
91 117 70
85 111 66
93 120 72
95 122 73
92 119 71
95 122 74
87 114 67
94 121 72
93 120 72
93 121 73
91 117 70
96 123 73
93 120 71
90 117 70
93 120 72
91 119 71
91 118 70
92 119 72
159 174 166
196 207 217
195 205 211
191 202 208
197 207 214
201 210 219
197 207 214
198 209 218
188 201 208
194 204 212
199 210 219
189 200 206
194 205 211
201 210 219
183 195 204
193 204 210
182 195 197
174 187 187
171 184 182
154 170 159
181 193 195
178 190 192
200 211 219
192 203 208
192 203 210
195 207 216
188 200 207
192 204 211
199 210 219
193 204 211
203 213 222
197 207 216
186 199 207
198 208 215
191 202 210
198 209 220
193 205 212
198 208 215
186 197 201
115 136 108
92 120 72
93 120 72
93 120 72
92 120 72
92 119 71
94 121 72
88 115 67
89 116 69
93 120 72
91 118 70
92 119 71
91 118 71
86 112 66
91 118 70
94 121 72
100 125 83
174 187 189
200 210 219
190 201 207
199 209 216
194 205 214
196 206 214
193 205 212
191 202 208
200 210 219
129 148 123
96 123 73
93 121 72
92 120 72
93 119 71
93 120 72
92 119 71
88 115 69
94 121 73
91 118 70
91 118 71
87 113 67
86 112 67
94 120 72
168 181 184
199 209 216
203 213 223
195 207 216
197 208 215
176 187 188
133 151 135
95 121 78
92 119 71
86 113 67
90 117 70
88 115 68
93 120 71
92 119 72
88 114 68
92 119 71
90 117 69
92 119 72
90 117 70
94 121 72
94 121 73
89 115 68
91 119 71
147 163 154
195 207 216
195 206 213
205 215 225
193 204 212
191 201 210
202 212 220
190 201 209
166 180 177
136 153 135
95 121 80
93 120 72
91 117 70
88 115 70
91 118 71
90 117 69
88 115 68
87 113 67
89 116 70
90 117 69
93 119 72
93 120 72
87 114 67
90 117 69
110 133 101
199 209 216
185 197 202
194 204 212
199 210 220
191 203 212
190 202 209
190 201 208
195 206 214
203 213 222
195 206 215
184 196 202
189 201 206
192 203 209
186 198 205
196 206 213
192 203 210
192 202 209
171 184 184
140 157 143
118 140 113
92 119 71
96 124 74
89 116 69
92 119 70
95 123 74
180 192 193
199 209 218
190 202 210
182 194 199
199 209 219
188 200 205
191 202 209
191 202 210
200 210 217
195 206 212
181 193 196
193 204 211
190 201 206
194 206 215
194 205 214
187 199 204
191 203 212
198 209 217
188 200 208
190 201 208
188 199 206
203 213 222
195 206 215
201 211 218
196 207 216
182 195 200
96 123 76
88 114 68
90 117 70
90 116 70
89 115 68
89 116 69
94 122 74
92 119 71
88 114 68
93 120 72
90 116 70
89 116 69
91 118 70
121 142 114
139 158 141
160 174 171
185 197 202
196 207 217
200 210 218
198 209 219
194 205 212
192 204 211
200 210 218
200 210 218
197 208 217
194 205 214
120 141 112
92 119 71
92 119 71
89 116 69
92 119 71
89 116 69
94 122 73
89 115 68
92 119 71
90 117 70
92 118 70
89 116 69
92 118 70
92 120 71
92 118 71
91 118 70
92 119 71
92 120 72
94 121 72
96 124 75
92 119 71
90 117 70
92 119 71
95 123 74
95 122 73
91 118 71
158 172 166
195 207 215
195 205 211
202 212 221
199 210 218
199 209 218
187 198 206
203 213 223
201 211 220
192 203 209
198 208 217
196 207 214
192 203 208
195 206 215
197 208 217
194 205 214
195 206 214
195 205 212
188 200 206
192 204 211
192 203 211
195 207 217
189 201 207
195 205 212
192 202 209
205 215 224
161 176 170
87 114 68
94 121 72
94 121 72
91 117 70
87 114 68
88 114 68
93 120 72
92 119 71
94 121 72
92 119 70
93 120 71
95 123 74
93 120 74
112 134 102
126 146 123
145 161 146
149 166 156
169 183 182
173 186 185
182 193 196
186 198 202
200 210 218
198 208 216
200 210 220
195 205 211
131 150 132
91 118 70
93 120 72
90 117 70
92 118 71
91 118 71
91 118 71
89 116 69
90 116 69
95 122 73
93 120 72
94 121 72
91 118 70
93 120 71
94 121 73
92 120 72
89 115 68
94 122 73
92 120 72
89 116 69
96 123 74
95 122 73
95 122 72
86 112 67
95 122 74
148 164 154
200 209 216
200 211 220
199 209 217
202 213 222
196 207 216
196 206 214
188 200 204
191 202 210
189 201 207
195 205 210
200 210 220
200 211 219
186 198 208
196 207 217
193 205 214
191 202 209
205 215 223
189 200 207
190 202 208
193 204 210
196 207 215
197 207 216
197 207 216
194 205 214
114 138 101
87 114 68
95 122 73
91 118 70
89 115 68
91 117 70
90 117 70
97 124 74
93 120 71
92 119 71
93 119 71
93 120 72
93 120 72
89 115 69
91 117 70
90 117 69
93 120 71
92 120 72
88 115 69
93 120 72
93 120 72
91 117 70
95 123 74
126 146 121
201 211 221
199 210 220
196 207 215
185 196 201
189 200 206
177 189 191
192 202 208
200 210 219
188 200 208
193 204 210
195 206 213
189 200 208
189 201 209
201 211 218
205 214 223
191 201 207
190 201 208
196 207 216
193 203 209
192 203 209
191 202 210
192 203 209
134 152 136
90 116 69
92 119 71
93 119 71
94 121 73
94 122 73
95 123 74
92 119 71
92 119 71
96 124 75
95 122 73
90 117 70
88 115 69
90 117 69
91 118 71
91 119 71
94 121 73
94 121 72
90 117 70
88 115 68
89 115 69
139 156 141
196 207 215
199 209 217
195 206 213
201 210 218
194 205 211
194 205 214
190 201 209
189 199 205
185 197 199
166 180 179
156 172 163
161 176 171
136 154 137
119 140 112
98 123 80
97 124 76
95 121 73
92 119 71
90 116 69
144 161 151
204 214 224
197 206 213
195 206 217
198 209 220
197 208 216
204 214 223
190 201 207
201 211 221
196 207 217
192 203 210
199 209 217
199 209 219
205 215 225
193 205 215
199 210 220
201 210 217
195 206 213
181 194 198
106 131 97
87 114 67
90 117 70
92 119 71
90 116 70
90 117 69
93 119 71
91 119 72
90 117 70
91 118 70
91 118 71
93 120 72
91 118 71
94 121 72
92 119 70
92 119 72
119 140 111
185 198 205
192 204 210
193 204 211
200 210 219
187 198 203
196 207 216
188 199 204
197 207 214
190 201 206
161 174 167
197 209 217
173 185 185
144 161 148
99 125 84
92 119 71
92 119 71
91 118 71
90 117 69
89 116 69
93 120 72
93 120 73
89 116 69
90 117 70
90 117 70
165 180 178
196 207 215
184 196 201
190 201 207
194 205 213
183 195 200
192 203 210
186 198 202
158 174 167
114 135 110
92 119 70
89 116 68
89 115 68
89 115 68
93 119 71
87 114 68
90 117 70
89 116 70
90 116 70
92 119 71
87 114 68
94 121 72
93 119 71
157 171 164
192 203 212
202 212 221
192 204 213
200 209 217
196 207 214
194 206 214
193 203 210
198 209 218
195 207 216
198 208 217
167 179 175
128 147 129
100 125 87
95 122 73
89 116 69
93 120 71
92 118 70
92 119 71
88 115 68
91 118 71
92 119 71
89 115 68
91 118 70
135 153 133
191 202 210
191 202 210
201 211 218
194 205 212
198 209 219
193 204 211
198 207 215
194 204 212
203 213 222
185 197 203
200 211 220
198 209 218
198 209 217
196 207 213
201 210 217
199 209 216
193 204 213
199 209 217
190 202 207
199 209 216
195 205 211
165 178 177
143 160 145
97 123 78
90 117 70
189 202 211
200 210 219
199 209 217
195 206 212
186 196 201
197 208 215
195 206 214
196 207 214
193 204 211
193 204 212
203 212 221
189 200 207
196 207 214
193 203 210
190 201 209
196 206 215
197 208 216
180 193 200
183 195 199
196 207 213
200 210 217
190 201 210
194 205 212
196 207 215
196 206 213
179 192 192
92 118 70
94 121 72
88 115 68
93 120 72
88 115 68
92 119 72
89 115 68
93 120 72
91 118 70
90 116 69
92 120 71
91 118 70
86 113 66
94 121 73
94 121 72
93 120 72
90 117 70
93 120 73
116 137 110
132 151 131
166 181 178
187 199 205
201 211 220
202 212 220
196 206 213
190 201 205
95 122 73
93 120 72
92 119 70
91 118 71
89 115 68
94 120 72
92 119 71
88 115 68
92 119 71
92 119 71
91 118 70
91 117 70
92 119 71
94 121 73
91 118 70
93 120 73
91 118 71
94 121 73
90 117 70
89 115 67
90 116 69
88 114 67
95 122 73
92 119 71
93 120 72
93 120 72
183 194 196
197 208 216
185 197 204
194 205 213
191 202 208
194 205 212
194 205 212
204 213 220
194 205 212
190 202 210
199 209 216
187 199 204
198 209 216
197 208 217
201 210 217
189 200 207
193 205 212
191 202 208
187 198 204
186 198 204
192 203 209
195 205 213
200 209 216
193 204 213
198 208 216
183 194 198
112 134 105
93 120 72
92 119 71
94 121 72
96 123 74
91 118 70
92 119 71
94 121 73
96 123 74
91 118 71
91 118 71
93 119 70
92 118 71
89 115 68
93 120 71
91 118 70
91 117 70
93 120 72
92 120 72
92 119 71
93 121 73
93 120 72
95 121 80
110 130 101
131 150 131
144 160 149
163 177 169
136 153 136
122 143 119
125 143 121
108 130 100
103 129 89
93 120 72
94 121 73
92 119 71
86 112 66
90 117 70
90 116 69
89 115 69
94 122 73
91 118 70
91 118 70
91 118 70
94 121 73
90 117 69
92 118 70
91 118 70
88 114 67
93 120 72
88 115 69
93 119 71
172 185 187
191 202 210
204 214 223
200 210 220
193 204 210
196 206 214
199 209 215
197 207 214
202 212 221
194 204 210
197 207 214
189 201 209
198 209 217
200 211 220
193 204 211
197 208 217
199 209 218
201 212 222
195 206 214
199 209 217
201 211 221
184 195 201
193 204 212
197 208 216
156 171 166
92 119 71
90 116 69
91 118 71
89 116 68
94 121 72
93 120 72
92 119 70
89 116 68
86 112 66
92 119 71
91 118 70
92 119 71
89 116 69
88 114 67
92 119 71
89 116 69
93 119 71
91 118 71
91 117 70
92 118 70
89 116 69
92 119 71
94 120 74
184 195 200
195 205 211
194 205 213
195 206 214
194 205 213
195 205 212
196 206 213
203 212 221
194 205 212
196 206 212
188 200 207
193 203 211
197 208 215
191 201 207
201 211 220
194 206 215
186 198 205
193 203 211
190 201 208
196 206 214
199 209 216
199 209 217
160 174 169
92 119 72
85 111 65
88 114 68
95 122 74
93 120 71
93 120 72
84 110 65
90 117 69
89 116 69
93 119 71
89 115 68
89 115 68
90 116 69
92 120 72
93 119 71
93 120 72
91 118 70
89 115 69
92 118 70
96 121 80
110 133 101
171 184 183
163 178 174
158 172 167
150 167 155
126 146 129
117 138 113
113 134 105
97 123 76
88 115 68
88 115 68
88 114 68
88 115 68
92 119 71
92 118 71
89 116 69
89 116 70
87 114 69
85 111 66
91 118 71
134 154 136
197 207 212
193 203 211
197 207 216
192 203 209
197 207 213
187 198 205
189 200 207
196 207 216
197 208 216
186 198 205
175 188 194
195 206 215
198 207 215
193 204 212
194 204 210
187 199 205
195 205 212
195 205 212
110 134 100
91 117 69
93 120 72
92 119 71
95 122 74
87 113 67
92 118 70
88 114 67
89 115 69
93 119 71
93 120 71
89 116 70
86 112 66
89 116 69
90 117 70
91 117 70
118 140 114
186 197 203
194 205 214
200 210 216
195 206 215
193 205 214
185 196 198
169 182 178
144 160 147
97 123 79
92 119 71
90 117 70
190 202 210
192 204 214
201 211 219
188 199 207
163 178 171
123 143 122
93 120 72
94 121 72
92 119 71
90 117 70
92 118 70
88 115 69
92 119 71
92 119 71
139 157 144
193 204 211
195 205 211
192 203 210
192 203 212
192 202 210
191 204 213
185 196 202
196 206 214
196 206 214
184 195 200
149 165 154
108 132 99
90 117 69
87 113 67
90 117 71
94 121 73
89 116 69
90 117 70
95 122 73
94 121 74
91 118 71
94 121 73
130 148 133
197 208 216
194 205 214
199 210 218
203 213 223
186 197 203
194 205 212
191 202 208
198 208 215
191 202 208
194 203 210
190 201 209
195 207 216
192 203 210
181 193 193
123 142 121
99 124 84
92 120 72
90 117 70
87 113 67
89 116 68
89 116 69
90 117 69
92 118 71
119 140 115
197 207 216
195 206 214
190 202 210
203 214 225
191 202 209
191 203 211
195 205 212
190 201 207
199 209 216
193 204 209
190 200 204
193 203 210
189 201 210
196 207 214
191 201 208
194 206 214
195 205 211
183 195 202
191 202 209
189 200 207
197 207 216
198 209 219
194 203 207
190 201 208
176 188 190
158 173 167
181 193 194
185 197 200
201 211 222
193 203 208
190 202 210
194 205 214
200 210 219
182 193 197
197 208 216
195 205 213
190 201 206
199 210 220
192 203 210
197 207 216
183 195 200
200 210 218
196 206 214
197 207 215
189 201 209
199 209 216
194 205 213
200 211 219
191 202 209
194 205 212
161 176 170
86 112 67
91 118 71
89 115 69
88 115 68
90 116 70
92 119 71
91 118 70
90 117 70
91 117 69
91 118 70
91 119 71
90 116 69
94 121 72
86 112 66
85 111 66
94 120 72
96 124 75
93 120 72
92 119 71
91 118 71
94 121 72
93 120 72
106 130 93
129 149 128
155 171 163
169 182 179
104 129 90
92 120 72
91 118 70
93 120 72
92 119 71
88 115 69
95 123 74
91 118 70
88 115 69
90 117 69
88 115 68
93 120 71
90 117 69
91 118 70
93 120 72
93 120 72
89 116 69
95 123 74
91 118 70
88 115 68
95 122 73
89 116 69
93 120 72
92 119 71
90 116 69
121 142 113
198 209 219
193 203 209
193 204 211
197 208 216
199 209 217
189 199 206
193 204 212
186 197 203
191 202 209
190 202 208
189 200 204
191 202 209
184 197 205
195 205 211
200 210 217
194 205 215
195 205 211
192 203 211
191 202 208
194 206 214
194 205 213
185 196 201
187 200 208
198 209 216
195 205 213
180 191 192
92 119 71
93 120 72
89 115 69
91 118 71
92 119 72
94 121 72
89 117 70
94 121 73
88 114 67
90 117 70
89 116 70
93 120 72
95 123 74
87 113 66
87 113 67
91 119 72
89 116 69
92 118 71
87 114 67
88 115 68
93 119 71
91 117 70
89 116 69
93 120 72
89 115 68
152 168 158
189 201 207
200 210 218
198 208 218
196 207 215
191 202 209
191 203 211
191 201 207
180 192 196
166 180 180
173 186 186
164 178 175
161 176 170
146 162 154
147 164 148
141 158 144
128 147 123
113 134 103
89 116 69
91 119 72
88 115 69
91 118 71
88 115 69
91 118 71
87 114 68
150 167 154
187 199 206
189 200 206
195 206 214
194 206 216
189 200 205
200 211 222
194 205 213
192 203 210
196 207 214
196 207 215
196 206 213
182 194 200
193 204 210
199 209 217
204 214 223
187 198 204
181 194 200
194 204 211
195 206 214
197 208 215
194 205 214
189 200 206
193 204 211
184 196 200
100 125 82
91 118 71
89 116 69
91 118 71
95 122 73
90 116 68
92 119 71
93 121 73
92 118 71
90 117 70
93 120 72
91 118 70
86 112 66
90 116 69
93 121 72
90 117 69
93 120 72
96 123 74
92 119 71
93 120 71
91 117 70
91 118 70
92 119 72
161 176 172
188 199 205
194 205 213
198 208 215
188 200 207
198 208 217
196 206 211
203 212 220
198 209 219
192 203 210
193 205 214
200 210 219
190 201 208
191 202 209
200 209 217
189 201 208
194 205 214
193 204 211
197 207 215
193 204 210
188 199 206
191 203 211
172 184 182
95 122 76
87 113 66
92 118 71
90 116 69
94 122 73
91 118 70
91 119 71
92 119 71
92 118 73
102 126 88
107 131 96
112 134 105
138 156 140
143 160 147
153 169 162
165 178 173
179 192 194
177 190 192
177 189 191
191 202 208
180 192 194
104 128 93
90 116 69
90 117 69
91 118 70
92 119 71
89 116 69
89 115 68
93 121 72
92 118 70
94 121 72
89 115 68
92 119 71
92 119 71
92 118 70
95 122 73
95 122 73
94 121 73
87 113 67
90 117 70
135 153 137
182 195 200
193 204 211
198 208 218
184 196 200
193 205 212
201 211 219
196 207 216
196 207 214
190 201 208
195 206 215
197 207 216
193 204 210
188 200 208
199 210 221
206 215 224
197 208 217
197 208 217
189 200 206
113 135 106
91 118 71
91 118 70
88 115 69
93 120 72
91 118 71
92 119 71
93 120 72
91 118 70
92 119 72
90 117 70
93 120 73
92 119 71
90 117 70
93 120 72
91 118 70
126 145 122
195 206 215
179 192 197
182 194 197
147 163 153
134 152 132
104 128 90
90 117 70
96 124 74
90 117 70
91 118 70
96 124 74
90 117 70
186 196 202
189 201 210
198 209 218
189 200 207
191 202 207
197 208 216
183 195 202
147 164 153
109 131 102
93 119 71
86 113 67
87 113 66
91 118 70
87 114 68
133 153 136
187 198 203
189 200 206
198 209 216
197 207 215
192 203 210
190 202 208
203 212 222
199 209 218
183 196 202
193 204 211
201 211 220
197 207 216
176 190 193
147 163 151
98 123 81
92 119 71
90 116 70
91 118 71
93 120 71
88 114 67
92 118 71
93 120 71
133 150 134
191 202 208
193 203 209
194 204 210
193 204 211
188 200 207
201 211 220
195 205 212
198 208 214
203 213 223
181 192 196
190 202 209
200 210 218
192 204 210
196 207 214
192 203 208
192 203 212
170 184 185
138 156 139
108 130 99
90 117 69
87 112 66
92 120 72
92 119 71
116 138 110
192 202 210
194 205 213
192 203 209
200 211 219
191 203 211
192 203 210
189 200 208
198 208 218
200 210 218
187 198 202
190 201 207
196 207 216
198 209 216
189 200 207
193 204 213
196 207 215
199 209 217
195 206 213
189 200 205
189 200 208
189 201 207
187 199 204
200 210 218
185 197 204
184 196 200
92 120 72
94 121 72
112 133 103
134 152 137
164 179 174
187 198 201
188 200 207
188 200 209
197 206 213
196 207 214
201 211 221
192 203 211
191 202 210
195 206 215
198 209 219
192 204 212
186 198 204
196 207 216
191 203 209
195 206 213
195 205 213
199 209 219
198 208 216
202 212 222
193 204 211
150 166 158
94 121 72
91 118 71
90 117 69
94 121 73
88 115 69
92 119 71
91 117 69
94 121 72
95 122 73
92 119 71
90 116 69
92 119 72
88 115 68
87 113 67
88 114 68
86 112 66
91 118 71
93 120 72
93 120 72
89 116 69
90 117 70
91 117 70
89 115 68
89 115 68
92 119 71
150 166 157
191 203 211
183 195 200
159 174 169
138 156 141
122 142 116
89 116 69
94 120 72
91 117 69
89 115 69
93 120 72
91 118 70
92 118 71
95 121 73
93 120 71
90 116 70
93 120 72
91 118 71
93 120 71
90 118 71
89 116 69
92 119 72
93 120 72
88 115 68
95 122 73
90 117 70
152 168 158
192 202 209
198 209 218
199 209 217
199 209 218
187 198 204
194 205 212
199 209 217
199 209 218
197 207 215
188 200 207
196 207 216
205 216 226
197 207 216
203 212 221
197 208 218
193 204 210
193 205 214
185 197 203
192 202 208
186 198 205
196 207 213
194 204 210
197 208 215
194 205 213
187 199 205
154 169 160
93 119 71
94 121 72
95 123 74
90 117 70
92 119 71
90 117 70
90 117 70
90 116 68
90 117 71
89 116 70
90 116 69
92 119 71
93 119 71
91 118 71
89 115 68
94 122 73
92 119 71
89 116 69
89 116 68
93 119 71
93 120 72
91 118 70
93 120 72
89 116 69
109 133 100
195 206 214
196 206 214
192 203 209
196 206 212
189 200 205
200 210 218
200 210 220
191 202 208
191 202 209
199 209 219
194 204 210
194 205 214
198 208 217
200 210 218
200 210 217
191 201 207
196 206 213
196 207 216
203 213 221
194 205 213
191 203 208
188 198 203
177 189 191
174 187 186
160 174 167
124 143 124
133 152 131
156 171 165
163 178 171
151 167 159
166 179 177
171 184 183
182 195 195
188 199 203
189 200 205
194 205 212
189 200 205
197 207 216
198 208 216
196 207 217
196 207 215
183 195 201
190 200 205
198 207 215
195 207 216
196 208 216
197 207 215
190 201 208
190 201 208
137 155 136
88 115 68
89 115 68
92 119 71
87 113 66
89 116 69
93 120 72
89 116 69
89 115 69
93 119 72
95 123 74
94 121 73
93 120 71
96 123 74
91 117 70
91 118 71
87 114 68
91 118 70
91 118 71
93 119 71
89 116 69
91 118 71
93 120 72
135 152 137
198 208 215
197 208 216
193 204 210
193 204 210
190 202 209
192 203 211
198 209 219
186 197 204
198 210 220
191 203 211
190 202 208
188 199 205
199 210 222
201 211 220
197 208 216
189 200 206
179 191 195
175 186 188
185 197 200
165 179 177
169 182 181
181 193 194
152 168 162
143 159 149
151 168 159
158 172 166
177 190 191
171 183 183
164 178 174
186 198 207
191 202 209
199 209 218
200 210 218
196 206 212
179 191 195
192 203 210
198 208 217
199 209 217
195 205 214
203 212 220
198 209 217
188 201 210
185 197 203
110 134 100
89 116 69
93 119 71
92 119 72
93 120 72
91 118 70
90 117 71
90 117 70
96 123 74
90 116 69
92 119 71
91 118 69
92 119 71
92 119 72
90 117 70
91 118 70
87 114 68
88 115 68
90 116 69
118 139 111
190 201 208
199 209 217
194 205 213
193 204 211
191 201 208
200 210 218
194 205 212
201 210 218
184 195 201
184 195 202
201 211 219
197 208 217
190 201 208
188 200 206
194 206 214
188 199 204
197 208 217
188 200 206
123 143 120
92 119 71
92 119 71
90 116 69
88 114 68
90 117 69
94 121 72
84 109 65
95 122 73
93 121 72
92 119 71
90 117 70
94 121 72
88 114 67
90 116 69
114 135 107
114 135 110
137 154 137
119 138 116
94 121 72
86 113 67
92 118 70
88 115 68
89 116 69
91 118 70
90 117 70
91 118 70
90 117 69
93 120 72
93 120 72
190 201 206
200 210 216
195 205 212
184 196 202
201 211 220
187 199 205
188 199 206
200 210 218
185 196 202
165 179 177
146 161 149
92 118 75
91 118 70
93 120 72
98 123 83
186 196 200
194 204 215
194 205 211
194 204 211
201 211 220
197 207 214
193 204 211
194 204 211
197 208 215
199 209 216
195 206 214
190 201 208
191 202 211
202 211 218
196 206 212
168 180 176
135 152 137
97 122 83
91 118 70
91 118 70
92 119 72
89 115 69
108 131 100
186 198 205
192 203 209
188 200 207
195 206 213
193 204 212
200 209 216
194 205 213
193 204 212
191 202 210
187 199 205
192 204 211
200 211 219
195 205 213
197 207 215
195 206 213
188 200 204
191 202 211
206 216 224
189 201 209
167 181 179
141 158 142
112 134 102
91 118 70
123 143 120
190 201 207
191 202 209
189 200 206
196 206 212
183 195 202
192 203 210
198 208 217
193 203 208
193 205 213
195 206 214
193 204 210
192 203 210
202 213 223
184 196 200
190 201 207
190 201 209
193 204 212
187 199 206
189 201 210
200 210 218
193 204 210
196 207 215
201 211 220
198 207 215
166 181 179
93 119 72
91 118 71
86 112 66
88 114 68
89 116 69
89 116 68
101 125 93
148 164 154
166 179 175
189 200 206
195 206 214
198 208 216
193 203 210
193 203 210
184 196 204
190 201 208
188 199 205
189 200 205
195 206 213
197 207 215
201 211 221
196 207 216
188 200 208
194 204 213
186 198 206
126 146 125
87 113 68
90 116 69
87 114 67
87 113 68
93 120 71
93 121 72
94 120 72
92 119 71
87 114 68
91 118 71
94 121 72
89 116 69
90 116 69
97 125 75
94 120 71
89 115 69
90 117 71
90 117 70
93 119 71
92 119 71
89 116 69
90 117 70
91 119 71
91 117 70
93 120 72
180 192 194
197 208 217
190 201 207
187 198 203
184 197 204
198 209 217
188 200 204
182 194 195
165 179 177
145 162 151
120 140 117
106 130 91
93 119 71
90 117 70
92 119 70
86 113 66
90 117 70
89 115 68
89 116 68
90 116 68
91 118 70
91 117 70
92 119 71
91 118 70
89 116 70
94 121 73
182 194 198
191 203 212
194 205 213
194 204 212
191 203 209
183 194 200
190 201 210
198 208 216
192 203 212
187 199 207
192 203 210
202 211 220
192 202 210
192 203 209
197 208 217
187 199 207
195 205 212
198 209 219
201 212 220
201 210 217
205 214 224
189 200 206
204 213 222
198 208 215
191 202 206
192 202 210
98 124 79
93 121 73
91 117 70
94 121 72
93 120 72
91 118 71
91 118 70
92 119 71
92 119 70
89 116 70
91 118 71
97 124 74
92 118 71
93 120 72
93 120 72
89 116 68
91 118 71
88 115 68
96 123 74
92 119 71
87 114 67
93 120 71
87 114 68
94 121 73
91 118 70
152 167 156
201 211 218
188 199 206
189 201 208
190 201 207
195 205 212
194 205 213
184 196 200
196 207 215
197 208 217
194 204 211
187 198 202
189 201 208
190 202 209
199 208 217
187 199 204
190 201 208
202 212 222
182 194 200
190 200 205
196 205 212
189 201 207
181 193 200
194 205 213
195 206 216
140 157 140
88 115 68
93 120 72
91 118 70
89 116 69
93 120 72
94 122 73
92 119 71
92 119 71
92 118 71
89 115 68
90 117 70
88 115 68
88 114 67
90 115 71
105 129 93
99 123 88
104 127 94
129 148 129
118 139 112
124 144 119
135 153 137
138 155 139
132 151 130
152 168 158
170 184 183
169 183 180
154 170 161
157 171 161
150 166 156
149 164 154
147 162 151
161 175 169
147 164 152
160 174 169
153 168 161
154 169 160
146 162 148
139 155 139
159 173 166
148 164 155
135 153 138
157 172 163
162 175 169
156 171 163
153 168 159
153 169 156
143 160 147
146 163 151
137 155 141
145 163 150
135 153 138
139 156 140
126 145 124
127 146 127
131 150 131
125 146 121
111 133 105
126 145 122
110 132 101
103 127 88
98 124 82
88 115 68
94 122 73
95 122 74
90 116 70
87 113 66
92 119 70
86 113 66
93 118 78
180 192 192
192 202 210
201 210 216
194 204 212
188 200 207
188 200 207
195 206 215
200 211 220
195 205 213
192 203 210
189 201 208
200 210 218
182 194 199
197 208 215
191 202 210
187 199 206
192 203 208
191 203 212
198 208 218
191 201 207
194 204 210
126 146 125
92 119 71
90 117 70
93 121 73
96 123 74
92 119 71
88 115 68
86 112 66
89 116 69
93 120 72
91 118 71
90 116 69
88 115 68
90 116 70
88 114 68
93 120 72
91 117 70
91 118 71
88 114 67
111 133 103
183 194 197
191 201 207
193 204 214
196 207 217
198 209 219
188 200 207
184 195 201
193 204 211
189 200 206
188 200 208
194 206 216
197 208 216
188 200 205
188 199 204
186 198 205
188 199 206
189 200 209
186 198 204
121 141 115
93 120 72
93 120 72
90 117 69
91 118 71
88 114 68
89 116 68
89 115 68
88 114 68
92 119 71
90 116 68
100 125 87
123 144 119
143 161 148
155 170 164
188 200 206
159 173 168
91 117 70
91 119 71
89 115 69
89 115 68
84 111 66
88 114 68
89 116 69
90 117 69
90 117 70
92 119 71
92 119 71
90 117 70
89 116 70
88 114 68
199 209 217
199 209 217
194 205 214
186 197 201
194 205 214
188 199 204
188 200 206
198 209 217
197 206 213
191 202 208
201 210 218
192 202 208
159 173 166
116 137 109
87 113 67
182 194 198
190 201 208
188 199 205
194 205 215
187 199 206
190 202 207
191 203 209
192 204 211
197 207 215
188 198 204
196 207 214
191 202 208
185 196 201
184 196 202
193 203 211
191 202 209
188 199 205
189 200 204
163 177 174
139 157 142
98 124 79
89 116 69
111 134 103
179 192 197
198 209 217
196 207 213
197 207 213
199 210 218
201 211 221
180 192 194
194 204 212
200 210 219
196 206 213
203 214 224
186 198 206
189 201 207
187 198 203
192 203 209
193 203 209
179 191 194
186 197 204
198 208 216
193 203 210
194 204 212
192 202 210
176 189 189
149 164 157
180 192 193
198 208 218
192 204 212
194 204 213
193 205 213
202 212 221
200 210 218
194 205 214
198 209 219
193 204 211
193 204 213
188 199 206
189 201 208
191 202 209
198 208 216
197 208 217
186 198 206
188 199 206
195 205 215
199 210 218
188 199 205
186 197 202
200 209 218
192 203 210
168 181 180
90 116 69
88 114 67
88 114 68
92 119 71
91 118 70
93 121 73
96 124 74
97 124 75
86 112 67
92 118 73
132 151 132
159 174 168
167 180 181
196 206 213
190 202 210
186 197 203
196 206 215
193 204 211
195 206 215
194 204 210
195 206 214
193 205 214
190 201 208
198 209 218
192 203 211
113 135 106
90 117 69
89 116 68
88 115 68
87 113 67
86 112 67
93 120 72
88 114 68
93 121 72
86 112 66
90 117 70
92 119 71
87 113 67
94 121 72
89 115 68
92 119 71
92 118 70
92 119 72
87 113 67
94 121 73
89 116 68
93 121 72
92 119 72
91 118 70
94 121 72
98 124 81
197 208 215
191 202 209
197 207 217
203 212 220
189 201 208
199 209 216
190 201 210
194 205 214
197 208 218
191 202 209
196 206 212
192 203 211
184 195 199
173 185 183
133 151 135
126 144 128
102 128 88
87 114 68
88 115 68
93 120 72
87 113 67
91 118 71
87 115 69
89 115 68
90 116 70
113 136 105
192 204 214
193 203 210
193 204 213
181 192 197
194 205 213
198 209 219
198 208 215
202 212 222
194 204 210
196 206 214
195 206 212
191 202 209
191 203 211
188 200 208
194 205 213
193 204 210
198 208 216
195 206 213
195 205 212
193 204 213
183 196 200
196 207 215
200 210 218
193 204 209
192 203 209
152 167 160
95 122 73
90 117 70
92 118 71
94 120 71
92 119 71
85 112 67
90 117 70
87 114 67
89 115 68
93 121 73
91 118 70
93 120 72
91 119 71
92 119 71
87 113 68
87 113 67
92 118 70
94 122 73
88 115 68
88 114 68
86 112 66
90 116 69
93 121 73
90 117 70
103 126 92
194 204 210
193 203 210
188 200 205
195 206 213
189 200 206
197 207 213
192 204 212
189 201 209
201 211 219
187 199 206
188 199 206
191 202 209
181 194 201
200 210 216
191 202 209
183 196 203
187 198 206
189 200 209
197 207 214
196 206 214
192 203 209
200 209 216
194 205 212
195 205 212
179 192 196
98 123 82
91 118 71
98 125 75
89 116 68
93 120 71
87 114 68
93 120 72
91 118 70
91 118 71
91 118 70
91 117 70
88 114 68
91 119 71
91 118 70
93 120 72
92 119 70
88 114 68
94 121 72
91 119 71
89 116 69
89 115 69
90 116 70
91 118 70
97 121 82
188 199 204
193 204 212
202 211 220
197 208 216
199 209 217
192 203 209
191 203 212
197 208 216
187 199 205
186 198 204
198 208 216
191 202 210
188 198 203
190 201 208
194 206 215
201 211 221
201 212 222
196 206 214
192 204 214
192 204 212
195 206 215
191 203 213
194 205 213
133 150 134
91 118 71
93 120 72
88 115 68
89 115 69
91 118 71
89 116 69
98 126 76
91 117 70
89 115 69
92 120 72
91 117 70
92 119 72
93 120 72
96 123 74
91 118 70
92 119 71
92 118 71
94 121 73
89 116 69
93 120 72
91 117 69
144 161 152
198 209 219
194 205 212
203 212 222
188 199 207
196 207 215
197 208 217
192 203 209
198 208 217
197 207 214
190 201 207
202 212 220
189 199 207
183 195 203
202 211 220
192 203 210
198 209 218
184 195 199
190 200 207
189 201 208
183 194 200
135 153 139
91 118 70
92 119 71
89 116 69
93 120 71
88 115 69
94 121 73
89 115 68
88 115 69
90 116 69
91 117 70
92 119 72
86 112 66
90 116 69
86 113 67
91 118 71
86 112 66
93 120 72
94 121 72
105 126 97
189 200 204
187 199 205
202 211 221
196 207 216
191 202 211
180 192 198
195 205 215
191 202 211
188 200 207
196 207 215
189 200 207
183 194 200
190 201 207
186 197 203
202 211 219
189 200 206
195 206 214
191 202 208
117 138 112
91 117 70
89 115 68
90 116 69
90 117 70
93 119 71
94 121 72
99 124 84
126 146 122
148 165 156
158 172 165
185 198 203
185 196 199
191 203 211
196 206 213
192 202 208
148 165 157
94 120 77
90 117 70
90 116 69
88 115 67
90 116 68
90 116 69
94 121 73
91 118 71
90 117 69
87 114 67
89 116 69
93 120 72
90 117 70
96 120 82
168 180 177
198 207 215
195 206 213
198 209 218
190 202 210
200 210 219
189 200 208
188 199 207
195 205 212
196 207 215
199 209 218
191 202 209
189 201 207
187 198 205
193 204 211
179 192 198
164 177 174
183 194 199
199 209 216
202 212 222
190 201 207
190 201 208
193 204 210
190 201 206
188 199 206
193 203 211
192 204 211
190 201 208
184 196 202
184 197 204
190 200 206
190 202 210
196 207 215
185 197 205
199 209 218
194 206 216
184 196 203
162 175 173
134 152 135
191 203 210
187 199 206
190 202 209
197 208 216
196 207 215
198 209 219
190 200 206
197 208 218
191 202 209
197 207 213
186 197 203
194 204 211
194 204 210
190 200 207
190 201 208
194 205 212
190 201 209
185 195 200
190 201 206
194 204 212
197 207 215
196 206 214
196 206 212
168 181 179
90 117 70
108 131 96
140 158 141
154 170 159
188 199 206
187 199 206
190 200 207
192 202 209
187 199 206
193 204 212
191 202 209
192 203 210
204 213 222
201 210 219
196 205 213
196 207 214
196 207 216
186 198 208
199 209 218
193 204 210
189 200 205
187 199 205
191 202 209
185 197 200
164 177 174
91 118 70
90 117 69
87 114 67
88 116 70
92 119 72
90 117 70
89 116 70
88 115 68
95 122 74
90 117 70
89 115 69
93 121 72
92 119 72
95 121 77
124 144 118
147 163 153
181 193 195
193 205 213
187 199 206
184 196 202
183 194 197
196 205 212
196 207 216
196 207 215
195 206 211
90 117 69
92 119 71
86 113 67
93 120 72
91 118 70
89 115 69
95 122 73
91 118 72
90 117 70
90 117 70
90 117 70
93 120 72
91 119 71
95 122 73
91 118 70
88 114 68
84 110 65
88 114 68
90 116 69
86 112 66
89 115 68
91 118 70
92 119 72
89 116 70
93 120 71
136 152 137
186 197 202
195 206 211
183 195 201
195 206 215
194 204 210
189 201 208
202 212 221
195 207 217
188 200 207
196 207 217
196 206 213
192 203 209
190 201 205
189 200 207
196 207 215
188 199 206
189 201 208
176 190 194
163 177 172
162 176 173
137 154 135
109 132 105
99 124 81
92 119 71
87 114 67
160 175 170
200 210 217
194 205 211
184 196 203
198 208 217
199 210 221
188 200 208
198 209 217
200 210 219
192 202 207
190 202 210
192 203 211
189 200 206
197 208 216
194 205 212
194 205 213
196 206 213
194 204 212
205 215 225
197 208 216
191 203 210
186 198 204
190 202 210
190 202 209
200 210 219
196 207 214
113 134 103
93 120 72
88 115 68
92 119 72
88 115 68
89 115 68
90 116 69
91 118 71
94 121 73
87 113 67
91 119 71
89 116 70
87 114 67
89 116 68
92 119 71
91 118 70
92 119 71
92 119 71
91 118 70
90 117 70
89 116 69
91 118 71
93 121 72
94 121 72
91 118 71
145 162 150
200 209 218
201 211 219
192 202 209
184 196 202
199 209 218
187 199 205
202 212 220
197 208 218
187 198 204
187 198 203
196 206 214
194 205 213
205 215 225
193 205 214
192 203 208
187 198 205
188 200 207
181 193 200
193 203 209
188 199 207
199 210 221
189 201 208
191 202 211
188 199 206
131 149 130
89 116 69
89 116 69
89 115 68
90 117 70
89 116 68
88 114 68
90 117 70
91 118 71
92 119 71
92 119 71
92 119 71
90 117 70
90 116 69
90 116 69
90 116 69
91 118 70
93 120 72
88 114 68
87 113 67
87 113 67
90 117 69
92 119 71
94 121 73
152 167 160
200 210 217
194 205 212
190 201 209
187 199 208
195 205 213
193 204 212
193 204 213
193 204 213
199 209 215
192 203 210
193 203 208
202 212 220
192 203 210
194 204 210
195 205 212
194 204 212
179 192 197
194 204 211
189 200 206
197 208 218
188 199 205
202 212 219
158 173 165
93 120 72
92 119 71
90 117 70
90 117 70
95 122 73
91 118 70
94 121 72
91 117 70
90 117 70
87 114 68
89 116 69
92 119 71
89 116 69
91 118 70
90 117 69
88 114 67
88 115 68
92 119 72
91 118 70
89 116 69
93 120 72
144 160 147
185 198 205
198 208 218
195 205 213
199 209 217
187 198 204
197 207 215
191 203 211
193 205 214
192 202 209
192 203 209
196 205 212
191 203 211
196 206 214
195 205 212
197 208 216
198 207 213
199 209 217
187 199 207
192 204 212
185 197 204
140 157 145
92 120 72
92 118 71
94 121 73
88 115 68
91 118 70
91 119 71
92 119 72
91 118 70
88 114 68
88 115 69
94 121 72
91 118 70
86 113 67
90 116 69
87 114 67
92 119 71
90 117 69
88 115 68
102 126 91
180 192 196
196 207 217
197 207 214
200 210 217
195 206 214
185 197 202
188 199 206
194 205 214
193 205 213
187 198 204
188 199 206
186 198 205
201 211 221
182 194 199
186 197 203
200 210 216
191 202 207
194 204 212
108 131 98
89 116 69
88 115 68
107 131 96
130 149 128
158 173 167
170 184 184
179 190 193
189 200 208
193 203 210
181 193 198
192 204 212
200 211 221
188 199 205
190 202 211
194 205 213
148 166 156
90 116 69
91 118 70
89 116 69
90 117 70
91 118 70
89 115 69
85 112 67
87 113 67
91 117 70
91 118 70
90 116 69
91 118 70
85 111 66
101 125 87
179 193 195
193 205 211
110 133 99
141 157 147
176 189 190
192 203 210
184 196 200
184 196 204
186 198 206
181 193 200
185 196 202
196 206 214
191 202 207
185 197 203
187 199 206
197 208 217
188 200 206
156 171 163
91 117 72
124 143 120
143 160 151
184 196 202
198 208 216
188 200 206
193 204 212
182 193 199
184 195 201
195 206 214
188 199 205
196 206 214
186 198 205
188 200 209
188 200 206
196 207 216
197 207 215
193 204 212
183 194 200
190 201 209
186 198 202
191 202 209
118 139 113
133 151 137
170 184 184
191 202 210
190 202 211
199 210 221
196 208 217
191 202 208
195 205 212
186 198 207
189 202 210
187 199 206
197 208 216
185 197 203
195 206 214
193 204 210
187 198 201
192 203 209
190 201 209
191 202 208
190 201 207
190 202 211
193 205 215
177 191 193
88 115 68
89 116 69
90 116 69
92 119 71
95 120 82
115 135 110
155 169 165
169 182 182
190 201 208
188 200 206
197 209 217
187 198 204
184 195 201
198 208 216
192 203 210
189 200 206
196 207 214
206 215 224
192 203 209
196 206 213
201 211 221
195 205 212
185 197 202
192 203 209
122 142 121
90 117 70
88 115 68
90 117 69
89 115 68
89 117 71
90 118 71
92 119 72
92 119 71
90 116 68
94 121 72
92 119 71
87 113 68
89 115 68
92 119 71
88 115 68
91 118 71
92 119 70
102 126 89
127 146 127
153 168 161
166 179 179
196 207 215
188 200 206
198 208 217
169 182 181
89 115 68
94 122 73
92 120 72
91 118 71
86 113 67
91 117 70
94 121 73
92 119 71
90 117 70
88 115 69
93 120 72
94 121 73
89 115 68
91 117 69
87 114 67
91 117 69
91 118 71
92 119 72
94 122 74
89 116 69
90 117 70
91 118 71
89 115 68
91 118 71
87 113 67
159 174 171
185 197 203
198 209 217
188 201 210
187 199 206
193 204 210
183 196 202
195 205 212
201 210 218
186 197 203
191 202 208
201 211 219
189 200 204
194 205 214
192 203 210
195 206 213
195 206 215
186 198 202
193 204 212
195 205 214
190 201 208
196 207 216
196 207 214
196 205 213
186 197 201
169 182 180
141 159 145
162 176 173
180 193 197
188 200 209
190 202 208
196 207 216
188 200 207
188 199 206
198 207 214
188 200 207
192 203 212
190 201 207
191 202 208
201 211 221
197 208 216
192 203 210
202 212 219
193 204 210
197 208 215
189 200 208
193 203 209
193 204 211
192 203 210
192 202 209
200 211 220
177 190 190
89 116 69
92 118 70
85 111 65
92 119 71
87 114 68
86 112 66
89 115 69
93 120 72
93 120 72
92 119 71
92 119 71
91 117 70
89 116 69
93 120 72
91 117 70
87 114 68
91 118 71
86 113 66
91 117 70
90 117 71
92 118 70
94 121 73
83 109 64
91 118 71
101 124 86
178 192 197
192 202 209
187 198 204
195 205 213
192 203 212
190 201 207
194 205 216
196 207 215
202 212 221
193 204 212
196 207 217
197 208 216
192 203 211
194 205 213
183 195 200
195 207 215
195 205 214
193 203 209
197 207 215
185 197 202
189 200 209
190 201 209
191 202 209
189 201 208
171 185 183
87 113 67
93 120 72
91 118 70
87 114 68
90 117 70
92 120 72
89 115 68
90 117 69
89 116 69
91 119 71
87 113 67
91 118 71
90 117 71
90 117 69
89 116 70
89 116 69
92 119 71
91 118 71
93 120 72
89 116 69
92 118 70
90 117 70
95 122 74
135 153 136
186 197 204
205 215 224
187 199 204
187 198 205
197 209 218
187 198 204
192 203 210
196 207 214
185 198 207
195 206 215
199 210 219
184 196 200
184 197 204
192 203 209
188 199 207
192 204 212
191 202 208
190 201 209
194 205 212
189 200 207
199 209 217
194 204 209
179 191 191
90 117 71
93 120 72
95 122 74
88 114 67
94 121 73
92 119 71
89 115 69
89 116 70
89 115 69
92 119 71
94 121 73
88 115 69
90 117 69
91 118 70
90 117 70
92 119 71
93 121 73
88 114 68
90 116 69
92 119 71
94 121 72
115 135 112
185 197 202
197 207 216
193 204 211
194 205 214
183 196 200
189 200 205
188 200 208
204 214 223
180 193 198
184 196 202
199 208 216
177 190 194
192 202 209
194 205 212
190 201 208
197 209 217
186 198 205
189 200 207
194 205 212
192 203 210
162 176 175
88 115 68
91 118 70
90 117 70
88 115 68
93 120 72
92 119 71
91 118 70
96 123 74
91 118 70
90 116 70
90 117 70
92 118 71
90 117 71
89 116 69
91 117 70
91 118 71
90 117 70
93 120 71
98 122 82
174 187 189
200 211 219
199 209 219
204 213 223
199 210 219
191 202 207
195 206 217
189 200 206
191 202 210
190 202 212
186 196 202
194 206 216
197 208 218
194 205 214
196 206 214
189 200 207
183 195 200
175 188 193
144 160 149
155 170 165
167 180 179
188 199 205
194 205 212
184 196 202
195 206 214
184 195 201
192 203 212
190 202 208
194 205 211
185 196 203
186 197 203
188 199 207
186 198 205
185 196 201
129 147 131
88 114 68
89 115 68
88 114 68
92 119 72
90 116 69
88 115 69
91 117 69
85 110 65
91 118 70
91 117 69
93 119 71
88 115 69
86 111 66
114 135 104
177 190 192
188 199 205
178 190 191
190 201 207
177 188 191
172 184 186
180 193 195
168 182 180
150 165 154
141 157 147
156 171 166
158 173 168
158 173 167
183 195 198
168 181 182
181 193 198
187 198 204
196 207 214
184 195 200
90 117 69
89 116 69
91 117 70
92 117 75
141 158 142
168 180 179
190 202 209
185 197 201
188 198 205
192 203 210
195 207 216
189 200 208
193 205 214
195 206 214
191 202 207
187 199 204
182 194 198
200 210 218
199 210 220
189 199 203
189 201 207
185 197 201
115 135 112
91 117 69
88 115 67
103 128 89
128 145 128
169 182 180
184 196 202
190 202 210
184 196 201
186 197 205
191 202 209
193 204 211
190 201 208
188 199 205
197 208 217
189 200 207
187 198 203
191 201 206
190 200 206
191 202 210
197 207 215
201 212 221
186 198 205
167 181 181
87 113 67
88 114 67
91 117 70
88 115 68
92 118 70
89 115 68
89 115 68
93 120 72
115 135 111
153 168 161
168 181 182
190 202 207
189 201 209
191 203 211
191 203 211
197 208 216
195 206 214
193 204 212
190 201 208
184 196 203
190 202 210
183 195 200
202 213 224
192 203 210
145 162 149
89 116 69
91 118 70
89 116 70
92 119 72
92 120 72
88 115 68
91 118 70
85 111 65
89 115 68
92 119 71
92 119 72
90 116 69
89 115 69
93 120 72
87 113 67
92 120 72
92 120 71
91 118 71
83 109 64
95 122 73
94 121 72
100 125 84
125 146 123
148 164 152
149 164 156
100 126 83
91 117 70
90 116 69
90 117 69
87 113 67
90 116 69
90 117 70
90 116 69
90 117 69
93 120 72
90 117 70
90 116 70
87 113 67
89 116 70
88 115 68
93 120 72
91 118 70
90 117 70
90 116 69
92 119 72
92 119 70
90 117 70
93 119 71
89 116 69
92 119 71
181 194 198
185 196 202
196 207 214
193 204 212
195 205 213
194 204 210
196 207 214
199 210 218
191 202 210
192 203 210
189 200 208
182 194 201
188 200 208
187 199 205
187 199 204
191 202 209
189 200 209
191 202 209
193 204 211
186 198 204
195 206 213
193 204 211
181 194 200
196 207 216
187 199 205
184 197 203
93 120 72
93 120 72
93 120 71
95 121 77
118 139 111
135 152 137
159 174 166
152 168 162
176 189 194
190 201 208
186 198 205
187 199 207
201 211 220
192 203 211
190 202 210
201 211 220
192 203 209
193 204 212
203 213 222
189 201 206
200 210 220
192 202 209
190 201 208
193 203 209
191 202 208
134 151 136
92 119 72
88 115 68
90 117 70
91 117 70
89 115 69
90 117 70
91 118 71
86 112 66
92 119 71
89 116 69
88 115 68
91 118 71
88 115 68
86 112 66
91 119 71
88 114 67
85 112 67
89 116 69
93 120 71
90 116 69
89 115 68
87 114 68
92 119 71
94 121 72
156 170 163
198 208 217
195 206 213
190 200 206
195 206 213
198 208 216
183 195 200
193 205 213
185 195 200
207 216 226
197 208 216
193 204 211
201 211 222
192 204 213
188 199 205
188 199 204
189 199 204
201 211 218
189 200 207
197 207 214
195 206 214
191 203 210
188 200 206
180 192 198
194 205 214
121 141 119
92 119 71
92 119 71
88 115 68
91 117 70
89 116 71
90 116 69
84 110 64
90 116 69
92 119 72
85 111 65
86 112 67
90 117 70
92 120 72
87 114 68
91 118 70
93 121 73
90 117 69
90 117 69
95 122 74
91 117 70
92 118 70
92 119 70
96 121 82
178 190 191
183 195 201
182 194 200
185 198 205
191 203 211
183 194 201
192 203 211
192 203 209
197 208 218
196 207 214
188 200 208
192 202 208
195 206 213
192 202 208
187 198 205
190 201 207
199 209 216
194 205 212
193 204 209
195 205 212
181 192 196
194 204 210
189 200 207
117 137 112
89 116 70
89 115 69
94 121 72
90 117 70
88 115 68
89 115 68
90 117 70
92 119 71
88 114 68
89 115 69
89 116 68
95 122 73
90 117 69
90 117 70
90 117 70
92 119 72
90 117 69
90 117 69
87 114 68
89 115 69
102 125 89
181 193 195
189 201 211
196 206 214
180 192 197
195 206 215
194 204 211
197 207 214
196 206 213
192 204 211
192 203 210
193 204 212
194 204 212
195 205 212
192 203 210
189 200 206
191 202 211
193 204 210
189 199 205
200 210 219
193 205 214
173 185 186
98 122 82
92 119 71
92 118 71
92 119 72
90 116 69
89 116 69
88 114 68
93 120 72
89 116 70
88 115 69
91 117 69
92 119 71
88 115 68
90 117 70
92 119 72
89 116 69
91 118 70
92 119 71
100 126 84
175 187 187
190 200 207
186 198 204
188 200 207
185 198 206
195 205 211
196 207 215
197 207 213
189 201 208
199 209 218
188 200 207
194 205 215
184 196 200
160 176 172
152 167 160
129 147 128
113 133 108
111 133 103
177 189 191
186 199 207
190 201 207
187 199 204
194 205 212
189 201 208
187 199 205
190 201 206
195 206 214
180 192 198
192 203 212
196 206 214
179 191 195
194 205 211
186 198 205
192 203 210
126 146 121
89 115 69
88 115 68
92 119 70
89 115 69
100 124 86
99 124 84
112 134 103
118 139 115
125 146 123
136 154 138
142 159 149
143 159 148
169 182 180
139 157 142
150 164 157
166 179 179
180 191 195
180 192 196
195 206 214
193 205 213
189 201 210
176 189 192
196 206 214
180 191 196
156 171 164
115 135 110
89 116 69
93 119 72
89 115 69
94 121 73
90 117 69
90 117 69
87 113 70
104 127 94
170 184 183
168 180 179
170 183 180
173 185 184
161 176 170
166 180 177
167 181 179
177 190 193
182 193 197
164 177 175
167 179 178
162 176 172
185 196 198
188 200 207
193 204 211
198 209 218
198 208 214
191 202 209
195 205 210
199 209 218
188 200 206
181 193 200
120 140 118
89 116 69
84 109 65
90 116 70
91 118 70
94 121 73
95 120 81
139 156 142
160 174 172
183 194 199
184 195 199
192 203 209
193 203 211
198 208 216
181 193 198
190 200 206
196 207 215
185 196 200
189 201 208
183 195 201
189 200 206
190 202 211
188 200 206
185 196 200
92 118 71
94 121 72
87 113 67
87 114 69
94 121 73
89 115 68
90 117 69
86 112 67
89 115 69
90 116 70
87 113 67
105 128 93
129 146 128
159 174 166
177 190 194
194 204 210
181 193 197
187 197 205
199 209 218
196 208 217
192 203 211
201 211 219
195 204 210
191 202 208
137 155 138
91 118 70
91 118 70
92 119 71
92 119 71
95 122 73
87 113 67
88 115 69
88 114 68
89 115 68
87 113 67
92 119 71
91 118 71
89 115 69
89 116 69
88 115 69
89 115 68
92 119 71
90 116 69
91 117 70
88 115 69
92 119 70
90 117 69
89 115 69
84 110 64
164 178 174
194 204 209
169 183 184
164 179 173
145 161 149
108 130 97
92 119 71
89 115 68
89 116 69
89 115 69
91 118 71
95 122 73
92 119 71
93 120 72
91 118 70
90 117 70
86 112 66
87 114 68
93 120 71
87 114 68
87 113 67
93 120 72
87 114 68
95 122 73
93 120 72
113 135 108
186 197 203
193 203 210
196 207 216
191 203 209
188 198 204
192 203 212
197 208 217
199 208 215
195 206 215
197 207 216
194 205 212
186 197 204
202 213 222
200 209 216
195 206 213
189 200 208
200 211 219
191 201 206
195 206 214
190 201 206
190 201 209
197 208 217
192 202 208
186 197 204
183 195 203
151 167 158
91 117 70
91 118 70
91 118 71
86 113 67
88 115 68
90 118 71
94 121 72
87 113 67
93 120 73
98 124 78
99 121 91
126 144 124
142 159 148
160 174 169
166 180 179
179 192 196
194 205 212
193 203 208
199 209 219
195 205 212
199 210 219
194 205 213
196 206 215
206 216 227
190 201 205
93 120 72
87 114 68
89 115 68
90 116 69
84 110 64
91 118 70
93 120 72
89 115 68
93 120 72
90 117 69
94 121 72
88 114 68
94 121 73
88 114 68
87 114 68
91 117 70
93 120 72
93 120 72
89 115 69
94 121 72
86 113 67
87 114 68
89 115 68
90 116 69
99 126 86
184 196 201
189 201 208
190 201 208
185 197 204
198 209 218
192 203 210
189 200 207
196 206 214
187 200 208
203 213 223
186 198 206
202 212 222
198 207 214
196 207 214
183 195 202
190 202 208
201 211 219
189 200 206
192 204 214
190 201 210
193 203 211
199 209 219
188 200 206
191 201 206
171 183 183
87 114 68
89 115 69
86 111 66
90 116 69
91 119 71
90 117 69
89 115 68
91 118 71
87 114 67
92 119 72
91 118 70
86 113 67
88 115 69
90 117 69
91 117 70
94 122 73
86 113 68
91 118 71
91 118 71
92 120 72
87 114 67
88 115 69
87 114 68
156 170 163
186 198 202
190 202 209
196 206 216
196 207 213
194 204 213
188 200 208
196 206 214
199 210 219
197 207 217
191 202 208
199 210 219
193 203 209
191 202 209
192 203 211
191 202 207
197 208 215
188 199 204
187 198 205
195 206 214
186 199 207
189 199 204
176 189 194
143 160 148
91 118 71
92 120 72
90 116 68
90 117 70
91 117 70
89 115 68
89 115 69
92 119 71
91 118 70
87 114 67
94 121 72
92 119 71
93 119 70
88 115 68
86 112 66
90 117 69
90 117 69
88 114 68
90 116 69
92 119 71
93 119 73
178 190 189
192 203 209
195 206 213
193 204 213
189 201 209
190 201 209
196 206 213
192 203 210
185 197 204
201 212 221
191 203 211
192 204 212
196 207 215
191 202 209
180 191 197
195 206 216
186 197 203
188 200 206
192 203 210
194 204 211
181 193 196
104 128 93
96 123 75
90 117 70
87 114 67
92 119 71
89 115 68
89 116 69
89 115 68
86 113 67
90 117 70
93 119 71
94 121 72
89 116 70
88 115 68
91 118 70
91 118 70
88 114 69
89 116 69
90 115 73
179 192 194
190 201 208
200 210 219
193 204 212
183 196 204
193 204 213
192 204 211
171 186 190
166 181 179
153 167 161
139 157 142
120 141 116
91 116 72
92 118 70
91 117 70
93 120 72
91 118 70
114 136 110
181 193 195
193 205 214
196 206 214
194 204 210
183 196 201
189 200 206
181 193 197
183 195 199
181 193 196
172 185 189
170 183 181
152 167 161
158 173 167
149 165 156
153 168 159
158 173 167
178 190 191
174 186 184
175 188 186
168 181 180
182 193 198
193 203 209
189 201 209
184 196 202
190 200 206
186 198 205
181 193 199
182 194 197
160 174 170
141 157 144
158 173 166
184 195 200
185 197 203
191 201 208
190 201 208
183 195 200
191 201 206
183 195 201
191 202 210
184 195 201
183 195 201
188 199 205
194 205 212
194 205 214
182 193 196
143 160 148
107 130 99
90 117 69
85 111 65
87 113 67
92 120 71
91 118 71
168 181 179
193 204 211
186 197 203
190 201 208
190 201 207
190 202 210
188 199 205
186 199 206
193 205 213
174 188 189
160 174 168
122 142 119
92 119 74
91 117 70
88 115 68
91 117 72
103 126 91
111 134 102
118 140 108
123 142 118
122 141 121
115 136 109
140 157 145
161 174 171
145 162 151
141 158 146
137 154 140
143 161 147
132 149 135
132 149 134
130 149 128
120 140 113
140 157 144
172 184 185
187 198 205
188 199 204
190 201 210
200 210 220
185 195 201
188 199 206
194 204 210
192 203 209
185 198 205
191 202 208
194 205 211
177 190 192
89 115 68
89 116 69
92 119 71
91 117 70
89 116 69
88 115 68
88 114 68
91 117 70
88 114 68
88 114 67
93 120 71
89 115 69
92 119 71
91 118 71
93 120 72
117 136 111
143 159 146
166 180 181
199 209 219
185 196 201
193 204 213
196 208 219
191 202 210
195 206 215
125 143 121
89 115 68
95 122 73
90 117 70
90 117 70
92 119 71
88 114 68
88 114 68
92 119 71
88 114 67
93 119 71
86 112 67
87 114 68
93 120 72
95 123 74
92 118 70
89 115 68
87 114 68
91 118 70
89 115 68
92 119 71
91 118 71
93 120 72
88 115 69
90 116 70
174 187 187
194 205 212
183 194 199
189 200 206
187 197 202
183 196 203
181 192 196
172 186 185
147 163 151
122 141 119
90 117 73
90 116 69
89 115 68
93 120 72
88 113 67
89 116 69
94 121 73
92 120 72
95 122 74
90 117 70
88 115 69
90 116 69
86 112 66
93 120 71
88 115 69
146 163 151
187 198 204
188 199 206
197 208 216
185 197 206
194 205 211
189 201 207
185 197 203
188 199 205
191 201 208
191 202 212
189 201 209
184 196 202
193 204 212
187 199 206
197 208 218
197 208 215
185 196 204
186 198 206
184 196 201
196 208 217
195 206 216
199 209 219
191 201 206
187 198 206
184 195 201
106 129 93
92 119 71
92 119 71
89 115 69
90 117 70
89 115 68
94 121 72
89 116 69
92 119 71
89 116 68
87 114 68
91 118 70
89 115 68
95 123 74
88 114 68
88 114 67
92 119 72
98 124 80
108 131 94
130 148 128
143 158 145
151 165 158
173 185 183
179 192 194
196 206 214
134 152 134
92 119 71
91 117 70
86 113 67
90 117 69
88 114 68
90 116 69
93 120 73
91 117 70
90 116 69
89 115 69
89 116 69
86 112 66
91 118 70
88 114 67
88 115 69
90 116 69
92 119 71
90 117 70
87 114 68
93 121 73
93 120 72
90 116 69
90 117 69
89 116 68
148 164 153
195 206 213
188 199 206
191 202 209
192 204 212
184 195 202
180 192 197
189 200 207
185 197 202
196 206 214
191 202 208
194 206 214
204 214 224
190 202 208
185 197 203
192 202 204
188 199 206
194 205 213
193 204 212
185 197 202
187 197 205
190 202 209
195 206 214
184 196 202
186 197 202
103 126 93
93 120 72
94 121 73
91 119 71
89 116 70
92 120 72
92 118 70
91 118 70
90 117 70
91 118 71
91 118 70
92 119 71
89 115 68
92 118 71
88 115 68
91 118 70
91 118 70
92 119 71
87 113 68
92 119 72
93 120 72
89 115 68
89 116 68
125 145 122
185 196 202
188 199 206
196 206 213
199 210 219
192 202 209
194 205 213
198 208 216
192 203 210
190 201 207
185 197 203
198 208 217
188 200 206
190 201 208
189 201 208
194 205 212
198 208 219
198 209 220
186 197 202
198 208 216
190 202 211
196 206 213
194 205 213
156 171 163
94 121 73
88 114 68
87 113 67
85 111 66
88 114 68
94 122 74
90 117 70
90 116 69
94 121 73
88 114 68
92 119 71
87 114 68
91 117 70
90 116 70
90 117 70
89 116 69
90 117 70
91 117 70
88 115 69
95 122 73
89 115 67
151 167 158
197 208 220
192 203 211
186 197 203
192 202 210
195 205 212
190 201 206
198 208 215
181 192 197
192 203 211
192 204 212
198 208 217
196 207 215
187 200 207
183 195 201
187 199 206
195 206 215
189 200 208
195 206 214
198 208 215
183 195 199
114 135 106
85 111 66
88 114 67
92 119 71
89 116 69
86 113 67
88 114 68
90 117 70
93 120 71
93 120 72
91 119 72
93 120 72
93 120 71
90 117 70
90 116 70
89 116 69
88 115 69
90 117 69
100 125 84
162 176 175
179 190 192
173 186 185
156 170 164
149 165 156
134 153 138
121 140 118
116 138 113
120 140 119
128 146 127
145 161 149
135 151 136
129 148 130
165 179 176
154 170 162
145 161 149
153 169 164
153 168 160
118 138 116
116 137 114
109 132 99
103 126 92
108 131 96
87 113 66
90 116 69
87 114 68
93 120 72
86 112 66
88 115 68
92 119 71
91 118 71
89 116 70
93 119 71
106 128 100
183 193 196
189 201 209
189 200 209
186 198 204
196 206 214
189 201 207
195 205 210
196 208 217
189 200 204
175 188 190
150 166 159
110 132 101
93 120 72
90 116 72
171 185 185
186 198 205
189 199 205
182 194 201
188 199 204
197 208 216
176 187 192
191 202 208
192 203 212
188 199 207
194 205 213
188 200 208
188 199 206
177 190 194
185 197 204
192 204 212
177 189 193
191 202 210
171 185 186
140 157 143
99 121 91
86 111 66
88 115 69
147 163 152
187 197 201
183 195 199
186 197 203
193 203 210
191 201 209
194 205 214
180 192 196
185 198 203
186 198 206
184 195 200
189 200 205
187 199 204
141 159 148
106 128 99
89 116 69
90 116 69
90 116 69
89 115 68
91 118 70
91 118 71
90 117 71
140 157 143
191 202 208
185 196 202
188 199 206
184 197 204
191 201 206
188 198 203
187 199 205
179 191 196
190 202 209
189 200 206
190 201 208
188 199 205
171 184 184
138 155 139
106 129 95
100 123 85
105 128 93
102 126 91
106 129 101
123 142 120
135 153 137
127 146 125
143 160 146
154 170 164
159 174 167
150 165 158
145 161 151
139 156 142
138 156 144
130 149 133
134 151 137
126 144 125
131 150 133
118 138 111
114 134 108
109 131 98
105 127 96
96 120 79
103 126 91
90 117 70
90 117 69
98 122 85
117 138 114
150 167 160
178 191 199
200 211 220
190 201 208
100 124 88
91 118 71
90 116 69
89 115 68
87 114 68
91 117 70
87 114 68
89 115 69
89 116 69
91 117 70
86 113 67
88 114 68
91 117 70
93 121 72
91 118 70
92 119 71
88 114 68
92 118 71
88 115 68
88 114 67
93 120 72
90 117 70
94 121 72
92 119 72
89 115 69
189 200 206
188 199 206
177 190 193
192 203 210
191 202 211
191 201 206
193 203 209
194 206 214
196 207 216
197 207 215
190 201 207
166 179 176
154 170 160
137 154 140
94 120 81
90 117 70
88 115 69
86 113 67
89 116 69
89 116 69
89 116 69
90 117 70
91 118 70
92 119 72
89 115 69
173 186 185
188 199 205
188 199 205
194 204 211
186 198 203
191 202 210
182 194 198
188 200 208
188 199 207
198 209 218
193 205 212
189 201 210
197 208 216
193 205 215
190 200 207
188 199 205
190 201 210
194 205 214
186 197 204
193 204 211
197 208 217
192 203 210
197 208 217
196 207 215
188 199 206
172 185 186
94 121 72
92 119 71
96 123 73
89 116 69
89 115 68
89 116 70
90 117 69
89 116 69
90 117 70
90 117 70
91 118 70
90 117 69
88 115 68
93 120 71
90 116 69
90 116 69
90 117 70
86 113 66
92 120 72
91 119 71
90 117 70
91 117 70
90 117 69
90 117 69
93 117 77
185 197 202
170 182 179
155 170 161
158 174 165
131 149 131
113 134 106
113 134 108
94 119 79
85 111 66
93 121 73
93 119 71
88 114 68
89 116 69
87 113 67
94 121 73
88 114 67
91 118 71
90 116 69
91 118 70
92 119 72
93 120 72
92 119 71
93 120 72
86 113 67
95 120 77
178 189 191
191 202 210
193 203 210
194 206 214
193 204 212
184 196 204
192 203 212
192 203 210
183 194 198
187 198 204
189 201 208
190 202 211
190 201 210
187 200 208
188 199 206
188 200 208
183 195 200
191 202 209
190 201 210
188 198 204
191 203 210
182 193 198
189 199 204
190 202 209
146 161 152
91 118 70
91 117 70
91 118 70
88 114 68
91 119 71
87 113 68
90 117 69
89 115 69
88 114 68
88 114 68
91 118 70
89 115 68
89 116 68
91 118 71
89 115 69
90 117 70
94 121 72
87 114 68
91 117 70
89 116 69
88 115 68
87 114 68
99 123 83
180 192 197
190 200 206
183 195 200
188 199 205
188 200 208
192 203 208
191 203 212
183 196 203
193 204 211
197 206 213
183 194 200
189 201 211
182 194 201
183 195 199
193 205 214
194 205 212
197 207 215
182 194 200
192 202 210
188 200 206
195 206 214
188 200 207
186 198 204
89 114 73
90 116 70
92 119 71
86 112 66
94 122 73
87 114 68
86 113 67
90 117 71
87 114 67
94 121 73
88 115 68
94 121 73
88 114 68
86 112 67
89 115 68
88 114 67
88 114 68
94 121 72
88 115 68
88 115 69
92 119 71
137 154 140
188 199 205
188 199 205
191 202 208
198 209 217
193 203 210
193 203 210
188 199 206
192 203 209
181 193 198
190 202 208
189 200 208
186 198 204
193 204 211
187 199 207
186 198 203
191 202 208
185 197 200
187 197 203
176 189 190
174 187 190
127 145 128
114 136 107
130 149 128
129 147 129
142 158 146
138 155 142
137 155 140
140 156 144
150 165 158
140 157 144
168 182 178
156 171 165
149 166 157
166 180 176
141 158 148
142 159 146
127 145 128
127 146 126
107 128 102
169 183 183
184 196 202
195 205 211
193 204 211
187 198 205
192 203 212
193 203 211
192 204 213
190 202 209
190 201 207
185 198 208
179 191 196
196 207 216
188 200 206
179 190 195
198 209 220
186 197 205
163 176 177
100 124 87
92 119 71
86 112 66
89 116 68
88 114 67
91 118 71
90 117 70
88 114 68
93 119 71
90 117 70
91 117 70
85 111 65
90 118 71
87 114 68
85 111 66
134 154 137
187 198 203
197 207 214
190 201 210
192 203 210
185 197 205
184 195 199
145 161 151
136 154 140
109 131 98
85 111 65
84 110 65
88 115 68
92 119 71
117 137 115
181 193 197
192 203 212
191 202 210
196 206 213
193 204 212
192 203 211
186 199 206
190 201 208
109 131 102
146 163 157
179 191 194
190 200 205
186 197 205
196 206 212
183 195 202
193 204 211
185 195 201
189 200 208
175 187 191
176 189 192
183 194 202
191 201 205
175 188 188
130 148 127
116 137 114
190 202 211
190 201 209
190 201 208
191 203 210
197 208 216
201 210 217
188 200 207
198 208 215
196 207 216
191 202 209
192 204 213
188 200 208
191 203 211
193 204 214
182 195 200
148 164 155
111 133 107
87 113 68
90 117 70
87 115 69
87 114 68
145 162 150
183 195 199
186 197 202
189 200 206
191 202 210
185 196 199
194 205 213
195 206 214
187 198 205
194 204 213
194 204 211
190 201 207
193 203 208
188 199 205
194 205 214
184 196 201
176 189 192
147 163 153
114 134 110
90 116 68
85 111 65
89 116 69
91 119 71
128 147 127
180 192 196
188 200 208
202 212 222
191 202 208
200 210 218
182 194 199
192 203 209
194 204 212
184 195 200
194 205 211
192 203 211
197 208 216
189 200 208
194 205 212
196 207 215
195 206 214
197 207 216
187 199 205
195 205 212
184 196 201
177 190 194
190 201 209
179 191 196
170 182 180
142 160 150
168 182 180
169 183 180
175 188 191
170 182 182
152 167 163
162 176 174
166 180 179
141 157 144
153 168 157
166 180 175
133 153 136
148 163 155
154 169 163
149 163 154
145 159 148
132 151 132
132 150 133
139 156 142
132 150 130
125 144 121
123 141 123
117 136 111
103 126 94
133 151 132
187 198 206
184 195 198
174 187 190
195 205 212
186 197 201
187 198 204
184 195 200
195 206 215
189 200 206
187 199 207
187 199 208
187 199 206
191 201 207
196 207 215
194 204 212
188 199 206
166 180 178
155 170 163
123 143 118
94 121 76
88 114 68
91 117 70
92 118 71
87 113 68
90 117 69
178 191 197
188 200 209
197 207 214
186 198 203
194 205 213
189 200 208
194 205 214
195 206 216
181 193 199
192 203 208
191 202 208
192 203 213
197 207 214
193 204 213
187 199 205
190 201 209
188 200 208
188 199 206
190 201 206
190 201 209
190 202 210
194 204 211
193 204 212
195 206 213
192 203 209
141 158 148
91 117 70
90 117 70
91 118 71
88 114 68
92 118 71
87 114 68
85 111 65
87 114 68
90 116 69
91 118 70
84 111 66
86 113 67
87 114 67
94 121 73
85 111 67
89 115 68
85 111 65
83 109 65
88 114 68
88 115 69
91 118 70
85 111 66
86 112 66
89 116 69
132 149 135
189 201 206
187 198 205
195 206 213
192 203 209
193 203 210
193 204 212
191 202 209
188 200 207
188 200 206
170 183 182
167 181 177
152 167 159
140 158 146
127 146 124
116 137 111
107 130 98
92 119 70
88 114 68
91 117 70
86 113 67
92 119 71
92 119 71
88 115 68
92 119 72
160 173 168
190 201 209
189 200 208
200 211 221
188 200 208
198 209 220
193 204 213
199 209 218
186 197 203
185 196 201
191 203 210
195 206 215
192 204 211
196 205 212
192 203 210
195 206 213
189 201 207
183 194 198
187 199 204
197 207 215
190 201 209
185 196 202
191 202 209
188 200 208
173 185 187
89 115 68
91 118 70
85 111 66
90 116 69
91 117 70
87 113 67
89 116 69
90 117 70
87 114 69
87 114 68
88 114 68
89 115 68
90 117 69
91 119 71
91 117 70
90 117 70
91 117 70
91 118 70
90 116 69
89 116 69
91 118 70
85 111 66
87 114 69
148 165 155
187 199 205
192 204 211
192 203 210
197 207 214
198 208 217
194 205 212
183 194 199
191 202 211
189 201 209
193 203 209
193 204 212
176 190 196
184 197 204
191 202 211
196 206 214
182 194 201
186 197 203
195 206 213
192 203 211
185 196 202
188 200 207
192 203 210
122 141 115
100 123 86
97 122 83
112 134 103
116 137 111
112 135 104
114 134 110
124 144 121
111 133 104
120 140 116
111 133 102
120 140 115
128 147 126
120 141 116
135 153 137
147 163 156
136 155 139
140 157 141
147 163 155
147 163 151
145 161 150
131 148 133
138 155 141
153 168 159
143 160 146
150 165 157
132 151 133
132 151 132
122 142 119
129 148 130
125 145 122
120 140 116
105 129 93
96 122 86
101 125 89
101 125 89
96 122 78
90 116 72
86 112 66
89 116 70
86 112 67
93 119 76
172 185 185
187 198 206
207 216 225
194 205 212
188 200 206
192 203 211
185 197 203
174 186 188
156 170 161
148 165 157
149 164 159
127 147 128
119 139 118
94 118 80
87 114 68
86 112 66
89 116 69
88 114 68
100 123 85
169 182 180
185 197 203
182 193 197
199 209 216
189 200 206
185 197 203
188 200 208
184 195 199
192 203 211
189 200 207
193 204 210
183 195 201
190 201 208
191 201 206
196 207 215
184 196 203
189 200 205
182 193 195
100 125 87
86 112 67
89 115 68
88 115 69
88 114 68
93 120 72
85 111 66
95 122 73
89 115 68
88 115 68
89 116 70
91 118 72
92 119 71
92 118 71
92 119 72
135 153 139
194 203 210
188 199 206
167 180 178
149 164 157
132 151 136
96 120 84
88 114 68
85 112 67
88 115 68
86 113 67
90 117 70
92 119 72
88 115 68
149 164 154
192 203 211
187 198 204
191 202 209
194 205 213
198 209 218
197 207 218
187 197 201
191 203 213
191 202 207
89 115 68
91 118 70
85 112 67
117 137 114
160 174 169
184 195 200
189 201 208
187 199 206
183 194 200
181 192 197
176 188 193
192 203 210
188 200 209
196 207 215
192 203 211
183 195 201
183 195 201
149 164 154
169 182 181
190 202 211
197 208 216
192 203 211
190 201 208
186 197 203
187 198 206
186 199 206
198 208 216
181 193 197
185 197 202
190 201 208
189 200 208
188 200 206
190 201 207
188 199 205
173 185 186
139 156 144
108 129 99
83 109 64
118 138 116
191 202 205
201 211 222
187 198 207
184 196 204
187 197 202
193 203 210
182 194 201
183 196 203
186 197 203
192 202 208
199 209 219
189 201 208
194 205 214
190 201 208
185 196 202
189 200 207
192 202 209
193 205 213
173 186 186
135 153 141
126 145 125
87 113 68
122 143 120
190 201 206
179 191 195
194 204 211
182 195 202
194 204 211
193 203 210
191 202 211
193 204 212
195 205 211
187 199 205
188 199 205
182 194 198
178 190 194
192 204 212
186 198 205
190 202 209
187 197 204
195 206 214
193 203 211
191 202 208
196 207 214
193 204 212
197 208 217
179 191 194
88 114 67
85 110 65
126 145 124
145 161 149
165 179 180
178 190 192
191 202 207
188 199 206
187 199 206
181 193 198
189 200 205
186 198 204
191 202 209
191 202 209
193 203 211
186 197 200
193 204 209
194 204 210
192 204 211
192 203 209
193 203 212
184 196 202
181 193 198
175 187 191
155 170 165
88 114 68
87 114 67
85 111 66
88 114 68
91 118 70
91 118 70
90 116 69
92 119 71
92 118 70
91 117 72
96 121 82
104 128 93
103 126 94
95 120 79
99 122 87
117 138 109
111 133 103
104 127 94
109 131 100
119 139 115
102 127 88
103 125 95
128 147 126
153 168 161
153 169 161
130 148 130
140 157 142
134 153 136
134 152 134
138 156 141
136 152 138
131 148 130
144 160 147
140 158 146
140 158 144
143 160 149
140 156 145
153 168 164
158 173 167
142 158 147
143 160 151
145 161 151
149 165 156
158 172 165
147 162 153
156 171 163
155 170 167
155 169 164
139 156 142
162 175 172
156 170 163
148 164 151
147 164 154
134 152 138
143 159 147
138 155 140
141 158 145
132 152 135
144 160 147
133 152 133
130 148 128
122 142 122
128 145 129
131 149 131
122 140 121
122 142 120
127 147 127
136 152 141
129 148 127
117 136 113
123 142 122
123 144 119
128 147 126
127 144 126
130 149 130
161 176 171
168 183 184
168 182 184
168 181 181
164 177 176
167 181 180
168 181 179
169 183 184
178 190 192
166 179 178
179 191 194
171 184 183
156 171 167
169 182 183
181 193 198
173 186 185
172 185 188
174 186 186
162 177 174
150 165 158
129 148 126
124 144 122
108 131 98
103 127 92
106 130 98
174 188 189
177 189 190
173 186 188
173 187 188
171 183 183
177 188 188
182 194 198
167 180 177
179 192 194
175 188 188
174 187 187
170 184 185
164 177 175
160 174 171
167 180 179
165 177 176
163 177 173
171 185 182
167 180 177
159 173 171
156 169 167
158 172 170
164 178 172
149 165 158
164 177 174
132 150 134
139 156 145
136 154 139
128 148 127
144 162 147
132 149 135
142 158 148
136 153 139
141 157 147
154 169 161
143 160 150
143 160 151
153 169 162
132 151 134
150 165 154
158 173 167
158 173 166
158 172 164
165 179 177
162 175 170
158 172 166
162 176 174
145 161 148
131 150 131
135 153 139
135 152 135
126 146 126
116 137 110
127 146 126
122 143 117
129 148 130
115 136 111
123 144 120
129 148 127
114 136 107
113 133 107
112 133 106
116 137 110
109 130 99
97 121 82
96 121 80
93 119 73
93 119 74
89 116 69
87 113 67
153 168 159
200 211 220
194 205 213
189 201 209
190 201 208
189 201 208
189 199 204
193 203 209
183 195 201
193 203 210
192 203 211
200 210 219
187 198 203
192 203 209
187 199 207
185 196 200
188 199 206
191 203 213
185 196 202
190 201 206
194 205 214
178 191 196
108 131 96
85 112 66
89 115 68
96 123 74
89 116 69
87 115 69
87 114 68
87 114 68
87 113 67
86 113 67
91 118 70
90 117 69
94 121 73
89 115 69
90 117 70
88 115 69
91 117 70
103 127 92
113 135 107
134 152 137
140 157 144
149 164 154
137 154 139
125 144 123
117 137 114
99 124 85
91 117 73
86 112 66
89 115 68
87 113 67
89 116 70
89 116 69
90 116 69
92 119 71
84 110 65
88 115 68
89 116 69
86 112 66
100 126 85
175 187 187
189 201 207
196 207 215
190 200 206
185 197 202
192 202 207
190 200 207
188 198 205
195 206 215
189 201 208
188 199 205
189 201 210
201 211 218
191 202 208
186 198 204
195 206 213
185 196 202
161 176 172
89 115 71
87 114 67
91 117 70
86 113 67
87 113 68
92 119 71
94 121 72
88 115 69
85 111 66
87 114 67
90 117 70
89 115 69
84 110 65
92 118 71
98 122 85
122 141 119
149 164 156
120 141 118
92 117 75
87 114 68
89 116 69
93 120 72
90 116 69
90 116 69
92 119 71
91 118 71
87 113 67
87 114 67
94 120 76
162 176 173
185 197 203
190 201 207
185 196 200
185 198 207
190 201 207
177 189 193
192 203 210
187 198 203
166 180 177
136 153 138
87 113 67
82 108 63
89 115 68
84 110 65
85 112 67
90 116 69
144 160 148
168 181 181
182 194 200
191 202 210
182 194 197
182 194 200
193 204 211
190 201 209
186 197 201
187 198 205
194 205 214
120 140 120
88 115 68
109 131 98
154 168 160
182 194 199
193 204 212
185 197 203
191 202 210
193 204 211
188 199 205
191 202 207
191 202 208
183 194 199
179 192 198
185 197 203
177 188 190
192 202 209
191 203 211
189 200 208
182 193 200
175 188 190
165 179 175
172 184 186
181 193 199
190 201 207
192 202 209
186 197 204
192 202 210
182 194 201
192 204 213
172 185 190
193 203 211
193 205 215
189 200 207
191 201 206
188 199 205
193 204 213
187 198 206
187 199 207
201 212 221
186 198 206
185 196 204
203 213 221
188 200 208
159 172 168
167 181 182
184 196 202
194 206 216
190 200 206
184 196 202
187 199 205
192 203 209
192 202 207
179 192 197
192 204 212
188 200 206
193 203 211
191 202 210
181 192 196
183 196 203
187 198 204
189 200 206
181 194 197
193 205 213
180 191 195
187 199 205
182 194 201
192 203 211
181 194 195
87 115 69
90 116 69
86 111 66
87 113 66
86 113 67
90 115 74
133 151 133
142 159 149
169 183 181
183 195 200
184 195 201
181 194 202
197 208 216
194 205 212
189 200 207
187 200 205
192 203 210
182 193 198
190 202 207
193 204 212
183 195 200
184 196 200
192 202 208
187 199 206
152 168 158
90 116 69
91 118 70
88 114 68
92 119 71
86 112 66
90 117 69
90 116 69
89 116 69
91 118 71
92 119 72
90 117 69
89 116 69
89 116 68
92 119 71
89 116 69
90 116 69
87 114 67
91 117 70
92 118 71
89 116 69
93 120 72
88 114 68
85 111 66
92 119 72
146 162 151
178 190 193
154 169 163
138 156 140
107 129 98
104 126 94
86 112 67
93 119 71
91 117 70
87 113 67
85 112 66
89 116 69
89 116 70
91 118 71
92 119 72
92 119 71
88 115 68
89 115 68
92 120 72
91 118 70
85 112 66
87 114 68
91 117 70
94 121 72
90 117 70
123 141 120
193 203 210
190 201 207
191 202 208
190 202 209
197 207 215
189 200 206
191 202 210
178 191 196
193 203 210
186 198 205
191 202 209
186 198 202
184 196 203
188 198 202
192 204 213
192 203 210
184 195 201
184 195 200
177 189 192
197 208 218
199 209 218
192 204 211
189 200 208
193 204 211
167 180 179
90 116 69
88 115 69
92 120 72
88 114 68
87 113 67
90 117 70
87 114 68
88 114 68
92 118 71
93 120 71
90 117 70
92 119 72
90 117 70
90 117 69
91 118 71
91 117 70
95 122 73
91 118 71
87 114 68
91 118 70
89 115 69
85 111 66
90 116 70
88 115 69
150 166 157
199 210 220
187 198 202
188 200 208
182 195 202
184 196 201
174 187 190
158 173 168
149 165 155
146 162 153
151 166 158
133 151 134
120 141 117
112 135 108
113 135 106
98 123 83
91 117 72
91 117 70
89 115 68
92 119 71
88 115 68
87 114 68
93 120 72
89 116 69
128 147 129
190 202 209
182 194 199
192 203 209
185 197 204
189 200 206
186 197 202
191 202 208
184 196 204
190 201 207
193 204 212
189 200 206
181 194 201
196 206 212
181 193 199
185 197 202
192 202 208
193 204 213
194 205 213
187 198 206
190 202 209
186 198 203
189 199 206
181 193 197
100 124 86
87 113 67
87 112 66
87 113 66
93 121 73
90 116 69
89 116 69
91 117 69
87 113 67
85 112 66
85 112 66
89 115 69
93 120 71
87 114 68
85 111 65
89 115 69
91 118 70
92 119 71
93 120 71
87 114 67
87 114 68
89 114 68
135 153 137
191 201 208
180 193 199
196 207 216
188 199 205
190 201 207
188 200 209
201 211 220
185 197 204
183 194 201
196 206 216
188 200 206
188 199 206
188 199 206
184 196 200
192 203 211
183 195 198
197 209 218
187 199 206
186 198 207
185 196 200
185 196 201
99 121 89
88 115 68
90 116 70
86 112 66
88 114 68
92 118 73
107 129 97
131 149 131
131 148 132
120 140 116
153 169 159
153 169 159
166 179 177
173 186 188
162 176 172
167 181 180
188 200 206
181 193 198
196 207 215
182 194 198
134 153 139
85 112 66
88 115 68
90 117 71
87 114 68
87 113 67
87 113 67
89 115 69
85 111 65
90 117 70
91 117 70
90 117 69
88 115 69
92 118 70
94 121 72
92 119 71
86 113 67
88 114 69
95 121 79
162 175 174
186 197 201
185 196 202
186 197 202
183 195 202
185 196 202
187 199 206
182 193 197
188 199 205
187 199 206
178 189 194
177 189 194
190 201 207
200 210 219
183 194 201
185 197 202
195 205 212
154 169 162
95 120 77
93 120 72
88 114 67
86 112 67
90 116 70
90 116 69
92 119 71
86 112 66
87 113 67
86 112 67
97 123 79
123 143 118
139 156 143
163 177 178
175 187 186
131 149 132
89 116 69
90 117 70
91 117 70
87 113 67
89 116 70
88 114 68
86 112 66
89 116 69
89 116 69
87 114 68
87 114 67
87 113 67
110 131 107
175 187 190
181 193 198
192 204 212
184 196 202
197 208 217
186 197 204
162 177 177
148 163 157
116 137 112
92 118 73
91 117 70
117 137 111
94 119 81
89 116 70
87 113 68
85 111 65
84 109 65
86 112 67
88 114 68
91 117 70
111 132 104
138 156 144
168 181 182
191 203 210
188 199 205
181 192 197
190 201 209
188 198 202
188 199 205
136 154 143
86 112 66
88 114 68
84 111 66
89 115 68
104 126 95
150 166 162
182 194 202
196 208 217
168 180 183
185 196 200
182 193 199
191 201 207
181 193 198
181 193 200
199 209 219
177 190 196
187 199 208
194 205 212
192 203 210
189 200 206
184 196 201
88 114 69
120 140 115
155 170 164
183 196 201
182 195 203
194 204 213
195 205 212
185 197 201
192 204 212
182 193 201
190 200 208
198 208 216
187 198 205
187 199 206
179 191 196
185 196 202
195 205 211
185 198 204
192 203 209
186 197 203
193 204 213
189 200 209
172 185 183
86 112 67
87 114 68
112 134 105
147 163 152
174 186 189
184 196 200
189 200 210
186 199 206
196 206 213
188 200 207
193 205 213
180 192 197
197 207 216
185 198 203
192 203 211
197 209 220
191 201 206
187 199 206
185 197 202
182 194 202
188 198 204
181 194 200
186 198 204
157 172 169
88 114 68
93 120 72
84 110 65
89 116 69
90 117 70
89 115 68
85 111 66
88 115 68
90 117 70
97 123 81
121 141 119
151 166 157
169 183 183
189 200 204
187 199 205
195 205 209
186 198 204
198 208 217
185 197 201
185 197 203
193 203 212
199 209 217
190 202 209
192 202 210
129 147 129
83 110 65
89 115 69
87 113 67
88 114 69
93 119 71
88 114 68
87 113 67
92 119 71
87 113 67
92 119 71
88 115 69
89 116 69
90 118 70
88 114 68
90 116 69
89 115 68
82 107 63
85 112 67
88 115 68
87 114 68
91 117 71
86 113 67
89 116 68
89 115 69
168 182 183
179 191 197
195 206 213
188 199 207
190 201 207
186 198 204
162 177 177
170 181 181
146 161 151
132 150 132
101 123 91
91 118 71
89 116 69
85 111 66
91 118 71
89 116 69
83 109 64
82 107 63
92 119 71
90 117 70
89 115 68
89 115 69
88 114 68
88 115 68
89 116 69
174 187 186
198 209 220
186 198 205
182 194 199
194 205 213
186 196 202
189 199 205
181 192 197
187 198 205
179 191 197
192 204 212
189 199 206
187 197 203
190 201 207
191 202 211
191 202 209
185 197 202
191 202 210
184 196 204
190 201 209
187 198 204
186 198 204
185 196 202
193 203 210
173 187 190
128 147 126
89 116 70
87 113 67
87 113 67
88 114 68
88 115 68
90 117 70
88 115 68
90 116 69
88 115 67
91 118 70
90 117 70
90 117 69
91 117 69
93 120 72
86 112 67
90 116 68
88 114 69
85 111 65
86 112 66
85 111 65
86 112 66
86 113 68
91 117 71
104 127 94
183 194 198
193 204 211
190 201 208
183 195 202
190 202 209
191 202 211
188 200 207
188 199 206
194 204 210
185 196 201
187 199 205
188 199 207
187 198 202
190 202 209
192 204 211
183 194 202
189 201 209
188 199 205
182 194 197
167 181 180
166 180 175
174 187 186
154 169 162
152 167 160
134 152 136
151 166 158
151 167 163
157 173 169
159 172 170
174 185 184
184 196 202
180 191 196
177 189 192
190 202 208
193 203 209
188 199 205
190 202 209
199 209 217
178 191 194
185 197 202
187 199 204
188 200 208
192 203 210
193 203 211
185 196 201
191 202 210
186 198 206
159 174 164
90 117 70
85 111 66
88 114 67
88 115 67
88 114 68
89 115 69
89 116 70
91 117 70
91 118 70
81 107 61
90 117 71
93 120 71
92 120 72
87 114 68
89 116 69
88 114 69
90 117 70
93 119 71
92 119 72
91 117 70
91 117 69
113 135 104
181 193 198
197 207 215
189 201 209
189 201 210
196 207 215
192 203 213
187 198 205
183 195 202
184 196 203
184 197 202
186 198 204
188 199 204
184 196 199
176 188 187
161 176 174
156 173 169
155 169 166
159 173 168
150 167 157
140 157 144
137 155 143
173 186 185
163 177 175
170 183 182
175 188 189
183 193 198
182 194 199
186 197 203
191 202 211
197 208 217
185 196 204
192 203 210
194 204 210
183 195 200
190 202 211
189 201 207
196 207 217
191 202 209
189 201 208
184 196 201
191 203 211
141 158 146
90 117 70
90 117 70
91 118 70
87 114 68
87 113 67
85 111 66
89 116 69
87 114 68
85 111 66
91 118 70
86 111 66
89 116 69
86 112 66
90 117 70
87 113 67
85 111 65
90 117 70
94 120 75
151 165 161
192 203 213
182 193 200
191 201 208
192 203 213
185 197 203
188 198 204
177 189 193
186 198 203
187 199 207
178 190 196
184 196 203
184 196 202
188 200 206
186 198 203
194 205 212
187 199 207
147 163 153
90 116 69
89 115 69
86 112 66
89 116 69
91 117 70
91 118 70
86 112 66
120 140 117
143 159 149
168 182 180
172 186 189
177 190 195
183 194 201
188 199 206
177 189 192
106 127 100
88 113 67
84 110 65
87 114 68
88 113 67
89 115 68
87 114 68
90 117 69
83 109 63
86 112 66
85 111 65
90 117 70
89 116 69
130 148 132
185 196 200
188 199 206
189 200 208
173 186 189
155 170 164
135 153 140
106 130 94
88 115 68
87 113 67
90 116 69
98 123 83
144 161 152
189 199 208
178 190 195
151 165 159
108 130 99
91 117 72
90 117 70
84 110 65
91 118 70
89 115 68
84 110 64
87 114 68
82 108 66
129 148 130
156 171 164
174 186 190
188 199 207
191 202 208
192 204 211
158 174 170
85 111 66
84 110 65
89 116 69
86 112 67
91 117 70
90 117 70
92 117 75
125 143 126
164 177 175
168 181 183
187 198 204
196 207 216
191 202 211
192 203 212
189 200 207
194 205 212
186 198 202
187 199 204
181 193 197
188 199 208
177 189 194
89 115 72
88 114 68
92 119 71
85 111 67
109 132 97
145 162 154
168 181 181
188 199 206
184 195 202
190 201 208
183 195 201
188 200 207
177 189 194
187 198 205
191 202 208
183 194 202
185 196 202
193 204 211
193 204 213
183 195 201
189 200 207
184 196 202
169 182 182
86 113 67
92 118 70
91 118 70
87 114 67
86 113 67
107 129 97
128 146 129
155 170 165
193 202 209
190 201 209
187 198 204
187 198 203
191 203 210
178 190 194
181 194 200
190 201 206
186 198 205
189 201 208
193 204 211
194 205 214
188 199 206
188 198 204
177 189 194
158 173 167
84 110 65
91 117 70
91 117 70
92 118 70
88 114 67
84 110 65
86 112 66
85 111 65
93 120 71
86 112 66
85 111 66
89 116 69
88 114 67
92 117 75
130 148 129
136 153 140
161 175 176
183 194 198
195 206 217
193 203 210
195 205 211
200 211 221
194 204 211
178 191 197
103 125 93
85 112 67
86 112 67
87 113 67
89 116 69
88 115 68
90 116 70
88 115 69
88 114 68
88 114 68
91 118 71
90 117 70
89 116 69
89 115 69
87 114 68
85 110 65
86 112 67
86 112 66
85 110 64
97 125 75
84 109 63
89 115 68
87 114 67
90 117 70
111 133 103
185 197 204
187 198 204
183 195 201
181 193 197
190 201 208
196 207 217
187 199 206
187 198 204
179 191 196
186 198 206
187 199 206
191 201 205
169 183 184
153 168 164
132 150 132
118 137 112
92 118 73
92 119 71
88 114 68
90 116 69
89 116 70
88 115 69
92 118 70
92 118 71
103 127 92
178 191 196
189 199 205
185 197 206
194 204 211
176 188 192
190 201 206
196 206 214
187 198 204
185 197 202
190 201 206
190 201 207
190 201 208
187 199 206
183 194 199
189 201 209
184 196 203
183 196 203
190 202 210
197 207 214
189 200 208
186 197 204
190 201 209
182 195 202
188 200 206
175 188 192
87 113 67
87 113 67
87 113 68
89 116 69
93 120 72
89 116 69
89 116 69
90 117 70
92 119 71
88 115 68
83 109 64
91 117 70
87 112 66
85 111 65
95 122 74
92 119 71
87 113 67
88 115 68
87 114 67
88 115 69
86 113 67
90 117 70
92 119 72
87 113 67
170 183 181
193 204 212
185 196 203
187 199 205
206 216 224
188 199 206
185 197 203
199 210 220
186 198 204
193 204 212
187 199 206
192 203 208
192 203 211
186 198 204
192 203 211
198 208 217
191 202 209
196 206 213
194 206 214
194 204 210
191 202 210
184 196 201
193 204 213
188 200 208
130 147 131
90 117 70
91 118 70
86 112 66
91 118 70
87 113 67
91 118 71
89 115 69
88 114 68
91 117 70
86 113 67
90 117 70
87 113 70
94 118 80
105 128 95
96 120 81
112 133 103
112 134 104
106 128 97
117 137 112
127 144 126
121 141 117
135 153 136
167 180 174
162 176 174
172 184 183
163 177 175
156 171 166
161 176 170
149 164 155
160 175 170
158 173 167
155 170 165
158 172 167
163 177 174
153 168 161
157 171 164
161 176 171
159 173 171
155 169 164
163 176 175
166 179 177
171 184 182
170 184 186
165 179 178
162 175 173
120 140 115
108 129 102
118 139 113
106 129 97
111 132 102
107 128 97
96 121 82
95 119 81
93 120 74
88 115 68
92 119 71
87 113 67
87 114 69
86 112 67
89 115 68
88 115 69
90 117 70
85 111 65
89 116 69
84 110 65
90 117 70
159 174 170
194 204 212
187 198 202
184 195 202
176 188 192
194 205 213
188 199 206
188 199 207
194 204 209
193 204 213
181 192 197
192 204 212
186 198 203
187 198 204
190 201 206
186 198 205
175 188 193
186 196 202
185 195 200
186 197 204
144 160 153
90 117 70
92 119 71
91 118 71
90 117 70
86 113 68
85 110 65
90 117 69
88 114 68
89 115 69
87 113 67
88 114 68
88 114 68
87 113 67
88 115 68
88 115 69
90 116 69
90 117 71
102 127 90
174 186 190
194 204 211
186 198 204
198 208 216
190 201 208
189 200 205
193 203 211
185 196 203
181 193 199
180 192 197
197 209 218
187 198 207
196 207 215
183 194 199
186 197 202
182 193 196
173 185 186
132 149 135
86 112 67
89 116 69
94 118 80
122 141 119
141 159 146
148 164 154
182 194 201
181 193 196
189 201 207
194 205 213
183 194 200
189 200 208
183 194 199
191 202 209
172 185 185
103 126 92
88 115 69
88 114 68
89 115 68
84 110 65
90 116 70
83 108 63
89 115 69
87 114 69
91 118 71
86 112 66
88 114 68
88 114 70
160 173 170
191 201 208
163 175 175
139 156 145
121 140 117
87 114 68
88 115 69
89 116 70
90 117 70
92 119 71
88 115 68
115 134 110
183 194 198
185 196 203
189 200 207
188 201 209
190 201 208
177 190 195
176 188 189
136 153 142
92 118 78
86 112 67
85 111 65
83 109 64
88 114 68
89 116 70
85 112 66
84 110 66
96 122 81
125 144 124
151 167 161
185 196 203
180 193 198
95 120 79
85 111 66
89 115 69
88 114 68
89 116 69
89 115 68
87 113 67
86 112 66
86 112 66
92 118 74
116 137 112
156 170 161
181 193 197
188 199 203
189 201 209
191 203 211
190 202 208
179 190 193
181 193 199
186 197 204
187 198 204
110 133 103
88 114 68
85 111 66
91 118 70
90 116 69
89 116 70
88 115 68
92 115 80
140 156 144
165 178 179
186 198 207
189 200 205
191 202 211
188 200 207
189 200 207
181 193 197
186 198 203
186 200 209
180 193 196
188 200 208
181 192 198
195 205 212
158 172 167
86 112 66
90 117 70
90 117 70
88 115 69
85 111 65
86 112 66
87 114 67
86 112 67
92 118 73
114 134 110
154 168 162
177 189 191
184 196 201
196 207 215
193 204 211
184 196 202
189 201 209
194 205 212
191 202 209
188 199 206
182 193 197
187 199 207
194 205 213
149 164 156
93 120 72
91 118 71
90 117 70
91 118 70
87 113 68
87 113 68
83 109 64
92 118 71
88 113 67
86 113 67
87 113 68
87 114 68
93 121 72
87 113 66
87 114 68
88 115 68
91 118 70
91 117 75
126 145 124
143 159 148
165 178 179
183 194 199
184 195 199
173 187 188
92 119 72
91 118 70
86 113 67
88 114 68
86 112 66
89 116 69
83 109 65
88 115 68
92 119 71
88 114 68
87 113 66
81 107 63
89 115 69
89 116 69
82 109 65
88 114 67
82 107 63
83 109 64
87 113 67
88 114 68
92 119 71
88 114 69
88 115 69
88 115 69
142 158 146
195 206 213
190 201 208
190 201 207
186 197 202
180 193 198
189 200 208
194 204 211
192 202 209
186 198 206
188 199 207
185 197 204
190 201 207
191 202 211
180 192 199
186 198 207
193 205 213
190 200 207
176 189 193
171 184 181
134 151 138
129 148 128
112 132 106
88 114 71
92 120 72
153 167 159
185 198 205
195 206 214
194 206 216
181 193 199
191 203 211
188 199 204
184 197 204
192 203 212
188 199 206
187 199 204
187 197 204
188 200 209
196 206 216
186 198 204
201 211 222
182 193 199
189 200 207
193 204 211
196 206 214
194 206 214
199 209 215
192 202 209
188 198 206
192 203 207
146 162 148
85 111 66
92 119 71
87 114 67
85 112 66
92 118 71
91 118 70
86 112 67
89 116 69
92 119 71
87 113 66
89 115 68
89 116 70
86 112 67
94 121 73
90 117 70
91 117 70
90 117 70
90 117 69
89 115 69
89 115 68
86 112 66
88 115 68
94 121 73
108 131 99
189 200 207
175 188 191
186 199 207
188 201 208
180 193 197
183 195 200
192 202 209
195 205 212
199 209 219
183 195 205
177 190 196
185 197 204
185 196 200
187 199 208
196 207 216
200 210 217
190 203 212
184 195 198
188 200 206
187 198 204
182 194 200
193 204 212
189 201 208
176 187 190
92 119 72
93 120 72
88 114 67
86 111 66
90 117 70
84 110 64
90 118 70
85 111 66
89 115 68
92 120 72
91 118 71
92 119 71
90 117 69
89 116 69
86 112 66
93 120 73
94 121 73
88 114 67
88 115 69
86 112 67
84 110 65
86 113 67
99 124 84
178 190 195
192 203 210
194 205 214
193 205 215
189 201 210
188 200 206
188 199 208
189 198 203
186 197 204
184 196 201
187 198 204
192 203 210
192 203 210
172 185 189
186 198 205
194 205 211
191 202 210
188 199 206
190 202 209
182 193 198
190 201 208
193 203 210
134 152 136
90 116 70
86 112 67
89 115 69
83 110 65
87 113 67
87 113 67
86 113 67
93 121 72
83 110 64
89 115 68
88 115 68
88 114 68
87 113 66
90 117 69
89 116 69
87 113 67
89 115 68
89 115 69
92 119 71
85 111 66
142 157 147
190 201 209
183 196 201
177 190 193
191 203 210
196 207 213
194 205 213
181 192 200
195 205 214
188 200 207
203 213 222
179 191 198
193 204 211
188 199 207
187 198 205
182 193 198
188 199 205
190 202 212
191 203 210
168 180 181
148 165 157
92 119 71
89 115 68
93 119 71
87 114 68
93 120 72
88 115 68
90 116 69
91 118 71
89 116 70
90 117 70
90 116 70
89 116 69
90 116 69
92 119 72
83 109 65
85 111 66
90 116 68
98 122 81
175 187 190
177 189 193
185 196 203
188 200 207
186 198 205
176 189 192
179 191 195
183 195 204
177 189 192
191 203 213
187 198 206
179 192 197
184 195 203
191 202 210
189 201 208
185 196 203
177 190 192
150 166 158
150 165 155
171 184 185
164 178 179
187 198 204
185 197 205
184 195 199
192 203 213
186 198 204
181 192 195
180 192 199
188 199 205
187 199 206
188 199 206
188 199 205
152 167 160
86 112 69
86 112 67
86 112 67
88 115 68
90 116 69
88 114 68
88 115 68
89 115 68
90 117 70
86 112 67
88 114 68
90 115 71
113 134 105
127 146 125
115 136 110
86 112 66
89 115 68
89 115 68
85 111 65
85 111 66
85 111 66
86 111 66
86 113 67
90 114 76
149 166 156
179 191 196
184 195 202
162 176 175
133 151 136
181 193 199
172 183 188
182 194 199
188 199 204
187 198 203
184 196 203
165 178 178
135 153 139
101 123 92
85 112 66
91 117 70
88 114 68
87 113 66
82 108 63
87 113 66
85 111 66
87 114 68
133 150 137
118 139 118
90 115 76
86 112 65
88 114 68
86 112 66
88 115 68
88 115 68
86 112 67
90 117 70
90 117 70
89 116 69
88 115 68
91 116 74
125 143 124
156 171 168
180 192 198
190 202 209
186 197 204
180 192 196
196 207 217
191 203 210
122 142 122
89 116 69
90 116 69
86 112 66
85 111 66
90 117 70
85 111 65
84 110 65
88 115 68
89 116 70
105 128 94
124 142 126
162 176 174
183 196 202
185 198 204
188 200 209
179 192 198
177 189 194
182 195 202
190 202 210
189 200 206
186 197 203
174 186 188
90 117 70
89 115 68
86 112 66
84 110 66
85 112 67
89 115 69
87 113 67
91 117 70
89 115 69
87 114 68
86 112 66
85 111 66
101 122 93
139 156 138
157 171 165
184 195 199
191 202 210
178 190 196
183 195 201
179 190 194
185 196 204
186 197 203
187 197 203
130 149 133
85 111 65
95 122 73
88 114 68
84 111 67
86 111 66
89 116 70
84 110 65
90 116 69
88 115 69
86 113 67
89 116 69
87 113 67
91 118 71
92 119 71
83 110 66
94 121 72
91 117 69
91 118 71
90 116 69
87 113 68
88 115 70
89 116 69
109 131 104
147 163 153
138 155 141
116 136 110
88 115 69
90 117 70
85 111 66
87 113 67
86 113 67
87 113 67
92 119 71
86 113 66
88 115 68
91 118 71
85 111 66
89 116 70
92 119 71
88 114 68
89 116 70
90 117 70
86 111 66
87 113 67
85 111 66
87 114 69
89 116 69
90 116 70
165 179 176
187 199 207
186 197 202
187 199 206
183 194 199
194 204 213
191 202 210
192 203 211
188 200 208
183 195 200
188 199 208
186 197 203
188 198 204
185 197 203
189 201 208
182 194 201
181 193 196
186 197 202
188 199 204
196 206 214
190 201 209
187 198 204
197 207 216
177 190 196
165 178 178
130 147 132
145 162 149
153 168 161
177 190 190
191 203 211
179 191 197
187 198 206
188 199 205
185 196 202
181 192 196
190 201 207
191 202 208
180 192 195
193 204 213
185 197 203
182 194 200
193 204 212
187 198 206
187 199 207
183 194 202
186 198 206
194 205 213
178 191 196
185 197 206
185 196 199
90 115 74
90 117 70
89 117 71
89 115 68
88 115 68
92 119 71
90 116 69
92 119 72
83 109 64
87 113 68
93 120 72
90 117 70
86 113 67
90 116 69
93 120 72
90 117 70
84 110 65
88 115 69
92 119 72
91 118 71
84 111 66
89 116 70
89 115 69
90 117 70
159 173 168
187 198 203
197 208 217
194 205 212
192 203 210
191 202 210
187 198 206
187 198 202
188 200 207
192 204 214
187 198 204
187 198 204
189 200 208
188 199 205
194 206 213
185 197 202
181 193 197
188 200 209
184 196 201
182 193 200
193 203 211
188 199 206
187 198 204
187 198 204
113 133 107
90 116 70
88 115 69
92 119 71
92 119 71
91 118 71
88 114 68
90 116 69
89 116 69
87 114 67
91 118 71
87 113 66
85 111 65
91 118 70
89 115 68
87 113 67
89 115 68
89 116 69
92 119 71
88 114 68
87 113 67
92 119 72
88 114 68
167 181 180
188 199 203
180 193 199
192 203 210
186 197 202
183 196 205
181 193 198
196 206 212
184 197 204
186 198 203
182 195 199
186 197 204
182 193 198
181 193 197
193 204 211
190 201 207
192 203 210
194 205 213
187 199 209
185 196 203
189 200 206
193 204 211
147 164 156
87 114 69
90 117 70
88 114 68
93 121 72
87 113 66
91 118 71
85 112 66
86 112 66
83 109 64
90 116 69
88 114 68
92 119 72
85 111 66
88 115 68
90 117 70
87 114 68
91 118 70
88 115 70
92 119 71
89 115 69
127 146 128
184 196 203
190 201 210
194 204 212
184 196 201
188 200 205
187 198 206
171 184 189
182 193 199
192 204 213
188 200 207
187 198 205
192 204 212
187 199 207
192 203 210
194 204 210
192 203 209
187 198 205
187 198 204
179 192 196
163 177 176
85 111 65
88 115 68
86 112 67
90 117 70
90 116 68
90 117 69
86 112 67
82 107 63
87 114 68
86 113 67
89 115 69
89 116 69
86 112 66
88 114 67
89 116 70
88 114 68
85 111 66
98 122 86
174 187 188
178 190 194
183 194 199
182 194 200
192 202 209
197 208 218
180 191 194
189 201 209
188 198 204
185 197 205
183 195 200
166 180 181
169 182 183
163 176 172
145 162 149
107 129 103
116 136 111
173 186 190
186 197 201
187 198 206
193 204 211
178 190 196
189 200 206
188 199 204
177 189 193
188 199 206
184 195 202
182 193 199
190 201 207
180 191 198
190 202 211
176 189 193
121 141 118
90 116 69
89 115 69
87 114 68
90 117 70
85 110 65
88 115 68
93 119 72
83 108 63
88 114 68
127 145 127
144 160 151
156 171 167
157 172 167
92 116 77
89 115 68
91 118 71
91 118 70
89 116 69
82 108 63
84 110 65
82 108 64
88 115 68
89 116 70
122 140 122
171 183 187
157 171 168
135 152 136
110 132 104
90 116 69
87 114 68
133 149 135
116 135 112
167 180 177
172 185 188
183 195 201
186 197 204
185 197 204
190 201 209
180 192 196
163 177 174
119 139 117
88 115 69
87 114 68
87 113 67
82 108 64
80 106 62
80 106 62
86 112 66
147 163 155
173 187 188
145 162 154
98 120 91
90 116 69
87 113 67
87 113 68
87 113 67
87 113 67
88 114 69
87 113 67
86 112 66
87 113 67
84 110 65
90 116 70
84 109 67
125 143 124
154 169 161
183 195 200
188 200 205
180 193 199
123 141 122
94 121 73
84 110 66
83 110 66
88 114 67
86 112 67
86 112 67
89 116 69
88 114 67
87 113 67
85 112 67
83 108 64
85 111 66
88 113 72
122 142 121
141 157 149
167 181 183
190 201 206
190 201 207
185 196 204
177 190 195
189 200 206
157 171 167
89 116 69
83 109 64
90 116 70
88 114 68
82 108 64
88 115 68
86 112 67
93 121 72
88 115 67
84 110 65
89 115 68
85 112 66
89 116 70
87 113 67
91 117 70
89 115 72
113 136 106
142 159 146
171 185 184
174 187 189
184 197 202
186 197 204
197 207 214
122 139 119
87 113 66
89 115 69
88 114 67
86 112 67
87 113 67
88 115 68
89 116 70
88 114 69
93 120 72
92 119 71
89 116 69
90 117 70
91 118 69
88 115 68
86 112 66
87 113 68
82 108 63
84 110 65
86 111 66
92 118 71
89 117 70
88 114 67
86 112 66
142 158 151
181 193 199
181 192 197
183 195 199
163 177 175
140 155 144
111 132 103
100 123 87
87 114 68
93 120 72
86 112 66
91 118 71
87 114 67
87 114 68
89 116 69
89 116 69
83 109 64
87 114 68
89 115 69
84 110 65
88 115 68
85 112 67
87 114 68
85 111 65
93 119 76
182 194 198
188 199 206
178 190 195
181 194 200
186 198 204
189 200 207
183 194 198
188 199 205
181 193 200
186 198 204
186 197 204
195 206 213
189 201 208
187 198 205
182 194 202
199 209 217
188 199 206
188 199 206
194 206 217
190 202 210
186 197 203
187 198 203
193 204 210
180 192 196
173 185 185
89 115 69
87 113 67
90 116 69
93 120 72
85 112 66
114 133 112
126 145 128
136 153 139
157 171 164
176 188 191
184 195 197
181 193 199
189 201 211
184 196 203
191 202 209
191 203 211
188 200 208
189 199 206
189 200 209
189 200 207
174 187 190
184 196 204
187 199 209
193 204 212
150 166 156
90 117 70
86 113 67
88 115 69
88 115 68
89 116 70
91 118 70
92 119 71
88 115 68
86 112 66
83 109 64
89 116 69
89 115 68
89 115 68
89 115 68
87 113 67
90 116 70
90 116 69
83 108 63
89 115 68
91 118 70
94 121 73
88 114 68
86 112 66
124 144 121
191 202 208
185 197 204
184 196 203
184 196 201
192 204 213
193 203 208
182 194 200
186 198 204
195 205 213
187 198 204
192 204 213
183 196 202
183 195 200
188 199 207
190 200 207
186 196 203
197 207 215
181 193 198
185 196 201
190 200 208
194 204 211
192 202 208
188 199 206
153 167 158
92 119 71
90 117 70
85 112 66
92 119 71
85 111 66
88 114 68
90 117 70
91 118 70
87 112 66
84 110 65
86 112 67
90 117 70
93 120 72
86 112 67
88 114 69
90 116 69
90 116 69
91 117 70
90 116 70
86 113 67
85 111 66
88 115 68
142 158 143
191 202 211
192 203 209
189 200 208
193 204 211
185 196 200
187 199 206
182 195 202
192 203 210
200 210 218
193 205 213
191 201 208
196 206 214
191 201 207
176 189 193
182 194 201
185 197 204
192 203 209
182 193 199
183 195 201
189 200 208
190 202 212
161 174 172
93 119 75
90 117 70
89 115 68
92 118 71
87 114 68
89 115 68
85 111 66
88 115 69
91 118 70
84 110 65
87 113 67
87 114 68
85 111 66
88 114 68
91 118 71
90 116 70
87 114 68
89 115 69
83 109 64
88 115 68
110 132 106
189 200 206
179 191 195
187 198 201
193 203 210
195 206 214
195 206 215
186 198 204
186 197 202
183 195 200
187 199 204
177 189 194
188 200 207
183 195 203
189 200 208
192 204 211
176 188 192
187 198 205
197 208 216
187 198 204
151 166 160
91 117 73
90 116 69
87 113 66
86 111 66
91 119 71
86 112 67
88 115 69
88 115 68
86 113 67
87 113 67
88 114 67
88 115 69
86 112 67
88 115 69
84 110 66
85 111 66
83 110 66
98 122 87
172 185 186
182 194 201
174 187 192
181 193 199
183 195 200
189 200 207
173 186 188
167 180 180
142 158 149
132 150 132
120 140 115
86 113 67
90 116 69
85 111 66
86 113 67
93 120 72
114 135 111
184 195 201
194 205 215
180 193 198
183 195 202
190 201 210
188 200 207
182 195 199
184 196 203
186 198 205
194 205 213
187 199 207
192 202 209
190 201 208
184 196 201
169 181 181
107 130 100
88 115 69
87 113 67
89 116 69
91 118 70
87 114 68
97 122 83
116 138 113
156 171 167
171 184 184
180 191 194
194 205 215
182 194 203
126 144 125
80 106 63
83 108 64
88 114 67
83 109 65
85 111 66
84 111 65
85 110 65
89 116 69
84 110 65
95 118 82
111 132 108
120 140 120
86 112 66
84 110 64
89 116 69
87 113 67
85 111 66
85 111 66
161 174 175
92 116 77
88 114 68
96 120 82
124 143 126
173 186 189
177 189 196
175 188 193
187 198 203
182 195 202
176 189 195
186 197 204
155 169 162
118 138 115
85 111 65
87 114 67
88 114 68
84 110 66
118 139 113
181 192 199
190 201 208
181 193 199
167 181 182
141 158 150
115 136 111
84 110 65
87 113 68
91 117 70
93 121 72
84 110 66
89 116 69
87 114 68
87 113 68
83 109 64
86 112 66
85 111 65
92 117 76
122 141 121
151 167 159
143 159 152
89 115 68
83 109 64
91 118 70
89 116 70
88 114 67
88 114 68
85 111 66
85 111 66
87 113 67
89 115 69
88 115 69
89 116 69
88 115 69
84 110 64
89 115 69
92 119 72
110 130 107
143 159 152
179 190 194
184 197 204
190 201 207
168 181 182
88 115 69
89 116 70
90 117 70
86 112 66
88 114 68
86 112 66
83 109 64
84 110 66
88 114 68
85 111 66
84 110 65
89 116 69
91 118 70
83 108 63
88 114 67
81 106 62
88 114 68
84 110 65
90 117 70
96 122 82
129 148 130
140 155 142
169 182 182
113 135 106
89 116 69
88 114 68
89 115 68
86 112 67
85 111 66
88 115 68
85 111 65
88 116 70
87 113 67
86 113 67
90 117 70
88 114 67
89 115 68
85 111 65
86 112 66
85 112 66
89 115 68
85 111 66
89 116 69
91 118 71
90 116 70
90 117 69
86 113 67
174 187 190
179 192 198
194 205 213
188 200 208
186 198 205
180 191 198
193 204 212
183 195 200
172 185 186
158 172 170
136 154 139
104 124 97
87 114 68
91 118 71
90 117 70
93 119 71
86 112 66
89 115 69
83 109 64
90 116 69
85 110 65
85 111 66
88 115 68
89 116 69
116 137 110
187 199 206
191 202 209
189 201 209
190 201 208
185 197 203
188 200 208
183 195 201
194 205 213
185 197 204
194 205 213
187 198 205
191 202 209
186 198 204
190 201 209
186 197 202
178 191 195
191 202 208
183 194 201
179 190 196
179 191 196
187 199 207
181 193 197
192 203 211
193 204 212
146 162 153
88 114 68
87 114 68
86 113 67
86 112 66
91 118 71
88 114 67
85 112 66
89 115 68
91 118 71
84 110 65
85 111 66
88 114 71
118 140 112
115 135 110
145 161 154
153 168 162
169 181 180
171 184 183
191 202 210
186 197 204
189 200 208
189 199 205
195 205 212
186 198 204
90 115 76
88 115 69
93 120 72
92 118 71
91 118 71
90 116 70
86 112 66
87 114 68
86 112 66
87 113 67
87 113 67
88 114 68
85 111 67
93 120 72
91 118 71
88 114 67
85 111 64
88 114 68
89 115 68
91 118 71
90 116 69
87 113 66
87 113 67
86 113 67
162 176 174
188 200 208
184 195 199
187 198 204
187 198 205
179 191 196
184 196 203
183 195 202
183 195 201
190 201 208
179 192 196
194 205 214
192 204 210
189 200 207
192 203 209
186 199 207
173 187 191
189 200 207
192 203 211
175 188 193
184 195 200
185 197 201
187 199 206
181 194 198
98 123 84
91 118 71
94 121 72
87 113 67
84 109 64
89 115 68
85 111 66
85 112 66
90 117 70
89 116 69
90 117 70
86 112 66
89 116 69
88 115 68
85 112 67
86 111 66
89 116 68
87 113 67
91 117 70
89 116 69
86 112 65
88 115 68
119 140 117
181 194 200
178 191 195
187 200 209
194 204 210
190 200 207
185 196 203
188 199 207
195 206 216
180 193 200
193 204 212
194 205 211
187 198 204
186 198 204
187 199 207
191 204 213
181 194 200
189 201 207
182 193 199
192 203 212
187 197 204
185 197 202
179 191 196
96 120 82
85 112 66
88 114 68
88 114 68
86 112 67
87 113 67
87 113 67
87 113 67
91 117 70
87 113 68
85 111 66
85 111 66
87 113 68
84 110 65
80 106 61
87 113 68
90 117 70
87 114 68
87 113 67
89 115 69
118 138 114
184 196 201
185 196 204
179 192 198
187 198 203
182 193 198
188 200 206
172 185 191
190 201 209
187 198 204
185 197 204
188 199 205
182 195 202
184 196 201
190 202 211
177 190 199
177 189 196
186 198 205
194 205 214
196 205 213
149 164 157
97 122 81
88 114 69
85 111 66
84 110 65
84 110 66
88 114 67
88 115 68
87 114 68
85 111 66
87 114 68
87 114 68
84 110 64
87 114 67
90 117 70
90 117 69
83 109 65
90 116 68
102 126 88
169 183 184
163 177 176
167 180 179
143 159 148
118 137 119
100 122 91
93 120 72
87 114 68
88 114 68
84 110 65
87 113 67
85 111 66
84 110 65
88 114 68
88 114 68
88 115 68
128 146 130
172 184 186
178 190 193
184 196 200
191 202 210
180 193 199
184 196 204
173 187 191
192 202 208
179 192 198
187 198 205
178 189 194
190 200 206
187 198 205
185 197 205
161 174 170
92 117 78
86 112 66
85 111 67
106 127 97
128 146 130
154 170 164
172 184 183
186 198 205
195 206 215
183 194 200
185 196 202
180 190 195
166 180 181
102 126 89
84 110 65
88 114 67
89 115 68
82 107 63
86 113 68
90 116 69
84 110 65
119 138 116
143 158 150
124 143 129
99 123 87
84 110 66
84 110 65
83 109 64
85 111 65
87 113 68
92 117 78
110 132 106
88 114 71
150 165 162
151 166 160
97 121 84
92 117 75
91 117 70
89 115 69
103 124 94
149 163 158
175 187 188
182 194 198
177 189 196
189 201 208
179 190 194
170 182 184
170 184 185
136 152 142
92 116 83
81 106 62
85 111 65
174 186 189
181 193 198
177 189 193
185 197 207
184 197 205
179 192 199
172 184 186
136 154 142
112 134 105
87 113 66
82 107 63
87 113 67
91 118 71
84 111 65
88 114 68
84 110 66
81 107 64
87 113 67
85 110 65
86 112 67
129 148 129
166 179 180
134 151 140
110 131 104
87 113 67
87 114 68
86 112 66
86 112 67
87 113 67
88 115 68
85 111 66
84 110 65
88 115 68
90 117 69
88 115 69
86 113 67
85 112 66
82 107 62
84 109 64
83 109 64
99 122 87
133 151 136
151 166 158
93 118 80
89 116 69
86 113 66
86 112 66
79 105 62
87 113 67
87 114 68
87 114 68
83 109 64
82 108 63
90 116 70
89 115 68
87 113 68
88 114 68
88 115 69
85 111 66
84 111 66
85 112 66
90 116 69
85 110 66
88 115 68
91 118 70
92 117 75
179 191 198
174 186 187
134 151 139
113 134 109
88 114 70
89 115 68
90 117 70
84 110 65
89 116 70
88 114 68
85 111 66
86 112 66
88 114 68
86 112 66
89 115 69
88 114 68
85 112 66
87 113 67
90 116 69
88 115 68
88 115 69
85 111 65
82 108 64
93 117 75
186 198 203
179 191 196
180 193 201
190 202 211
190 202 209
188 199 205
184 196 202
183 194 199
184 195 202
186 198 205
184 196 202
189 200 207
179 191 195
178 190 190
152 167 161
136 154 140
100 123 88
88 115 69
89 115 68
81 106 62
88 114 68
87 114 68
95 122 73
90 117 70
146 161 156
177 190 196
180 192 195
192 203 211
182 194 202
186 197 204
186 197 202
180 191 194
184 195 198
188 200 209
186 198 205
181 192 195
196 207 216
195 206 214
177 189 191
190 201 208
183 195 202
189 201 210
177 190 196
194 204 212
176 189 196
182 195 200
179 192 195
190 202 209
191 202 211
94 119 76
87 113 68
92 119 71
88 114 68
89 116 69
88 114 68
83 109 65
91 118 71
93 119 71
93 120 72
87 114 68
88 114 67
88 114 68
87 114 68
86 112 66
86 112 66
88 115 69
90 117 70
93 120 72
86 113 67
100 124 88
118 138 117
136 154 140
148 165 156
150 164 159
113 134 111
103 126 94
90 114 76
85 111 66
90 117 70
87 114 68
89 115 68
91 117 70
85 111 66
90 117 69
88 115 69
92 119 71
90 116 68
94 122 74
86 112 66
84 110 66
88 115 69
88 115 68
87 114 67
90 116 69
84 110 65
87 114 68
86 112 66
132 150 135
192 204 214
182 193 201
190 201 208
178 189 193
190 200 209
192 202 207
185 197 203
191 202 209
187 197 204
191 201 208
174 187 191
191 202 210
185 197 203
185 196 201
186 198 203
185 196 201
188 200 209
187 199 206
186 198 206
193 204 212
181 193 196
190 202 208
185 197 205
115 137 115
88 114 68
90 117 69
85 111 65
84 109 64
91 118 72
88 115 68
82 108 64
89 115 68
85 111 66
88 114 68
89 116 70
88 114 68
90 116 69
88 114 67
91 118 71
90 116 70
84 110 65
88 115 68
87 113 67
91 118 70
87 114 67
90 116 74
172 185 185
185 196 201
184 195 201
187 198 201
184 195 201
192 203 211
177 189 195
186 197 205
193 204 211
197 208 216
187 198 204
177 190 197
180 191 196
193 205 216
194 204 210
186 198 204
186 198 204
193 204 210
192 202 210
189 200 204
196 207 215
178 190 194
119 139 118
89 116 69
89 116 69
88 115 68
87 113 68
87 113 68
90 116 69
91 118 71
89 115 69
84 110 65
87 113 67
85 111 66
84 110 64
89 115 68
88 114 69
91 118 70
91 118 70
83 109 64
88 114 68
86 112 66
109 131 100
180 191 194
180 192 199
180 192 197
196 207 215
181 193 199
196 207 215
187 199 206
190 201 206
181 193 197
190 201 207
177 189 194
185 197 203
188 200 207
185 197 202
181 193 197
187 199 207
181 193 200
185 196 203
182 194 201
160 174 170
91 117 72
88 115 68
88 114 68
88 115 69
86 113 67
92 119 71
88 114 68
88 114 68
87 113 67
90 117 70
93 120 72
97 121 82
119 139 115
136 154 139
140 156 145
146 160 152
165 178 178
166 179 176
95 119 83
85 111 66
85 112 67
91 118 71
88 114 68
84 110 65
86 113 67
87 113 67
84 110 65
86 112 67
87 113 68
85 110 65
89 116 69
91 117 70
85 111 66
83 109 64
142 158 149
173 185 188
187 198 205
183 195 202
178 190 197
189 199 206
191 202 209
185 197 204
176 188 194
182 194 200
193 204 211
189 199 206
176 189 196
189 201 209
186 198 206
138 154 140
111 131 103
134 151 139
158 172 167
180 191 196
179 193 198
188 198 206
171 183 185
181 193 200
175 187 191
187 198 206
193 203 209
184 195 199
130 148 132
88 115 70
88 114 68
89 116 69
84 110 66
81 107 63
97 121 85
142 159 149
155 169 168
172 186 190
170 183 187
114 133 108
82 108 63
82 107 63
84 110 65
82 108 64
96 121 82
124 143 128
154 168 165
145 161 151
137 154 142
154 168 163
145 162 154
160 174 172
128 147 132
94 118 81
117 137 114
136 152 140
144 160 149
122 139 122
120 139 119
114 133 111
152 168 163
172 185 187
182 195 202
179 191 199
175 188 193
185 197 203
177 189 194
169 182 182
134 151 137
159 174 170
178 190 195
191 201 206
182 194 200
178 190 196
185 197 204
178 189 193
188 199 206
187 198 207
162 175 175
137 153 139
109 130 103
91 118 70
85 111 66
90 116 69
87 113 67
85 112 67
85 111 66
86 112 67
83 109 64
113 132 109
193 204 213
173 185 188
181 193 202
158 171 168
148 162 153
120 138 122
87 113 67
84 110 65
89 116 69
92 119 71
87 114 68
88 114 68
83 109 65
88 115 69
84 110 65
87 113 67
87 113 67
86 112 67
85 110 65
85 111 66
82 108 64
108 130 106
181 193 198
168 179 180
140 156 145
120 138 118
85 112 66
88 115 68
87 113 67
87 113 67
89 115 69
83 108 64
91 118 70
90 116 69
92 118 70
84 109 65
87 114 68
86 113 67
85 111 65
83 109 65
86 113 67
88 114 68
91 118 71
84 111 65
105 126 95
193 204 213
175 188 193
187 198 203
186 198 204
180 193 198
158 172 171
131 148 134
101 123 92
84 110 65
87 114 68
89 115 69
88 114 67
87 113 67
87 113 67
94 121 73
89 116 69
89 115 68
81 106 62
85 111 65
87 114 68
89 116 69
85 111 66
86 113 67
110 130 102
184 196 202
184 196 203
189 200 208
195 205 213
189 200 205
189 200 207
189 201 208
195 207 216
188 199 206
183 195 198
182 193 197
194 205 213
188 199 207
190 202 210
173 185 189
189 200 208
187 199 204
184 197 204
168 181 178
145 161 151
131 149 134
87 113 66
86 112 67
88 114 68
174 186 188
186 198 206
185 197 205
178 190 194
192 204 213
181 192 195
182 195 203
190 202 209
178 190 193
194 205 214
182 194 200
183 195 200
197 208 216
183 195 201
189 200 208
186 198 204
192 204 214
182 194 201
186 198 204
175 187 191
183 193 200
188 199 206
188 199 208
185 196 201
167 180 177
87 113 67
89 116 70
86 112 66
87 114 67
89 115 69
92 119 72
88 114 68
87 114 68
88 115 69
85 111 66
87 113 67
85 110 65
87 113 66
86 112 66
89 115 68
89 115 68
90 117 70
90 117 71
91 118 70
84 110 65
88 114 67
82 108 63
87 113 67
95 122 75
180 191 197
185 197 204
189 202 209
189 201 208
182 195 197
169 182 182
162 177 174
142 159 148
135 152 139
132 150 131
114 135 110
101 125 87
88 114 68
88 114 68
91 117 70
86 112 66
87 114 68
87 113 67
89 115 69
90 117 70
83 108 64
90 116 69
90 117 70
85 110 68
171 184 186
192 204 212
183 194 199
197 207 215
190 200 208
185 197 203
187 199 206
185 197 204
187 198 203
183 195 199
180 193 200
178 190 195
191 201 206
190 202 212
190 201 209
195 205 212
186 198 206
180 192 198
187 198 205
183 195 202
195 206 215
189 200 207
171 183 185
157 171 166
88 114 68
90 116 69
88 114 68
88 115 68
85 111 66
86 112 66
84 110 65
88 114 68
86 112 66
85 110 65
88 115 69
89 116 70
85 111 66
92 118 70
82 108 64
87 113 67
88 115 68
85 111 66
87 113 67
83 109 65
85 111 65
94 122 73
148 164 159
183 194 198
186 197 204
183 195 203
184 196 204
183 195 202
186 196 199
191 202 209
189 201 209
185 197 204
181 193 200
191 203 210
179 192 197
194 205 212
185 197 203
196 206 214
195 206 213
183 195 202
181 194 200
190 201 209
186 198 204
182 194 200
143 159 147
89 116 69
87 113 68
89 116 69
92 119 70
89 115 69
89 116 70
88 115 69
87 114 68
88 115 69
81 106 62
83 109 64
90 117 69
86 112 66
86 113 68
85 110 65
91 118 71
87 113 67
88 114 68
86 112 66
93 117 77
169 183 181
188 200 207
181 192 196
187 198 203
178 190 195
178 191 198
180 191 195
188 199 206
186 198 205
189 200 206
175 189 192
184 195 199
186 199 207
188 200 208
182 193 198
185 195 199
185 196 202
181 192 197
197 208 217
165 180 179
89 114 73
89 115 69
88 115 69
93 118 78
95 119 81
115 134 107
122 142 119
142 159 148
152 167 159
157 171 168
161 175 172
179 191 195
177 190 197
185 197 203
186 197 204
187 199 204
183 195 200
159 172 171
95 121 82
86 113 67
84 110 65
88 114 68
91 117 70
91 118 70
88 115 69
87 114 68
82 107 63
80 105 61
85 111 65
88 116 70
89 115 68
89 115 68
84 111 65
89 114 71
149 165 159
184 196 206
184 195 201
191 203 211
183 195 201
180 191 197
184 196 200
187 199 206
184 196 203
182 194 201
186 198 207
194 206 217
180 192 195
166 179 178
160 176 170
181 193 200
180 190 194
180 192 197
174 186 190
173 186 188
186 198 207
177 189 193
184 195 201
186 197 204
176 188 193
179 191 197
182 194 199
156 171 170
106 127 101
88 114 68
85 111 66
92 118 76
113 133 108
143 159 150
165 179 178
183 194 200
185 197 204
184 196 203
133 149 138
92 116 77
86 112 67
89 115 72
88 114 70
102 125 93
114 134 110
124 142 127
158 171 169
179 191 195
167 181 180
136 152 136
135 152 143
225 238 255
211 224 238
176 191 194
116 135 116
119 136 117
85 111 66
111 131 107
153 169 166
172 184 188
174 186 192
155 170 169
159 173 172
174 187 189
174 186 188
169 182 184
163 177 176
188 199 206
183 196 203
187 198 204
151 167 164
124 142 123
152 166 162
177 189 193
183 195 203
187 199 205
178 190 195
181 194 200
186 197 205
185 196 204
185 195 204
179 191 194
161 175 172
148 163 158
98 120 85
86 112 67
84 110 65
82 108 64
88 113 67
84 110 65
103 125 95
176 188 192
178 190 196
189 200 209
186 198 204
186 197 203
173 186 191
179 191 196
144 160 150
116 135 113
88 114 70
86 112 67
88 114 67
90 116 69
86 112 66
89 115 69
88 114 68
82 108 64
88 114 69
85 111 66
87 113 67
88 115 69
129 146 131
195 205 215
185 197 204
184 195 200
177 189 195
180 194 201
162 175 173
114 134 114
96 120 80
87 113 67
85 111 66
87 114 68
86 113 67
86 112 66
84 110 65
87 113 66
87 113 68
82 108 64
87 113 67
88 114 68
83 110 65
89 115 69
88 115 68
127 146 128
187 198 204
189 200 206
183 194 200
180 193 200
189 201 209
189 200 207
191 201 206
192 202 209
177 189 193
159 173 170
145 162 155
121 139 120
85 110 64
88 114 68
86 112 66
87 113 67
88 115 69
80 106 62
93 120 72
86 113 67
85 111 65
87 113 67
81 107 63
143 159 152
181 194 199
191 202 209
185 196 202
184 196 204
183 195 202
188 199 208
185 197 202
175 188 194
182 194 199
193 203 212
180 192 196
180 191 196
181 193 199
194 205 211
178 190 196
184 196 200
189 200 206
186 198 207
190 202 210
193 203 210
183 194 198
176 188 192
185 196 200
151 166 159
138 155 144
152 166 162
162 175 175
183 195 202
197 207 215
183 195 203
183 195 201
186 196 203
191 201 208
190 201 207
187 199 206
183 195 203
188 199 208
184 196 203
188 199 205
190 201 210
188 199 206
179 191 196
182 194 201
180 193 201
179 191 197
183 194 198
190 201 208
187 197 202
115 137 111
87 114 68
87 114 68
90 117 69
84 110 65
93 120 72
86 112 66
89 116 70
83 109 65
87 113 68
90 117 70
90 116 69
87 113 68
84 110 65
90 116 70
85 112 66
88 113 67
88 114 68
86 112 67
89 116 69
89 115 68
86 112 66
89 115 69
89 115 69
135 153 140
172 184 188
194 204 212
180 192 197
175 188 192
186 197 203
184 196 203
177 189 193
190 200 206
186 198 205
191 203 211
183 195 200
192 203 210
173 186 190
177 190 196
176 188 192
158 173 168
143 159 151
158 172 166
141 158 149
130 147 129
122 142 124
105 127 96
96 122 80
147 162 153
180 192 196
185 197 203
187 198 203
186 197 204
186 197 202
181 193 201
185 196 202
192 203 211
192 203 211
177 189 195
180 193 200
185 197 203
187 198 204
192 202 207
182 193 196
188 200 209
187 197 202
190 201 206
182 194 200
172 184 188
189 200 207
186 197 203
183 194 199
91 115 78
84 110 65
92 118 70
83 109 64
88 114 67
86 113 67
85 111 65
85 112 66
91 118 71
87 113 67
85 112 66
89 116 69
91 118 71
91 118 70
83 110 65
89 115 68
86 113 67
89 116 69
86 113 67
85 111 66
91 118 70
89 116 69
121 141 120
189 201 209
194 205 213
188 198 205
183 194 200
192 204 212
180 192 196
174 187 190
178 191 196
183 195 201
187 198 204
180 191 195
193 204 213
185 196 203
191 203 214
185 196 201
186 197 202
195 205 213
169 182 185
188 199 205
176 190 197
195 205 212
145 161 154
84 110 64
86 112 66
84 110 65
88 114 67
90 118 71
86 112 66
85 111 66
89 116 69
85 111 66
87 113 68
85 111 65
87 113 67
88 114 68
91 117 69
90 116 69
87 114 68
85 111 66
86 112 66
89 116 69
89 115 72
158 172 169
187 199 204
177 189 192
170 182 185
186 198 205
176 189 194
188 200 207
188 199 206
185 197 205
188 200 206
180 192 197
177 189 194
187 199 206
183 195 201
189 200 206
181 193 197
157 172 170
174 187 193
149 166 157
174 187 187
159 173 169
151 165 160
167 180 182
185 197 204
176 188 192
190 201 209
190 201 209
189 201 209
188 201 210
191 201 208
188 200 208
186 197 203
182 194 198
182 194 199
180 192 198
187 199 206
186 197 205
152 167 162
82 108 64
87 114 69
88 114 68
82 107 63
87 114 68
87 114 67
85 112 66
86 112 66
85 111 66
88 115 69
85 111 65
83 108 64
86 112 67
88 114 67
86 113 67
104 125 95
169 182 183
188 199 205
180 192 198
167 180 183
181 192 197
183 194 201
183 194 200
176 187 190
168 181 185
153 167 164
138 153 143
124 143 124
104 124 98
88 114 68
127 144 128
168 181 182
180 192 199
181 193 200
185 197 201
182 194 202
181 193 199
176 188 193
175 187 190
176 188 192
179 190 196
197 208 216
172 184 186
137 154 144
88 114 68
114 133 110
143 161 150
164 177 175
174 186 189
176 188 192
185 197 203
181 192 200
176 188 191
173 186 188
139 156 145
137 154 142
132 149 134
136 152 140
105 126 100
85 110 67
105 124 101
158 172 167
150 164 159
130 149 134
115 134 113
151 168 163
209 222 236
225 237 255
225 238 255
225 238 255
225 238 255
222 235 252
206 219 232
183 196 201
144 158 152
100 123 92
89 115 71
121 140 124
152 167 163
174 186 191
177 190 196
186 198 206
161 175 174
150 165 158
125 142 125
99 123 90
137 154 139
136 152 141
141 156 148
132 149 139
117 135 116
134 151 136
156 170 165
180 191 195
187 199 207
173 185 189
175 188 195
179 190 195
179 191 196
181 193 200
172 184 189
188 200 208
157 172 170
141 159 149
115 135 113
85 111 66
83 109 65
91 114 78
175 187 193
190 201 208
181 194 200
182 193 198
181 193 198
178 190 193
179 192 198
184 195 199
184 195 201
184 195 201
153 167 162
113 134 108
91 114 78
89 115 68
84 110 65
80 106 62
84 110 64
82 108 63
86 112 67
81 107 63
86 112 67
117 136 117
185 197 203
195 206 218
179 191 196
184 195 199
191 201 208
183 196 201
177 190 197
185 196 204
166 178 178
147 163 157
121 139 123
94 121 78
87 113 67
90 117 70
86 112 66
84 110 65
83 109 64
89 115 67
88 114 67
87 114 68
88 114 68
88 114 68
129 146 132
186 198 205
179 191 197
192 203 211
180 192 196
187 198 206
180 191 198
185 197 203
177 190 192
174 187 191
184 195 201
183 194 200
182 193 199
185 196 202
162 177 175
139 157 143
102 124 93
88 112 72
85 111 65
92 118 70
83 109 64
86 112 67
86 112 66
82 108 63
157 171 167
178 190 196
190 201 208
182 193 198
187 198 205
187 198 204
185 196 201
179 191 197
188 199 209
190 201 208
181 193 200
184 197 203
194 205 213
182 195 202
176 187 192
175 187 193
190 201 211
188 201 210
188 199 206
191 202 209
179 190 194
187 199 204
195 206 215
183 195 203
138 155 142
84 109 64
85 111 66
86 112 66
98 121 85
122 142 119
150 167 160
154 169 163
171 184 186
183 195 200
187 199 206
193 204 213
180 192 199
181 193 198
193 204 211
187 197 201
188 199 204
171 183 186
189 200 208
186 197 205
187 199 206
186 198 205
193 204 213
185 196 202
173 185 187
88 115 68
90 116 69
88 115 69
84 110 65
90 117 70
84 109 64
86 113 67
86 111 66
83 109 64
89 115 68
91 117 70
85 111 65
86 113 67
88 114 68
90 116 69
86 112 67
83 108 64
83 108 64
88 114 68
84 110 65
89 115 68
81 107 64
84 110 65
85 109 67
173 185 187
180 192 196
191 202 210
183 195 201
188 199 207
175 187 189
190 201 207
173 185 190
186 199 208
193 204 212
186 197 203
189 200 208
189 201 207
195 205 213
179 191 196
186 198 205
183 195 201
179 190 197
186 197 203
189 199 207
189 200 206
184 197 203
190 200 208
173 185 189
102 126 94
100 124 90
116 136 111
118 138 113
123 141 123
154 169 165
155 170 163
158 172 168
175 188 189
162 176 174
176 188 190
175 188 190
180 192 196
198 208 215
186 198 205
183 194 199
186 198 204
187 198 205
190 201 207
177 189 194
186 198 204
189 201 209
179 191 196
135 153 138
89 116 69
87 114 67
87 114 68
89 115 69
88 115 68
91 118 71
84 110 65
83 109 64
90 116 69
83 109 64
89 116 68
85 112 66
85 111 66
93 120 72
91 118 70
84 110 65
81 107 63
87 113 67
88 115 69
89 115 68
90 116 70
102 125 91
185 196 203
186 198 204
184 196 204
180 192 198
190 201 206
187 198 206
186 197 205
178 189 193
181 193 198
196 207 214
179 191 195
185 196 202
186 198 205
191 202 210
184 195 199
195 206 215
186 197 204
183 195 203
188 200 208
177 189 193
186 198 205
155 170 166
85 111 66
86 112 67
92 118 71
88 114 67
88 115 69
87 113 67
87 113 67
87 114 67
85 110 66
82 107 63
90 117 70
86 112 67
89 116 70
87 114 69
88 114 68
89 116 69
87 113 67
89 115 69
85 112 67
87 113 71
159 173 172
187 198 204
175 187 192
185 196 202
168 182 185
168 181 183
164 179 178
158 173 169
147 163 159
141 156 145
151 166 159
135 153 143
123 141 117
106 127 100
97 121 84
87 113 70
86 112 67
89 115 69
85 111 65
139 156 141
183 195 202
186 197 202
179 192 199
186 199 205
182 194 202
184 196 202
178 190 196
180 192 196
184 195 202
189 199 206
186 197 203
187 199 208
177 190 197
183 196 202
192 203 210
180 193 199
193 205 214
148 164 156
88 114 67
88 114 68
89 116 69
83 109 64
83 109 65
85 110 65
86 112 67
85 111 66
87 114 68
84 110 65
88 114 68
88 115 68
82 108 64
84 110 65
91 118 71
122 140 122
174 187 189
191 201 208
181 193 200
186 198 204
176 188 192
163 177 176
139 157 147
114 132 110
103 126 92
89 116 69
88 114 68
85 111 66
88 115 69
94 118 81
161 176 171
190 201 208
185 197 204
179 191 195
180 191 198
179 191 196
175 187 192
173 186 191
174 186 192
179 191 194
189 200 208
186 196 205
170 184 185
152 166 159
147 162 153
167 181 182
160 174 174
148 164 156
129 147 135
135 152 138
114 135 109
99 122 87
119 138 117
169 182 184
164 176 176
133 150 139
108 129 101
84 109 64
81 107 62
99 121 92
119 138 117
133 149 136
107 129 101
140 158 148
185 199 206
222 235 252
225 238 255
225 238 255
225 238 255
225 238 255
225 238 255
225 238 255
225 238 255
225 238 255
225 238 255
219 232 249
193 205 217
172 185 191
116 135 118
88 112 74
92 117 77
122 139 126
166 179 182
173 184 188
169 181 185
177 189 196
170 183 187
145 161 154
102 122 97
149 164 153
187 198 205
173 185 189
176 188 193
185 196 202
178 190 196
175 187 190
168 181 181
150 165 160
143 159 149
160 173 170
169 182 182
181 193 199
175 187 192
180 193 202
181 192 197
183 195 203
159 173 172
136 152 140
108 128 102
179 191 197
188 198 204
175 187 190
183 195 201
192 203 210
167 179 180
178 190 196
173 186 191
176 188 194
191 202 210
178 191 197
182 193 201
178 191 197
161 174 172
129 147 137
94 118 82
88 114 68
83 110 65
86 112 67
87 113 68
83 109 64
139 155 141
189 200 206
191 203 211
185 197 203
179 190 197
182 193 198
181 194 201
177 189 193
185 197 202
188 200 207
184 195 201
182 194 202
171 184 190
155 169 163
130 147 135
101 121 93
85 110 65
85 111 66
86 112 67
87 114 69
89 115 69
82 107 63
94 122 73
138 156 142
179 191 197
180 192 197
186 197 205
177 188 193
190 201 208
184 194 199
178 190 194
194 204 213
186 197 202
171 183 185
189 200 208
187 197 204
186 198 206
175 188 193
166 179 182
185 197 204
186 196 200
178 190 195
154 169 163
133 151 136
98 122 85
84 109 64
88 115 69
181 192 196
184 195 201
191 202 210
186 198 205
187 198 205
178 191 195
191 203 210
176 189 192
173 185 190
176 188 191
182 193 200
186 197 203
187 198 206
186 197 204
190 201 208
173 185 189
182 194 199
183 195 199
181 192 198
171 183 189
192 203 212
187 199 207
187 199 206
184 196 201
101 122 94
87 113 68
86 112 67
86 112 67
90 117 70
88 114 68
86 113 67
85 111 65
84 110 65
87 114 68
103 126 91
129 147 133
139 156 144
163 177 174
171 184 186
181 193 197
175 188 193
179 190 194
171 184 188
194 204 213
186 198 207
178 190 195
179 192 199
193 204 211
122 141 122
89 116 69
86 112 67
86 112 66
83 109 65
86 112 67
83 109 64
86 112 66
87 114 68
88 114 68
88 115 69
85 112 66
88 114 67
87 113 67
85 111 66
85 112 67
92 119 71
83 109 64
90 116 70
84 109 65
86 113 67
87 113 67
86 113 66
86 112 66
130 148 131
183 195 203
181 193 199
178 189 193
186 197 204
194 205 213
174 188 192
175 187 191
198 209 219
187 199 206
193 204 211
177 188 193
182 194 198
187 198 204
179 191 196
190 201 208
179 191 197
193 204 213
189 199 208
184 196 203
184 196 200
186 197 204
181 192 198
184 195 202
135 152 138
83 108 64
86 111 66
86 112 67
89 115 69
88 115 69
80 106 63
90 117 71
88 114 67
84 110 65
84 109 64
91 118 70
84 110 65
87 114 68
91 115 74
107 129 101
108 130 99
113 133 108
120 139 119
135 153 138
137 154 141
140 157 145
155 169 163
166 180 180
132 150 133
126 145 125
126 143 127
106 127 100
121 140 118
107 130 100
105 126 97
99 123 86
93 117 80
86 112 67
88 115 69
82 108 64
91 118 70
87 113 67
84 110 66
84 109 64
88 115 69
91 118 71
90 116 69
86 112 67
84 110 64
92 116 80
178 190 193
185 197 205
183 195 200
184 195 200
186 198 205
184 196 203
181 193 201
190 200 206
188 200 206
178 191 194
186 198 205
184 197 202
189 200 209
177 189 193
181 193 198
186 198 206
190 201 209
188 199 205
189 201 209
182 193 198
187 199 207
171 184 184
96 121 80
85 111 66
89 116 69
86 112 67
92 120 75
87 111 72
98 121 85
98 121 89
102 124 93
117 137 115
129 146 129
126 145 127
130 148 135
136 153 139
135 151 142
155 170 164
144 160 150
164 177 173
156 171 168
162 176 176
120 140 117
99 122 90
94 118 82
91 116 76
87 114 68
89 116 69
86 112 66
85 110 66
91 117 69
86 113 67
85 111 66
85 112 66
89 116 70
86 112 67
88 115 68
84 110 65
84 110 65
87 113 67
90 116 69
125 143 129
182 194 200
182 194 198
182 194 198
185 196 202
187 198 204
182 194 199
172 184 188
187 198 205
185 196 201
176 189 195
181 192 198
175 187 191
180 192 198
194 205 212
180 191 196
186 197 205
187 198 206
142 157 148
84 110 65
88 115 69
89 115 69
88 114 68
86 112 67
84 111 66
88 115 69
89 115 69
87 113 68
84 110 65
89 116 69
87 113 67
78 103 60
86 112 67
83 109 65
140 155 145
161 175 176
163 176 175
139 156 149
111 132 105
103 126 92
86 112 67
86 112 67
85 111 66
87 113 67
86 112 66
87 114 68
82 109 65
84 111 67
123 139 124
161 175 174
178 189 194
184 196 202
173 185 190
181 194 199
195 206 216
179 191 196
170 183 186
164 177 177
164 177 177
180 192 198
172 184 186
113 134 110
111 130 106
97 120 86
82 107 63
79 104 62
85 112 67
89 116 70
86 112 66
86 112 67
89 114 73
123 141 126
134 151 138
97 122 81
87 113 67
83 109 65
89 114 73
92 115 79
97 120 84
101 121 95
124 143 127
185 199 206
214 227 242
225 238 255
225 238 255
225 238 255
225 238 255
225 238 255
225 238 255
225 238 255
225 238 255
225 238 255
225 238 255
225 238 255
225 238 255
225 238 255
225 238 255
225 238 255
216 228 244
199 212 224
159 174 173
115 133 116
88 113 70
100 123 90
130 147 136
167 180 181
180 193 200
181 194 200
183 194 201
164 178 180
147 163 154
176 189 194
181 193 199
186 197 205
181 192 197
176 188 194
177 189 194
174 186 189
151 167 165
124 141 127
82 108 64
82 109 64
85 111 66
92 115 79
104 125 95
113 134 107
140 155 143
154 167 163
128 146 130
135 153 139
156 170 165
166 179 180
179 191 195
184 196 201
171 184 186
183 195 201
193 203 212
183 196 203
178 190 195
178 191 197
178 190 195
180 192 200
183 194 200
180 193 199
171 184 188
174 186 188
138 154 145
108 130 104
93 118 78
83 109 64
122 140 123
182 194 199
182 194 201
186 197 203
191 202 208
185 196 203
183 196 204
168 180 182
175 187 192
189 200 205
182 194 200
175 186 191
177 189 195
184 196 204
186 197 203
186 197 203
173 186 187
153 168 164
121 139 123
91 115 76
85 111 66
85 111 65
90 117 70
162 176 173
178 189 194
180 193 198
178 190 194
175 187 192
182 194 201
185 197 206
172 186 191
184 195 202
174 187 190
182 195 201
180 192 200
173 185 189
184 194 199
179 192 198
179 192 198
181 192 196
189 200 208
177 189 193
188 198 204
175 187 190
176 189 193
180 192 195
138 155 145
138 154 144
174 186 188
180 191 197
182 194 202
190 201 208
183 195 202
185 195 201
189 200 206
190 201 208
184 196 200
181 194 200
182 195 203
180 192 196
185 196 202
187 198 207
185 195 201
183 194 200
175 187 190
177 190 197
186 198 207
183 195 203
185 197 203
185 198 204
172 185 188
89 116 69
89 116 69
82 108 64
89 115 68
88 114 69
84 110 65
89 115 69
88 114 68
86 112 67
88 114 69
91 118 71
84 110 66
87 114 68
90 117 70
87 114 68
87 112 66
110 133 101
119 136 118
138 155 145
158 171 169
174 187 189
189 200 206
183 194 201
179 192 196
91 115 80
86 113 68
88 114 68
85 111 66
85 112 67
88 115 69
80 106 62
84 110 65
84 110 64
82 107 63
84 109 65
85 111 66
89 116 69
86 112 67
90 116 70
87 114 68
88 114 67
89 116 69
88 114 68
81 106 62
86 112 66
91 118 71
85 111 66
86 111 72
175 188 189
171 184 188
195 205 214
187 198 204
186 197 203
184 196 204
185 197 205
183 195 201
183 194 201
179 192 197
172 185 188
181 192 200
188 199 207
197 207 216
186 197 203
183 195 199
182 194 202
188 199 206
189 200 207
188 199 206
179 191 195
182 194 198
185 196 202
167 180 178
86 113 67
81 108 63
89 115 68
87 114 68
84 110 65
89 115 69
88 114 68
82 108 63
87 112 66
91 118 71
87 113 68
86 112 66
86 112 67
84 110 65
85 111 66
83 109 64
84 110 65
87 113 67
86 112 66
88 115 69
86 113 68
86 112 66
100 124 89
172 185 191
193 204 213
170 183 186
187 198 206
182 194 199
176 189 194
185 196 203
180 192 198
186 198 204
182 194 199
183 195 198
184 196 204
174 187 192
174 186 188
178 190 194
176 188 194
183 194 198
181 192 195
159 174 172
174 186 187
158 174 171
154 169 164
132 149 136
114 134 111
133 151 134
130 149 131
120 138 116
120 139 121
127 144 129
124 143 124
124 143 125
121 141 120
130 147 130
128 147 129
122 140 123
113 133 112
122 142 122
135 152 135
122 142 119
126 145 123
118 139 114
116 136 110
112 133 109
122 141 120
183 195 198
176 189 192
170 183 187
191 202 208
174 188 195
184 195 204
176 189 192
188 199 207
188 200 207
180 191 196
186 198 205
181 193 198
177 189 194
178 190 193
178 190 197
182 194 200
181 193 198
175 186 192
182 195 200
182 194 202
120 137 122
85 111 66
83 107 62
82 108 63
85 111 66
89 116 69
85 111 65
84 110 65
86 112 67
89 116 69
91 118 70
88 114 68
85 111 66
86 113 67
84 110 65
86 112 66
85 110 64
91 118 70
87 112 66
142 158 149
180 191 196
191 203 211
170 183 186
175 188 194
180 192 197
184 196 204
182 193 201
177 190 194
182 194 199
182 194 200
185 196 202
179 191 196
182 194 201
187 199 206
172 184 187
186 196 203
182 193 198
107 129 102
85 111 66
87 114 68
88 114 67
85 111 65
86 112 66
81 107 63
83 108 65
87 113 67
83 109 65
88 114 68
85 110 68
109 130 101
124 143 128
136 152 141
148 164 156
109 128 106
89 115 71
86 113 67
87 113 68
84 110 66
83 109 64
85 111 65
84 110 65
85 111 66
81 107 64
87 114 68
96 121 78
93 117 80
113 134 107
104 125 98
159 173 170
146 162 152
136 153 141
128 146 132
113 134 111
105 126 101
125 143 124
124 142 125
159 172 170
178 189 191
186 198 207
151 167 163
91 115 81
84 110 66
82 107 63
81 107 63
81 106 63
88 114 68
88 113 70
103 124 98
129 145 131
112 132 107
88 114 71
79 104 61
83 109 65
86 111 69
124 141 124
119 138 120
108 127 104
130 148 133
183 197 202
219 232 248
225 238 255
225 238 255
225 238 255
225 238 255
225 238 255
225 238 255
225 238 255
225 238 255
225 238 255
225 238 255
225 238 255
225 238 255
225 238 255
225 238 255
225 238 255
225 238 255
225 238 255
225 238 255
225 238 255
225 238 255
223 236 253
212 225 240
195 209 221
159 173 169
110 128 110
87 112 72
99 123 87
136 152 141
166 179 180
173 185 191
114 133 114
82 108 64
113 133 109
131 148 134
167 179 180
184 196 200
180 192 197
178 191 196
177 190 197
176 188 193
173 185 189
163 177 175
120 139 121
89 112 78
87 113 67
83 109 65
83 109 65
84 109 65
88 115 68
150 164 157
171 184 192
175 186 191
171 183 186
157 172 169
131 149 136
113 132 109
107 128 101
123 142 124
126 144 128
140 155 146
146 162 152
151 165 158
151 167 164
156 171 169
170 184 188
170 183 185
165 179 184
177 189 193
174 186 190
148 163 157
140 156 145
158 171 172
188 199 208
184 196 201
190 201 207
182 194 200
173 186 190
178 190 194
176 189 193
182 193 199
177 189 196
182 194 200
171 184 187
182 194 201
181 192 197
180 191 196
173 185 188
179 192 201
183 196 203
188 199 209
180 191 195
155 170 165
117 136 115
172 185 183
177 189 193
193 204 213
183 194 199
180 192 198
179 193 201
177 191 198
199 209 217
182 193 199
182 194 202
181 194 200
186 198 204
173 186 189
184 196 204
180 192 198
189 200 207
188 200 208
176 188 194
182 195 202
174 186 191
177 189 193
184 196 203
188 199 206
151 165 159
88 115 69
89 115 68
95 119 83
134 152 136
141 158 149
168 181 182
175 187 191
180 192 195
188 199 205
171 183 186
181 193 198
185 197 204
173 186 192
190 201 211
190 200 208
190 202 209
184 196 201
188 200 210
187 198 205
182 194 201
185 196 203
183 193 199
174 186 191
148 163 154
85 111 66
85 111 66
86 112 66
86 112 67
88 115 68
84 109 65
90 117 70
83 109 65
86 113 68
84 110 65
89 115 68
89 116 69
86 113 67
84 110 64
82 108 64
90 117 70
85 111 66
89 116 70
86 112 67
89 116 70
86 113 67
80 106 63
104 126 97
153 169 163
155 171 165
137 155 142
120 139 119
97 119 86
87 114 69
87 113 67
83 109 65
88 114 68
87 113 67
88 114 67
90 117 69
86 112 67
86 112 66
87 113 67
86 112 67
91 119 72
90 117 70
85 111 65
87 113 67
89 116 69
85 111 65
88 114 68
84 110 65
143 159 152
179 191 197
190 200 206
188 198 205
187 198 205
182 194 200
185 197 203
184 197 204
183 195 203
187 198 205
196 206 212
183 195 201
186 198 204
187 199 205
184 195 202
185 196 203
174 186 191
198 208 216
186 197 200
185 197 203
171 183 186
183 194 202
180 192 200
189 200 208
121 141 119
83 109 65
90 117 70
85 111 66
86 112 66
86 112 67
87 113 67
85 112 67
87 113 67
87 113 67
89 115 68
82 108 64
87 114 68
89 115 69
87 112 67
88 115 68
88 115 69
88 115 69
84 111 65
89 115 69
87 114 68
87 113 67
85 110 67
170 183 184
186 197 203
180 192 197
185 196 203
191 203 213
195 206 215
188 200 209
188 200 209
171 185 188
189 200 206
192 203 210
185 197 205
172 185 186
191 202 210
184 196 203
182 193 197
183 195 202
183 194 200
182 194 202
188 200 209
185 197 202
174 187 191
167 180 179
88 114 69
86 112 66
84 109 65
88 115 68
87 113 67
87 114 68
84 110 65
87 113 67
88 114 68
86 112 67
89 116 69
82 108 64
84 110 65
85 112 66
91 117 70
88 115 68
88 114 68
80 106 62
87 113 68
85 111 65
109 130 102
170 184 183
173 186 189
177 189 195
185 196 200
187 198 205
181 193 199
187 198 205
178 191 197
181 192 196
184 196 201
179 192 196
186 197 204
189 200 210
189 199 208
180 192 198
178 190 196
183 195 201
174 187 191
181 193 197
182 192 197
131 149 133
79 104 61
85 112 66
88 114 68
85 111 66
86 113 67
87 114 68
85 111 66
87 114 68
84 110 65
85 111 65
81 107 63
86 112 67
84 111 66
90 116 69
85 111 66
83 110 65
88 114 68
88 114 68
135 152 141
183 195 203
188 199 204
184 196 204
189 201 210
189 201 209
192 203 210
178 190 196
187 198 205
186 197 204
185 196 205
185 196 202
178 189 193
174 186 191
192 203 210
177 190 196
178 191 196
168 181 182
108 129 105
85 111 66
86 112 67
82 108 63
84 110 65
83 109 64
83 108 63
116 136 112
128 145 128
135 153 139
142 157 150
164 178 181
174 185 190
181 193 199
187 199 207
157 170 169
112 132 106
97 119 87
100 122 93
123 141 122
119 138 123
134 152 136
155 170 164
143 159 149
159 172 169
165 179 180
164 178 178
179 192 201
180 192 198
168 181 183
111 131 105
85 112 67
80 105 62
94 119 79
117 137 119
135 152 137
160 174 172
165 178 181
174 186 189
176 188 192
175 187 192
179 190 194
118 137 117
83 108 64
86 112 67
91 118 71
83 109 64
103 126 92
125 144 130
154 168 167
161 175 173
147 162 156
87 110 76
86 112 67
86 110 71
129 148 132
160 173 173
133 150 140
137 153 144
174 189 193
210 224 237
225 237 255
225 238 255
225 238 255
225 238 255
225 238 255
225 238 255
225 238 255
225 238 255
225 238 255
225 238 255
225 238 255
225 238 255
225 238 255
225 238 255
225 238 255
225 238 255
225 238 255
225 238 255
225 238 255
225 238 255
225 238 255
225 238 255
225 238 255
225 238 255
225 238 255
225 238 255
224 236 254
214 227 242
196 209 220
149 164 158
107 126 103
88 114 70
103 124 97
125 144 131
94 117 84
87 114 68
81 107 62
85 112 66
103 122 97
138 153 145
164 178 180
182 193 198
169 182 185
172 184 189
178 190 194
181 193 201
176 189 193
165 178 179
129 146 135
92 115 78
86 112 66
87 113 67
134 150 138
175 187 194
173 185 190
173 185 186
175 188 190
178 190 196
170 182 188
162 176 175
125 143 129
96 119 87
82 108 64
87 113 68
89 115 69
82 108 64
89 116 69
89 116 70
83 110 65
88 113 70
94 117 82
112 133 109
106 128 102
131 149 139
171 183 185
159 174 170
176 188 192
167 179 179
159 172 170
150 165 158
159 173 172
169 181 181
172 185 188
173 185 186
191 201 209
171 184 189
185 197 203
177 190 195
176 189 195
182 194 202
186 197 202
180 192 197
177 188 193
178 191 196
178 189 194
184 195 203
105 127 96
107 129 100
124 141 124
157 171 168
179 191 196
181 192 197
179 191 197
179 191 198
182 194 201
190 201 210
168 180 182
186 197 203
190 201 207
188 199 206
185 197 203
188 199 205
181 192 197
168 181 185
189 200 207
183 193 198
183 195 201
184 196 200
186 198 206
128 146 128
88 114 68
89 115 69
81 107 62
85 112 66
83 109 64
90 117 69
79 104 60
109 130 103
113 134 109
150 164 158
161 174 175
169 182 183
184 197 203
182 195 203
178 190 196
178 191 195
190 201 211
178 190 196
188 199 207
180 192 199
182 195 200
179 192 197
181 193 198
114 134 110
86 112 67
87 114 68
84 110 65
87 113 68
88 114 68
85 112 67
85 112 66
85 111 66
88 114 68
85 111 66
83 108 64
83 108 64
81 107 63
87 113 67
81 107 63
85 111 65
86 112 67
84 110 64
86 111 65
86 112 66
84 109 65
90 117 70
82 108 64
180 192 197
177 189 192
181 193 199
189 199 205
181 194 201
180 192 200
163 176 176
159 173 170
146 162 154
124 142 124
120 138 118
96 120 86
87 114 67
87 114 68
87 114 68
85 110 65
81 106 62
89 115 68
87 112 67
91 117 70
88 114 68
86 112 66
83 108 64
96 119 84
174 187 188
178 190 195
193 204 212
179 191 195
185 196 203
185 196 205
179 192 198
182 193 199
183 195 201
180 193 200
185 196 203
186 197 203
192 202 209
174 186 192
181 193 197
178 189 192
191 202 209
194 204 212
176 187 192
186 198 205
178 190 195
183 195 202
177 189 190
155 170 162
89 116 69
88 114 68
84 110 65
85 111 65
87 114 69
86 113 67
83 108 64
87 113 67
88 115 68
87 114 68
87 113 68
83 108 64
86 112 66
89 115 68
87 113 67
89 115 69
87 112 66
86 112 67
83 109 64
91 118 71
86 112 67
85 111 66
119 138 118
178 190 193
178 190 194
187 198 205
186 197 206
175 187 192
186 197 202
180 192 198
191 202 209
177 190 197
179 190 195
194 204 212
182 194 200
181 192 197
183 194 200
177 190 196
185 196 201
182 193 199
181 194 201
172 185 189
196 207 215
180 191 197
168 181 183
91 116 74
87 113 66
90 117 70
85 111 66
87 113 67
89 116 69
87 114 68
86 113 66
80 106 62
87 113 68
86 112 66
87 113 68
90 117 70
85 112 65
83 109 64
89 116 69
85 111 66
86 112 67
86 112 67
83 108 64
94 118 80
173 186 187
180 192 196
175 187 193
178 190 195
181 193 199
179 190 197
177 189 194
175 187 193
181 193 197
183 194 201
186 197 204
183 195 202
176 188 196
190 201 208
178 190 197
179 192 197
179 191 197
188 199 207
184 197 203
183 194 199
130 147 134
81 106 62
86 112 66
87 114 68
86 113 67
85 111 67
83 109 64
85 111 65
86 112 67
91 118 71
88 115 69
88 115 69
86 112 67
86 112 67
86 112 66
91 118 71
86 113 67
86 111 65
86 112 67
144 160 150
183 195 199
178 190 195
176 187 191
191 202 210
183 195 200
170 183 187
184 194 200
183 195 203
179 191 195
181 192 196
184 196 202
184 195 199
178 191 197
184 195 202
178 191 196
183 195 200
160 174 173
101 124 94
90 114 75
105 127 97
104 125 100
130 147 132
139 154 144
144 160 149
145 159 152
146 162 152
137 153 143
142 158 151
134 150 138
119 138 117
108 129 106
102 123 94
131 148 136
177 189 196
178 190 195
175 188 194
180 193 198
187 198 204
175 188 195
183 194 201
177 189 195
187 198 208
179 189 195
179 191 197
181 193 199
182 193 198
148 164 157
105 126 99
128 145 132
143 158 147
166 179 179
181 193 199
185 196 203
176 188 192
171 184 190
180 193 199
165 179 181
171 183 188
128 145 130
91 116 75
83 108 64
85 110 69
120 139 122
154 168 163
160 175 176
172 184 189
179 190 195
139 155 145
86 109 75
96 119 86
123 140 125
147 162 156
166 179 183
162 175 175
180 194 199
203 216 230
224 237 254
225 238 255
225 238 255
225 238 255
225 238 255
225 238 255
225 238 255
225 238 255
225 238 255
225 238 255
225 238 255
225 238 255
225 238 255
225 238 255
225 238 255
225 238 255
225 238 255
225 238 255
225 238 255
225 238 255
225 238 255
225 238 255
225 238 255
225 238 255
225 238 255
225 238 255
225 238 255
225 238 255
225 238 255
225 238 255
225 238 255
225 238 255
221 233 250
211 224 237
180 193 200
135 151 143
104 123 100
143 158 155
152 166 164
131 148 136
104 125 99
79 104 61
85 111 66
82 106 65
109 129 108
142 158 152
165 179 181
177 189 196
179 191 194
173 185 189
176 188 195
176 189 195
161 174 174
154 168 167
141 156 147
124 143 131
176 188 191
176 188 190
180 192 198
172 184 189
177 190 197
171 184 189
178 190 196
164 177 179
173 185 188
151 166 161
126 144 133
110 130 106
85 110 71
85 111 65
89 116 69
83 109 64
86 112 66
82 108 63
87 113 68
88 114 68
133 150 138
183 194 199
177 190 193
180 192 198
177 188 193
170 182 184
153 167 164
122 139 125
116 135 113
82 107 63
84 110 66
87 113 67
101 125 91
105 126 94
102 125 95
110 132 106
127 144 128
124 142 124
136 153 143
141 157 148
130 147 136
136 153 143
151 165 161
116 134 113
122 141 123
107 127 102
114 136 107
105 125 97
116 134 111
132 149 135
164 178 176
170 183 186
177 189 195
185 195 201
187 199 205
184 196 202
181 193 198
168 181 185
192 202 208
186 198 205
182 194 200
186 198 206
181 192 201
176 188 193
179 191 196
180 193 200
104 124 96
84 110 65
83 109 64
87 114 67
88 114 68
87 113 67
85 111 65
85 111 66
87 113 68
87 113 68
86 112 67
83 109 64
88 115 69
107 129 99
130 147 135
149 163 156
167 180 182
178 190 195
173 185 190
187 198 205
179 192 199
182 193 199
174 187 191
182 194 197
86 112 66
83 109 65
78 103 61
88 114 68
85 111 66
81 107 63
86 112 67
90 116 69
90 116 69
87 113 67
82 108 64
85 111 65
88 113 67
84 110 65
88 114 68
86 112 67
87 112 67
87 114 67
90 117 70
85 111 67
87 113 67
84 110 66
84 109 65
127 145 130
182 194 200
191 202 208
184 196 201
191 202 208
176 188 194
172 184 187
184 195 203
190 201 209
186 197 204
169 182 186
183 195 202
196 207 215
177 190 195
168 181 181
152 167 163
147 162 151
141 158 151
128 145 130
112 132 109
101 126 91
86 112 67
86 113 66
84 109 64
127 145 131
190 201 209
190 201 209
187 198 206
184 196 202
187 198 205
185 196 201
191 202 210
182 194 200
180 192 199
180 192 196
183 194 201
190 200 207
172 185 188
188 200 209
175 188 191
179 192 198
192 202 209
186 197 203
188 200 207
177 189 193
174 186 189
192 203 211
168 181 181
91 116 76
85 111 66
83 109 65
89 116 69
89 115 68
82 108 64
87 112 66
85 111 66
83 109 64
88 114 67
81 107 64
84 111 66
84 109 64
90 117 70
85 111 66
84 110 66
83 109 65
83 108 64
85 111 66
85 112 66
85 112 67
91 118 70
95 118 86
183 195 200
185 196 204
185 197 204
181 194 199
183 195 200
189 200 208
188 200 208
175 187 193
183 196 202
181 193 201
182 193 199
181 193 200
194 205 213
179 191 197
179 191 195
181 193 199
181 194 202
170 182 187
170 183 186
187 198 205
178 191 195
174 186 190
107 129 102
88 115 68
81 107 63
87 113 67
85 110 65
84 110 66
84 110 64
86 112 67
84 110 66
83 109 64
83 109 64
88 115 68
81 107 63
80 106 61
89 115 69
85 110 65
81 107 63
88 115 69
86 113 66
85 111 66
85 111 65
143 159 151
173 185 190
179 192 199
172 186 191
177 188 194
186 197 206
180 192 198
186 198 205
186 197 202
179 191 196
183 195 201
186 197 205
177 189 194
182 194 201
177 189 193
177 189 192
184 195 200
186 198 204
181 193 198
178 188 193
145 162 152
87 114 68
88 113 68
86 112 67
82 107 64
89 115 68
82 108 63
83 109 64
83 109 65
87 112 66
86 112 66
86 112 66
88 115 69
81 107 63
80 106 63
83 109 65
87 113 67
82 108 64
92 117 76
155 170 167
176 188 194
183 196 202
169 182 182
158 172 173
171 185 186
160 173 173
155 169 169
150 165 161
154 168 162
148 162 154
144 159 150
124 143 127
141 157 148
140 154 147
155 170 166
166 178 177
141 158 150
102 125 93
89 113 73
81 106 63
84 110 65
88 114 68
82 108 63
85 111 66
79 104 61
85 111 66
78 103 60
82 108 64
86 111 66
82 108 63
80 106 62
90 115 71
149 163 158
182 193 197
180 191 198
182 193 200
179 191 195
174 186 191
174 186 191
176 188 194
172 184 188
178 190 195
168 179 181
186 198 204
153 168 167
157 171 168
168 182 182
178 190 195
171 184 189
183 196 202
172 185 190
177 189 196
181 192 198
180 192 201
180 192 197
166 179 183
173 184 189
150 164 160
84 108 70
107 127 104
121 138 124
155 168 168
168 181 186
178 190 196
169 181 186
176 187 191
142 158 150
108 129 106
129 146 136
148 164 157
172 184 191
167 180 183
194 206 216
212 224 238
221 234 250
225 238 255
225 238 255
225 238 255
225 238 255
225 238 255
225 238 255
225 238 255
225 238 255
225 238 255
225 238 255
225 238 255
225 238 255
225 238 255
225 238 255
225 238 255
225 238 255
225 238 255
225 238 255
225 238 255
225 238 255
225 238 255
225 238 255
225 238 255
225 238 255
225 238 255
225 238 255
225 238 255
225 238 255
225 238 255
225 238 255
225 238 255
225 238 255
225 238 255
225 238 255
225 238 255
225 238 255
225 238 255
221 234 250
191 204 213
172 186 192
134 150 141
156 170 170
172 184 189
166 179 180
141 155 147
93 116 82
84 110 65
81 106 63
81 107 63
94 117 86
133 148 137
164 178 180
171 184 187
179 191 197
177 189 195
175 187 190
183 195 200
150 165 161
110 130 105
151 166 162
166 179 179
181 193 198
180 192 199
173 186 190
177 189 194
169 182 184
174 186 189
176 188 191
172 185 190
175 187 192
176 188 190
150 164 157
126 143 130
99 123 89
82 108 64
81 107 62
81 107 63
86 112 66
128 143 131
173 185 189
174 186 194
181 194 201
179 191 198
172 185 189
181 193 200
170 183 187
187 197 203
175 186 192
144 158 151
139 156 146
90 114 78
86 112 66
84 110 65
79 105 62
82 108 65
84 110 65
88 115 69
85 111 66
86 111 66
85 112 67
111 131 109
179 191 198
179 192 197
175 186 190
175 188 193
190 202 209
180 192 196
179 192 199
183 194 199
172 185 190
181 193 197
164 177 176
148 164 158
152 167 162
117 135 114
131 148 132
126 143 128
129 145 132
137 154 144
140 156 146
156 172 168
140 156 149
159 172 170
152 167 165
125 144 125
109 131 102
98 120 91
112 131 111
94 117 82
104 127 96
91 115 77
83 108 68
88 114 71
81 107 63
82 107 63
87 114 68
82 107 64
89 115 69
85 112 67
80 105 62
85 111 67
90 117 70
96 118 85
124 142 126
130 148 138
163 177 175
172 184 187
136 152 142
89 115 69
84 110 65
86 112 66
87 113 67
84 109 64
86 112 67
82 108 64
87 113 67
84 110 66
88 114 68
83 109 64
84 110 66
83 109 65
83 109 65
80 106 62
88 115 69
90 117 70
79 105 61
81 106 63
85 111 67
87 113 67
87 114 68
78 104 61
151 165 160
175 188 193
182 195 200
177 189 196
192 203 210
169 182 185
163 177 181
181 193 199
184 195 202
189 200 206
182 193 199
174 187 191
184 195 201
175 187 191
188 199 206
185 198 205
191 202 209
180 191 198
174 187 193
181 194 200
182 195 204
179 191 192
161 174 171
148 163 159
136 153 139
143 158 147
150 165 160
161 175 174
175 188 192
185 196 203
180 192 199
173 185 189
175 187 193
179 191 194
177 190 195
175 188 194
174 186 191
185 196 202
178 189 193
185 197 203
179 191 194
183 196 203
179 190 196
180 192 198
181 193 201
180 191 196
189 200 207
124 142 122
80 106 63
89 115 69
84 110 64
87 113 67
86 113 67
91 118 71
84 109 65
86 113 67
89 116 69
85 111 66
81 107 63
88 115 69
85 111 66
89 115 69
87 113 67
84 110 65
89 116 69
89 116 69
81 106 62
81 106 61
88 114 68
85 110 67
170 184 185
190 201 210
183 195 200
179 192 198
175 188 196
186 196 201
181 193 201
178 189 193
181 192 197
184 196 201
184 195 203
190 201 209
183 194 200
178 190 195
176 189 195
166 179 180
178 190 195
182 195 201
180 192 198
179 191 197
186 198 205
185 196 202
111 132 108
87 112 67
85 111 66
84 110 65
89 116 70
88 115 68
87 113 67
86 112 66
89 117 70
81 107 63
80 105 61
89 115 68
88 115 69
88 115 69
88 114 68
88 115 68
85 112 66
83 109 64
83 109 65
83 109 64
87 113 67
150 165 159
184 197 204
181 194 200
177 189 193
185 196 202
182 194 201
183 195 203
177 190 197
180 192 198
179 191 195
182 194 201
178 189 194
190 201 209
179 191 195
180 192 197
183 194 197
174 185 191
177 189 197
175 187 190
183 195 201
145 160 153
104 125 97
101 123 96
105 125 98
116 136 115
114 135 115
119 138 117
132 149 135
133 151 137
142 158 147
143 159 152
139 156 144
132 148 136
147 163 158
164 178 176
166 179 180
162 176 173
171 184 185
159 171 170
115 136 109
92 117 78
91 117 73
78 103 60
84 110 65
89 114 73
104 126 97
120 139 118
121 138 122
136 153 141
146 160 152
164 178 178
180 191 195
182 193 200
177 190 195
169 182 184
190 201 208
115 133 115
84 109 64
83 110 66
80 105 61
84 110 64
84 110 65
87 113 67
83 108 64
83 109 65
85 110 66
84 110 65
89 116 69
83 108 64
88 114 68
84 110 65
108 129 103
151 167 160
188 199 209
184 195 202
186 197 202
179 191 198
177 189 196
187 198 203
167 180 182
163 176 176
150 164 157
121 138 127
97 120 88
84 110 66
131 147 133
167 180 184
181 193 200
179 191 197
181 194 202
173 185 188
178 190 196
177 190 194
174 186 191
176 188 194
176 189 193
163 177 179
139 155 144
160 173 174
168 181 186
169 182 184
177 189 195
173 185 189
173 186 191
180 192 199
154 167 167
148 163 157
163 176 178
177 190 197
161 175 177
189 203 210
208 221 234
222 235 252
225 238 255
225 238 255
225 238 255
225 238 255
225 238 255
225 238 255
225 238 255
225 238 255
225 238 255
225 238 255
225 238 255
225 238 255
225 238 255
225 238 255
225 238 255
225 238 255
225 238 255
225 238 255
225 238 255
225 238 255
225 238 255
225 238 255
225 238 255
225 238 255
225 238 255
225 238 255
225 238 255
225 238 255
225 238 255
225 238 255
225 238 255
225 238 255
225 238 255
225 238 255
225 238 255
225 238 255
225 238 255
225 238 255
225 238 255
225 238 255
225 238 255
225 238 255
225 238 255
217 230 246
192 205 214
151 167 164
146 160 157
143 159 154
167 180 182
153 168 164
140 156 148
103 123 97
80 105 62
81 107 63
77 101 58
110 131 102
146 161 156
154 169 169
179 190 196
167 181 185
183 194 199
80 106 63
82 107 62
85 110 65
96 118 87
123 140 127
151 165 163
162 175 176
180 192 198
176 188 191
168 181 186
186 197 203
174 185 188
175 187 190
184 196 202
171 184 185
167 180 183
167 181 180
146 161 158
103 125 96
89 113 72
133 150 139
177 188 191
183 195 202
178 190 196
169 181 183
174 187 191
171 184 189
179 191 196
178 190 195
186 198 206
182 193 200
179 192 198
174 186 192
168 182 183
150 165 157
120 138 121
94 117 83
87 113 67
82 109 65
84 110 65
82 108 64
81 107 63
121 139 124
182 194 200
184 197 205
183 196 203
182 194 201
177 189 194
180 192 199
169 182 186
177 189 194
171 184 189
167 180 180
171 183 186
171 183 186
179 191 198
170 183 187
157 171 171
140 156 146
106 127 104
88 113 70
84 109 64
81 107 62
83 108 64
83 109 64
114 132 112
170 183 189
178 190 193
178 190 194
184 197 204
182 193 199
183 196 204
182 194 199
171 183 186
179 191 198
171 183 186
169 182 185
169 182 186
181 193 199
153 167 164
167 180 184
163 177 175
153 167 164
146 162 156
145 160 155
141 157 154
146 162 154
159 173 174
136 152 142
119 137 120
120 140 115
98 122 87
91 114 76
106 127 102
112 134 109
129 146 129
125 141 127
120 139 122
119 138 119
111 131 108
107 129 99
116 135 111
99 122 90
111 132 104
98 119 90
98 121 89
94 116 84
95 117 85
87 113 72
86 112 69
88 114 71
88 114 69
112 133 107
178 190 195
185 197 201
177 189 194
186 198 207
174 185 189
183 194 200
168 181 185
171 183 187
174 186 189
179 191 196
177 188 194
195 206 215
183 194 202
183 195 203
186 198 206
176 188 193
188 199 206
179 191 198
183 195 201
189 201 210
174 185 190
175 189 194
178 191 197
131 148 129
82 108 64
81 107 63
87 113 68
88 114 68
83 108 64
92 118 74
98 120 88
113 133 107
126 144 127
135 152 138
152 167 162
144 160 152
157 171 170
165 178 179
162 176 176
182 194 201
182 194 200
183 195 202
180 193 200
187 198 203
180 192 199
184 196 204
154 170 166
87 112 67
87 113 67
86 112 65
88 115 68
85 110 65
85 111 65
90 117 70
79 104 61
84 110 66
91 117 71
79 104 62
87 114 68
85 111 66
86 113 67
83 109 65
79 105 62
85 111 66
82 109 65
82 108 64
85 111 67
84 110 65
83 109 63
130 147 135
179 191 196
185 197 204
182 194 202
178 188 193
180 192 198
179 190 194
182 194 200
180 193 199
188 200 207
184 195 199
191 202 211
168 181 185
181 194 200
180 192 197
183 195 200
178 190 196
176 189 196
182 193 199
176 189 195
179 193 200
179 191 196
128 145 130
86 113 67
87 112 70
91 116 77
89 113 73
96 121 82
106 129 97
95 119 81
98 122 87
109 129 102
101 125 94
99 121 92
118 138 117
111 131 107
122 140 121
127 144 127
130 146 131
126 146 129
132 151 133
129 147 129
129 147 129
113 134 109
152 167 161
133 151 137
138 154 144
130 146 134
139 156 145
116 135 116
130 147 131
113 134 113
123 141 125
119 137 116
111 130 105
112 131 109
105 126 97
99 122 87
91 114 80
98 121 87
87 111 72
86 113 67
81 107 63
138 153 147
177 189 194
178 190 195
168 181 185
178 191 199
183 195 201
187 199 209
177 190 196
178 191 195
179 192 199
183 194 201
187 198 206
173 186 193
184 196 203
175 187 193
176 187 192
183 195 203
170 182 184
169 182 187
145 162 153
124 140 129
146 162 155
150 164 160
155 169 165
172 184 185
182 194 202
186 196 203
178 189 197
181 193 199
183 195 202
173 185 189
183 194 200
183 194 203
181 193 200
172 184 188
177 190 195
116 135 116
84 110 65
87 114 68
81 106 62
82 108 64
86 112 66
82 108 64
82 107 64
79 104 61
85 112 66
84 110 65
86 112 67
84 109 64
81 106 62
81 107 63
131 149 133
178 190 196
168 181 185
170 182 187
172 185 190
166 179 178
143 159 152
125 143 130
92 115 83
84 109 67
83 109 65
80 105 62
80 105 62
107 130 102
171 184 186
169 181 185
179 191 197
183 194 201
180 191 197
187 198 205
181 193 198
177 188 193
146 161 159
153 167 162
130 148 132
160 173 171
183 194 200
174 187 196
174 186 191
170 182 188
164 177 180
166 179 182
153 167 162
152 165 165
171 184 190
175 187 191
152 167 163
171 185 190
189 202 210
222 234 251
225 238 255
225 238 255
225 238 255
225 238 255
225 238 255
225 238 255
225 238 255
225 238 255
225 238 255
225 238 255
225 238 255
225 238 255
225 238 255
225 238 255
225 238 255
225 238 255
225 238 255
225 238 255
225 238 255
225 238 255
225 238 255
225 238 255
225 238 255
225 238 255
225 238 255
225 238 255
225 238 255
225 238 255
225 238 255
225 238 255
225 238 255
225 238 255
225 238 255
225 238 255
225 238 255
225 238 255
225 238 255
225 238 255
225 238 255
225 238 255
225 238 255
225 238 255
225 238 255
225 238 255
225 238 255
225 238 255
225 238 255
225 238 255
225 238 255
218 231 247
184 199 204
152 168 165
142 157 147
149 164 161
168 181 187
157 170 168
136 152 144
113 132 109
81 107 63
77 102 60
76 101 58
94 115 88
123 140 124
147 162 156
91 115 76
85 111 66
84 110 65
76 101 58
84 111 66
82 107 62
85 109 72
119 137 120
143 157 151
160 173 175
187 198 205
176 187 193
180 192 199
178 189 194
177 189 194
180 192 199
184 195 202
178 190 195
179 191 197
165 179 182
149 165 159
156 171 168
168 181 184
176 188 193
175 186 190
174 186 191
179 191 199
175 186 190
174 187 191
166 178 180
172 185 192
181 193 199
170 183 186
181 192 199
178 191 197
181 193 198
173 185 186
154 168 165
132 148 137
116 134 115
99 120 90
82 109 64
135 150 139
172 186 190
175 187 191
179 190 194
173 185 189
173 185 188
175 187 192
174 187 192
179 191 198
178 190 195
178 189 195
177 190 197
175 188 194
176 188 192
172 184 189
170 184 187
179 191 195
179 191 197
186 197 205
169 183 186
147 163 158
119 138 121
102 124 94
151 166 161
182 193 200
181 193 198
168 181 182
179 193 202
164 177 178
175 186 192
181 193 200
175 187 192
180 192 194
167 180 184
175 187 191
181 194 204
189 201 208
173 185 191
175 188 192
172 184 186
174 186 192
180 192 197
170 182 185
160 174 176
177 189 194
191 202 212
158 172 169
86 112 66
88 115 69
82 107 63
86 113 68
86 112 66
80 106 62
110 129 107
129 147 132
143 158 152
150 165 159
177 189 191
177 188 191
171 184 189
180 192 199
171 184 190
182 194 200
175 188 193
183 195 202
180 192 198
172 185 190
173 186 191
176 188 194
175 186 190
134 152 135
89 115 71
84 109 67
87 112 72
91 115 74
85 110 68
96 119 88
96 118 87
90 114 78
104 125 95
104 126 97
108 129 105
126 146 126
110 130 107
121 140 120
114 135 109
116 136 113
108 132 101
122 140 123
128 147 129
123 143 121
120 139 119
134 151 135
141 157 148
155 170 168
158 173 168
150 165 158
151 166 164
141 158 149
147 162 154
148 163 157
150 166 163
153 168 163
158 173 168
146 161 154
153 168 164
140 156 146
152 166 162
144 159 149
141 157 150
148 163 158
155 170 168
157 171 171
166 180 184
182 194 201
176 188 194
172 186 189
126 144 128
124 143 123
119 138 119
130 148 132
141 157 147
136 153 146
153 169 164
151 167 163
157 171 167
150 165 161
145 160 155
153 168 166
150 165 160
146 162 159
141 157 150
152 167 159
149 164 159
152 166 160
162 175 173
150 165 161
149 165 158
148 163 155
123 140 126
132 149 135
129 147 133
121 140 122
116 135 115
128 146 130
101 122 95
110 130 107
111 131 105
119 139 116
122 140 123
121 140 118
113 134 107
111 131 107
113 134 110
102 124 93
109 130 103
97 121 87
93 118 80
90 114 76
94 118 81
89 114 76
134 150 139
180 191 198
186 198 205
164 177 180
169 182 187
176 189 194
179 191 199
180 192 200
181 194 201
180 193 198
177 190 195
184 195 204
178 191 197
180 192 197
184 195 201
192 203 212
178 190 196
177 189 194
180 192 199
184 196 200
185 197 203
150 165 162
83 109 65
87 113 67
82 108 63
90 117 71
86 112 67
87 114 67
90 117 70
82 108 64
82 108 63
85 111 66
88 114 68
86 112 67
85 111 66
80 106 61
82 108 64
84 110 65
79 104 61
84 109 64
86 111 69
153 168 165
175 187 191
183 194 199
173 185 188
171 182 185
175 188 192
166 179 181
169 182 183
152 166 164
150 164 158
150 165 161
131 149 138
134 152 138
141 158 146
95 117 89
97 120 84
87 112 70
84 111 66
105 126 97
158 172 172
171 184 186
183 193 200
187 199 207
179 190 196
185 196 200
178 191 196
178 190 196
184 196 202
176 188 194
181 192 197
185 198 206
176 188 194
172 184 189
177 189 194
176 189 196
164 176 176
97 120 86
81 106 62
85 111 66
80 106 62
84 111 66
85 111 66
81 106 63
82 107 63
84 110 65
85 110 66
82 108 64
80 106 63
81 106 63
82 107 63
93 117 82
140 156 147
140 155 148
129 146 136
120 139 120
101 123 94
81 107 63
85 111 66
84 110 65
83 108 64
87 114 68
88 115 69
77 101 58
86 112 69
135 151 141
173 185 190
167 180 183
167 179 182
176 187 194
176 188 192
154 170 168
139 155 147
112 130 111
90 114 78
83 106 73
145 159 154
174 186 192
173 186 190
176 189 196
167 180 184
145 160 157
124 141 129
112 131 109
142 158 149
160 173 179
135 151 143
164 179 179
183 197 204
220 233 249
225 238 255
225 238 255
225 238 255
225 238 255
225 238 255
225 238 255
225 238 255
225 238 255
225 238 255
225 238 255
225 238 255
225 238 255
225 238 255
225 238 255
225 238 255
225 238 255
225 238 255
225 238 255
225 238 255
225 238 255
225 238 255
225 238 255
225 238 255
225 238 255
225 238 255
225 238 255
225 238 255
225 238 255
225 238 255
225 238 255
225 238 255
225 238 255
225 238 255
225 238 255
225 238 255
225 238 255
225 238 255
225 238 255
225 238 255
225 238 255
225 238 255
225 238 255
225 238 255
225 238 255
225 238 255
225 238 255
225 238 255
225 238 255
225 238 255
225 238 255
225 238 255
225 238 255
225 238 255
225 238 255
225 238 255
223 236 253
185 199 206
153 167 167
127 144 132
161 174 172
167 180 183
156 169 169
134 151 139
111 129 112
75 99 58
82 107 63
79 105 62
151 165 160
149 164 160
131 148 136
87 110 75
80 105 62
83 109 64
87 113 67
85 110 66
80 106 63
78 104 61
100 121 94
129 144 134
160 174 175
176 187 190
180 192 200
160 173 175
163 176 177
167 181 185
172 185 188
174 188 194
127 144 130
79 105 62
80 105 63
97 119 88
136 150 143
157 171 169
178 190 197
181 193 199
180 192 196
174 185 188
167 180 183
180 192 195
169 181 186
179 190 196
182 194 203
168 181 184
169 181 184
176 188 193
173 185 192
178 190 195
164 177 179
164 176 175
124 141 126
146 162 159
159 173 174
176 188 194
175 186 189
173 186 192
166 179 184
171 185 190
187 198 204
180 191 198
168 181 188
178 191 199
176 188 192
181 193 201
173 184 187
183 195 200
178 189 195
179 190 196
183 195 199
176 188 194
176 189 194
179 191 196
172 185 192
92 114 85
121 139 121
142 157 148
135 150 142
168 181 184
171 184 187
164 176 178
171 183 187
180 191 196
180 193 199
175 188 193
180 192 198
185 197 206
181 194 201
179 190 197
183 195 200
178 190 196
176 188 192
178 191 198
168 182 187
175 185 188
169 182 185
165 178 180
135 153 138
88 115 68
82 108 64
87 113 67
83 109 64
81 106 63
81 107 63
84 110 65
86 112 67
85 111 66
83 109 64
83 109 64
85 111 69
108 129 101
139 155 141
131 149 138
153 167 166
161 175 175
176 189 191
178 191 198
173 184 189
171 184 188
186 197 202
173 185 187
85 111 66
88 114 69
87 113 68
83 109 65
85 111 66
80 105 61
88 114 67
77 102 59
84 109 65
86 112 67
87 113 68
82 108 64
85 110 65
85 111 66
81 108 65
86 113 67
85 111 66
85 110 65
85 111 66
84 111 66
81 107 63
79 104 60
78 102 59
168 181 184
182 194 200
182 194 202
169 182 185
184 196 206
183 194 199
189 199 208
181 193 200
178 190 195
180 191 198
182 194 202
185 197 205
175 188 194
177 190 194
183 194 202
175 186 191
181 194 200
170 183 185
178 190 196
177 189 193
181 193 199
183 195 203
172 184 187
122 141 120
83 108 63
83 110 66
84 110 65
85 112 67
85 111 66
83 108 67
93 117 83
108 130 101
106 126 99
122 141 121
130 148 133
130 149 132
133 150 134
144 160 152
152 166 161
155 169 171
153 168 165
161 174 174
170 183 183
162 176 177
162 175 174
164 176 181
97 120 88
87 114 68
81 107 64
84 110 65
87 113 67
83 108 63
85 111 66
80 106 63
85 111 67
80 105 62
80 105 62
84 109 65
88 114 68
84 110 64
84 109 65
81 107 63
88 114 68
89 116 69
77 101 59
89 115 69
84 111 66
112 132 110
175 188 193
180 192 200
178 189 193
176 188 191
174 186 190
183 195 201
185 197 204
186 197 202
179 192 199
174 187 191
180 193 198
179 190 194
177 190 196
175 188 195
172 185 189
173 185 189
171 185 189
174 187 190
188 199 206
187 198 204
146 160 153
81 106 63
81 106 62
85 111 66
80 106 62
83 109 65
87 113 67
85 112 67
79 105 62
82 108 63
94 117 82
106 126 99
94 117 82
110 130 104
113 133 110
121 139 121
145 161 154
125 144 128
136 151 144
145 160 153
114 134 109
124 143 128
100 121 93
114 134 111
103 125 97
82 107 66
84 110 65
85 111 66
84 110 65
81 106 63
85 110 66
82 107 64
83 109 65
82 107 63
81 107 63
87 113 67
81 107 63
83 110 65
116 135 121
170 182 185
181 193 200
177 190 196
186 198 207
184 196 203
188 198 205
181 193 199
181 194 202
176 188 196
183 193 199
187 199 206
178 189 193
175 187 192
182 193 199
173 185 190
167 180 182
156 170 165
83 107 65
80 106 63
89 116 69
79 104 61
85 110 65
81 107 63
87 114 69
82 108 64
84 110 66
82 107 64
96 121 84
102 124 95
138 154 144
150 165 160
135 151 137
95 119 79
79 104 61
85 111 66
85 110 65
84 109 65
80 106 62
85 110 65
81 107 63
79 104 61
84 110 66
80 106 63
83 108 63
127 145 134
168 181 185
165 178 181
163 177 178
131 148 135
132 148 134
110 131 107
90 114 75
84 110 65
84 111 66
87 111 77
127 145 132
170 183 190
169 180 183
154 168 166
133 150 141
111 129 110
88 112 72
110 129 109
127 143 131
124 141 132
160 175 174
186 200 207
220 233 249
225 238 255
225 238 255
225 238 255
225 238 255
225 238 255
225 238 255
225 238 255
225 238 255
225 238 255
225 238 255
225 238 255
225 238 255
225 238 255
225 238 255
225 238 255
225 238 255
225 238 255
225 238 255
225 238 255
225 238 255
225 238 255
225 238 255
225 238 255
225 238 255
225 238 255
225 238 255
225 238 255
225 238 255
225 238 255
225 238 255
225 238 255
225 238 255
225 238 255
225 238 255
225 238 255
225 238 255
225 238 255
225 238 255
225 238 255
225 238 255
225 238 255
225 238 255
225 238 255
225 238 255
225 238 255
225 238 255
225 238 255
225 238 255
225 238 255
225 238 255
225 238 255
225 238 255
225 238 255
225 238 255
225 238 255
225 238 255
225 238 255
225 238 255
225 238 255
225 238 255
225 238 255
224 236 254
195 208 218
159 174 175
127 144 131
161 174 172
164 178 182
169 181 186
144 157 155
111 129 108
128 145 133
163 176 180
167 179 183
176 189 193
154 167 166
129 145 137
100 123 92
83 107 66
82 107 63
86 113 67
78 103 60
80 106 63
81 107 63
85 108 75
127 144 131
141 155 148
174 186 192
180 191 199
165 177 179
179 192 200
128 143 133
81 105 62
79 105 62
84 110 65
84 110 66
79 104 62
81 104 67
115 134 114
130 146 133
155 169 167
174 186 191
184 196 201
171 184 188
175 187 192
175 186 191
181 193 201
171 183 187
166 178 181
171 182 186
175 187 191
185 196 203
167 180 183
101 121 93
85 111 66
87 112 70
122 139 122
131 147 136
145 159 154
161 173 174
182 195 201
178 191 197
172 184 188
174 186 189
178 190 194
176 188 195
174 186 193
184 194 201
178 190 196
174 186 189
191 203 212
184 195 202
181 193 202
180 192 200
176 188 191
157 171 169
86 112 67
77 102 59
81 107 63
78 103 61
84 110 66
88 112 77
129 147 132
123 140 126
160 173 171
171 183 188
176 188 193
173 185 191
183 196 204
171 183 185
177 190 196
178 189 195
185 196 202
177 189 193
176 189 192
170 183 185
178 190 196
179 191 197
168 180 183
99 123 91
90 117 70
84 110 65
77 102 59
81 107 63
83 109 64
86 113 67
79 104 61
81 106 63
85 111 65
84 110 66
85 111 66
85 111 66
87 113 67
83 108 64
80 105 62
79 104 61
84 110 65
89 114 73
107 129 99
115 134 112
134 151 137
157 172 173
137 153 143
104 126 99
84 110 65
84 110 64
84 110 65
82 108 63
84 109 64
88 115 69
83 109 64
80 105 61
81 107 63
81 107 63
80 106 62
85 111 66
82 109 65
79 104 61
84 110 66
85 111 66
82 108 64
83 108 64
81 107 63
84 110 66
85 112 67
113 133 113
177 189 192
183 195 202
189 200 206
181 193 200
181 193 198
182 194 200
182 194 200
176 188 191
174 186 192
182 194 199
174 186 190
180 193 198
183 195 202
174 186 191
176 188 192
188 200 209
175 187 193
185 197 204
171 183 188
189 200 206
165 178 181
177 189 195
159 172 171
81 106 66
86 112 67
82 107 63
83 109 64
86 113 67
86 112 67
86 113 67
86 113 67
85 111 66
85 112 67
86 111 66
86 112 66
79 105 61
85 111 65
83 109 64
83 110 65
86 112 67
86 112 66
83 109 65
87 113 67
89 116 69
82 106 71
164 178 179
183 194 200
177 189 196
175 187 192
172 184 185
166 179 181
166 179 181
156 171 170
154 168 167
156 170 169
152 166 162
156 171 166
148 163 158
152 166 158
141 158 151
147 162 154
145 160 153
151 166 158
141 156 147
157 172 170
134 151 137
120 138 119
123 139 128
151 166 160
145 161 151
149 164 157
160 174 171
148 162 158
149 163 159
136 152 142
137 154 142
144 160 150
137 153 140
148 163 157
132 148 136
146 160 152
128 146 129
142 157 146
135 152 140
135 151 139
135 150 136
129 147 132
148 162 158
147 161 159
147 163 157
140 155 148
156 169 167
164 178 177
157 170 168
174 185 188
167 181 185
176 188 192
183 194 199
177 189 195
181 191 199
184 195 201
180 191 197
177 189 194
179 190 196
187 198 207
189 199 206
181 192 199
123 142 124
84 110 66
86 112 67
82 107 64
82 108 63
79 104 61
79 104 61
83 108 64
83 108 64
87 114 68
83 109 65
81 106 62
81 106 62
81 106 63
83 109 64
85 110 65
82 107 63
78 103 61
122 141 123
172 185 191
172 184 189
170 182 184
177 189 193
180 192 201
178 189 194
178 190 195
175 187 192
177 189 194
168 181 186
169 181 185
171 185 192
173 185 188
184 195 200
177 189 194
173 186 190
119 139 120
85 111 66
78 103 60
79 105 62
82 108 64
85 109 70
110 131 107
123 142 124
128 144 130
151 166 163
160 174 176
170 183 187
186 197 206
177 188 192
177 189 194
113 132 113
79 104 62
82 108 64
81 107 63
81 107 62
80 104 61
81 106 62
83 110 66
81 107 63
78 103 60
84 109 65
85 111 66
96 116 92
138 153 145
164 176 177
124 141 125
94 116 84
80 105 62
83 108 64
82 107 64
78 103 61
86 112 67
87 110 75
134 149 140
150 164 161
142 158 154
109 128 108
89 111 79
81 106 63
85 111 69
95 118 83
118 136 122
157 173 172
206 219 232
222 235 251
225 238 255
225 238 255
225 238 255
225 238 255
225 238 255
225 238 255
225 238 255
225 238 255
225 238 255
225 238 255
225 238 255
225 238 255
225 238 255
225 238 255
225 238 255
225 238 255
225 238 255
225 238 255
225 238 255
225 238 255
225 238 255
225 238 255
225 238 255
225 238 255
225 238 255
225 238 255
225 238 255
225 238 255
225 238 255
225 238 255
225 238 255
225 238 255
225 238 255
225 238 255
225 238 255
225 238 255
225 238 255
225 238 255
225 238 255
225 238 255
225 238 255
225 238 255
225 238 255
225 238 255
225 238 255
225 238 255
225 238 255
225 238 255
225 238 255
225 238 255
225 238 255
225 238 255
225 238 255
225 238 255
225 238 255
225 238 255
225 238 255
225 238 255
225 238 255
225 238 255
225 238 255
225 238 255
225 238 255
225 238 255
225 238 255
225 238 255
225 238 255
225 238 255
204 218 230
153 168 165
135 150 143
140 155 152
161 174 176
159 172 174
108 126 109
124 141 129
155 169 169
159 171 174
178 190 197
159 172 174
161 174 176
142 157 153
99 120 93
90 113 78
83 108 64
79 104 61
80 104 61
77 101 59
75 99 58
82 107 62
106 126 105
144 159 152
152 167 163
119 138 121
87 113 68
82 108 64
81 106 63
82 107 63
84 110 66
83 109 65
78 103 61
88 115 69
85 111 66
92 116 79
110 130 108
146 161 155
154 168 168
168 180 182
162 175 176
176 188 193
170 183 185
169 180 185
162 175 179
172 185 189
169 181 184
80 104 61
84 110 65
81 106 63
85 112 67
81 107 63
83 109 64
82 107 63
95 118 85
119 137 121
140 155 144
171 184 187
175 187 193
168 180 183
173 185 192
172 184 187
192 203 212
170 183 187
168 181 186
177 190 195
168 181 185
165 180 183
166 178 181
130 146 135
85 111 67
85 112 66
85 112 66
87 113 67
82 108 64
82 108 63
82 108 64
81 107 63
79 104 62
82 108 64
96 119 85
140 156 144
137 153 145
168 181 182
174 186 192
175 187 193
170 182 187
168 179 185
175 188 192
178 190 197
181 192 195
180 191 197
149 164 159
82 108 64
88 115 68
84 110 65
85 110 66
85 111 66
80 106 63
82 107 63
84 110 66
84 110 65
80 105 62
80 106 62
81 107 63
81 107 63
77 101 59
83 108 64
82 108 64
82 107 63
86 113 68
84 110 65
86 113 68
82 107 63
79 104 60
106 130 95
172 184 189
183 194 201
173 185 189
169 183 188
160 174 174
131 150 136
123 141 128
112 133 106
96 119 88
83 108 67
87 113 67
82 108 63
85 111 66
79 105 62
79 105 61
83 109 65
88 114 68
81 106 62
79 105 62
81 106 62
84 110 64
86 112 66
85 110 68
162 175 175
174 186 191
182 193 199
174 186 192
178 190 196
185 196 202
181 192 197
180 192 199
186 197 205
176 188 195
163 176 178
165 178 180
173 186 189
175 187 190
165 178 178
174 187 193
183 194 201
178 190 195
179 191 199
181 192 197
180 192 200
183 194 199
173 186 191
88 110 76
81 107 63
86 112 67
84 110 65
81 106 62
84 110 65
82 108 63
80 106 63
84 110 65
82 108 64
84 110 65
83 108 64
85 110 65
85 111 66
84 110 66
87 113 67
86 111 66
83 109 65
84 110 65
85 111 66
86 112 66
87 113 68
145 161 154
186 198 206
174 187 191
175 188 194
185 197 204
174 186 188
173 186 192
183 194 199
189 199 208
176 189 196
187 199 208
180 192 200
182 194 198
185 197 204
181 194 202
166 180 182
180 192 197
176 188 195
179 191 198
182 194 199
185 197 205
174 186 190
85 110 69
82 108 64
81 106 62
85 111 66
81 106 62
84 109 65
81 106 62
84 110 65
82 109 65
85 112 67
85 111 66
87 113 68
84 110 65
83 109 65
85 111 65
86 112 67
84 110 65
85 111 66
82 108 63
84 110 65
120 138 123
181 192 199
180 192 199
177 190 193
174 187 191
179 191 199
171 185 187
171 184 189
176 188 193
178 191 198
171 182 187
168 180 184
183 194 201
179 190 196
177 189 194
176 188 191
162 176 176
164 177 180
175 186 190
174 187 192
119 138 117
81 107 63
81 106 63
80 104 61
83 109 64
83 108 64
85 111 66
82 108 64
81 107 63
81 107 63
84 109 66
82 107 64
86 112 66
78 103 60
87 114 68
86 112 67
83 109 65
93 116 82
142 157 150
175 188 192
171 184 187
169 181 184
159 174 175
180 192 199
181 192 198
175 188 195
180 191 198
173 185 189
180 192 197
181 192 198
165 179 182
179 191 196
176 188 195
164 176 179
161 176 176
98 120 93
120 139 121
116 134 118
133 148 139
150 165 161
156 171 171
165 177 182
161 175 179
185 197 206
175 187 191
176 188 193
172 184 188
165 179 184
179 191 198
148 163 158
103 125 95
82 108 64
84 110 66
81 106 62
86 113 67
81 107 63
81 106 63
82 108 64
81 106 61
97 121 89
119 138 118
124 142 126
98 120 90
82 108 67
85 111 66
81 106 63
81 106 62
84 109 65
81 106 62
78 103 61
82 108 63
88 113 74
88 113 73
109 129 109
87 110 76
79 105 62
79 103 61
99 118 95
100 121 96
124 142 129
167 182 184
207 220 234
224 237 254
225 238 255
225 238 255
225 238 255
225 238 255
225 238 255
225 238 255
225 238 255
225 238 255
225 238 255
225 238 255
225 238 255
225 238 255
225 238 255
225 238 255
225 238 255
225 238 255
225 238 255
225 238 255
225 238 255
225 238 255
225 238 255
225 238 255
225 238 255
225 238 255
225 238 255
225 238 255
225 238 255
225 238 255
225 238 255
225 238 255
225 238 255
225 238 255
225 238 255
225 238 255
225 238 255
225 238 255
225 238 255
225 238 255
225 238 255
225 238 255
225 238 255
225 238 255
225 238 255
225 238 255
225 238 255
225 238 255
225 238 255
225 238 255
225 238 255
225 238 255
225 238 255
225 238 255
225 238 255
225 238 255
225 238 255
225 238 255
225 238 255
225 238 255
225 238 255
225 238 255
225 238 255
225 238 255
225 238 255
225 238 255
225 238 255
225 238 255
225 238 255
225 238 255
225 238 255
225 238 255
225 238 255
225 238 255
225 238 255
225 238 255
212 225 238
178 192 197
147 163 157
119 138 121
92 114 87
81 105 64
97 117 89
122 139 125
150 163 160
167 180 184
164 176 180
166 178 182
161 175 178
158 172 170
106 123 107
101 120 96
78 103 60
79 104 61
86 112 67
82 108 64
84 111 66
79 103 60
147 161 156
147 162 161
125 142 128
91 111 81
82 107 63
82 107 63
83 109 65
86 112 66
88 114 67
85 111 66
81 106 63
81 107 63
79 103 60
81 107 62
86 110 71
121 138 124
127 143 131
156 169 169
168 180 183
177 189 195
171 182 186
156 170 167
76 101 59
78 102 60
80 105 62
83 108 64
80 105 62
86 113 67
78 103 61
79 104 61
83 109 65
78 103 60
79 104 62
92 116 77
135 151 139
145 160 154
150 164 161
179 191 197
174 186 192
174 186 187
177 190 197
185 197 203
186 197 204
170 183 187
111 130 109
79 104 61
79 104 61
79 104 62
82 107 64
81 106 63
85 110 66
82 108 63
78 103 61
80 105 62
80 105 62
80 105 62
79 105 61
85 111 65
79 104 62
84 110 65
93 118 78
116 135 115
136 151 141
141 156 151
165 178 180
166 178 180
175 188 194
103 123 98
87 113 67
87 113 67
82 108 64
90 116 70
77 103 60
81 106 62
81 107 64
79 104 61
79 103 61
80 105 62
75 100 57
81 107 63
78 104 62
85 111 65
81 106 62
81 106 63
75 100 58
80 105 61
83 108 64
81 106 62
81 107 64
81 106 62
146 161 155
175 187 194
170 183 188
175 187 192
170 183 184
178 190 194
189 199 206
174 186 191
177 189 194
184 196 204
185 197 202
171 184 185
159 173 173
153 167 166
142 158 148
131 147 136
108 127 103
96 120 81
83 109 64
80 106 62
83 109 65
84 110 66
84 110 65
137 154 142
169 182 186
178 190 196
173 185 189
179 191 197
169 182 185
183 194 200
180 193 200
187 198 204
185 196 203
172 185 191
182 195 204
175 187 191
170 183 186
188 198 203
183 195 203
181 193 200
172 185 189
180 193 201
174 186 191
165 178 182
182 193 201
178 190 197
135 152 138
80 105 62
85 111 66
86 112 67
84 110 66
84 111 66
79 105 62
80 106 62
86 112 67
82 107 63
82 108 65
81 107 64
85 112 66
81 106 62
82 108 64
83 108 63
82 107 64
80 106 62
87 113 67
79 104 61
84 110 66
82 108 64
108 128 108
176 189 195
177 189 193
171 183 186
170 183 185
171 183 188
167 180 184
177 189 195
172 183 187
178 190 193
171 184 188
172 185 188
180 192 198
168 180 185
173 185 189
177 190 194
179 190 195
183 195 203
171 184 188
176 188 194
167 179 182
179 192 199
103 123 98
81 107 63
82 108 65
83 109 64
82 108 64
83 109 65
88 114 68
81 107 63
83 108 64
80 106 62
87 114 68
83 109 65
80 106 62
83 109 65
83 109 65
84 110 65
83 108 64
84 110 66
84 110 65
83 109 64
118 138 117
170 181 183
180 192 200
183 194 201
174 186 189
174 186 190
170 182 186
175 188 194
175 188 191
178 190 197
176 189 195
165 178 182
174 187 192
186 197 204
173 186 191
170 183 188
170 182 188
167 180 186
182 195 202
174 186 191
102 123 98
82 107 65
86 112 67
82 107 63
78 103 61
83 109 65
82 108 63
80 105 61
82 109 65
80 105 62
83 108 64
82 107 63
83 108 64
80 106 62
85 111 66
81 106 62
86 112 67
92 115 81
163 176 173
171 184 189
177 189 193
179 191 195
177 190 194
186 198 207
167 179 183
179 192 198
169 182 185
181 193 199
168 181 183
163 176 177
153 167 164
134 149 141
138 153 144
120 138 120
163 176 174
181 193 200
174 187 193
175 187 192
165 178 182
177 189 192
158 172 173
177 188 192
172 184 188
164 177 180
162 175 177
164 176 180
175 187 196
169 183 189
169 181 184
116 134 118
79 104 61
81 106 62
78 103 60
85 111 65
80 105 62
105 125 99
117 135 121
144 159 151
149 162 159
170 183 186
171 184 189
140 155 148
95 117 85
83 108 64
81 107 65
78 103 62
74 98 57
78 103 61
111 130 108
130 146 133
134 148 139
121 138 124
83 107 71
75 101 59
81 105 67
124 142 127
129 144 133
177 190 197
204 217 229
208 221 235
225 238 255
225 238 255
225 238 255
225 238 255
225 238 255
225 238 255
225 238 255
225 238 255
225 238 255
225 238 255
225 238 255
225 238 255
225 238 255
225 238 255
225 238 255
225 238 255
225 238 255
225 238 255
225 238 255
225 238 255
225 238 255
225 238 255
225 238 255
225 238 255
225 238 255
225 238 255
225 238 255
225 238 255
225 238 255
225 238 255
225 238 255
225 238 255
225 238 255
225 238 255
225 238 255
225 238 255
225 238 255
225 238 255
225 238 255
225 238 255
225 238 255
225 238 255
225 238 255
225 238 255
225 238 255
225 238 255
225 238 255
225 238 255
225 238 255
225 238 255
225 238 255
225 238 255
225 238 255
225 238 255
225 238 255
225 238 255
225 238 255
225 238 255
225 238 255
225 238 255
225 238 255
225 238 255
226 238 255
226 238 255
226 238 255
226 238 255
226 238 255
226 238 255
226 238 255
226 238 255
226 238 255
226 238 255
226 238 255
226 238 255
226 238 255
226 238 255
226 238 255
226 238 255
226 238 255
226 238 255
226 238 255
224 236 254
182 196 203
154 168 166
95 117 89
80 105 62
94 114 89
96 119 86
121 139 123
123 140 133
154 168 169
170 183 189
169 182 185
164 177 179
147 160 157
122 139 127
123 142 126
85 110 68
81 106 62
82 107 63
150 165 164
176 188 194
165 178 179
169 182 187
149 163 162
146 161 154
122 138 127
101 123 92
80 106 63
78 103 60
80 105 61
82 107 63
82 108 64
83 108 64
77 101 60
82 108 65
81 105 62
82 107 64
79 102 66
127 144 130
159 172 170
140 155 147
85 109 73
81 106 63
83 109 65
78 103 59
83 110 65
80 106 63
79 104 61
81 106 63
83 109 64
74 99 58
83 109 64
80 105 62
83 109 64
77 102 59
82 108 64
83 107 68
103 126 94
131 148 135
139 155 147
161 176 174
185 197 202
176 188 192
87 112 72
85 111 66
79 105 61
81 107 63
85 110 66
83 109 64
81 107 63
84 110 65
84 109 64
81 106 62
81 108 64
81 106 62
81 107 63
78 103 60
80 105 62
81 107 63
84 110 65
79 104 61
83 108 64
79 105 62
80 105 62
95 118 83
133 149 138
142 157 153
133 152 141
110 129 108
85 111 71
81 106 63
82 108 63
84 109 64
86 113 66
77 103 60
80 105 61
77 102 59
81 107 63
85 111 67
80 106 62
80 106 63
84 110 65
81 106 63
82 107 63
82 108 64
85 111 66
78 103 61
80 104 62
97 121 84
179 191 195
171 182 187
183 194 199
187 198 205
177 189 194
176 188 193
175 188 194
169 182 187
162 174 176
167 180 186
172 185 190
169 181 185
176 187 192
170 183 188
179 190 195
170 182 186
180 191 196
178 190 198
173 185 188
152 167 162
150 165 161
143 159 155
125 143 129
143 159 151
149 163 159
167 180 182
174 186 190
169 181 184
172 185 190
180 192 199
170 183 185
188 199 205
181 193 199
177 189 195
178 190 193
176 187 193
176 189 197
181 193 198
174 186 188
183 195 201
173 187 189
174 187 193
174 186 192
182 193 199
174 187 195
139 154 149
82 108 64
82 108 64
81 107 63
85 110 65
82 108 64
81 106 62
83 109 65
86 112 67
84 110 66
80 104 61
87 113 68
76 101 59
84 110 65
85 111 66
81 107 64
82 107 63
87 113 67
82 108 64
82 108 64
80 106 62
84 110 65
103 123 98
179 190 197
180 191 196
183 194 203
182 194 199
183 195 202
178 190 197
170 183 188
171 184 189
184 196 203
181 193 200
165 178 182
168 181 184
176 188 194
179 192 197
178 189 192
163 175 178
178 190 196
179 192 201
171 183 188
166 179 185
165 179 180
117 136 116
82 107 63
82 108 65
76 101 58
82 108 64
80 106 63
79 105 61
83 108 64
78 103 60
83 108 64
82 108 64
86 112 67
81 106 63
83 108 64
85 111 66
85 110 65
83 109 64
82 107 64
85 112 67
82 107 63
118 137 121
165 178 180
181 193 201
175 187 191
179 191 197
177 189 193
177 189 192
177 188 191
173 185 190
164 176 177
174 186 191
173 185 189
175 187 193
172 184 189
165 178 180
172 185 191
176 189 195
180 191 196
173 186 191
160 174 173
93 115 86
83 109 64
85 111 66
85 111 67
81 106 62
81 107 63
81 106 62
84 110 65
83 109 65
83 109 64
84 110 65
90 117 70
86 112 67
83 109 64
82 108 64
81 107 63
80 105 63
112 131 114
167 180 183
171 183 186
169 181 185
175 188 193
165 179 181
144 158 156
146 161 155
137 155 146
135 150 139
109 129 106
93 116 86
84 110 64
80 106 62
84 110 65
78 103 61
81 105 67
158 171 170
166 179 183
180 192 198
165 178 182
171 183 188
175 187 191
175 187 192
163 176 178
142 156 154
171 184 187
174 187 191
161 174 177
179 191 199
164 178 184
134 152 143
93 117 79
82 107 66
108 128 105
118 137 117
135 151 141
142 159 150
161 173 174
173 185 192
156 170 169
166 180 184
174 185 190
150 165 159
103 123 100
78 103 62
81 107 64
80 103 67
95 117 88
121 137 125
144 158 155
171 183 189
155 169 172
120 137 120
92 114 82
97 118 92
104 124 99
139 155 144
161 174 177
191 204 213
223 235 252
226 238 255
226 238 255
226 238 255
226 238 255
226 238 255
226 238 255
226 238 255
226 238 255
226 238 255
226 238 255
226 238 255
226 238 255
226 238 255
226 238 255
226 238 255
226 238 255
226 238 255
226 238 255
225 238 255
225 238 255
225 238 255
225 238 255
225 238 255
225 238 255
225 238 255
225 238 255
225 238 255
225 238 255
225 238 255
225 238 255
225 238 255
225 238 255
225 238 255
225 238 255
225 238 255
225 238 255
225 238 255
225 238 255
225 238 255
225 238 255
225 238 255
225 238 255
226 238 255
226 238 255
226 238 255
226 238 255
226 238 255
226 238 255
226 238 255
226 238 255
226 238 255
226 238 255
226 238 255
226 238 255
226 238 255
226 238 255
226 238 255
226 238 255
226 238 255
226 238 255
226 238 255
226 238 255
226 238 255
226 238 255
226 238 255
226 238 255
226 238 255
226 238 255
226 238 255
226 238 255
226 238 255
226 238 255
226 238 255
226 238 255
226 238 255
226 238 255
226 238 255
226 238 255
226 238 255
226 238 255
226 238 255
226 238 255
226 238 255
226 238 255
226 238 255
226 238 255
226 238 255
223 235 252
204 217 229
160 174 175
133 149 143
99 117 100
113 131 113
128 145 134
120 137 121
126 142 134
146 159 159
170 182 187
166 178 183
166 178 181
165 178 181
138 154 145
122 140 126
145 160 155
159 172 175
172 184 188
158 172 173
158 172 173
167 180 181
166 178 180
179 190 197
159 173 173
132 149 138
117 136 116
92 114 85
78 103 60
83 109 65
81 106 63
78 103 60
76 100 58
78 103 61
78 103 61
77 103 60
77 103 61
140 154 147
171 183 188
152 167 166
136 152 148
101 122 98
88 112 72
76 102 60
74 99 58
85 111 66
79 104 61
81 107 63
82 108 64
80 105 61
79 104 61
82 109 65
78 103 60
80 105 62
82 108 65
76 100 59
83 109 65
84 110 65
92 116 77
128 145 133
131 146 137
118 135 123
88 113 75
80 106 62
80 105 61
78 102 60
81 106 62
79 105 61
82 107 64
83 109 64
74 98 56
85 111 67
86 112 67
78 104 61
84 110 65
83 109 64
80 106 63
83 109 64
82 108 64
79 104 61
87 113 67
81 106 63
152 166 163
170 183 186
170 181 186
166 180 182
186 197 205
170 183 189
146 161 155
134 149 140
146 161 154
107 127 107
84 109 69
79 104 61
82 107 64
83 108 63
86 112 67
85 111 66
83 109 64
80 106 63
84 110 65
82 107 63
75 100 58
82 108 63
83 109 64
152 165 161
176 188 193
173 185 189
183 194 200
177 190 197
176 189 195
177 188 193
177 189 195
178 189 193
176 188 194
175 187 193
181 194 202
186 196 202
168 182 187
169 181 188
179 191 199
174 186 191
172 183 186
176 188 193
171 184 188
182 195 202
181 193 199
174 186 191
128 145 136
86 113 67
80 105 62
82 107 63
83 108 64
87 112 72
102 123 91
115 136 111
120 138 123
135 151 141
129 144 136
148 163 158
162 175 174
175 187 190
171 184 188
167 180 185
174 185 191
178 190 197
175 189 194
172 185 192
174 187 191
173 186 192
170 183 186
86 109 75
78 103 60
85 111 65
85 111 65
81 106 63
86 112 67
84 109 65
78 103 61
79 104 61
83 109 64
84 110 65
86 113 67
85 112 67
88 114 68
80 105 61
80 105 62
78 103 61
83 108 63
83 109 64
81 106 63
81 107 64
91 114 81
162 176 176
174 187 193
170 182 186
173 185 190
176 188 193
170 182 184
167 181 183
172 185 188
177 189 195
179 191 199
180 192 198
182 193 197
182 193 200
169 182 185
178 189 194
173 184 188
179 190 194
176 187 193
184 196 202
175 186 191
173 186 189
112 132 111
84 111 66
83 108 64
82 108 65
80 105 61
83 109 65
80 106 63
81 107 64
80 106 63
81 107 63
84 110 65
79 104 61
82 107 64
82 108 64
83 109 65
82 107 63
77 101 59
81 107 63
82 108 64
81 106 62
123 143 125
167 179 182
171 184 190
178 189 194
170 183 187
179 190 195
169 182 185
178 190 196
171 184 186
177 189 194
177 190 196
174 185 190
179 192 199
175 186 191
173 185 191
167 181 187
170 183 187
175 187 193
166 179 182
167 180 180
96 119 85
87 113 68
84 110 65
80 105 62
82 108 64
81 106 62
78 104 61
84 109 65
79 105 61
79 104 61
84 110 65
80 105 61
91 115 78
102 123 96
112 132 109
120 139 124
129 145 133
102 123 96
123 141 126
103 122 101
105 127 96
87 111 72
78 103 60
84 110 65
79 105 62
81 106 62
78 103 60
86 113 67
83 108 64
80 105 61
81 107 63
80 105 62
79 104 61
116 134 120
176 188 195
172 184 189
169 182 187
175 187 190
165 177 180
173 185 191
172 184 191
167 180 185
172 184 189
182 194 201
162 175 178
175 187 195
159 173 176
157 171 173
156 170 171
138 152 146
131 147 141
168 180 183
148 163 163
158 172 173
162 175 180
168 182 187
156 169 169
163 175 177
165 177 183
131 148 139
102 124 96
91 113 85
113 131 112
134 151 140
162 175 178
166 179 182
154 167 168
156 170 169
168 179 181
108 126 112
83 105 71
90 112 84
110 130 110
172 186 191
204 217 229
224 236 253
226 238 255
226 238 255
226 238 255
226 238 255
226 238 255
226 238 255
226 238 255
226 238 255
226 238 255
226 238 255
226 238 255
226 238 255
226 238 255
226 238 255
226 238 255
226 238 255
226 238 255
226 238 255
226 238 255
226 238 255
226 238 255
226 238 255
226 238 255
226 238 255
226 238 255
226 238 255
226 238 255
226 238 255
226 238 255
226 238 255
226 238 255
226 238 255
226 238 255
226 238 255
226 238 255
226 238 255
226 238 255
226 238 255
226 238 255
226 238 255
226 238 255
226 238 255
226 238 255
226 238 255
226 238 255
226 238 255
226 238 255
226 238 255
226 238 255
226 238 255
226 238 255
226 238 255
226 238 255
226 238 255
226 238 255
226 238 255
226 238 255
226 238 255
226 238 255
226 238 255
226 238 255
226 238 255
226 238 255
226 238 255
226 238 255
226 238 255
226 238 255
226 238 255
226 238 255
226 238 255
226 238 255
226 238 255
226 238 255
226 238 255
226 238 255
226 238 255
226 238 255
226 238 255
226 238 255
226 238 255
226 238 255
226 238 255
226 238 255
226 238 255
226 238 255
226 238 255
226 238 255
226 238 255
226 238 255
226 238 255
226 238 255
226 238 255
226 238 255
226 238 255
219 232 248
183 196 204
164 179 182
130 145 137
143 157 153
149 163 163
159 172 173
158 172 173
163 176 179
153 166 165
161 174 174
164 177 181
107 127 102
81 105 68
99 119 94
138 153 146
150 163 161
167 179 184
174 186 190
165 177 184
177 188 191
166 179 182
161 174 177
164 177 179
160 173 175
139 154 147
128 145 130
85 107 79
81 107 63
76 101 59
79 105 62
77 102 60
81 106 62
157 171 170
164 177 181
178 190 194
172 186 194
166 179 182
166 179 182
155 169 165
121 139 129
117 134 117
91 114 83
75 99 57
83 109 64
83 109 64
80 105 62
77 102 60
80 105 62
79 104 61
75 99 57
79 105 62
81 106 62
79 105 62
76 101 59
148 162 160
166 179 180
172 185 190
163 176 178
163 176 177
157 172 169
134 150 139
116 136 115
88 112 75
83 109 64
77 102 60
78 102 59
80 105 61
80 105 61
81 106 63
81 107 63
83 108 64
81 106 63
80 106 62
74 98 58
83 109 65
79 104 61
97 120 88
161 172 175
165 178 180
180 192 202
166 179 182
175 187 193
173 186 188
173 186 189
171 183 187
170 182 186
173 185 189
162 175 177
160 173 174
157 172 173
148 163 160
123 141 125
108 128 105
90 114 78
84 110 66
80 106 62
83 109 65
83 108 63
85 111 66
97 119 90
179 191 197
175 188 193
182 193 199
163 175 178
176 188 192
173 186 192
177 188 194
170 183 187
174 185 190
183 194 201
166 179 183
178 190 196
173 185 190
181 192 199
174 186 189
177 190 195
171 183 188
168 181 185
176 187 193
178 190 195
173 185 191
167 180 184
157 171 168
86 112 67
80 105 61
84 110 65
83 108 64
81 106 63
88 114 68
83 109 64
82 108 64
83 109 65
84 110 65
85 111 66
78 104 61
89 116 70
81 106 62
82 108 64
81 107 63
105 128 97
100 121 95
104 124 101
135 151 142
131 146 133
140 156 143
138 154 148
115 134 114
124 142 126
112 132 111
93 114 85
89 113 75
83 108 64
85 112 67
85 111 66
82 109 65
81 106 62
88 114 68
84 110 66
81 106 62
81 106 63
78 104 61
81 107 63
83 109 65
84 110 65
80 106 63
80 105 61
86 110 72
167 180 182
188 199 207
166 179 180
183 194 201
178 189 193
174 185 190
181 193 199
174 187 190
172 184 189
173 186 190
172 185 191
175 188 192
184 196 202
173 187 194
173 185 190
179 191 195
179 190 196
178 190 195
169 181 184
174 186 192
183 193 202
139 156 145
79 104 60
86 112 66
76 101 59
81 106 63
87 114 68
83 109 64
84 110 65
75 100 58
86 112 67
83 108 64
84 110 66
79 105 62
83 109 65
76 101 59
82 108 64
80 105 62
76 101 59
86 112 67
79 104 61
123 139 126
176 188 193
171 182 186
164 177 180
171 183 187
182 193 200
174 187 194
165 177 180
175 187 191
175 187 194
174 187 192
166 178 179
166 181 185
171 183 189
166 178 180
170 184 192
172 184 190
171 183 187
164 178 181
154 169 164
83 108 66
96 118 87
96 118 87
110 129 108
106 125 102
115 132 119
141 156 147
144 159 153
145 160 153
146 160 155
155 169 166
167 179 184
181 193 198
164 177 183
175 188 193
166 179 181
166 178 181
120 138 125
80 105 63
83 109 65
76 100 59
75 99 57
83 109 65
78 104 61
83 109 65
75 99 57
79 103 61
79 105 62
81 107 63
77 101 59
77 101 59
76 101 59
91 112 80
150 164 162
180 192 200
166 179 185
159 171 174
168 181 185
173 186 192
172 184 189
165 177 180
162 176 178
143 157 153
145 159 152
132 149 137
108 126 106
100 122 96
142 158 152
167 180 184
171 183 187
165 178 181
168 181 186
168 180 184
154 168 170
171 183 190
161 174 176
165 178 182
172 184 188
163 176 176
138 153 146
143 158 154
157 170 169
154 168 169
134 149 143
129 146 137
124 141 128
98 119 95
89 113 82
91 110 85
113 132 113
158 172 174
188 201 209
218 230 246
226 238 255
226 238 255
226 238 255
226 238 255
226 238 255
226 238 255
226 238 255
226 238 255
226 238 255
226 238 255
226 238 255
226 238 255
226 238 255
226 238 255
226 238 255
226 238 255
226 238 255
226 238 255
226 238 255
226 238 255
226 238 255
226 238 255
226 238 255
226 238 255
226 238 255
226 238 255
226 238 255
226 238 255
226 238 255
226 238 255
226 238 255
226 238 255
226 238 255
226 238 255
226 238 255
226 238 255
226 238 255
226 238 255
226 238 255
226 238 255
226 238 255
226 238 255
226 238 255
226 238 255
226 238 255
226 238 255
226 238 255
226 238 255
226 238 255
226 238 255
226 238 255
226 238 255
226 238 255
226 238 255
226 238 255
226 238 255
226 238 255
226 238 255
226 238 255
226 238 255
226 238 255
226 238 255
226 238 255
226 238 255
226 238 255
226 238 255
226 238 255
226 238 255
226 238 255
226 238 255
226 238 255
226 238 255
226 238 255
226 238 255
226 238 255
226 238 255
226 238 255
226 238 255
226 238 255
226 238 255
226 238 255
226 238 255
226 238 255
226 238 255
226 238 255
226 238 255
226 238 255
226 238 255
226 238 255
226 238 255
226 238 255
226 238 255
226 238 255
226 238 255
226 238 255
226 238 255
226 238 255
226 238 255
226 238 255
226 238 255
226 238 255
226 238 255
203 216 229
141 156 154
151 166 166
127 142 134
144 158 155
152 165 168
155 168 168
138 153 147
123 139 130
137 154 148
143 158 154
133 149 141
114 132 119
112 130 114
118 136 123
140 155 147
166 179 182
172 184 189
158 171 174
169 181 185
167 180 185
153 167 169
162 174 176
168 180 184
159 171 174
139 153 152
114 132 116
90 112 81
83 106 73
163 176 176
180 192 198
172 184 188
161 174 177
166 177 179
154 166 168
165 178 181
165 178 183
165 177 180
164 177 182
168 180 183
146 160 157
130 147 137
106 126 103
87 113 68
77 102 60
83 109 65
82 107 63
78 103 61
82 107 63
79 104 61
95 118 80
176 187 192
172 185 191
177 188 195
184 195 203
167 179 183
172 185 192
169 180 183
178 189 195
161 173 174
166 179 180
155 168 166
144 159 154
117 136 116
92 114 81
83 108 64
79 104 61
82 108 64
83 108 64
75 101 59
83 109 64
81 107 63
83 108 64
127 144 134
160 172 173
179 191 196
175 187 193
174 186 193
176 187 192
169 181 184
154 167 168
179 191 196
176 189 196
170 183 188
173 184 191
178 191 197
180 192 198
166 180 185
172 184 188
178 190 197
167 179 184
168 182 186
156 170 170
134 150 143
132 148 138
123 141 126
148 163 155
167 180 182
169 182 187
173 184 189
167 180 184
172 185 192
173 186 191
174 187 193
175 187 191
172 185 190
174 186 192
174 187 194
170 181 186
171 183 189
177 190 195
174 187 193
164 177 180
171 184 187
171 183 186
169 183 188
166 179 182
151 164 165
166 180 184
82 103 74
84 110 65
85 111 66
80 106 62
81 107 63
80 104 61
86 113 67
82 107 63
83 108 64
82 108 64
78 104 60
80 106 63
83 109 65
80 106 62
82 107 64
78 104 61
85 112 67
81 106 63
79 105 61
86 112 66
85 111 66
78 103 61
137 154 146
177 189 193
169 181 184
164 177 182
172 184 189
178 189 195
176 188 194
170 183 185
163 175 178
168 181 183
157 171 169
163 177 176
154 168 166
136 152 141
124 141 130
141 157 147
116 134 116
127 144 132
116 135 116
109 130 107
108 129 104
107 128 102
150 165 161
164 177 178
167 180 182
175 188 195
182 194 198
177 188 193
178 190 197
165 177 178
170 184 188
174 186 190
174 186 192
170 182 187
175 187 190
180 192 198
168 181 185
187 198 206
178 189 197
177 189 194
184 196 203
156 169 168
176 188 193
126 144 131
83 109 65
83 109 65
85 111 66
77 101 59
83 109 65
77 102 59
81 107 63
80 105 62
82 107 63
82 108 64
80 106 63
82 108 65
84 110 66
83 109 65
81 106 62
79 104 61
82 108 64
85 112 67
78 103 61
126 142 130
169 181 184
174 186 190
170 183 187
162 176 176
165 179 178
157 170 172
171 184 185
151 164 161
156 169 166
151 165 163
136 151 142
138 154 147
141 157 149
122 140 126
128 145 130
116 135 117
106 125 102
96 118 92
144 157 153
169 182 188
166 177 179
168 180 185
166 179 183
163 175 179
173 186 191
158 171 173
161 174 175
170 183 188
172 185 189
176 189 194
178 190 195
178 189 193
170 182 187
170 183 188
157 171 173
159 174 174
95 116 86
80 106 63
81 106 62
81 106 63
83 109 65
77 101 59
81 106 62
79 104 60
80 106 62
82 108 65
82 107 64
79 104 61
84 110 66
78 103 60
81 107 63
122 140 126
167 180 182
162 175 177
169 181 187
161 175 177
163 177 179
133 149 139
119 136 121
103 124 96
88 109 80
78 102 60
79 104 61
77 102 59
80 105 63
125 143 130
158 172 177
167 180 186
173 186 191
170 182 187
167 179 184
155 168 170
165 179 183
144 159 158
155 169 167
149 164 161
115 133 117
115 134 117
107 127 108
109 127 107
90 112 80
90 112 80
104 121 105
125 141 133
129 144 136
105 122 103
140 155 150
180 193 200
207 220 233
225 238 255
226 238 255
226 238 255
226 238 255
226 238 255
226 238 255
226 238 255
226 238 255
226 238 255
226 238 255
226 238 255
226 238 255
226 238 255
226 238 255
226 238 255
226 238 255
226 238 255
226 238 255
226 238 255
226 238 255
226 238 255
226 238 255
226 238 255
226 238 255
226 238 255
226 238 255
226 238 255
226 238 255
226 238 255
226 238 255
226 238 255
226 238 255
226 238 255
226 238 255
226 238 255
226 238 255
226 238 255
226 238 255
226 238 255
226 238 255
226 238 255
226 238 255
226 238 255
226 238 255
226 238 255
226 238 255
226 238 255
226 238 255
226 238 255
226 238 255
226 238 255
226 238 255
226 238 255
226 238 255
226 238 255
226 238 255
226 238 255
226 238 255
226 238 255
226 238 255
226 238 255
226 238 255
226 238 255
226 238 255
226 238 255
226 238 255
226 238 255
226 238 255
226 238 255
226 238 255
226 238 255
226 238 255
226 238 255
226 238 255
226 238 255
226 238 255
226 238 255
226 238 255
226 238 255
226 238 255
226 238 255
226 238 255
226 238 255
226 238 255
226 238 255
226 238 255
226 238 255
226 238 255
226 238 255
226 238 255
226 238 255
226 238 255
226 238 255
226 238 255
226 238 255
226 238 255
226 238 255
226 238 255
226 238 255
226 238 255
226 238 255
226 238 255
226 238 255
226 238 255
226 238 255
226 238 255
226 238 255
226 238 255
226 238 255
221 234 250
198 211 223
162 176 180
142 157 153
138 153 146
89 109 80
70 94 55
92 114 81
131 148 136
146 159 158
168 180 185
156 170 173
172 185 191
148 162 163
152 165 164
153 166 167
170 182 188
128 143 137
150 164 162
153 167 165
171 184 191
160 174 177
161 175 178
161 174 178
155 168 167
132 148 141
130 146 134
140 156 153
162 175 177
165 177 180
160 173 176
168 182 186
170 183 187
169 180 184
169 182 187
174 187 192
169 182 185
170 183 187
170 182 186
163 177 180
162 175 178
148 161 157
141 157 148
107 126 104
86 110 77
75 100 58
78 103 60
128 144 134
160 173 173
162 175 176
161 173 175
163 176 181
168 180 185
158 172 174
167 179 183
160 173 172
173 185 190
165 177 180
173 185 191
174 185 190
171 183 187
172 184 188
163 176 177
162 174 175
136 152 143
128 145 132
101 122 101
86 109 73
80 105 62
83 106 71
169 182 187
163 176 178
169 182 188
173 185 189
170 183 187
173 186 192
175 187 194
169 182 185
166 180 184
168 181 184
170 183 186
177 189 197
160 173 177
178 189 194
171 183 188
173 185 191
168 180 184
169 181 187
171 183 188
168 181 186
161 175 179
174 186 191
153 167 165
77 102 59
78 102 63
92 113 82
114 134 112
123 140 128
142 157 150
151 165 164
170 182 185
167 179 182
177 189 196
174 186 191
172 185 193
174 186 189
182 193 198
181 191 197
179 191 196
159 171 176
169 181 183
166 179 180
178 191 198
177 188 191
171 184 189
117 135 120
78 103 60
79 105 61
83 109 65
82 107 63
79 103 61
81 108 63
78 104 61
82 108 64
82 108 64
80 106 63
79 104 61
80 105 62
81 107 64
78 103 61
83 109 65
81 107 63
82 108 63
82 108 64
76 101 59
81 107 63
84 110 65
102 123 99
174 187 193
173 185 191
177 189 195
176 188 194
172 185 191
174 186 191
168 182 185
177 189 197
177 188 194
176 188 194
171 184 189
171 184 189
173 185 189
176 189 194
169 181 186
171 183 191
179 191 200
177 189 195
157 171 173
166 179 183
180 192 198
127 145 132
82 108 64
78 103 61
81 107 63
78 103 61
78 103 60
84 108 72
86 109 73
90 113 78
96 118 85
96 119 88
103 124 98
97 119 91
110 130 111
109 128 107
97 120 91
109 128 105
112 130 115
103 122 100
125 143 130
109 129 105
150 165 163
139 153 149
142 156 151
147 162 159
136 152 144
138 155 145
149 163 158
133 148 141
148 162 155
145 161 160
150 164 162
148 162 158
151 165 165
162 175 175
150 164 163
157 170 169
163 176 178
151 166 164
154 169 167
177 189 195
126 143 133
83 108 66
91 115 76
79 103 60
81 107 64
82 108 63
72 96 56
82 107 62
78 104 61
82 107 64
82 107 64
78 103 60
79 104 61
85 111 66
80 105 62
78 103 60
82 107 63
81 107 63
85 108 72
143 158 155
172 184 190
167 179 183
179 191 200
170 183 190
162 176 176
151 165 164
166 179 184
173 185 190
173 186 189
174 186 190
161 174 178
165 178 182
165 178 182
160 174 176
165 178 183
178 190 194
137 152 142
80 106 63
80 105 63
77 102 60
79 104 61
82 107 64
82 108 64
80 105 61
82 107 64
83 109 65
75 99 57
75 99 58
75 100 58
75 99 61
92 114 85
109 129 107
106 126 104
137 152 143
111 131 112
89 111 79
79 102 65
83 109 65
75 99 58
82 108 65
76 101 59
80 105 63
81 106 63
75 99 58
76 102 60
123 138 128
170 182 189
170 182 190
158 170 171
142 157 155
151 164 161
159 172 173
170 182 187
155 168 169
147 161 159
169 182 186
140 155 151
99 119 96
76 101 60
93 114 86
121 137 126
116 133 122
144 158 158
153 167 167
154 167 169
170 183 189
207 219 232
221 234 250
226 238 255
226 238 255
226 238 255
226 238 255
226 238 255
226 238 255
226 238 255
226 238 255
226 238 255
226 238 255
226 238 255
226 238 255
226 238 255
226 238 255
226 238 255
226 238 255
226 238 255
226 238 255
226 238 255
226 238 255
226 238 255
226 238 255
226 238 255
226 238 255
226 238 255
226 238 255
226 238 255
226 238 255
226 238 255
226 238 255
226 238 255
226 238 255
226 238 255
226 238 255
226 238 255
226 238 255
226 238 255
226 238 255
226 238 255
226 238 255
226 238 255
226 238 255
226 238 255
226 238 255
226 238 255
226 238 255
226 238 255
226 238 255
226 238 255
226 238 255
226 238 255
226 238 255
226 238 255
226 238 255
226 238 255
226 238 255
226 238 255
226 238 255
226 238 255
226 238 255
226 238 255
226 238 255
226 238 255
226 238 255
226 238 255
226 238 255
226 238 255
226 238 255
226 238 255
226 238 255
226 238 255
226 238 255
226 238 255
226 238 255
226 238 255
226 238 255
226 238 255
226 238 255
226 238 255
226 238 255
226 238 255
226 238 255
226 238 255
226 238 255
226 238 255
226 238 255
226 238 255
226 238 255
226 238 255
226 238 255
226 238 255
226 238 255
226 238 255
226 238 255
226 238 255
226 238 255
226 238 255
226 238 255
226 238 255
226 238 255
226 238 255
226 238 255
226 238 255
226 238 255
226 238 255
226 238 255
226 238 255
226 238 255
226 238 255
226 238 255
226 238 255
226 238 255
226 238 255
226 238 255
226 238 255
226 238 255
217 230 245
198 211 223
182 195 202
138 154 149
116 133 118
89 111 80
85 109 71
97 116 93
110 128 113
153 165 162
167 180 183
167 179 183
166 179 182
160 172 173
159 172 175
141 155 151
127 143 133
99 119 92
95 116 90
106 125 104
110 128 111
117 133 123
119 136 123
114 131 115
99 119 91
106 125 106
128 145 132
131 147 138
145 160 158
176 187 190
170 183 189
166 179 183
172 184 193
158 172 172
159 172 176
167 180 184
153 166 167
157 170 172
163 175 177
168 180 185
174 187 192
161 173 177
151 165 161
126 144 131
155 168 170
159 172 173
167 179 182
170 183 188
153 167 168
164 177 181
165 178 181
163 177 180
167 179 183
171 184 188
155 169 171
163 175 179
159 173 177
174 186 191
175 187 193
165 176 180
167 180 183
172 186 193
173 185 190
169 182 188
161 175 177
135 150 139
120 138 123
150 164 161
155 167 166
175 188 194
172 184 188
150 164 163
158 170 171
168 179 184
170 181 185
176 188 192
170 182 186
164 176 177
167 180 186
171 183 187
167 179 184
157 171 172
163 176 178
166 179 182
171 184 189
165 178 182
170 183 186
172 184 187
93 116 84
75 99 57
75 100 58
75 99 57
85 111 67
83 109 65
83 108 64
82 107 63
81 107 63
78 102 60
85 109 74
96 118 91
120 138 121
128 145 136
134 151 141
142 157 152
150 163 161
165 178 181
163 176 180
172 184 190
178 189 194
168 179 181
153 166 165
79 104 62
79 104 61
80 105 62
82 107 63
81 106 63
82 108 64
85 112 67
85 111 66
82 108 64
84 110 65
78 103 61
81 106 62
82 108 64
78 103 61
81 107 62
78 102 60
77 102 59
81 106 62
83 108 64
79 104 61
80 105 62
101 121 94
159 173 172
171 182 186
171 184 188
169 181 186
176 188 195
169 182 187
168 181 186
183 195 202
170 184 188
171 183 187
164 176 179
175 186 192
181 193 201
176 188 194
166 179 183
172 184 189
171 183 189
151 165 167
176 188 193
170 182 186
174 185 191
150 165 160
81 106 63
77 102 59
77 102 59
80 105 62
79 104 61
78 103 61
84 110 65
82 108 64
79 105 62
81 106 62
81 105 63
77 102 59
79 104 61
85 111 67
79 105 62
80 104 62
80 106 62
77 102 60
83 109 65
77 101 59
135 151 144
176 188 194
168 181 182
173 186 195
169 181 185
170 183 188
172 185 192
172 184 189
176 188 193
172 184 188
178 190 196
174 186 192
167 179 183
164 177 179
172 185 191
172 184 189
169 181 187
179 190 196
171 183 187
170 182 187
124 141 126
80 106 63
77 102 59
78 102 60
78 102 60
77 102 60
80 105 62
75 99 58
83 109 65
81 106 63
79 104 61
71 96 55
79 104 60
84 110 65
78 103 60
74 99 57
79 105 62
78 102 60
101 123 94
149 164 163
171 184 189
162 176 179
168 181 185
160 174 176
170 184 186
160 173 175
168 181 183
167 179 182
171 184 189
162 176 176
164 177 182
174 186 190
170 182 188
160 173 173
168 181 188
170 183 186
111 131 109
78 103 61
78 103 60
81 106 63
76 101 59
78 102 60
80 105 62
86 107 77
104 123 105
105 126 104
113 129 119
142 157 152
142 157 150
166 179 182
167 180 185
142 157 149
92 114 83
75 99 58
74 97 57
81 106 64
78 103 61
82 105 70
100 121 90
95 117 89
107 125 108
130 146 137
113 131 118
121 137 129
118 135 120
106 125 106
115 132 116
122 138 128
126 142 134
142 156 155
153 167 171
165 178 182
154 168 169
160 173 177
157 170 170
137 152 149
106 125 106
128 144 132
140 155 150
150 164 165
150 163 164
162 174 178
188 200 209
201 213 226
224 236 253
226 238 255
226 238 255
226 238 255
226 238 255
226 238 255
226 238 255
226 238 255
226 238 255
226 238 255
226 238 255
226 238 255
226 238 255
226 238 255
226 238 255
226 238 255
226 238 255
226 238 255
226 238 255
226 238 255
226 238 255
226 238 255
226 238 255
226 238 255
226 238 255
226 238 255
226 238 255
226 238 255
226 238 255
226 238 255
226 238 255
226 238 255
226 238 255
226 238 255
226 238 255
226 238 255
226 238 255
226 238 255
226 238 255
226 238 255
226 238 255
226 238 255
226 238 255
226 238 255
226 238 255
226 238 255
226 238 255
226 238 255
226 238 255
226 238 255
226 238 255
226 238 255
226 238 255
226 238 255
226 238 255
226 238 255
226 238 255
226 238 255
226 238 255
226 238 255
226 238 255
226 238 255
226 238 255
226 238 255
226 238 255
226 238 255
226 238 255
226 238 255
226 238 255
226 238 255
226 238 255
226 238 255
226 238 255
226 238 255
226 238 255
226 238 255
226 238 255
226 238 255
226 238 255
226 238 255
226 238 255
226 238 255
226 238 255
226 238 255
226 238 255
226 238 255
226 238 255
226 238 255
226 238 255
226 238 255
226 238 255
226 238 255
226 238 255
226 238 255
226 238 255
226 238 255
226 238 255
226 238 255
226 238 255
226 238 255
226 238 255
226 238 255
226 238 255
226 238 255
226 238 255
226 238 255
226 238 255
226 238 255
226 238 255
226 238 255
226 238 255
226 238 255
226 238 255
226 238 255
226 238 255
226 238 255
226 238 255
226 238 255
226 238 255
226 238 255
226 238 255
226 238 255
226 238 255
226 238 255
226 238 255
214 227 242
201 213 225
175 188 196
133 147 142
101 120 101
85 108 74
74 96 59
96 113 94
109 126 110
145 159 155
150 164 164
158 172 178
155 168 170
162 176 180
149 163 164
141 156 148
100 117 101
144 158 154
166 179 184
159 171 173
168 180 186
156 170 172
166 179 183
151 164 164
155 169 171
158 171 173
149 164 164
144 159 157
145 159 157
138 154 147
142 156 149
155 169 165
148 162 162
152 164 165
148 162 163
158 170 172
165 177 182
157 170 172
152 166 166
73 97 56
80 105 62
82 106 63
95 116 88
118 136 120
136 152 142
141 155 151
160 176 179
164 176 179
172 184 189
169 182 187
171 183 188
175 186 190
174 187 192
173 185 191
176 188 195
173 185 191
176 189 193
172 184 189
170 183 190
166 178 182
161 173 177
93 114 83
76 100 58
75 100 58
82 107 63
81 106 68
95 117 88
120 141 123
116 135 120
125 142 132
157 171 171
171 183 189
176 189 194
171 183 190
173 186 190
169 181 183
171 184 187
167 180 183
175 187 194
172 185 190
171 183 187
174 186 190
161 176 177
135 152 141
81 107 63
80 105 62
80 105 62
85 111 66
76 101 59
78 103 59
80 106 62
79 104 62
77 102 60
81 106 62
86 112 66
83 108 64
81 107 63
78 102 60
83 108 64
79 104 61
78 103 61
84 110 65
85 109 70
95 116 89
103 124 99
138 153 147
148 163 158
120 138 125
120 137 121
106 126 103
95 118 85
80 104 65
79 104 62
80 105 62
81 106 63
79 104 61
80 105 62
81 107 64
78 103 61
80 105 62
76 101 59
80 104 62
83 109 65
78 102 60
71 95 55
84 109 65
80 105 62
86 111 69
155 169 169
172 183 187
169 182 187
161 175 178
168 181 185
172 185 191
175 186 192
178 190 198
164 177 180
169 182 187
174 186 194
174 187 193
160 173 176
168 182 185
176 187 192
171 183 186
172 185 189
173 186 191
165 178 180
173 185 190
164 177 181
152 165 163
78 102 60
85 111 66
84 109 65
81 106 63
80 105 61
82 107 63
82 107 64
79 104 62
81 107 63
78 103 60
80 105 62
78 103 60
78 102 59
82 108 64
83 109 65
75 100 57
76 100 60
82 108 63
78 103 60
78 103 61
135 151 144
166 177 183
166 179 181
171 183 188
166 178 181
163 176 182
170 183 188
165 178 183
167 180 183
170 182 185
165 179 182
152 165 166
169 182 185
168 180 184
164 176 179
165 177 181
175 187 194
169 182 188
174 186 194
159 173 174
110 130 108
80 106 63
75 99 58
75 100 58
75 100 59
79 104 62
75 100 57
82 107 64
83 108 64
78 103 60
78 102 61
82 107 63
82 107 65
81 107 64
80 105 62
79 104 61
76 101 59
80 105 62
98 117 91
169 180 185
163 176 177
170 183 186
173 184 188
167 180 186
163 176 178
171 183 190
181 192 199
176 188 195
164 176 180
170 182 188
167 179 184
156 169 171
171 184 189
171 184 190
167 179 184
152 166 166
109 129 106
110 128 109
119 137 120
127 142 137
140 155 150
149 163 160
149 165 164
164 176 179
158 172 175
156 169 171
171 184 190
163 176 180
163 176 180
152 166 165
148 163 162
127 143 136
125 141 130
148 162 158
136 150 146
141 154 150
153 167 167
157 171 174
165 176 181
168 180 185
168 180 183
135 151 142
146 161 158
140 154 150
148 162 161
153 168 169
147 160 162
169 182 186
172 185 192
158 171 175
172 184 187
162 175 179
149 163 162
137 152 149
157 169 170
144 156 156
162 174 177
153 165 169
153 168 168
171 185 190
197 210 221
215 227 242
226 238 255
226 238 255
226 238 255
226 238 255
226 238 255
226 238 255
226 238 255
226 238 255
226 238 255
226 238 255
226 238 255
226 238 255
226 238 255
226 238 255
226 238 255
226 238 255
226 238 255
226 238 255
226 238 255
226 238 255
226 238 255
226 238 255
226 238 255
226 238 255
226 238 255
226 238 255
226 238 255
226 238 255
226 238 255
226 238 255
226 238 255
226 238 255
226 238 255
226 238 255
226 238 255
226 238 255
226 238 255
226 238 255
226 238 255
226 238 255
226 238 255
226 238 255
226 238 255
226 238 255
226 238 255
226 238 255
226 238 255
226 238 255
226 238 255
226 238 255
226 238 255
226 238 255
226 238 255
226 238 255
226 238 255
226 238 255
226 238 255
226 238 255
226 238 255
226 238 255
226 238 255
226 238 255
226 238 255
226 238 255
226 238 255
226 238 255
226 238 255
226 238 255
226 238 255
226 238 255
226 238 255
226 238 255
226 238 255
226 238 255
226 238 255
226 238 255
226 238 255
226 238 255
226 238 255
226 238 255
226 238 255
226 238 255
226 238 255
226 238 255
226 238 255
226 238 255
226 238 255
226 238 255
226 238 255
226 238 255
226 238 255
226 238 255
226 238 255
226 238 255
226 238 255
226 238 255
226 238 255
226 238 255
226 238 255
226 238 255
226 238 255
226 238 255
226 238 255
226 238 255
226 238 255
226 238 255
226 238 255
226 238 255
226 238 255
226 238 255
226 238 255
226 238 255
226 238 255
226 238 255
226 238 255
226 238 255
226 238 255
226 238 255
226 238 255
226 238 255
226 238 255
226 238 255
226 238 255
226 238 255
226 238 255
226 238 255
226 238 255
226 238 255
226 238 255
226 238 255
226 238 255
226 238 255
211 223 238
207 219 231
173 185 192
137 152 145
115 132 120
84 105 76
82 106 68
101 119 98
119 137 123
135 149 145
162 174 178
176 188 195
148 162 159
71 94 54
81 103 72
111 128 109
115 132 120
136 150 146
148 163 161
160 173 176
157 170 171
150 163 164
166 180 186
154 169 171
163 177 182
162 175 176
157 171 173
135 149 143
132 147 135
116 135 116
86 107 76
73 96 56
82 103 71
90 113 77
146 160 157
136 150 146
121 138 127
135 151 142
142 158 151
129 144 138
114 133 112
109 128 111
102 122 97
114 134 115
133 148 138
119 136 121
140 153 145
156 171 172
159 171 173
166 179 182
156 170 170
160 171 176
157 171 171
171 183 191
175 187 193
162 175 180
127 144 134
73 98 57
80 106 63
79 104 61
80 105 62
72 97 55
80 105 62
84 110 65
79 104 62
82 108 64
78 103 61
74 99 58
105 124 103
109 128 106
128 144 134
141 155 148
145 159 155
153 167 170
165 178 179
170 182 186
165 177 180
175 187 193
151 165 163
78 103 61
82 107 63
73 97 56
77 101 59
76 101 59
81 107 63
81 105 62
79 104 61
75 100 57
78 103 61
81 106 63
77 102 60
78 104 61
79 104 61
76 101 58
79 104 62
75 99 59
80 105 62
82 107 63
81 106 62
84 110 66
84 109 67
155 169 169
164 176 181
164 177 178
163 176 179
164 176 183
169 182 185
174 186 193
163 176 179
156 170 168
158 172 174
152 166 164
135 152 141
122 139 126
123 140 128
110 130 114
110 130 108
96 117 89
84 110 65
83 109 65
79 104 61
77 102 60
80 104 65
149 164 162
170 183 188
164 176 178
159 173 175
167 180 185
170 183 188
169 182 186
167 178 182
172 184 188
166 179 183
167 180 185
166 179 182
166 179 183
174 184 188
173 185 192
168 180 181
163 177 178
167 180 182
167 180 186
170 182 188
179 190 196
147 162 158
77 101 59
83 108 64
78 104 62
81 106 63
82 108 64
78 103 61
73 97 57
83 108 64
77 101 59
80 105 63
81 107 63
77 102 60
81 106 63
76 102 58
79 105 62
75 100 58
84 109 65
78 103 61
80 106 64
76 101 60
129 146 138
164 178 183
175 188 193
172 185 191
171 184 190
162 174 177
174 186 192
171 183 186
164 176 179
158 171 171
162 175 179
173 185 189
175 188 193
165 178 181
172 185 192
158 170 168
166 178 182
170 183 187
166 178 182
153 168 166
95 118 89
80 105 61
80 105 62
77 102 60
84 109 64
79 104 62
76 101 59
77 102 61
72 96 55
77 102 60
75 99 58
66 89 50
81 107 63
76 101 60
73 98 56
80 105 63
74 98 58
79 102 66
120 138 126
152 166 168
173 185 193
173 186 191
160 173 174
159 172 174
167 180 186
154 167 165
157 171 172
151 165 165
148 163 160
126 143 135
134 151 144
119 136 123
110 128 111
104 123 99
115 133 118
137 153 144
145 160 157
150 165 162
137 152 144
118 135 120
130 145 135
120 138 124
120 138 122
111 130 109
91 112 81
109 128 106
80 104 67
77 101 60
80 105 62
98 118 94
132 148 141
168 181 187
161 173 178
164 176 183
153 165 166
159 172 173
139 154 148
136 151 144
126 142 134
112 130 114
94 116 87
76 100 59
110 129 112
148 161 160
151 164 166
154 167 170
156 169 173
157 169 172
141 155 152
136 152 149
125 142 131
114 131 119
110 128 112
141 156 155
154 168 167
142 157 155
161 175 177
190 203 213
214 226 241
226 238 255
226 238 255
226 238 255
226 238 255
226 238 255
226 238 255
226 238 255
226 238 255
226 238 255
226 238 255
226 238 255
226 238 255
226 238 255
226 238 255
226 238 255
226 238 255
226 238 255
226 238 255
226 238 255
226 238 255
226 238 255
226 238 255
226 238 255
226 238 255
226 238 255
226 238 255
226 238 255
226 238 255
226 238 255
226 238 255
226 238 255
226 238 255
226 238 255
226 238 255
226 238 255
226 238 255
226 238 255
226 238 255
226 238 255
226 238 255
226 238 255
226 238 255
226 238 255
226 238 255
226 238 255
226 238 255
226 238 255
226 238 255
226 238 255
226 238 255
226 238 255
226 238 255
226 238 255
226 238 255
226 238 255
226 238 255
226 238 255
226 238 255
226 238 255
226 238 255
226 238 255
226 238 255
226 238 255
226 238 255
226 238 255
226 238 255
226 238 255
226 238 255
226 238 255
226 238 255
226 238 255
226 238 255
226 238 255
226 238 255
226 238 255
226 238 255
226 238 255
226 238 255
226 238 255
226 238 255
226 238 255
226 238 255
226 238 255
226 238 255
226 238 255
226 238 255
226 238 255
226 238 255
226 238 255
226 238 255
226 238 255
226 238 255
226 238 255
226 238 255
226 238 255
226 238 255
226 238 255
226 238 255
226 238 255
226 238 255
226 238 255
226 238 255
226 238 255
226 238 255
226 238 255
226 238 255
226 238 255
226 238 255
226 238 255
226 238 255
226 238 255
226 238 255
226 238 255
226 238 255
226 238 255
226 238 255
226 238 255
226 238 255
226 238 255
226 238 255
226 238 255
226 238 255
226 238 255
226 238 255
226 238 255
226 238 255
226 238 255
226 238 255
226 238 255
226 238 255
226 238 255
226 238 255
226 238 255
226 238 255
226 238 255
226 238 255
226 238 255
226 238 255
226 238 255
226 238 255
216 228 243
199 211 223
171 185 188
130 145 138
103 121 105
85 106 78
69 92 54
86 109 75
135 149 142
114 130 116
78 102 65
77 102 59
73 97 57
67 91 52
74 98 58
95 113 92
115 132 120
131 145 139
142 156 156
150 163 165
159 171 173
144 158 157
161 175 179
157 170 172
157 169 172
164 176 179
158 171 173
150 162 163
141 156 153
106 124 105
158 169 171
149 162 160
171 184 192
164 176 179
154 168 168
167 179 183
167 180 183
160 173 176
162 176 179
165 177 181
157 169 171
163 176 181
157 171 174
172 184 189
160 173 176
153 165 166
143 157 153
140 154 152
138 154 146
130 146 132
126 142 132
132 147 140
127 143 135
125 141 131
119 136 123
126 143 131
114 131 116
98 117 95
106 127 103
96 119 88
94 117 84
80 104 67
79 104 61
77 102 59
71 95 54
75 100 58
80 106 63
77 102 60
79 104 61
74 98 57
91 114 80
110 129 108
123 140 125
124 141 131
127 143 135
104 123 100
82 106 71
82 108 64
77 102 59
83 108 64
79 105 62
76 101 58
71 95 55
78 104 61
78 103 60
82 106 63
78 104 60
79 104 61
81 106 62
75 101 59
77 102 60
82 107 63
79 103 61
75 100 58
79 105 62
79 104 62
137 153 144
168 180 184
170 183 187
167 180 185
171 182 188
169 182 185
168 181 184
172 184 189
177 190 196
168 181 186
161 174 180
167 180 186
162 174 177
172 185 190
159 173 174
157 172 176
172 184 188
172 185 189
166 179 183
170 183 187
156 170 170
157 171 171
108 126 108
123 139 127
129 147 135
122 138 125
128 144 134
141 156 148
142 156 152
153 167 167
159 171 172
159 171 173
170 183 187
166 179 182
179 192 199
165 177 183
159 173 177
165 178 183
172 184 190
169 181 183
160 174 177
168 181 187
145 158 157
141 158 154
83 107 67
80 106 62
75 100 58
83 109 64
81 107 63
75 99 58
78 103 60
77 102 59
79 104 61
75 100 58
85 111 66
81 107 63
79 104 61
75 99 59
79 105 62
75 100 58
76 101 59
85 111 67
76 101 59
83 109 65
140 154 151
159 172 172
162 174 178
173 185 189
162 174 176
176 187 193
177 188 194
170 182 186
165 179 183
165 178 184
170 182 186
169 181 185
163 175 178
166 177 180
169 181 185
162 175 179
163 176 178
170 183 187
158 172 173
141 156 150
85 110 73
80 105 61
80 105 62
78 103 60
75 100 59
75 99 58
82 107 63
81 106 62
76 101 58
82 108 65
79 104 61
83 107 69
87 110 74
92 115 82
95 115 91
105 125 100
89 109 82
124 142 128
146 160 156
141 155 151
136 151 142
131 146 139
144 159 154
143 157 153
146 161 157
131 148 137
129 143 137
135 152 144
154 167 169
137 152 149
148 161 161
155 168 168
163 176 179
163 176 177
135 150 143
80 104 64
75 100 59
79 104 61
76 101 59
78 103 61
76 101 59
73 98 57
78 103 60
69 93 53
81 106 64
75 99 58
77 102 60
76 100 58
74 97 60
130 145 134
160 172 174
137 151 145
125 142 132
122 138 127
98 120 91
85 108 75
78 103 61
81 107 64
78 103 61
73 97 56
84 109 67
104 124 100
148 162 162
157 170 174
144 157 156
148 161 160
122 137 125
104 123 102
71 94 60
88 109 82
90 110 86
113 130 118
136 150 147
159 174 175
190 202 212
211 223 238
226 238 255
226 238 255
226 238 255
226 238 255
226 238 255
226 238 255
226 238 255
226 238 255
226 238 255
226 238 255
226 238 255
226 238 255
226 238 255
226 238 255
226 238 255
226 238 255
226 238 255
226 238 255
226 238 255
226 238 255
226 238 255
226 238 255
226 238 255
226 238 255
226 238 255
226 238 255
226 238 255
226 238 255
226 238 255
226 238 255
226 238 255
226 238 255
226 238 255
226 238 255
226 238 255
226 238 255
226 238 255
226 238 255
226 238 255
226 238 255
226 238 255
226 238 255
226 238 255
226 238 255
226 238 255
226 238 255
226 238 255
226 238 255
226 238 255
226 238 255
226 238 255
226 238 255
226 238 255
226 238 255
226 238 255
226 238 255
226 238 255
226 238 255
226 238 255
226 238 255
226 238 255
226 238 255
226 238 255
226 238 255
226 238 255
226 238 255
226 238 255
226 238 255
226 238 255
226 238 255
226 238 255
226 238 255
226 238 255
226 238 255
226 238 255
226 238 255
226 238 255
226 238 255
226 238 255
226 238 255
226 238 255
226 238 255
226 238 255
226 238 255
226 238 255
226 238 255
226 238 255
226 238 255
226 238 255
226 238 255
226 238 255
226 238 255
226 238 255
226 238 255
226 238 255
226 238 255
226 238 255
226 238 255
226 238 255
226 238 255
226 238 255
226 238 255
226 238 255
226 238 255
226 238 255
226 238 255
226 238 255
226 238 255
226 238 255
226 238 255
226 238 255
226 238 255
226 238 255
226 238 255
226 238 255
226 238 255
226 238 255
226 238 255
226 238 255
226 238 255
226 238 255
226 238 255
226 238 255
226 238 255
226 238 255
226 238 255
226 238 255
226 238 255
226 238 255
226 238 255
226 238 255
226 238 255
226 238 255
226 238 255
226 238 255
226 238 255
226 238 255
226 238 255
226 238 255
226 238 255
226 238 255
226 238 255
226 238 255
226 238 255
226 238 255
226 238 255
226 238 255
226 238 255
218 231 247
208 220 233
178 191 199
141 155 154
131 146 140
134 148 144
155 168 171
136 149 149
128 144 135
109 129 110
94 115 92
80 102 69
72 95 56
76 100 59
73 97 57
85 107 72
104 122 104
115 132 117
140 154 152
156 170 171
150 163 162
159 173 175
165 179 186
170 183 189
175 186 192
106 125 106
71 95 54
73 97 57
104 124 102
107 125 106
144 159 157
137 151 147
159 172 176
162 174 176
156 168 170
164 178 183
155 169 170
158 171 173
163 176 179
161 174 178
162 174 177
163 174 177
166 179 184
172 185 191
162 175 180
157 170 172
154 167 165
109 126 113
131 146 137
138 153 148
158 171 173
160 172 177
151 166 166
165 178 178
168 181 184
173 185 191
175 187 193
158 172 175
157 172 176
164 177 180
157 170 170
149 164 162
147 161 158
159 173 172
161 173 175
145 159 156
136 152 144
152 167 167
132 146 140
122 140 124
108 124 110
132 148 140
122 138 125
127 144 131
118 135 121
110 128 110
98 120 91
93 116 86
84 107 69
76 100 62
95 116 88
96 116 90
102 121 97
97 118 93
99 120 95
90 114 78
86 109 75
76 101 59
85 108 70
78 103 61
76 101 60
115 132 114
176 188 193
159 173 176
172 183 190
158 171 173
162 175 178
157 170 169
166 179 183
163 176 180
166 178 184
166 178 181
164 177 181
160 173 174
171 184 189
166 178 182
166 178 182
150 165 169
169 180 184
168 181 187
171 183 188
164 177 181
168 181 184
134 149 142
79 104 61
76 100 59
78 103 60
79 103 61
77 102 59
79 103 61
83 109 65
80 105 62
76 101 60
77 101 60
77 103 60
78 103 61
85 109 70
90 113 80
87 109 76
97 119 90
103 125 99
114 131 115
115 134 115
119 137 123
143 158 152
128 144 138
122 139 126
133 149 138
114 132 122
125 143 131
120 136 127
121 139 126
117 134 119
106 125 104
121 139 124
108 125 107
95 116 89
99 120 94
106 125 104
101 121 95
102 123 97
97 118 89
105 126 100
96 118 89
94 114 87
132 146 137
159 171 176
143 159 155
158 171 172
151 165 164
154 168 166
163 176 180
159 172 172
160 173 176
154 168 167
153 166 166
154 168 170
171 183 189
154 168 170
166 179 183
169 181 185
165 178 184
174 187 192
163 174 177
125 141 131
72 95 55
73 96 56
73 97 56
85 109 68
84 109 68
83 107 71
84 108 74
79 104 61
80 104 65
90 111 84
80 103 67
88 111 77
77 99 65
90 112 80
78 103 61
76 101 59
78 102 63
133 148 137
169 181 185
165 178 184
146 160 158
169 180 187
166 179 183
169 181 186
161 174 176
161 173 174
163 175 180
158 172 175
156 168 170
165 178 185
158 171 174
149 162 163
148 162 160
155 168 169
102 121 100
76 101 59
77 102 60
76 102 60
76 102 59
72 96 55
73 97 57
80 105 62
75 101 59
80 103 71
108 128 103
121 137 125
122 136 130
126 141 131
106 126 105
89 110 83
78 103 60
77 101 61
70 94 55
78 103 61
71 95 55
78 102 60
79 104 62
76 102 61
77 102 61
75 99 58
88 108 81
118 135 124
107 125 109
95 116 89
71 95 55
71 95 55
78 101 64
87 107 82
84 103 78
118 134 123
161 176 177
190 203 212
213 225 240
226 238 255
226 238 255
226 238 255
226 238 255
226 238 255
226 238 255
226 238 255
226 238 255
226 238 255
226 238 255
226 238 255
226 238 255
226 238 255
226 238 255
226 238 255
226 238 255
226 238 255
226 238 255
226 238 255
226 238 255
226 238 255
226 238 255
226 238 255
226 238 255
226 238 255
226 238 255
226 238 255
226 238 255
226 238 255
226 238 255
226 238 255
226 238 255
226 238 255
226 238 255
226 238 255
226 238 255
226 238 255
226 238 255
226 238 255
226 238 255
226 238 255
226 238 255
226 238 255
226 238 255
226 238 255
226 238 255
226 238 255
226 238 255
226 238 255
226 238 255
226 238 255
226 238 255
226 238 255
226 238 255
226 238 255
226 238 255
226 238 255
226 238 255
226 238 255
226 238 255
226 238 255
226 238 255
226 238 255
226 238 255
226 238 255
226 238 255
226 238 255
226 238 255
226 238 255
226 238 255
226 238 255
226 238 255
226 238 255
226 238 255
226 238 255
226 238 255
226 238 255
226 238 255
226 238 255
226 238 255
226 238 255
226 238 255
226 238 255
226 238 255
226 238 255
226 238 255
226 238 255
226 238 255
226 238 255
226 238 255
226 238 255
226 238 255
226 238 255
226 238 255
226 238 255
226 238 255
226 238 255
226 238 255
226 238 255
226 238 255
226 238 255
226 238 255
226 238 255
226 238 255
226 238 255
226 238 255
226 238 255
226 238 255
226 238 255
226 238 255
226 238 255
226 238 255
226 238 255
226 238 255
226 238 255
226 238 255
226 238 255
226 238 255
226 238 255
226 238 255
226 238 255
226 238 255
226 238 255
226 238 255
226 238 255
226 238 255
226 238 255
226 238 255
226 238 255
226 238 255
226 238 255
226 238 255
226 238 255
226 238 255
226 238 255
226 238 255
226 238 255
226 238 255
226 238 255
226 238 255
226 238 255
226 238 255
226 238 255
226 238 255
226 238 255
226 238 255
226 238 255
226 238 255
226 238 255
226 238 255
226 238 255
226 238 255
226 238 255
226 238 255
226 238 255
226 238 255
225 237 254
206 218 232
177 190 195
164 178 181
119 133 126
130 144 138
135 149 146
162 175 180
137 151 147
125 142 134
103 119 103
104 125 103
74 99 58
69 92 52
74 98 57
70 93 54
91 113 82
109 127 110
122 137 128
131 146 140
130 145 141
71 94 54
72 95 55
78 103 62
73 97 56
70 94 54
75 100 58
73 98 57
71 94 54
90 111 82
104 123 105
128 144 135
130 145 141
142 157 157
160 172 178
150 164 166
167 179 182
160 173 174
159 171 172
173 184 190
158 171 174
178 190 200
124 141 128
80 105 62
81 105 63
76 101 59
74 98 57
73 96 57
91 111 84
109 127 111
132 148 138
128 143 137
151 165 163
144 159 157
162 175 178
164 177 181
152 166 167
169 181 186
151 165 162
170 183 189
155 168 171
165 177 182
164 177 181
163 174 175
147 160 161
87 108 77
72 96 55
81 107 63
74 97 56
76 100 58
75 99 58
74 99 58
75 100 58
75 100 59
75 100 59
78 103 61
79 104 62
85 108 74
107 127 106
123 138 128
133 147 140
146 161 156
149 162 160
141 156 154
147 161 159
159 173 177
148 161 163
87 110 76
77 100 61
87 108 77
87 108 77
92 114 85
85 107 79
95 117 89
95 116 88
97 118 89
100 120 94
93 114 90
104 124 98
86 107 78
100 121 97
111 131 111
98 119 92
111 129 111
108 124 106
102 122 99
105 123 104
117 136 116
148 161 161
146 162 158
148 161 160
142 157 153
144 159 158
143 158 155
137 152 145
138 152 148
140 154 152
138 153 147
138 154 147
140 155 148
139 155 150
138 153 148
138 153 148
145 160 155
153 167 166
140 154 149
139 153 149
125 141 132
140 154 152
116 134 118
112 130 111
114 131 116
112 131 114
100 120 98
97 119 87
102 123 98
112 129 111
111 131 111
97 116 95
107 128 105
116 134 116
96 116 91
107 127 102
94 116 88
93 115 83
98 117 91
93 115 83
90 113 80
92 113 82
104 124 99
155 171 172
157 169 173
152 165 166
148 162 160
173 186 191
151 165 168
154 167 167
154 166 168
160 173 177
157 171 175
167 181 186
158 172 174
171 183 189
161 174 180
170 182 186
154 167 169
163 176 180
164 176 178
153 167 167
104 124 102
76 101 59
80 106 63
75 100 59
76 100 59
79 104 61
77 103 61
74 99 58
77 102 60
72 97 56
71 95 55
75 100 59
73 97 57
75 100 58
76 101 59
74 98 58
74 98 57
87 109 77
138 152 148
158 170 173
170 182 187
155 168 169
154 167 171
161 174 180
161 174 178
169 182 188
160 172 173
154 168 169
169 181 186
156 170 174
157 170 172
162 174 179
151 165 166
159 171 174
117 133 119
81 106 63
79 102 66
80 103 71
106 125 109
104 123 103
116 133 120
131 147 140
140 155 148
147 161 160
156 167 170
151 165 166
157 170 173
141 155 155
123 138 130
85 108 75
74 98 58
71 94 55
70 94 55
73 98 57
78 102 60
85 107 77
98 118 95
115 133 117
111 128 115
106 125 109
99 116 99
69 93 54
71 95 55
77 99 64
94 112 94
101 116 106
135 150 144
166 179 183
193 206 218
202 215 227
225 237 254
226 238 255
226 238 255
226 238 255
226 238 255
226 238 255
226 238 255
226 238 255
226 238 255
226 238 255
226 238 255
226 238 255
226 238 255
226 238 255
226 238 255
226 238 255
226 238 255
226 238 255
226 238 255
226 238 255
226 238 255
226 238 255
226 238 255
226 238 255
226 238 255
226 238 255
226 238 255
226 238 255
226 238 255
226 238 255
226 238 255
226 238 255
226 238 255
226 238 255
226 238 255
226 238 255
226 238 255
226 238 255
226 238 255
226 238 255
226 238 255
226 238 255
226 238 255
226 238 255
226 238 255
226 238 255
226 238 255
226 238 255
226 238 255
226 238 255
226 238 255
226 238 255
226 238 255
226 238 255
226 238 255
226 238 255
226 238 255
226 238 255
226 238 255
226 238 255
226 238 255
226 238 255
226 238 255
226 238 255
226 238 255
226 238 255
226 238 255
226 238 255
226 238 255
226 238 255
226 238 255
226 238 255
226 238 255
226 238 255
226 238 255
226 238 255
226 238 255
226 238 255
226 238 255
226 238 255
226 238 255
226 238 255
226 238 255
226 238 255
226 238 255
226 238 255
226 238 255
226 238 255
226 238 255
226 238 255
226 238 255
226 238 255
226 238 255
226 238 255
226 238 255
226 238 255
226 238 255
226 238 255
226 238 255
226 238 255
226 238 255
226 238 255
226 238 255
226 238 255
226 238 255
226 238 255
226 238 255
226 238 255
226 238 255
226 238 255
226 238 255
226 238 255
226 238 255
226 238 255
226 238 255
226 238 255
226 238 255
226 238 255
226 238 255
226 238 255
226 238 255
226 238 255
226 238 255
226 238 255
226 238 255
226 238 255
226 238 255
226 238 255
226 238 255
226 238 255
226 238 255
226 238 255
226 238 255
226 238 255
226 238 255
226 238 255
226 238 255
226 238 255
226 238 255
226 238 255
226 238 255
226 238 255
226 238 255
226 238 255
226 238 255
226 238 255
226 238 255
226 238 255
226 238 255
226 238 255
226 238 255
226 238 255
226 238 255
226 238 255
226 238 255
226 238 255
226 238 255
226 238 255
226 238 255
226 238 255
226 238 255
226 238 255
226 238 255
226 238 255
226 238 255
226 238 255
215 227 243
190 203 212
149 163 162
150 163 163
105 122 106
146 160 158
152 165 166
136 149 146
135 150 148
120 138 127
111 128 115
86 106 81
69 92 53
71 94 54
82 104 72
133 148 147
134 150 151
117 135 122
126 141 132
102 118 103
83 104 75
75 100 59
73 97 58
71 95 56
77 102 60
72 96 56
78 102 61
74 98 58
70 93 53
75 97 63
86 107 80
104 122 102
137 150 145
137 152 148
153 166 168
147 160 159
159 172 172
87 110 73
71 95 55
80 105 63
79 104 61
79 104 62
81 107 64
68 91 52
75 100 59
70 93 53
77 102 60
70 93 54
78 103 60
91 114 82
89 110 84
112 131 113
131 147 139
143 158 152
133 149 146
150 164 164
148 162 162
154 168 169
156 169 173
89 112 79
78 103 61
79 104 62
78 102 61
78 103 61
79 104 62
72 96 56
76 100 58
78 103 61
79 104 62
73 97 57
77 102 60
75 99 59
76 99 58
81 106 62
78 103 61
75 99 59
81 107 64
77 102 60
73 97 57
79 104 61
82 106 69
157 169 171
152 166 164
143 158 155
136 150 142
119 135 123
122 138 128
107 126 107
105 126 102
95 116 87
82 105 67
76 100 59
75 99 58
77 102 59
72 95 56
81 106 63
74 99 58
76 101 60
75 100 58
72 97 56
78 103 61
81 107 63
98 119 95
167 180 183
160 174 175
163 176 180
174 186 192
161 174 176
160 173 176
165 177 182
162 175 180
162 174 176
161 174 178
166 179 185
157 170 175
168 181 184
164 177 180
158 170 174
162 174 175
176 188 196
154 167 169
170 182 186
167 179 186
142 157 152
84 108 67
72 97 57
78 102 61
76 101 59
82 106 63
74 98 57
80 105 61
77 102 61
75 100 59
75 99 58
74 99 57
76 101 59
78 103 61
77 102 60
77 101 60
76 100 59
77 101 59
74 99 58
74 99 58
110 128 110
156 170 172
168 182 188
154 167 168
153 166 170
174 184 189
167 180 184
167 180 182
160 172 176
164 176 180
159 172 176
170 183 190
162 175 177
159 172 176
164 176 179
156 168 171
165 177 183
154 167 170
155 167 170
141 156 154
93 115 82
76 101 60
70 94 54
75 99 58
73 96 57
78 103 61
70 93 54
75 100 59
75 100 58
76 101 58
76 100 59
76 101 60
73 97 57
77 101 59
76 100 59
76 100 60
73 97 56
112 130 114
156 168 170
157 170 177
165 179 183
156 170 174
160 173 174
159 172 174
169 182 189
156 169 171
156 169 175
157 171 173
160 172 175
142 156 154
138 152 152
124 139 128
127 144 137
144 157 155
130 145 137
139 155 149
146 158 158
163 175 181
157 169 172
156 169 170
150 164 167
150 164 165
148 162 165
157 170 175
160 171 174
155 168 170
157 168 172
117 133 124
83 103 75
75 99 58
90 110 83
101 120 99
117 133 120
134 149 143
130 146 143
142 156 155
150 163 164
139 154 155
120 137 125
110 126 111
104 122 105
114 129 116
115 130 124
159 171 176
195 206 218
201 214 226
216 229 244
226 238 255
226 238 255
226 238 255
226 238 255
226 238 255
226 238 255
226 238 255
226 238 255
226 238 255
226 238 255
226 238 255
226 238 255
226 238 255
226 238 255
226 238 255
226 238 255
226 238 255
226 238 255
226 238 255
226 238 255
226 238 255
226 238 255
226 238 255
226 238 255
226 238 255
226 238 255
226 238 255
226 238 255
226 238 255
226 238 255
226 238 255
226 238 255
226 238 255
226 238 255
226 238 255
226 238 255
226 238 255
226 238 255
226 238 255
226 238 255
226 238 255
226 238 255
226 238 255
226 238 255
226 238 255
226 238 255
226 238 255
226 238 255
226 238 255
226 238 255
226 238 255
226 238 255
226 238 255
226 238 255
226 238 255
226 238 255
226 238 255
226 238 255
226 238 255
226 238 255
226 238 255
226 238 255
226 238 255
226 238 255
226 238 255
226 238 255
226 238 255
226 238 255
226 238 255
226 238 255
226 238 255
226 238 255
226 238 255
226 238 255
226 238 255
226 238 255
226 238 255
226 238 255
226 238 255
226 238 255
226 238 255
226 238 255
226 238 255
226 238 255
226 238 255
226 238 255
226 238 255
226 238 255
226 238 255
226 238 255
226 238 255
226 238 255
226 238 255
226 238 255
226 238 255
226 238 255
226 238 255
226 238 255
226 238 255
226 238 255
226 238 255
226 238 255
226 238 255
226 238 255
226 238 255
226 238 255
226 238 255
226 238 255
226 238 255
226 238 255
226 238 255
226 238 255
226 238 255
226 238 255
226 238 255
226 238 255
226 238 255
226 238 255
226 238 255
226 238 255
226 238 255
226 238 255
226 238 255
226 238 255
226 238 255
226 238 255
226 238 255
226 238 255
226 238 255
226 238 255
226 238 255
226 238 255
226 238 255
226 238 255
226 238 255
226 238 255
226 238 255
226 238 255
226 238 255
226 238 255
226 238 255
226 238 255
226 238 255
226 238 255
226 238 255
226 238 255
226 238 255
226 238 255
226 238 255
226 238 255
226 238 255
226 238 255
226 238 255
226 238 255
226 238 255
226 238 255
226 238 255
226 238 255
226 238 255
226 238 255
226 238 255
226 238 255
226 238 255
226 238 255
226 238 255
226 238 255
226 238 255
226 238 255
226 238 255
226 238 255
226 238 255
226 238 255
226 238 255
226 238 255
225 237 254
201 213 226
189 202 210
156 169 171
148 160 162
128 142 140
128 143 135
142 155 155
150 163 167
112 127 116
105 124 108
142 154 152
145 158 157
148 161 161
150 164 164
145 158 158
149 162 163
141 156 155
129 145 138
119 134 123
109 127 109
80 102 72
76 99 59
76 100 59
73 96 57
69 93 54
67 90 52
74 99 57
70 93 54
69 92 53
67 90 52
91 110 84
133 147 142
122 137 131
115 131 117
92 112 88
76 100 62
74 97 56
77 101 60
77 102 60
74 99 57
74 98 57
73 98 58
72 96 56
71 94 54
76 100 59
77 101 60
75 98 57
76 100 59
74 98 57
75 99 58
77 101 59
79 103 64
105 124 102
133 148 143
123 140 130
107 123 107
104 124 101
78 101 65
78 102 63
74 98 57
72 97 56
75 99 59
75 99 58
71 95 55
72 95 55
74 98 57
78 103 61
79 105 62
72 96 56
75 100 58
76 100 58
75 100 59
72 96 57
78 103 61
74 98 58
136 152 146
159 173 177
163 175 179
164 177 180
165 177 181
152 165 165
149 163 164
171 184 188
160 173 177
150 163 166
153 168 169
159 172 173
149 163 162
136 150 146
134 150 144
129 145 138
130 146 138
129 145 138
122 139 124
110 127 109
97 117 89
123 140 126
150 163 163
165 178 183
158 171 173
158 170 174
169 182 189
150 163 166
157 171 176
161 174 179
171 182 188
161 174 176
161 174 178
152 167 169
162 175 176
166 179 181
172 184 191
156 170 172
166 179 181
154 169 171
153 167 169
169 181 184
130 147 136
80 104 68
74 98 57
80 105 62
81 107 63
75 100 58
77 102 60
72 96 57
77 102 60
73 97 58
76 101 58
75 99 58
76 101 59
72 96 55
78 103 62
75 99 57
75 100 60
78 102 61
76 100 59
70 94 54
109 128 110
144 159 159
159 172 175
150 163 165
158 171 174
177 188 194
163 176 181
161 173 177
157 170 172
163 176 181
163 176 181
156 170 171
163 175 178
158 170 171
166 178 184
158 170 172
161 175 178
160 172 174
163 175 180
126 142 131
78 100 65
78 104 61
76 100 59
74 98 57
69 93 53
71 96 56
73 97 57
71 95 55
76 100 58
74 98 57
70 94 55
75 100 59
71 96 56
77 101 60
76 100 59
72 95 55
84 106 76
132 146 141
145 159 157
149 163 161
139 153 149
123 140 130
114 130 119
116 133 118
111 129 109
98 116 92
87 110 78
78 99 72
70 94 54
68 91 53
70 94 55
70 93 53
116 133 121
146 159 161
154 167 167
159 172 174
162 175 179
157 170 174
153 165 169
149 163 163
149 162 163
148 161 162
161 174 178
149 161 163
146 159 161
138 152 147
142 155 156
121 138 128
127 142 135
135 149 146
152 164 165
151 163 165
147 162 161
148 160 163
137 151 152
127 142 138
142 155 155
129 144 143
128 142 137
158 171 176
173 186 194
196 208 219
212 224 238
225 237 254
226 238 255
226 238 255
226 238 255
226 238 255
226 238 255
226 238 255
226 238 255
226 238 255
226 238 255
226 238 255
226 238 255
226 238 255
226 238 255
226 238 255
226 238 255
226 238 255
226 238 255
226 238 255
226 238 255
226 238 255
226 238 255
226 238 255
226 238 255
226 238 255
226 238 255
226 238 255
226 238 255
226 238 255
226 238 255
226 238 255
226 238 255
226 238 255
226 238 255
226 238 255
226 238 255
226 238 255
226 238 255
226 238 255
226 238 255
226 238 255
226 238 255
226 238 255
226 238 255
226 238 255
226 238 255
226 238 255
226 238 255
226 238 255
226 238 255
226 238 255
226 238 255
226 238 255
226 238 255
226 238 255
226 238 255
226 238 255
226 238 255
226 238 255
226 238 255
226 238 255
226 238 255
226 238 255
226 238 255
226 238 255
226 238 255
226 238 255
226 238 255
226 238 255
226 238 255
226 238 255
226 238 255
226 238 255
226 238 255
226 238 255
226 238 255
226 238 255
226 238 255
226 238 255
226 238 255
226 238 255
226 238 255
226 238 255
226 238 255
226 238 255
226 238 255
226 238 255
226 238 255
226 238 255
226 238 255
226 238 255
226 238 255
226 238 255
226 238 255
226 238 255
226 238 255
226 238 255
226 238 255
226 238 255
226 238 255
226 238 255
226 238 255
226 238 255
226 238 255
226 238 255
226 238 255
226 238 255
226 238 255
226 238 255
226 238 255
226 238 255
226 238 255
226 238 255
226 238 255
226 238 255
226 238 255
226 238 255
226 238 255
226 238 255
226 238 255
226 238 255
226 238 255
226 238 255
226 238 255
226 238 255
226 238 255
226 238 255
226 238 255
226 238 255
226 238 255
226 238 255
226 238 255
226 238 255
226 238 255
226 238 255
226 238 255
226 238 255
226 238 255
226 238 255
226 238 255
226 238 255
226 238 255
226 238 255
226 238 255
226 238 255
226 238 255
226 238 255
226 238 255
226 238 255
226 238 255
226 238 255
226 238 255
226 238 255
226 238 255
226 238 255
226 238 255
226 238 255
226 238 255
226 238 255
226 238 255
226 238 255
226 238 255
226 238 255
226 238 255
226 238 255
226 238 255
226 238 255
226 238 255
226 238 255
226 238 255
226 238 255
226 238 255
226 238 255
226 238 255
226 238 255
226 238 255
226 238 255
226 238 255
226 238 255
226 238 255
226 238 255
226 238 255
226 238 255
226 238 255
226 238 255
210 223 236
195 208 219
170 183 189
156 169 172
121 136 128
90 108 86
70 91 57
77 96 72
94 112 92
114 131 121
133 145 141
128 144 142
145 159 162
147 160 162
156 170 174
153 166 168
133 148 146
135 149 147
138 152 149
109 127 112
97 116 97
78 98 69
67 89 51
70 94 55
70 94 55
119 134 127
151 164 167
161 174 179
150 163 163
146 160 159
165 176 179
151 165 166
138 153 149
139 152 148
125 141 130
103 121 105
91 111 84
69 92 53
72 96 57
72 96 56
76 101 58
74 98 58
72 97 57
76 100 59
77 102 61
75 100 58
66 89 51
121 137 125
146 159 160
161 174 176
152 165 165
161 173 177
166 179 183
154 168 170
140 153 150
139 153 151
137 151 146
116 132 123
113 129 115
97 116 93
80 102 69
75 100 59
70 94 55
77 102 60
80 105 63
70 93 54
76 101 60
74 98 57
68 92 53
143 156 152
151 164 164
154 166 170
162 175 178
165 178 183
155 169 173
154 167 166
158 171 174
163 175 181
164 176 181
158 172 176
155 168 171
153 166 164
157 170 172
163 177 181
153 166 169
159 172 174
158 171 175
166 179 185
164 177 182
151 164 167
138 154 149
81 106 65
67 89 51
70 94 55
81 105 68
75 98 66
92 113 86
98 117 92
108 126 106
107 125 107
120 137 125
128 144 132
115 132 120
129 144 137
128 144 137
124 140 130
140 155 153
139 152 149
145 160 158
159 172 174
157 170 173
121 137 127
88 110 77
74 97 60
71 95 55
73 97 57
79 104 61
68 92 53
72 96 56
72 97 56
73 97 57
72 96 55
75 100 60
76 100 59
70 94 54
68 92 52
76 100 58
73 97 58
74 98 57
74 98 57
77 100 62
124 141 132
144 158 158
162 174 176
153 164 168
158 170 172
160 173 175
162 175 178
162 174 179
152 165 167
147 160 158
156 170 174
157 169 174
155 168 170
160 175 178
158 171 174
164 176 182
166 179 184
151 165 167
142 156 154
102 119 101
88 109 80
90 109 85
103 122 101
110 126 112
117 135 120
109 127 112
117 133 122
120 137 125
120 136 128
122 139 128
121 137 128
136 151 146
134 149 145
148 162 162
151 165 163
158 170 171
120 137 126
74 97 61
68 91 52
75 99 57
76 101 60
78 103 60
70 93 54
73 97 56
73 97 57
75 100 58
74 99 58
70 94 55
74 98 57
69 92 53
69 91 52
109 126 111
125 138 133
146 160 162
155 168 173
151 165 166
147 159 159
152 165 166
125 140 132
127 142 135
113 130 118
110 128 109
100 117 100
91 111 88
106 125 106
124 140 134
141 156 156
156 169 173
152 165 165
149 163 163
133 146 145
139 153 152
105 123 107
103 118 108
121 136 128
154 168 171
179 192 200
199 211 223
210 223 237
225 238 254
226 238 255
226 238 255
226 238 255
226 238 255
226 238 255
226 238 255
226 238 255
226 238 255
226 238 255
226 238 255
226 238 255
226 238 255
226 238 255
226 238 255
226 238 255
226 238 255
226 238 255
226 238 255
226 238 255
226 238 255
226 238 255
226 238 255
226 238 255
226 238 255
226 238 255
226 238 255
226 238 255
226 238 255
226 238 255
226 238 255
226 238 255
226 238 255
226 238 255
226 238 255
226 238 255
226 238 255
226 238 255
226 238 255
226 238 255
226 238 255
226 238 255
226 238 255
226 238 255
226 238 255
226 238 255
226 238 255
226 238 255
226 238 255
226 238 255
226 238 255
226 238 255
226 238 255
226 238 255
226 238 255
226 238 255
226 238 255
226 238 255
226 238 255
226 238 255
226 238 255
226 238 255
226 238 255
226 238 255
226 238 255
226 238 255
226 238 255
226 238 255
226 238 255
226 238 255
226 238 255
226 238 255
226 238 255
226 238 255
226 238 255
226 238 255
226 238 255
226 238 255
226 238 255
226 238 255
226 238 255
226 238 255
226 238 255
226 238 255
226 238 255
226 238 255
226 238 255
226 238 255
226 238 255
226 238 255
226 238 255
226 238 255
226 238 255
226 238 255
226 238 255
226 238 255
226 238 255
226 238 255
226 238 255
226 238 255
226 238 255
226 238 255
226 238 255
226 238 255
226 238 255
226 238 255
226 238 255
226 238 255
226 238 255
226 238 255
226 238 255
226 238 255
226 238 255
226 238 255
226 238 255
226 238 255
226 238 255
226 238 255
226 238 255
226 238 255
226 238 255
226 238 255
226 238 255
226 238 255
226 238 255
226 238 255
226 238 255
226 238 255
226 238 255
226 238 255
226 238 255
226 238 255
226 238 255
226 238 255
226 238 255
226 238 255
226 238 255
226 238 255
226 238 255
226 238 255
226 238 255
226 238 255
226 238 255
226 238 255
226 238 255
226 238 255
226 238 255
226 238 255
226 238 255
226 238 255
226 238 255
226 238 255
226 238 255
226 238 255
226 238 255
226 238 255
226 238 255
226 238 255
226 238 255
226 238 255
226 238 255
226 238 255
226 238 255
226 238 255
226 238 255
226 238 255
226 238 255
226 238 255
226 238 255
226 238 255
226 238 255
226 238 255
226 238 255
226 238 255
226 238 255
226 238 255
226 238 255
226 238 255
226 238 255
226 238 255
226 238 255
226 238 255
226 238 255
226 238 255
226 238 255
226 238 255
226 238 255
226 238 255
226 238 255
226 238 255
226 238 255
226 238 255
226 238 255
226 238 255
226 238 255
214 226 241
196 208 219
180 192 200
157 171 173
138 152 150
96 114 96
82 103 76
58 79 44
98 116 97
92 108 93
112 129 117
130 144 142
127 141 139
154 168 170
138 152 150
151 164 164
151 165 166
152 164 168
134 148 147
104 121 106
120 136 124
125 139 136
127 141 136
138 151 152
141 154 155
154 167 171
155 168 169
154 168 169
150 163 165
147 160 161
162 174 176
146 160 160
155 167 171
136 150 147
132 147 143
133 148 143
107 123 110
100 117 102
82 103 74
75 97 63
70 94 54
128 144 134
151 163 164
148 161 164
154 167 169
164 176 178
156 168 170
165 177 181
150 163 165
156 169 170
149 162 164
149 162 163
147 160 160
152 166 167
158 171 173
150 164 166
159 172 175
145 159 158
149 163 164
129 144 139
120 137 124
121 136 126
104 123 103
107 125 108
143 157 155
164 176 178
158 170 172
152 166 167
158 171 175
157 170 172
160 174 178
146 160 161
149 162 163
139 154 150
154 166 167
164 176 178
160 174 175
152 166 167
155 168 170
155 168 171
168 181 186
162 175 179
165 178 182
150 163 162
133 149 144
80 105 66
73 98 57
68 91 52
81 107 63
75 100 58
72 97 55
77 102 60
77 102 61
69 93 53
78 102 61
76 102 61
70 94 55
77 102 60
78 102 60
71 94 55
72 96 57
68 92 53
69 93 54
74 99 58
76 99 62
136 151 145
150 163 162
146 160 159
153 166 168
164 177 185
147 162 165
151 166 165
145 159 159
143 157 158
150 164 166
153 166 168
137 152 150
139 152 152
141 156 151
150 163 165
139 153 149
141 155 152
142 157 153
140 154 153
117 133 121
87 107 81
104 123 106
94 114 89
94 111 96
90 111 86
93 112 86
86 107 79
88 109 80
93 113 89
94 116 86
86 106 82
89 111 79
84 105 76
86 107 78
85 106 74
76 98 64
77 102 63
73 96 56
116 133 121
151 165 166
155 167 168
146 158 161
162 175 181
154 168 170
161 173 176
156 168 172
158 170 172
147 160 161
147 161 163
160 174 179
158 171 173
150 164 164
163 176 179
156 168 173
153 166 169
137 152 149
78 101 66
68 91 52
68 91 52
77 101 60
71 94 55
72 97 57
71 94 54
69 93 53
66 90 51
75 99 57
76 100 59
72 96 56
80 105 65
80 102 74
90 110 83
125 140 132
121 136 128
104 120 105
108 125 112
95 115 91
75 95 67
77 100 65
71 95 56
68 91 53
66 89 51
73 97 57
84 103 80
105 121 112
121 137 126
118 133 126
115 130 121
102 119 105
79 98 75
74 95 65
114 129 119
142 156 153
173 186 192
202 214 226
216 228 243
226 238 255
226 238 255
226 238 255
226 238 255
226 238 255
226 238 255
226 238 255
226 238 255
226 238 255
226 238 255
226 238 255
226 238 255
226 238 255
226 238 255
226 238 255
226 238 255
226 238 255
226 238 255
226 238 255
226 238 255
226 238 255
226 238 255
226 238 255
226 238 255
226 238 255
226 238 255
226 238 255
226 238 255
226 238 255
226 238 255
226 238 255
226 238 255
226 238 255
226 238 255
226 238 255
226 238 255
226 238 255
226 238 255
226 238 255
226 238 255
226 238 255
226 238 255
226 238 255
226 238 255
226 238 255
226 238 255
226 238 255
226 238 255
226 238 255
226 238 255
226 238 255
226 238 255
226 238 255
226 238 255
226 238 255
226 238 255
226 238 255
226 238 255
226 238 255
226 238 255
226 238 255
226 238 255
226 238 255
226 238 255
226 238 255
226 238 255
226 238 255
226 238 255
226 238 255
226 238 255
226 238 255
226 238 255
226 238 255
226 238 255
226 238 255
226 238 255
226 238 255
226 238 255
226 238 255
226 238 255
226 238 255
226 238 255
226 238 255
226 238 255
226 238 255
226 238 255
226 238 255
226 238 255
226 238 255
226 238 255
226 238 255
226 238 255
226 238 255
226 238 255
226 238 255
226 238 255
226 238 255
226 238 255
226 238 255
226 238 255
226 238 255
226 238 255
226 238 255
226 238 255
226 238 255
226 238 255
226 238 255
226 238 255
226 238 255
226 238 255
226 238 255
226 238 255
226 238 255
226 238 255
226 238 255
226 238 255
226 238 255
226 238 255
226 238 255
226 238 255
226 238 255
226 238 255
226 238 255
226 238 255
226 238 255
226 238 255
226 238 255
226 238 255
226 238 255
226 238 255
226 238 255
226 238 255
226 238 255
226 238 255
226 238 255
226 238 255
226 238 255
226 238 255
226 238 255
226 238 255
226 238 255
226 238 255
226 238 255
226 238 255
226 238 255
226 238 255
226 238 255
226 238 255
226 238 255
226 238 255
226 238 255
226 238 255
226 238 255
226 238 255
226 238 255
226 238 255
226 238 255
226 238 255
226 238 255
226 238 255
226 238 255
226 238 255
226 238 255
226 238 255
226 238 255
226 238 255
226 238 255
226 238 255
226 238 255
226 238 255
226 238 255
226 238 255
226 238 255
226 238 255
226 238 255
226 238 255
226 238 255
226 238 255
226 238 255
226 238 255
226 238 255
226 238 255
226 238 255
226 238 255
226 238 255
226 238 255
226 238 255
226 238 255
226 238 255
226 238 255
226 238 255
226 238 255
226 238 255
226 238 255
226 238 255
226 238 255
226 238 255
226 238 255
226 238 255
226 238 255
226 238 255
226 238 255
226 238 255
226 238 255
226 238 255
222 234 250
208 220 234
191 203 214
160 173 176
150 164 164
116 131 122
80 98 77
76 98 66
71 92 60
97 114 99
92 108 89
117 133 124
122 136 131
109 126 114
67 90 52
74 98 58
64 86 49
69 91 53
71 93 58
101 119 101
108 126 108
114 129 122
106 122 111
145 158 159
151 164 163
138 152 150
165 179 184
151 164 166
149 162 165
145 158 156
159 172 176
157 169 171
153 167 171
149 161 161
145 157 157
107 125 106
99 118 96
124 140 130
133 147 143
141 155 153
142 156 155
159 171 173
148 160 162
157 170 173
146 160 161
151 165 167
147 160 160
153 166 169
148 161 163
158 170 173
151 164 166
153 166 165
147 163 165
152 166 168
149 162 164
160 173 177
156 167 169
112 129 115
73 97 56
71 94 55
75 99 58
79 102 71
90 111 85
99 118 97
105 123 104
124 140 129
120 135 126
126 141 134
130 144 139
152 165 166
141 154 154
142 156 156
153 167 171
155 167 170
154 167 168
143 156 157
156 169 174
150 163 164
123 138 130
79 104 62
70 94 55
65 87 50
71 95 55
68 91 53
70 94 55
66 89 51
72 97 56
72 96 56
70 94 55
74 98 57
67 90 52
77 102 60
71 94 55
72 96 56
67 90 52
70 94 54
75 99 58
74 97 58
82 104 72
136 151 149
161 172 178
152 166 169
164 177 181
154 166 171
137 151 148
155 168 171
153 165 169
151 164 166
154 167 171
161 174 177
162 175 181
155 167 168
156 169 171
159 170 175
153 166 165
150 163 166
144 157 158
145 158 160
114 129 119
84 106 75
75 100 59
77 102 61
72 97 57
70 93 54
72 96 57
71 94 55
70 94 55
75 99 58
73 97 58
70 94 54
66 88 50
70 94 55
72 96 55
73 97 56
65 87 50
73 96 56
90 109 87
140 153 152
162 174 180
157 169 174
153 166 168
146 159 160
148 161 160
145 158 157
159 172 175
162 173 178
152 163 165
154 167 172
151 164 167
150 163 163
159 172 172
151 165 165
146 160 158
122 137 129
97 116 94
71 96 55
65 88 51
70 92 59
76 99 65
90 109 85
94 113 92
105 122 107
115 131 122
116 133 121
121 135 132
131 146 145
139 153 154
139 154 152
128 143 134
86 106 77
73 97 57
66 89 51
75 99 59
71 95 56
70 93 54
74 98 58
79 98 72
82 101 78
101 119 99
99 116 100
71 91 63
70 91 56
80 100 78
63 85 49
89 107 88
125 138 135
156 169 171
179 191 199
208 220 233
222 235 251
226 238 255
226 238 255
226 238 255
226 238 255
226 238 255
226 238 255
226 238 255
226 238 255
226 238 255
226 238 255
226 238 255
226 238 255
226 238 255
226 238 255
226 238 255
226 238 255
226 238 255
226 238 255
226 238 255
226 238 255
226 238 255
226 238 255
226 238 255
226 238 255
226 238 255
226 238 255
226 238 255
226 238 255
226 238 255
226 238 255
226 238 255
226 238 255
226 238 255
226 238 255
226 238 255
226 238 255
226 238 255
226 238 255
226 238 255
226 238 255
226 238 255
226 238 255
226 238 255
226 238 255
226 238 255
226 238 255
226 238 255
226 238 255
226 238 255
226 238 255
226 238 255
226 238 255
226 238 255
226 238 255
226 238 255
226 238 255
226 238 255
226 238 255
226 238 255
226 238 255
226 238 255
226 238 255
226 238 255
226 238 255
226 238 255
226 238 255
226 238 255
226 238 255
226 238 255
226 238 255
226 238 255
226 238 255
226 238 255
226 238 255
226 238 255
226 238 255
226 238 255
226 238 255
226 238 255
226 238 255
226 238 255
226 238 255
226 238 255
226 238 255
226 238 255
226 238 255
226 238 255
226 238 255
226 238 255
226 238 255
226 238 255
226 238 255
226 238 255
226 238 255
226 238 255
226 238 255
226 238 255
226 238 255
226 238 255
226 238 255
226 238 255
226 238 255
226 238 255
226 238 255
226 238 255
226 238 255
226 238 255
226 238 255
226 238 255
226 238 255
226 238 255
226 238 255
226 238 255
226 238 255
226 238 255
226 238 255
226 238 255
226 238 255
226 238 255
226 238 255
226 238 255
226 238 255
226 238 255
226 238 255
226 238 255
226 238 255
226 238 255
226 238 255
226 238 255
226 238 255
226 238 255
226 238 255
226 238 255
226 238 255
226 238 255
226 238 255
226 238 255
226 238 255
226 238 255
226 238 255
226 238 255
226 238 255
226 238 255
226 238 255
226 238 255
226 238 255
226 238 255
226 238 255
226 238 255
226 238 255
226 238 255
226 238 255
226 238 255
226 238 255
226 238 255
226 238 255
226 238 255
226 238 255
226 238 255
226 238 255
226 238 255
226 238 255
226 238 255
226 238 255
226 238 255
226 238 255
226 238 255
226 238 255
226 238 255
226 238 255
226 238 255
226 238 255
226 238 255
226 238 255
226 238 255
226 238 255
226 238 255
226 238 255
226 238 255
226 238 255
226 238 255
226 239 255
226 238 255
226 239 255
226 239 255
226 239 255
226 239 255
226 239 255
226 239 255
226 239 255
226 239 255
226 239 255
226 239 255
226 239 255
226 239 255
226 239 255
226 239 255
226 239 255
226 239 255
226 239 255
226 239 255
226 239 255
226 239 255
226 239 255
226 239 255
226 239 255
226 239 255
226 239 255
226 239 255
226 239 255
226 239 255
226 239 255
227 239 255
227 239 255
227 239 255
227 239 255
221 233 249
198 211 222
177 189 197
171 183 189
134 147 145
123 138 131
138 150 149
124 139 135
122 136 131
126 139 137
115 129 125
108 125 112
98 115 97
87 107 77
71 94 57
59 80 45
61 81 47
63 86 50
69 92 54
78 98 70
98 114 101
112 127 116
125 140 133
132 146 141
120 134 128
143 156 155
145 160 162
132 146 146
104 119 105
67 90 51
67 90 52
66 89 51
66 89 51
69 92 53
67 90 51
70 94 54
72 93 60
84 104 75
90 108 89
122 138 128
123 137 130
101 118 103
117 132 123
145 159 159
131 146 144
153 167 170
154 166 170
150 163 165
152 165 168
142 155 156
102 123 98
72 96 56
72 96 56
65 88 51
72 95 56
72 96 56
73 97 56
78 103 61
71 94 55
69 92 53
70 94 54
68 91 53
70 94 55
68 92 52
71 95 56
77 101 60
74 98 60
72 93 61
93 112 89
82 102 76
106 124 108
128 142 137
136 149 145
126 142 133
114 133 121
103 120 103
99 117 98
104 122 105
80 99 72
94 112 93
77 98 66
86 109 75
75 98 60
70 94 54
70 93 54
78 102 60
69 93 53
68 90 52
70 93 54
69 91 53
72 96 56
119 135 124
152 165 167
157 170 172
158 170 174
157 170 175
158 171 175
142 155 154
154 167 170
162 174 178
159 172 177
162 175 179
146 158 159
161 174 180
153 166 168
144 159 159
153 166 168
148 161 163
156 171 174
144 158 158
141 155 153
87 107 82
75 99 59
68 91 52
69 92 53
69 92 53
71 95 56
73 97 56
67 90 52
68 92 53
73 96 56
75 98 58
73 98 58
70 93 53
71 94 55
69 92 53
66 88 51
75 99 58
83 103 74
136 151 145
155 168 169
154 167 168
144 158 160
147 160 161
145 158 160
156 169 170
148 161 160
147 160 159
136 150 152
133 149 145
126 140 135
118 133 127
121 138 128
129 145 138
116 132 124
128 141 137
139 153 150
134 147 145
135 149 148
136 151 147
139 154 154
143 156 157
152 165 166
157 169 171
145 158 158
157 168 173
140 153 156
137 153 153
149 161 162
130 144 140
97 115 97
79 99 70
85 103 82
94 110 94
92 111 90
106 122 111
102 117 106
134 148 145
108 123 114
127 141 139
121 134 131
118 132 127
121 136 128
158 172 174
152 165 168
185 197 205
198 210 222
222 235 251
227 239 255
227 239 255
227 239 255
227 239 255
227 239 255
226 239 255
226 239 255
226 239 255
226 239 255
226 239 255
226 239 255
226 239 255
226 239 255
226 239 255
226 239 255
226 239 255
226 239 255
226 239 255
226 239 255
226 239 255
226 239 255
226 239 255
226 239 255
226 239 255
226 239 255
226 239 255
226 239 255
226 239 255
226 239 255
226 239 255
226 239 255
226 239 255
226 239 255
226 239 255
226 238 255
226 238 255
226 238 255
226 238 255
226 238 255
226 238 255
226 238 255
226 238 255
226 238 255
226 238 255
226 238 255
226 238 255
226 238 255
226 238 255
226 238 255
226 238 255
226 238 255
226 238 255
226 238 255
226 238 255
226 238 255
226 238 255
226 238 255
226 238 255
226 238 255
226 238 255
226 238 255
226 238 255
226 238 255
226 238 255
226 238 255
226 238 255
226 238 255
226 238 255
226 238 255
226 238 255
226 238 255
226 238 255
226 238 255
226 238 255
226 238 255
226 238 255
226 238 255
226 238 255
226 238 255
226 238 255
226 238 255
226 238 255
226 238 255
226 238 255
226 238 255
226 238 255
226 238 255
226 238 255
226 238 255
226 238 255
226 238 255
226 238 255
226 238 255
226 238 255
226 238 255
226 238 255
226 238 255
226 238 255
226 238 255
226 238 255
226 238 255
226 238 255
226 238 255
226 238 255
226 238 255
226 238 255
226 238 255
226 238 255
226 238 255
226 238 255
226 238 255
226 238 255
226 238 255
226 238 255
226 238 255
226 238 255
226 238 255
226 238 255
226 238 255
226 238 255
226 238 255
226 238 255
226 238 255
226 238 255
226 238 255
226 238 255
226 238 255
226 238 255
226 238 255
226 238 255
226 238 255
226 238 255
226 238 255
226 238 255
226 238 255
226 238 255
226 238 255
226 238 255
226 238 255
226 238 255
226 238 255
226 238 255
226 238 255
226 238 255
226 238 255
226 238 255
226 238 255
226 238 255
226 238 255
226 238 255
226 238 255
226 238 255
226 238 255
226 238 255
226 238 255
226 238 255
226 239 255
226 239 255
226 239 255
226 239 255
226 239 255
226 239 255
226 239 255
226 239 255
226 239 255
226 239 255
226 239 255
226 239 255
226 239 255
226 239 255
226 239 255
226 239 255
226 239 255
226 239 255
226 239 255
226 239 255
226 239 255
226 239 255
226 239 255
227 239 255
227 239 255
227 239 255
227 239 255
227 239 255
227 239 255
227 239 255
227 239 255
227 239 255
227 239 255
227 239 255
227 239 255
227 239 255
227 239 255
227 239 255
227 239 255
227 239 255
227 239 255
227 239 255
227 239 255
227 239 255
227 239 255
227 239 255
227 239 255
227 239 255
227 239 255
227 239 255
227 239 255
227 239 255
227 239 255
227 239 255
227 239 255
227 239 255
227 239 255
227 239 255
227 239 255
227 239 255
227 239 255
227 239 255
227 239 255
227 239 255
227 239 255
227 239 255
227 239 255
227 239 255
227 239 255
227 239 255
227 239 255
227 239 255
222 234 250
209 221 235
192 204 216
171 183 190
160 172 177
127 140 138
108 122 115
115 129 123
95 111 97
95 113 97
94 109 95
92 110 92
94 112 95
89 107 90
72 91 65
63 84 52
64 85 49
67 90 52
57 78 44
63 86 49
102 117 106
128 143 138
113 129 119
112 128 117
94 112 94
96 115 92
85 106 78
69 93 54
71 94 55
64 86 50
64 86 50
67 90 51
71 95 55
62 83 47
64 86 49
67 90 52
64 86 49
72 95 56
68 91 53
79 101 68
94 113 93
104 122 102
132 145 144
115 130 122
96 115 94
101 119 102
89 106 87
81 101 76
66 89 51
68 90 52
72 95 56
69 92 53
67 89 52
74 98 58
75 98 58
64 86 49
73 97 57
70 93 54
71 94 54
71 94 56
70 93 55
73 97 57
70 93 54
101 120 97
136 150 149
152 164 166
152 165 168
134 148 148
152 165 170
144 157 159
147 160 160
140 152 152
141 155 158
145 160 160
139 153 153
157 169 172
154 167 171
134 147 146
138 151 147
149 163 164
144 158 160
128 143 141
125 138 133
125 141 133
86 106 81
113 130 117
95 113 92
111 126 115
110 127 112
107 123 109
114 130 117
108 124 114
110 127 115
128 143 137
129 143 138
133 148 143
134 149 145
131 145 142
116 132 125
141 154 153
124 139 130
125 140 134
126 140 136
128 142 136
100 117 102
103 120 102
100 118 101
110 125 114
103 121 102
105 122 109
113 130 116
108 125 111
106 120 109
116 133 123
105 123 109
112 128 116
116 131 122
131 145 140
119 135 125
115 131 121
114 130 121
85 105 83
91 110 92
91 110 87
90 108 89
96 115 95
84 104 76
74 97 61
75 98 63
70 94 54
71 95 55
65 87 51
71 95 56
66 89 51
74 99 57
66 88 51
77 99 67
98 116 101
132 146 144
149 162 164
149 162 165
144 157 159
146 158 160
146 159 159
145 158 161
148 160 161
134 146 146
130 143 141
122 137 130
117 131 124
112 127 117
139 152 152
133 147 147
120 134 130
101 116 103
122 136 132
110 124 117
108 124 113
112 126 119
129 144 141
136 150 147
157 170 172
166 180 183
182 195 203
207 219 232
223 235 252
227 239 255
227 239 255
227 239 255
227 239 255
227 239 255
227 239 255
227 239 255
227 239 255
227 239 255
227 239 255
227 239 255
227 239 255
227 239 255
227 239 255
227 239 255
227 239 255
227 239 255
227 239 255
227 239 255
227 239 255
227 239 255
227 239 255
227 239 255
227 239 255
227 239 255
227 239 255
227 239 255
227 239 255
227 239 255
227 239 255
227 239 255
227 239 255
227 239 255
227 239 255
227 239 255
227 239 255
227 239 255
227 239 255
227 239 255
227 239 255
227 239 255
227 239 255
227 239 255
227 239 255
227 239 255
227 239 255
227 239 255
227 239 255
227 239 255
227 239 255
227 239 255
226 239 255
226 239 255
226 239 255
226 239 255
226 239 255
226 239 255
226 239 255
226 239 255
226 239 255
226 239 255
226 239 255
226 239 255
226 239 255
226 239 255
226 239 255
226 239 255
226 239 255
226 239 255
226 239 255
226 239 255
226 239 255
226 238 255
226 238 255
226 238 255
226 238 255
226 238 255
226 238 255
226 238 255
226 238 255
226 238 255
226 238 255
226 238 255
226 238 255
226 238 255
226 238 255
226 238 255
226 238 255
226 238 255
226 238 255
226 238 255
226 238 255
226 238 255
226 238 255
226 238 255
226 238 255
226 238 255
226 238 255
226 238 255
226 238 255
226 238 255
226 238 255
226 238 255
226 238 255
226 238 255
226 238 255
226 238 255
226 238 255
226 238 255
226 238 255
226 238 255
226 238 255
226 238 255
226 238 255
226 238 255
226 238 255
226 238 255
226 238 255
226 238 255
226 238 255
226 238 255
226 238 255
226 238 255
226 238 255
226 238 255
226 238 255
226 238 255
226 238 255
226 238 255
226 238 255
226 238 255
226 238 255
226 238 255
226 238 255
226 239 255
226 239 255
226 239 255
226 239 255
226 239 255
226 239 255
226 239 255
226 239 255
226 239 255
226 239 255
226 239 255
226 239 255
226 239 255
226 239 255
226 239 255
226 239 255
226 239 255
226 239 255
226 239 255
226 239 255
227 239 255
227 239 255
227 239 255
227 239 255
227 239 255
227 239 255
227 239 255
227 239 255
227 239 255
227 239 255
227 239 255
227 239 255
227 239 255
227 239 255
227 239 255
227 239 255
227 239 255
227 239 255
227 239 255
227 239 255
227 239 255
227 239 255
227 239 255
227 239 255
227 239 255
227 239 255
227 239 255
227 239 255
227 239 255
227 239 255
227 239 255
227 239 255
227 239 255
227 239 255
227 239 255
227 239 255
227 239 255
227 239 255
227 239 255
227 239 255
227 239 255
227 239 255
227 239 255
227 239 255
227 239 255
227 239 255
227 239 255
227 239 255
227 239 255
227 239 255
227 239 255
227 239 255
227 239 255
227 239 255
227 239 255
227 239 255
227 239 255
227 239 255
227 239 255
227 239 255
227 239 255
227 239 255
227 239 255
227 239 255
227 239 255
227 239 255
227 239 255
227 239 255
227 239 255
227 239 255
227 239 255
227 239 255
227 239 255
227 239 255
227 239 255
227 239 255
227 239 255
227 239 255
227 239 255
227 239 255
227 239 255
227 239 255
227 239 255
227 239 255
227 239 255
227 239 255
227 239 255
220 232 248
217 229 244
201 213 226
177 189 196
117 132 125
75 92 72
80 99 76
86 102 87
83 101 81
68 89 58
74 94 67
95 111 97
119 132 126
123 136 135
128 142 138
129 142 142
124 137 133
138 151 151
138 151 151
128 142 139
126 140 138
129 143 140
125 140 137
126 140 136
89 104 88
106 123 108
93 110 93
83 102 83
82 102 74
66 88 51
61 83 47
58 78 43
68 91 53
83 104 73
126 139 138
132 144 143
146 160 160
146 158 162
138 152 151
146 160 162
150 164 165
142 155 157
132 147 144
138 152 149
144 156 157
115 131 122
123 138 133
133 147 143
102 119 102
114 129 119
101 119 102
93 112 89
81 101 77
81 101 73
73 95 60
115 130 123
142 156 153
137 152 152
157 169 173
140 153 154
132 146 144
138 150 149
152 164 168
149 162 165
138 153 154
143 157 159
161 173 176
149 161 163
132 147 145
155 169 173
144 156 158
136 149 149
136 150 147
135 149 150
137 150 150
118 132 125
76 97 66
69 92 53
67 90 52
65 87 51
71 94 55
67 90 52
73 97 57
66 88 51
71 95 56
70 94 54
70 93 54
71 94 54
71 95 55
67 90 52
64 86 50
67 89 52
70 93 55
71 94 58
102 119 102
134 148 144
151 165 165
142 156 154
148 161 163
125 139 137
144 157 159
148 160 162
147 159 161
137 150 149
137 149 147
150 162 165
147 160 162
145 158 159
139 152 152
140 153 155
140 154 154
134 149 146
115 130 116
80 102 71
64 87 50
71 94 55
70 93 54
67 89 51
60 81 46
65 88 51
62 84 48
68 90 52
62 84 48
67 89 52
66 89 51
66 89 51
72 95 59
76 96 68
112 127 118
133 147 144
106 121 111
122 137 129
117 132 126
111 127 119
113 129 121
105 121 111
100 115 104
105 122 108
111 126 118
100 115 102
94 109 97
93 110 95
78 96 76
85 102 86
101 115 109
99 116 102
102 115 108
138 150 152
176 188 196
198 210 223
201 214 227
223 235 252
227 239 255
227 239 255
227 239 255
227 239 255
227 239 255
227 239 255
227 239 255
227 239 255
227 239 255
227 239 255
227 239 255
227 239 255
227 239 255
227 239 255
227 239 255
227 239 255
227 239 255
227 239 255
227 239 255
227 239 255
227 239 255
227 239 255
227 239 255
227 239 255
227 239 255
227 239 255
227 239 255
227 239 255
227 239 255
227 239 255
227 239 255
227 239 255
227 239 255
227 239 255
227 239 255
227 239 255
227 239 255
227 239 255
227 239 255
227 239 255
227 239 255
227 239 255
227 239 255
227 239 255
227 239 255
227 239 255
227 239 255
227 239 255
227 239 255
227 239 255
227 239 255
227 239 255
227 239 255
227 239 255
227 239 255
227 239 255
227 239 255
227 239 255
227 239 255
227 239 255
227 239 255
227 239 255
227 239 255
227 239 255
227 239 255
227 239 255
227 239 255
227 239 255
227 239 255
227 239 255
227 239 255
227 239 255
227 239 255
227 239 255
227 239 255
227 239 255
227 239 255
227 239 255
227 239 255
227 239 255
227 239 255
227 239 255
227 239 255
227 239 255
227 239 255
227 239 255
227 239 255
227 239 255
226 239 255
226 239 255
226 239 255
226 239 255
226 239 255
226 239 255
226 239 255
226 239 255
226 239 255
226 239 255
226 239 255
226 239 255
226 239 255
226 239 255
226 239 255
226 239 255
226 239 255
226 238 255
226 239 255
226 238 255
226 238 255
226 238 255
226 238 255
226 238 255
226 238 255
226 238 255
226 238 255
226 238 255
226 238 255
226 238 255
226 238 255
226 238 255
226 238 255
226 238 255
226 238 255
226 238 255
226 239 255
226 239 255
226 239 255
226 239 255
226 239 255
226 239 255
226 239 255
226 239 255
226 239 255
226 239 255
227 239 255
227 239 255
227 239 255
227 239 255
227 239 255
227 239 255
227 239 255
227 239 255
227 239 255
227 239 255
227 239 255
227 239 255
227 239 255
227 239 255
227 239 255
227 239 255
227 239 255
227 239 255
227 239 255
227 239 255
227 239 255
227 239 255
227 239 255
227 239 255
227 239 255
227 239 255
227 239 255
227 239 255
227 239 255
227 239 255
227 239 255
227 239 255
227 239 255
227 239 255
227 239 255
227 239 255
227 239 255
227 239 255
227 239 255
227 239 255
227 239 255
227 239 255
227 239 255
227 239 255
227 239 255
227 239 255
227 239 255
227 239 255
227 239 255
227 239 255
227 239 255
227 239 255
227 239 255
227 239 255
227 239 255
227 239 255
227 239 255
227 239 255
227 239 255
227 239 255
227 239 255
227 239 255
227 239 255
227 239 255
227 239 255
227 239 255
227 239 255
227 239 255
227 239 255
227 239 255
227 239 255
227 239 255
227 239 255
227 239 255
227 239 255
227 239 255
227 239 255
227 239 255
227 239 255
227 239 255
227 239 255
227 239 255
227 239 255
227 239 255
227 239 255
227 239 255
227 239 255
227 239 255
227 239 255
227 239 255
227 239 255
227 239 255
227 239 255
227 239 255
227 239 255
227 239 255
227 239 255
227 239 255
227 239 255
227 239 255
227 239 255
227 239 255
227 239 255
227 239 255
227 239 255
227 239 255
227 239 255
227 239 255
227 239 255
227 239 255
227 239 255
226 238 254
203 215 228
182 194 204
165 177 185
140 152 156
119 130 133
91 105 98
87 100 94
88 102 94
70 85 74
72 85 77
51 65 45
48 66 37
62 80 57
90 103 97
95 108 103
122 134 135
114 126 123
107 121 114
132 146 143
123 138 136
122 136 131
99 115 102
107 122 114
101 118 104
103 120 106
100 115 104
90 108 89
91 109 90
96 112 102
92 109 93
104 120 109
98 114 101
112 126 120
115 130 123
100 115 106
120 134 129
105 120 111
120 134 127
119 132 127
122 137 131
134 146 146
134 148 145
138 150 150
149 162 164
123 137 132
137 151 150
147 159 161
146 158 163
129 143 142
135 149 147
141 154 155
148 161 162
134 148 143
145 158 160
137 150 152
121 136 130
78 97 69
75 97 63
73 93 62
69 88 63
88 107 85
99 114 101
78 98 69
114 129 119
85 104 84
122 137 129
109 123 114
113 127 120
112 128 119
116 129 125
129 144 141
117 130 125
129 144 140
124 139 134
127 142 138
129 145 139
90 107 91
71 91 62
66 88 51
63 85 49
70 93 54
64 86 50
72 94 55
68 91 53
67 90 52
71 94 56
67 89 51
63 85 49
67 90 51
65 87 50
68 90 53
69 92 54
64 86 49
68 91 52
102 118 104
128 141 136
145 157 159
145 157 159
140 154 153
128 143 143
143 155 156
143 155 159
131 145 144
149 162 164
139 153 153
141 155 155
129 143 139
138 151 152
138 151 153
129 143 141
123 136 131
116 129 126
114 128 121
85 102 84
103 120 105
83 102 77
99 116 100
97 114 97
93 111 95
88 106 88
102 121 99
95 111 96
96 113 100
92 108 92
102 117 103
101 114 105
104 120 109
111 125 118
131 144 143
118 132 130
136 148 148
126 139 139
127 141 138
118 131 125
120 133 130
113 128 122
108 121 114
110 125 118
111 124 118
101 114 108
105 116 113
108 120 119
104 116 114
106 119 118
112 123 125
103 115 116
87 101 94
59 73 61
76 90 80
84 98 91
84 99 88
123 136 135
152 165 169
177 188 198
193 205 217
208 220 234
224 236 253
227 239 255
227 239 255
227 239 255
227 239 255
227 239 255
227 239 255
227 239 255
227 239 255
227 239 255
227 239 255
227 239 255
227 239 255
227 239 255
227 239 255
227 239 255
227 239 255
227 239 255
227 239 255
227 239 255
227 239 255
227 239 255
227 239 255
227 239 255
227 239 255
227 239 255
227 239 255
227 239 255
227 239 255
227 239 255
227 239 255
227 239 255
227 239 255
227 239 255
227 239 255
227 239 255
227 239 255
227 239 255
227 239 255
227 239 255
227 239 255
227 239 255
227 239 255
227 239 255
227 239 255
227 239 255
227 239 255
227 239 255
227 239 255
227 239 255
227 239 255
227 239 255
227 239 255
227 239 255
227 239 255
227 239 255
227 239 255
227 239 255
227 239 255
227 239 255
227 239 255
227 239 255
227 239 255
227 239 255
227 239 255
227 239 255
227 239 255
227 239 255
227 239 255
227 239 255
227 239 255
227 239 255
227 239 255
227 239 255
227 239 255
227 239 255
227 239 255
227 239 255
227 239 255
227 239 255
227 239 255
227 239 255
227 239 255
227 239 255
227 239 255
227 239 255
227 239 255
227 239 255
227 239 255
227 239 255
227 239 255
227 239 255
227 239 255
227 239 255
227 239 255
227 239 255
227 239 255
227 239 255
227 239 255
227 239 255
227 239 255
227 239 255
227 239 255
227 239 255
227 239 255
227 239 255
227 239 255
227 239 255
227 239 255
227 239 255
227 239 255
226 239 255
226 239 255
226 239 255
226 239 255
226 239 255
226 239 255
226 239 255
226 239 255
226 239 255
226 239 255
226 239 255
227 239 255
227 239 255
227 239 255
227 239 255
227 239 255
227 239 255
227 239 255
227 239 255
227 239 255
227 239 255
227 239 255
227 239 255
227 239 255
227 239 255
227 239 255
227 239 255
227 239 255
227 239 255
227 239 255
227 239 255
227 239 255
227 239 255
227 239 255
227 239 255
227 239 255
227 239 255
227 239 255
227 239 255
227 239 255
227 239 255
227 239 255
227 239 255
227 239 255
227 239 255
227 239 255
227 239 255
227 239 255
227 239 255
227 239 255
227 239 255
227 239 255
227 239 255
227 239 255
227 239 255
227 239 255
227 239 255
227 239 255
227 239 255
227 239 255
227 239 255
227 239 255
227 239 255
227 239 255
227 239 255
227 239 255
227 239 255
227 239 255
227 239 255
227 239 255
227 239 255
227 239 255
227 239 255
227 239 255
227 239 255
227 239 255
227 239 255
227 239 255
227 239 255
227 239 255
227 239 255
227 239 255
227 239 255
227 239 255
227 239 255
227 239 255
227 239 255
227 239 255
227 239 255
227 239 255
227 239 255
227 239 255
227 239 255
227 239 255
227 239 255
227 239 255
227 239 255
227 239 255
227 239 255
227 239 255
227 239 255
227 239 255
227 239 255
227 239 255
227 239 255
227 239 255
227 239 255
227 239 255
227 239 255
227 239 255
227 239 255
227 239 255
227 239 255
227 239 255
227 239 255
227 239 255
227 239 255
227 239 255
227 239 255
227 239 255
227 239 255
227 239 255
227 239 255
227 239 255
227 239 255
227 239 255
227 239 255
221 233 248
207 219 233
164 175 182
160 172 177
137 149 153
99 113 108
97 111 106
92 105 101
92 106 102
60 75 58
66 82 64
59 75 56
41 58 32
43 58 38
56 70 53
61 75 61
71 84 75
72 87 73
92 104 100
72 83 77
71 80 80
38 53 29
34 48 26
41 57 33
33 47 26
45 60 38
57 69 57
75 88 80
83 95 90
88 101 94
95 108 102
105 117 113
110 123 120
107 120 113
116 131 125
98 112 104
99 115 100
75 89 74
77 97 73
117 130 126
116 130 127
123 136 134
125 138 137
125 138 137
135 148 147
131 145 145
139 152 153
131 145 144
130 144 141
123 137 135
131 144 144
128 143 140
119 132 129
134 148 146
123 135 136
114 128 122
115 128 122
106 121 113
116 131 121
115 130 122
112 127 117
110 126 115
100 115 104
112 127 118
119 133 125
102 118 110
99 115 103
106 121 111
99 116 101
101 117 104
99 117 101
98 113 101
93 110 91
98 115 100
93 109 94
93 110 97
89 106 90
101 117 107
86 105 85
74 93 69
111 127 117
122 137 130
114 129 123
123 138 133
132 145 142
122 135 129
118 131 128
128 141 138
109 124 115
122 137 132
114 128 118
105 121 110
108 123 111
117 131 125
111 126 115
111 125 116
104 119 108
118 135 124
126 140 136
103 118 109
108 122 115
104 120 110
123 137 134
117 130 125
118 133 126
126 141 135
117 131 125
102 118 109
119 133 126
118 133 127
126 140 136
121 136 129
115 130 124
120 135 126
110 124 118
96 113 98
71 91 63
69 89 61
59 80 50
71 93 58
56 77 44
58 79 45
67 89 52
55 75 41
65 86 50
65 85 53
77 96 73
78 97 74
74 93 69
65 84 59
76 93 77
97 114 96
104 121 111
102 117 107
79 95 78
81 96 84
75 90 77
68 81 69
65 80 62
67 81 68
49 62 45
71 83 76
77 90 81
91 102 101
49 61 46
40 56 32
33 47 25
34 47 27
48 65 38
47 60 43
44 58 37
57 71 57
83 95 92
62 75 67
69 84 68
62 77 60
42 59 32
49 68 38
51 67 43
76 91 82
59 77 56
83 97 90
97 111 105
113 126 122
160 172 178
173 185 194
202 213 227
224 236 253
227 239 255
227 239 255
227 239 255
227 239 255
227 239 255
227 239 255
227 239 255
227 239 255
227 239 255
227 239 255
227 239 255
227 239 255
227 239 255
227 239 255
227 239 255
227 239 255
227 239 255
227 239 255
227 239 255
227 239 255
227 239 255
227 239 255
227 239 255
227 239 255
227 239 255
227 239 255
227 239 255
227 239 255
227 239 255
227 239 255
227 239 255
227 239 255
227 239 255
227 239 255
227 239 255
227 239 255
227 239 255
227 239 255
227 239 255
227 239 255
227 239 255
227 239 255
227 239 255
227 239 255
227 239 255
227 239 255
227 239 255
227 239 255
227 239 255
227 239 255
227 239 255
227 239 255
227 239 255
227 239 255
227 239 255
227 239 255
227 239 255
227 239 255
227 239 255
227 239 255
227 239 255
227 239 255
227 239 255
227 239 255
227 239 255
227 239 255
227 239 255
227 239 255
227 239 255
227 239 255
227 239 255
227 239 255
227 239 255
227 239 255
227 239 255
227 239 255
227 239 255
227 239 255
227 239 255
227 239 255
227 239 255
227 239 255
227 239 255
227 239 255
227 239 255
227 239 255
227 239 255
227 239 255
227 239 255
227 239 255
227 239 255
227 239 255
227 239 255
227 239 255
227 239 255
227 239 255
227 239 255
227 239 255
227 239 255
227 239 255
227 239 255
227 239 255
227 239 255
227 239 255
227 239 255
227 239 255
227 239 255
227 239 255
227 239 255
227 239 255
227 239 255
227 239 255
227 239 255
227 239 255
227 239 255
227 239 255
227 239 255
227 239 255
227 239 255
227 239 255
227 239 255
227 239 255
227 239 255
227 239 255
227 239 255
227 239 255
227 239 255
227 239 255
227 239 255
227 239 255
227 239 255
227 239 255
227 239 255
227 239 255
227 239 255
227 239 255
227 239 255
227 239 255
227 239 255
227 239 255
227 239 255
227 239 255
227 239 255
227 239 255
227 239 255
227 239 255
227 239 255
227 239 255
227 239 255
227 239 255
227 239 255
227 239 255
227 239 255
227 239 255
227 239 255
227 239 255
227 239 255
227 239 255
227 239 255
227 239 255
227 239 255
227 239 255
227 239 255
227 239 255
227 239 255
227 239 255
227 239 255
227 239 255
227 239 255
227 239 255
227 239 255
227 239 255
227 239 255
227 239 255
227 239 255
227 239 255
227 239 255
227 239 255
227 239 255
227 239 255
227 239 255
227 239 255
227 239 255
227 239 255
227 239 255
227 239 255
227 239 255
227 239 255
227 239 255
227 239 255
227 239 255
227 239 255
227 239 255
227 239 255
227 239 255
227 239 255
227 239 255
227 239 255
227 239 255
227 239 255
227 239 255
227 239 255
227 239 255
227 239 255
227 239 255
227 239 255
227 239 255
227 239 255
227 239 255
227 239 255
227 239 255
227 239 255
227 239 255
227 239 255
227 239 255
227 239 255
227 239 255
227 239 255
227 239 255
227 239 255
227 239 255
227 239 255
227 239 255
227 239 255
227 239 255
227 239 255
227 239 255
224 236 252
209 221 235
188 200 211
140 152 155
107 120 118
80 96 84
69 86 69
68 85 66
107 120 120
71 85 76
62 78 61
46 63 36
49 66 38
51 68 44
69 84 73
58 73 58
83 94 92
88 101 96
73 85 79
104 115 118
99 110 111
99 112 110
82 95 90
75 88 79
78 89 87
78 89 87
63 76 66
74 86 80
65 78 68
84 95 93
73 83 80
51 63 50
70 78 79
66 76 72
75 84 82
73 82 81
65 75 70
65 74 72
61 72 63
64 75 68
62 74 64
73 83 79
59 71 58
57 73 51
58 70 56
71 85 71
68 80 71
64 79 59
63 80 58
81 96 79
85 101 88
82 97 85
71 89 65
89 102 96
94 108 100
114 130 120
99 114 106
112 126 121
127 139 139
115 128 126
120 133 131
111 124 117
86 103 87
55 75 43
55 76 43
59 80 45
60 80 46
61 83 47
70 90 62
70 88 64
80 100 72
87 102 86
80 96 79
95 110 97
94 109 99
104 119 111
102 117 106
107 122 115
113 127 120
114 128 122
106 121 112
112 127 120
106 120 113
92 108 94
88 105 88
68 87 62
66 86 60
70 89 64
82 100 79
84 100 83
71 90 63
72 93 64
63 82 54
70 90 62
66 85 57
71 90 62
68 88 59
68 86 62
68 86 61
65 85 52
86 104 84
97 114 100
122 135 133
131 144 144
125 139 136
118 133 125
124 137 134
113 126 122
110 124 116
115 128 124
121 134 132
114 128 123
113 126 124
109 123 118
115 128 123
118 132 127
124 136 135
117 128 127
113 129 122
97 112 100
70 86 67
110 124 119
106 120 114
96 110 100
105 118 112
91 106 96
114 126 124
101 115 109
113 126 122
123 136 135
99 110 107
96 109 102
76 90 79
72 84 74
64 79 63
54 67 51
56 70 53
70 79 77
50 62 48
40 50 39
29 40 22
33 46 26
39 52 30
34 47 27
42 53 39
26 38 19
58 68 61
46 56 46
52 61 55
66 77 72
54 66 54
45 59 39
39 50 36
39 54 31
41 57 31
37 53 29
40 55 31
41 58 32
44 61 35
38 53 29
41 57 32
54 68 52
76 88 83
86 99 92
78 93 80
74 88 77
81 98 83
53 71 45
49 67 42
53 72 45
60 77 52
73 89 73
91 106 98
124 137 136
155 169 172
168 179 187
211 223 238
220 233 248
227 239 255
227 239 255
227 239 255
227 239 255
227 239 255
227 239 255
227 239 255
227 239 255
227 239 255
227 239 255
227 239 255
227 239 255
227 239 255
227 239 255
227 239 255
227 239 255
227 239 255
227 239 255
227 239 255
227 239 255
227 239 255
227 239 255
227 239 255
227 239 255
227 239 255
227 239 255
227 239 255
227 239 255
227 239 255
227 239 255
227 239 255
227 239 255
227 239 255
227 239 255
227 239 255
227 239 255
227 239 255
227 239 255
227 239 255
227 239 255
227 239 255
227 239 255
227 239 255
227 239 255
227 239 255
227 239 255
227 239 255
227 239 255
227 239 255
227 239 255
227 239 255
227 239 255
227 239 255
227 239 255
227 239 255
227 239 255
227 239 255
227 239 255
227 239 255
227 239 255
227 239 255
227 239 255
227 239 255
227 239 255
227 239 255
227 239 255
227 239 255
227 239 255
227 239 255
227 239 255
227 239 255
227 239 255
227 239 255
227 239 255
227 239 255
227 239 255
227 239 255
227 239 255
227 239 255
227 239 255
227 239 255
227 239 255
227 239 255
227 239 255
227 239 255
227 239 255
227 239 255
227 239 255
227 239 255
227 239 255
227 239 255
227 239 255
227 239 255
227 239 255
227 239 255
227 239 255
227 239 255
227 239 255
227 239 255
227 239 255
227 239 255
227 239 255
227 239 255
227 239 255
227 239 255
227 239 255
227 239 255
227 239 255
227 239 255
227 239 255
227 239 255
227 239 255
227 239 255
227 239 255
227 239 255
227 239 255
227 239 255
227 239 255
227 239 255
227 239 255
227 239 255
227 239 255
227 239 255
227 239 255
227 239 255
227 239 255
227 239 255
227 239 255
227 239 255
227 239 255
227 239 255
227 239 255
227 239 255
227 239 255
227 239 255
227 239 255
227 239 255
227 239 255
227 239 255
227 239 255
227 239 255
227 239 255
227 239 255
227 239 255
227 239 255
227 239 255
227 239 255
227 239 255
227 239 255
227 239 255
227 239 255
227 239 255
227 239 255
227 239 255
227 239 255
227 239 255
227 239 255
227 239 255
227 239 255
227 239 255
227 239 255
227 239 255
227 239 255
227 239 255
227 239 255
227 239 255
227 239 255
227 239 255
227 239 255
227 239 255
227 239 255
227 239 255
227 239 255
227 239 255
227 239 255
227 239 255
227 239 255
227 239 255
227 239 255
227 239 255
227 239 255
227 239 255
227 239 255
227 239 255
227 239 255
227 239 255
227 239 255
227 239 255
227 239 255
227 239 255
227 239 255
227 239 255
227 239 255
227 239 255
227 239 255
227 239 255
227 239 255
227 239 255
227 239 255
227 239 255
227 239 255
227 239 255
227 239 255
227 239 255
227 239 255
227 239 255
227 239 255
227 239 255
227 239 255
227 239 255
227 239 255
227 239 255
227 239 255
227 239 255
227 239 255
227 239 255
227 239 255
227 239 255
215 227 242
193 205 217
168 180 189
107 120 117
84 99 87
68 83 67
72 91 70
86 100 94
95 107 103
90 104 99
123 137 140
86 99 96
97 110 107
78 91 81
69 82 72
86 98 94
103 115 114
102 116 113
86 100 90
99 112 109
81 94 86
81 93 89
83 96 89
84 94 90
75 87 80
62 74 64
55 72 47
38 53 29
44 60 35
37 52 29
36 51 29
51 63 52
63 73 66
65 77 69
75 86 80
71 81 78
69 78 77
71 80 79
37 49 32
48 57 50
51 62 53
46 58 44
28 39 21
32 45 24
31 44 25
30 42 24
29 41 22
32 44 25
30 42 23
36 46 36
61 68 68
53 62 57
45 54 46
55 64 58
45 54 46
50 59 53
63 71 69
71 80 79
49 60 48
56 65 57
54 68 48
44 57 38
51 66 46
71 85 74
86 97 93
93 104 100
102 112 109
86 98 94
92 105 99
90 103 96
90 102 98
93 106 100
93 106 97
104 116 113
78 93 79
81 97 81
91 106 93
82 97 83
82 98 81
89 104 90
76 92 75
68 86 63
53 69 47
71 88 68
94 107 99
117 129 131
110 123 119
124 135 138
113 125 124
117 132 128
115 127 129
113 127 123
117 131 127
121 135 135
130 142 142
106 119 113
128 140 140
119 132 128
120 133 132
122 134 133
118 132 129
101 118 106
98 112 106
71 89 65
61 78 57
55 72 45
64 83 55
69 86 64
81 98 76
70 86 66
59 76 53
57 75 47
57 76 47
81 97 80
68 84 63
65 82 62
53 71 44
66 83 62
71 84 73
73 85 75
78 91 84
77 89 80
80 90 87
77 89 79
71 80 75
53 66 51
66 75 71
57 68 58
41 52 41
33 45 25
49 57 51
53 60 60
47 56 51
53 61 57
60 69 65
55 63 59
55 65 58
56 65 60
63 72 70
57 66 62
53 61 57
51 62 53
70 79 77
70 81 76
37 51 28
24 35 18
39 53 31
38 52 29
29 40 23
33 47 26
35 49 27
36 51 28
41 57 32
38 52 30
32 45 24
38 53 30
56 70 53
75 85 83
76 89 83
73 84 80
58 70 63
66 78 69
74 87 78
69 82 73
48 61 48
60 75 57
45 62 34
64 79 62
91 106 99
90 101 98
95 107 107
99 111 108
85 98 94
92 105 100
94 107 100
98 112 108
82 100 84
100 114 109
120 132 134
113 126 127
110 125 123
95 109 105
138 151 153
146 160 161
188 199 211
217 229 245
227 239 255
227 239 255
227 239 255
227 239 255
227 239 255
227 239 255
227 239 255
227 239 255
227 239 255
227 239 255
227 239 255
227 239 255
227 239 255
227 239 255
227 239 255
227 239 255
227 239 255
227 239 255
227 239 255
227 239 255
227 239 255
227 239 255
227 239 255
227 239 255
227 239 255
227 239 255
227 239 255
227 239 255
227 239 255
227 239 255
227 239 255
227 239 255
227 239 255
227 239 255
227 239 255
227 239 255
227 239 255
227 239 255
227 239 255
227 239 255
227 239 255
227 239 255
227 239 255
227 239 255
227 239 255
227 239 255
227 239 255
227 239 255
227 239 255
227 239 255
227 239 255
227 239 255
227 239 255
227 239 255
227 239 255
227 239 255
227 239 255
227 239 255
227 239 255
227 239 255
227 239 255
227 239 255
227 239 255
227 239 255
227 239 255
227 239 255
227 239 255
227 239 255
227 239 255
227 239 255
227 239 255
227 239 255
227 239 255
227 239 255
227 239 255
227 239 255
227 239 255
227 239 255
227 239 255
227 239 255
227 239 255
227 239 255
227 239 255
227 239 255
227 239 255
227 239 255
227 239 255
227 239 255
227 239 255
227 239 255
227 239 255
227 239 255
227 239 255
227 239 255
227 239 255
227 239 255
227 239 255
227 239 255
227 239 255
227 239 255
227 239 255
227 239 255
227 239 255
227 239 255
227 239 255
227 239 255
227 239 255
227 239 255
227 239 255
227 239 255
227 239 255
227 239 255
227 239 255
227 239 255
227 239 255
227 239 255
227 239 255
227 239 255
227 239 255
227 239 255
227 239 255
227 239 255
227 239 255
227 239 255
227 239 255
227 239 255
227 239 255
227 239 255
227 239 255
227 239 255
227 239 255
227 239 255
227 239 255
227 239 255
227 239 255
227 239 255
227 239 255
227 239 255
227 239 255
227 239 255
227 239 255
227 239 255
227 239 255
227 239 255
227 239 255
227 239 255
227 239 255
227 239 255
227 239 255
227 239 255
227 239 255
227 239 255
227 239 255
227 239 255
227 239 255
227 239 255
227 239 255
227 239 255
227 239 255
227 239 255
227 239 255
227 239 255
227 239 255
227 239 255
227 239 255
227 239 255
227 239 255
227 239 255
227 239 255
227 239 255
227 239 255
227 239 255
227 239 255
227 239 255
227 239 255
227 239 255
227 239 255
227 239 255
227 239 255
227 239 255
227 239 255
227 239 255
227 239 255
227 239 255
227 239 255
227 239 255
227 239 255
227 239 255
227 239 255
227 239 255
227 239 255
227 239 255
227 239 255
227 239 255
227 239 255
227 239 255
227 239 255
227 239 255
227 239 255
227 239 255
227 239 255
227 239 255
227 239 255
227 239 255
227 239 255
227 239 255
227 239 255
227 239 255
227 239 255
217 229 244
197 209 221
191 203 215
134 147 149
97 115 101
66 82 64
64 83 59
88 105 91
100 115 110
104 118 113
103 117 113
102 115 113
106 118 118
88 101 95
90 103 97
60 77 55
52 69 47
50 68 39
45 64 36
58 76 52
102 114 113
93 106 104
83 95 89
68 80 72
68 82 70
58 71 58
56 73 50
41 58 32
48 65 39
36 51 27
35 50 26
45 61 36
43 59 33
45 62 36
35 49 27
38 52 30
49 65 45
54 65 57
48 62 45
46 58 43
35 48 31
36 49 28
34 47 26
33 45 25
32 44 24
35 48 27
39 54 30
33 45 26
40 55 32
37 51 29
26 37 20
36 50 28
30 42 23
33 45 26
35 48 28
52 60 57
57 67 61
46 53 52
51 59 54
44 54 45
31 40 29
33 43 30
25 35 20
21 30 15
25 35 19
23 33 18
22 32 16
27 37 22
30 40 23
22 31 18
23 33 17
27 38 21
44 50 48
46 53 49
54 61 60
36 43 38
34 40 36
43 50 46
28 38 22
32 40 31
38 46 39
58 65 64
50 59 52
63 70 71
47 55 51
36 46 33
55 65 58
44 54 45
50 61 49
49 61 48
26 37 20
33 46 26
37 48 33
40 52 36
30 42 23
36 48 33
54 65 55
37 49 33
51 65 47
50 64 46
35 46 32
49 64 43
47 58 47
68 77 75
61 71 65
47 56 47
80 89 89
71 80 75
49 59 52
65 73 72
65 76 68
54 62 56
47 53 49
61 68 63
54 60 61
35 44 32
34 42 31
29 37 28
22 30 17
15 23 9
27 36 21
42 47 46
36 42 38
47 54 51
39 44 43
46 52 50
56 63 62
43 49 49
49 56 54
17 25 13
52 60 56
44 53 46
44 54 46
43 52 45
46 52 50
70 79 77
31 43 24
31 43 24
30 43 24
35 48 27
35 46 32
20 30 15
39 48 39
35 45 32
54 64 57
39 51 35
51 62 52
49 61 49
50 58 53
64 74 70
34 48 27
41 49 44
38 49 34
47 59 43
44 60 35
44 57 39
45 61 35
45 61 36
36 50 28
40 56 32
38 52 29
37 52 29
52 67 50
57 71 57
80 92 89
81 93 89
77 89 83
90 101 102
70 83 75
87 99 97
81 93 89
89 102 98
81 95 86
93 105 102
90 103 100
82 95 86
82 97 85
80 93 87
85 98 91
99 110 110
104 118 115
97 110 108
106 119 118
106 118 119
100 115 111
84 99 89
84 101 88
93 108 99
110 122 120
116 129 130
103 118 115
141 155 160
152 166 170
176 188 198
209 221 236
220 232 247
227 239 255
227 239 255
227 239 255
227 239 255
227 239 255
227 239 255
227 239 255
227 239 255
227 239 255
227 239 255
227 239 255
227 239 255
227 239 255
227 239 255
227 239 255
227 239 255
227 239 255
227 239 255
227 239 255
227 239 255
227 239 255
227 239 255
227 239 255
227 239 255
227 239 255
227 239 255
227 239 255
227 239 255
227 239 255
227 239 255
227 239 255
227 239 255
227 239 255
227 239 255
227 239 255
227 239 255
227 239 255
227 239 255
227 239 255
227 239 255
227 239 255
227 239 255
227 239 255
227 239 255
227 239 255
227 239 255
227 239 255
227 239 255
227 239 255
227 239 255
227 239 255
227 239 255
227 239 255
227 239 255
227 239 255
227 239 255
227 239 255
227 239 255
227 239 255
227 239 255
227 239 255
227 239 255
227 239 255
227 239 255
227 239 255
227 239 255
227 239 255
227 239 255
227 239 255
227 239 255
227 239 255
227 239 255
227 239 255
227 239 255
227 239 255
227 239 255
227 239 255
227 239 255
227 239 255
227 239 255
227 239 255
227 239 255
227 239 255
227 239 255
227 239 255
227 239 255
227 239 255
227 239 255
227 239 255
227 239 255
227 239 255
227 239 255
227 239 255
227 239 255
227 239 255
227 239 255
227 239 255
227 239 255
227 239 255
227 239 255
227 239 255
227 239 255
227 239 255
227 239 255
227 239 255
227 239 255
227 239 255
227 239 255
227 239 255
227 239 255
227 239 255
227 239 255
227 239 255
227 239 255
227 239 255
227 239 255
227 239 255
227 239 255
227 239 255
227 239 255
227 239 255
227 239 255
227 239 255
227 239 255
227 239 255
227 239 255
227 239 255
227 239 255
227 239 255
227 239 255
227 239 255
227 239 255
227 239 255
227 239 255
227 239 255
227 239 255
227 239 255
227 239 255
227 239 255
227 239 255
227 239 255
227 239 255
227 239 255
227 239 255
227 239 255
227 239 255
227 239 255
227 239 255
227 239 255
227 239 255
227 239 255
227 239 255
227 239 255
227 239 255
227 239 255
227 239 255
227 239 255
227 239 255
227 239 255
227 239 255
227 239 255
227 239 255
227 239 255
227 239 255
227 239 255
227 239 255
227 239 255
227 239 255
227 239 255
227 239 255
227 239 255
227 239 255
227 239 255
227 239 255
227 239 255
227 239 255
227 239 255
227 239 255
227 239 255
227 239 255
227 239 255
227 239 255
227 239 255
227 239 255
227 239 255
227 239 255
227 239 255
227 239 255
227 239 255
227 239 255
227 239 255
227 239 255
227 239 255
227 239 255
227 239 255
227 239 255
227 239 255
227 239 255
227 239 255
227 239 255
215 227 242
190 201 212
164 177 182
142 156 158
110 126 122
125 141 141
91 109 96
92 109 98
106 120 119
100 116 111
121 135 137
102 116 114
97 110 107
90 104 97
78 93 83
51 66 47
51 69 41
47 65 36
44 62 34
56 75 44
51 69 40
64 77 65
78 90 83
80 93 86
85 96 95
57 72 54
44 60 35
48 65 38
42 58 33
39 54 29
42 59 33
42 59 33
44 61 35
46 62 40
46 58 43
52 65 50
54 67 55
65 78 68
79 89 90
83 94 91
86 96 96
82 94 89
77 88 83
37 52 29
40 55 32
35 50 27
36 50 28
38 53 30
30 43 23
31 43 24
37 52 28
36 51 28
38 52 30
44 56 42
60 70 63
62 72 68
56 68 57
55 63 59
54 64 59
56 66 58
33 42 31
26 37 20
31 43 24
27 38 20
32 44 25
29 41 22
31 42 24
23 33 17
30 42 23
29 40 22
33 46 26
26 37 20
13 21 9
32 44 25
21 30 16
23 33 18
27 37 21
49 55 55
37 44 38
56 63 63
41 48 44
51 59 56
49 57 52
33 41 31
39 45 43
30 37 29
31 39 30
50 60 53
32 41 30
23 32 18
19 26 15
13 21 9
23 33 17
18 26 14
42 50 45
48 56 52
35 42 37
27 34 27
46 54 46
36 43 37
32 40 31
36 43 37
22 31 17
42 49 45
37 45 39
41 48 44
42 49 44
30 37 28
45 51 49
49 57 52
36 41 40
21 30 16
22 31 17
29 40 23
29 40 23
30 41 24
29 41 23
24 34 18
23 33 18
31 43 24
26 35 20
29 39 23
30 42 24
21 30 16
23 34 17
27 38 22
47 55 50
57 65 62
52 60 56
49 57 54
46 55 49
45 53 47
42 49 44
42 51 41
47 57 48
49 58 52
73 82 80
42 51 41
43 51 45
56 64 61
51 61 53
50 60 53
30 43 23
34 47 27
35 48 27
28 40 21
36 48 28
29 41 22
31 43 24
27 40 20
33 46 26
41 56 33
36 49 27
35 48 27
26 37 19
54 65 55
74 84 80
62 74 66
77 86 87
79 89 85
73 83 79
72 82 80
78 90 84
82 92 92
66 78 68
79 90 86
59 71 61
52 64 53
66 76 72
93 105 103
82 93 91
80 91 90
93 104 104
82 93 90
98 110 111
75 87 78
97 110 107
97 110 106
93 106 103
100 113 112
92 106 100
53 65 53
42 59 33
56 72 49
67 83 66
76 90 78
78 94 82
91 104 99
101 114 111
97 111 106
96 110 104
63 81 61
57 77 46
58 78 49
80 96 81
68 86 65
104 119 113
104 118 114
96 111 104
90 106 93
123 137 137
152 165 169
187 201 209
221 233 249
227 239 255
227 239 255
227 239 255
227 239 255
227 239 255
227 239 255
227 239 255
227 239 255
227 239 255
227 239 255
227 239 255
227 239 255
227 239 255
227 239 255
227 239 255
227 239 255
227 239 255
227 239 255
227 239 255
227 239 255
227 239 255
227 239 255
227 239 255
227 239 255
227 239 255
227 239 255
227 239 255
227 239 255
227 239 255
227 239 255
227 239 255
227 239 255
227 239 255
227 239 255
227 239 255
227 239 255
227 239 255
227 239 255
227 239 255
227 239 255
227 239 255
227 239 255
227 239 255
227 239 255
227 239 255
227 239 255
227 239 255
227 239 255
227 239 255
227 239 255
227 239 255
227 239 255
227 239 255
227 239 255
227 239 255
227 239 255
227 239 255
227 239 255
227 239 255
227 239 255
227 239 255
227 239 255
227 239 255
227 239 255
227 239 255
227 239 255
227 239 255
227 239 255
227 239 255
227 239 255
227 239 255
227 239 255
227 239 255
227 239 255
227 239 255
227 239 255
227 239 255
227 239 255
227 239 255
227 239 255
227 239 255
227 239 255
227 239 255
227 239 255
227 239 255
227 239 255
227 239 255
227 239 255
227 239 255
227 239 255
227 239 255
227 239 255
227 239 255
227 239 255
227 239 255
227 239 255
227 239 255
227 239 255
227 239 255
227 239 255
227 239 255
227 239 255
227 239 255
227 239 255
227 239 255
227 239 255
227 239 255
227 239 255
227 239 255
227 239 255
227 239 255
227 239 255
227 239 255
227 239 255
227 239 255
227 239 255
227 239 255
227 239 255
227 239 255
227 239 255
227 239 255
227 239 255
227 239 255
227 239 255
227 239 255
227 239 255
227 239 255
227 239 255
227 239 255
227 239 255
227 239 255
227 239 255
227 239 255
227 239 255
227 239 255
227 239 255
227 239 255
227 239 255
227 239 255
227 239 255
227 239 255
227 239 255
227 239 255
227 239 255
227 239 255
227 239 255
227 239 255
227 239 255
227 239 255
227 239 255
227 239 255
227 239 255
227 239 255
227 239 255
227 239 255
227 239 255
227 239 255
227 239 255
227 239 255
227 239 255
227 239 255
227 239 255
227 239 255
227 239 255
227 239 255
227 239 255
227 239 255
227 239 255
227 239 255
227 239 255
227 239 255
227 239 255
227 239 255
227 239 255
227 239 255
227 239 255
227 239 255
227 239 255
227 239 255
227 239 255
227 239 255
227 239 255
227 239 255
227 239 255
227 239 255
227 239 255
227 239 255
227 239 255
227 239 255
227 239 255
227 239 255
227 239 255
217 229 244
192 204 215
175 187 196
134 148 151
125 141 141
104 119 116
105 119 114
75 91 77
79 96 82
50 70 39
52 73 41
76 92 77
92 107 98
91 107 97
67 85 64
52 71 45
47 66 37
48 66 38
53 73 42
50 68 38
50 67 42
76 91 76
85 98 93
87 100 96
89 102 98
84 97 91
88 101 97
81 94 88
82 94 89
92 105 102
47 64 36
40 56 31
50 67 43
53 67 51
74 87 78
56 69 57
84 96 90
86 97 94
83 96 87
98 109 111
68 80 74
79 90 88
94 105 103
68 81 71
67 79 72
83 93 94
81 92 90
51 62 50
42 58 33
39 54 31
49 61 48
62 72 65
53 66 51
60 70 63
50 60 53
72 84 78
77 87 86
67 78 74
61 72 65
74 84 82
49 61 49
56 65 60
60 70 65
70 79 77
51 62 52
45 57 43
28 38 22
31 44 24
30 41 23
30 42 24
34 47 26
30 43 24
28 41 21
30 42 23
30 42 23
41 51 40
30 38 28
46 54 48
24 33 18
61 71 66
33 42 32
55 63 61
53 63 57
27 38 21
31 44 24
15 23 11
27 38 21
24 32 19
27 38 21
28 39 22
19 28 14
23 33 17
21 31 15
23 33 18
28 39 22
26 36 21
24 34 18
25 35 20
23 33 17
53 60 59
49 57 55
64 71 73
55 63 62
39 45 43
33 42 32
53 60 59
48 54 54
49 55 55
29 36 28
38 47 39
62 70 68
38 47 38
52 59 56
49 56 51
38 44 42
47 54 50
16 25 12
21 31 16
29 39 22
27 37 21
22 31 16
25 35 19
26 37 21
25 36 19
24 34 18
29 39 22
26 36 20
28 38 22
19 28 14
22 33 16
35 47 28
50 58 54
36 43 36
67 76 75
60 69 67
50 58 54
45 54 46
63 72 67
61 69 67
68 78 75
44 53 46
60 70 65
62 71 67
71 80 81
66 74 73
44 57 42
47 56 50
32 44 24
33 47 26
26 38 19
29 40 22
35 48 28
37 50 29
29 40 23
36 49 28
36 50 28
36 50 28
35 48 28
37 52 28
39 54 31
49 63 46
65 75 71
65 76 69
78 90 84
62 73 67
76 88 83
78 89 86
88 99 100
71 81 78
84 95 93
81 93 87
79 89 88
92 105 99
79 88 87
67 81 67
51 63 50
58 72 57
55 69 54
70 84 75
63 77 62
85 97 92
76 89 81
97 110 107
102 117 113
98 110 111
99 110 111
78 91 84
54 73 43
43 60 33
50 68 40
47 65 36
57 78 45
49 67 39
47 66 37
60 79 53
72 87 73
62 80 58
75 90 75
68 86 68
56 75 48
52 72 41
56 76 44
59 80 47
64 82 61
69 87 66
71 90 67
79 100 75
88 106 90
101 116 108
150 163 165
181 194 201
223 235 250
227 239 255
227 239 255
227 239 255
227 239 255
227 239 255
227 239 255
227 239 255
227 239 255
227 239 255
227 239 255
227 239 255
227 239 255
227 239 255
227 239 255
227 239 255
227 239 255
227 239 255
227 239 255
227 239 255
227 239 255
227 239 255
227 239 255
227 239 255
227 239 255
227 239 255
227 239 255
227 239 255
227 239 255
227 239 255
227 239 255
227 239 255
227 239 255
227 239 255
227 239 255
227 239 255
227 239 255
227 239 255
227 239 255
227 239 255
227 239 255
227 239 255
227 239 255
227 239 255
227 239 255
227 239 255
227 239 255
227 239 255
227 239 255
227 239 255
227 239 255
227 239 255
227 239 255
227 239 255
227 239 255
227 239 255
227 239 255
227 239 255
227 239 255
227 239 255
227 239 255
227 239 255
227 239 255
227 239 255
227 239 255
227 239 255
227 239 255
227 239 255
227 239 255
227 239 255
227 239 255
227 239 255
227 239 255
227 239 255
227 239 255
227 239 255
227 239 255
227 239 255
227 239 255
227 239 255
227 239 255
227 239 255
227 239 255
227 239 255
227 239 255
227 239 255
227 239 255
227 239 255
227 239 255
227 239 255
227 239 255
227 239 255
227 239 255
227 239 255
227 239 255
227 239 255
227 239 255
227 239 255
227 239 255
227 239 255
227 239 255
227 239 255
227 239 255
227 239 255
227 239 255
227 239 255
227 239 255
227 239 255
227 239 255
227 239 255
227 239 255
227 239 255
227 239 255
227 239 255
227 239 255
227 239 255
227 239 255
227 239 255
227 239 255
227 239 255
227 239 255
227 239 255
227 239 255
227 239 255
227 239 255
227 239 255
227 239 255
227 239 255
227 239 255
227 239 255
227 239 255
227 239 255
227 239 255
227 239 255
227 239 255
227 239 255
227 239 255
227 239 255
227 239 255
227 239 255
227 239 255
227 239 255
227 239 255
227 239 255
227 239 255
227 239 255
227 239 255
227 239 255
227 239 255
227 239 255
227 239 255
227 239 255
227 239 255
227 239 255
227 239 255
227 239 255
227 239 255
227 239 255
227 239 255
227 239 255
227 239 255
227 239 255
227 239 255
227 239 255
227 239 255
227 239 255
227 239 255
227 239 255
227 239 255
227 239 255
227 239 255
227 239 255
227 239 255
227 239 255
227 239 255
227 239 255
227 239 255
227 239 255
227 239 255
227 239 255
227 239 255
227 239 255
227 239 255
227 239 255
227 239 255
219 231 246
196 209 221
177 189 201
162 175 184
119 135 133
123 139 137
102 121 108
98 114 107
80 100 77
55 76 44
61 83 49
70 88 66
76 93 76
102 118 109
105 119 117
119 133 135
106 119 119
59 77 52
48 66 37
60 78 52
84 99 90
80 95 84
94 108 103
109 124 122
96 109 104
97 110 107
107 120 121
99 112 111
94 107 104
106 118 118
103 115 114
75 87 82
74 87 80
79 91 87
65 79 66
76 87 83
94 106 105
83 95 91
98 110 109
84 96 92
79 91 87
75 88 81
73 85 81
79 90 85
78 88 89
85 96 92
73 84 80
93 105 104
83 95 91
73 85 78
52 64 54
62 75 64
77 89 85
84 94 95
86 97 96
77 88 84
70 81 77
84 95 93
81 93 88
80 91 88
80 91 87
60 70 66
49 59 51
63 73 68
62 74 63
69 79 75
62 70 70
53 64 54
73 82 81
77 86 87
36 49 28
31 44 23
35 45 32
46 56 47
53 64 56
56 65 58
48 58 48
71 81 77
68 77 75
61 70 65
59 67 65
63 72 68
59 68 63
57 65 62
59 69 64
47 56 49
62 72 66
43 57 38
22 33 16
28 40 22
27 37 21
21 32 15
24 33 19
25 36 19
23 33 17
21 30 16
29 39 22
33 44 26
32 45 24
27 37 21
35 47 28
27 39 20
25 36 19
35 45 32
41 49 45
56 63 63
47 55 50
46 53 50
51 58 55
54 63 58
62 71 67
65 76 72
55 64 57
63 70 70
56 65 61
51 61 52
56 65 60
43 51 46
56 66 59
51 60 55
40 52 36
47 58 44
36 46 33
38 47 39
35 46 31
33 44 30
31 41 30
49 57 51
25 36 19
31 40 29
46 55 47
48 57 52
46 57 46
44 53 46
57 66 61
37 46 39
46 56 48
48 58 51
45 52 50
41 51 41
48 56 52
58 67 62
42 54 39
33 45 26
61 69 70
53 64 54
53 62 56
71 81 79
57 67 59
61 72 65
57 67 62
53 63 53
51 62 53
49 60 48
44 56 42
48 61 46
43 57 38
45 59 39
37 50 34
41 56 32
40 55 31
34 48 27
33 46 26
34 48 26
37 51 29
38 53 29
65 76 70
82 94 91
67 78 72
78 89 85
74 85 82
89 99 98
84 95 94
72 83 77
76 88 83
84 95 93
86 97 96
92 104 102
92 103 102
81 93 88
38 54 29
45 62 36
44 60 34
50 68 40
43 60 33
45 63 36
46 63 35
49 68 39
49 67 38
64 79 64
80 94 86
64 78 62
66 81 67
65 79 66
59 75 55
48 66 37
46 64 36
42 59 33
48 67 37
53 73 42
50 70 40
42 58 32
90 106 99
95 110 103
109 124 121
94 108 102
94 110 100
64 82 61
68 89 63
61 82 53
69 89 62
90 105 96
105 120 116
96 112 101
87 105 88
84 103 83
116 130 127
157 171 177
202 214 227
221 232 249
227 239 255
227 239 255
227 239 255
227 239 255
227 239 255
227 239 255
227 239 255
227 239 255
227 239 255
227 239 255
227 239 255
227 239 255
227 239 255
227 239 255
227 239 255
227 239 255
227 239 255
227 239 255
227 239 255
227 239 255
227 239 255
227 239 255
227 239 255
227 239 255
227 239 255
227 239 255
227 239 255
227 239 255
227 239 255
227 239 255
227 239 255
227 239 255
227 239 255
227 239 255
227 239 255
227 239 255
227 239 255
227 239 255
227 239 255
227 239 255
227 239 255
227 239 255
227 239 255
227 239 255
227 239 255
227 239 255
227 239 255
227 239 255
227 239 255
227 239 255
227 239 255
227 239 255
227 239 255
227 239 255
227 239 255
227 239 255
227 239 255
227 239 255
227 239 255
227 239 255
227 239 255
227 239 255
227 239 255
227 239 255
227 239 255
227 239 255
227 239 255
227 239 255
227 239 255
227 239 255
227 239 255
227 239 255
227 239 255
227 239 255
227 239 255
227 239 255
227 239 255
227 239 255
227 239 255
227 239 255
227 239 255
227 239 255
227 239 255
227 239 255
227 239 255
227 239 255
227 239 255
227 239 255
227 239 255
227 239 255
227 239 255
227 239 255
227 239 255
227 239 255
227 239 255
227 239 255
227 239 255
227 239 255
227 239 255
227 239 255
227 239 255
227 239 255
227 239 255
227 239 255
227 239 255
227 239 255
227 239 255
227 239 255
227 239 255
227 239 255
227 239 255
227 239 255
227 239 255
227 239 255
227 239 255
227 239 255
227 239 255
227 239 255
227 239 255
227 239 255
227 239 255
227 239 255
227 239 255
227 239 255
227 239 255
227 239 255
227 239 255
227 239 255
227 239 255
227 239 255
227 239 255
227 239 255
227 239 255
227 239 255
227 239 255
227 239 255
227 239 255
227 239 255
227 239 255
227 239 255
227 239 255
227 239 255
227 239 255
227 239 255
227 239 255
227 239 255
227 239 255
227 239 255
227 239 255
227 239 255
227 239 255
227 239 255
227 239 255
227 239 255
227 239 255
227 239 255
227 239 255
227 239 255
227 239 255
227 239 255
227 239 255
227 239 255
227 239 255
227 239 255
227 239 255
227 239 255
227 239 255
227 239 255
227 239 255
227 239 255
227 239 255
227 239 255
227 239 255
227 239 255
227 239 255
227 239 255
224 236 252
198 211 221
156 169 173
140 155 154
110 127 120
110 124 122
104 121 110
92 109 96
70 91 64
53 75 42
61 82 51
83 99 87
79 99 79
94 110 98
102 116 114
121 135 136
111 126 123
114 128 128
110 124 126
95 108 106
80 94 86
81 97 87
102 116 113
101 115 113
117 131 132
104 118 118
100 113 111
102 115 112
94 108 104
96 109 106
89 101 97
88 102 94
74 89 75
63 79 62
51 66 46
46 65 36
47 64 37
45 62 36
51 69 40
84 96 92
91 104 99
108 120 120
86 98 95
85 98 91
82 94 90
94 105 108
78 90 86
77 89 82
69 81 72
63 75 66
46 63 37
40 56 31
38 54 29
43 59 33
44 60 36
42 59 33
42 54 41
75 88 80
83 95 91
78 89 84
84 94 94
70 79 77
59 71 60
75 85 83
67 79 71
68 80 69
79 89 88
61 72 64
79 90 88
59 68 63
51 63 50
35 49 27
55 66 55
52 63 52
68 79 74
67 77 73
63 73 67
71 81 78
67 77 74
54 64 57
75 86 83
58 66 66
62 71 69
64 74 70
54 65 55
46 56 46
66 75 74
49 59 52
62 72 67
61 70 67
53 62 56
65 75 70
31 43 25
26 37 21
35 48 27
30 42 23
35 47 27
33 45 26
35 49 28
35 48 27
24 35 18
27 38 20
32 44 24
18 28 12
26 38 18
34 46 26
40 50 40
27 38 21
56 67 58
65 74 71
51 61 53
62 71 69
37 47 34
52 63 53
57 66 62
46 57 47
26 37 20
53 63 53
36 46 33
36 47 33
33 45 26
37 48 34
25 36 20
31 43 24
29 41 21
53 63 56
61 70 66
73 81 82
53 62 56
61 70 67
42 52 40
59 67 65
58 68 62
57 64 64
67 77 74
60 69 66
71 80 80
72 80 80
75 86 82
68 76 77
74 84 82
39 49 38
24 35 18
31 43 24
35 49 28
29 42 21
41 56 33
36 49 28
27 39 20
32 44 24
32 45 24
31 44 23
36 49 28
34 47 27
39 54 31
34 47 26
38 50 35
56 66 57
69 79 75
80 90 90
90 99 102
75 85 81
74 85 79
82 92 91
68 80 74
71 81 79
70 80 77
64 74 69
57 69 58
67 79 69
65 77 71
76 87 83
46 60 44
58 70 59
58 70 58
77 90 83
69 82 73
92 104 104
90 101 98
69 80 73
88 101 95
89 101 98
86 97 94
83 97 92
95 107 105
55 69 53
48 64 38
47 65 38
43 59 33
48 65 38
42 58 32
46 64 35
50 68 39
51 69 41
50 68 39
47 64 37
47 64 41
76 91 80
92 105 102
118 130 133
109 123 121
103 117 114
94 109 100
72 88 73
70 87 70
65 80 66
54 74 43
53 70 48
80 96 83
119 133 134
127 140 142
120 134 134
126 141 144
125 139 143
109 124 120
100 116 110
84 100 86
109 124 120
118 132 134
128 142 147
135 149 152
116 132 127
108 125 119
112 127 128
132 146 146
165 178 184
198 211 222
225 237 254
227 239 255
227 239 255
227 239 255
227 239 255
227 239 255
227 239 255
227 239 255
227 239 255
227 239 255
227 239 255
227 239 255
227 239 255
227 239 255
227 239 255
227 239 255
227 239 255
227 239 255
227 239 255
227 239 255
227 239 255
227 239 255
227 239 255
227 239 255
227 239 255
227 239 255
227 239 255
227 239 255
227 239 255
227 239 255
227 239 255
227 239 255
227 239 255
227 239 255
227 239 255
227 239 255
227 239 255
227 239 255
227 239 255
227 239 255
227 239 255
227 239 255
227 239 255
227 239 255
227 239 255
227 239 255
227 239 255
227 239 255
227 239 255
227 239 255
227 239 255
227 239 255
227 239 255
227 239 255
227 239 255
227 239 255
227 239 255
227 239 255
227 239 255
227 239 255
227 239 255
227 239 255
227 239 255
227 239 255
227 239 255
227 239 255
227 239 255
227 239 255
227 239 255
227 239 255
227 239 255
227 239 255
227 239 255
227 239 255
227 239 255
227 239 255
227 239 255
227 239 255
227 239 255
227 239 255
227 239 255
227 239 255
227 239 255
227 239 255
227 239 255
227 239 255
227 239 255
227 239 255
227 239 255
227 239 255
227 239 255
227 239 255
227 239 255
227 239 255
227 239 255
227 239 255
227 239 255
227 239 255
227 239 255
227 239 255
227 239 255
227 239 255
227 239 255
227 239 255
227 239 255
227 239 255
227 239 255
227 239 255
227 239 255
227 239 255
227 239 255
227 239 255
227 239 255
227 239 255
227 239 255
227 239 255
227 239 255
227 239 255
227 239 255
227 239 255
227 239 255
227 239 255
227 239 255
227 239 255
227 239 255
227 239 255
227 239 255
227 239 255
227 239 255
227 239 255
227 239 255
227 239 255
227 239 255
227 239 255
227 239 255
227 239 255
227 239 255
227 239 255
227 239 255
227 239 255
227 239 255
227 239 255
227 239 255
227 239 255
227 239 255
227 239 255
227 239 255
227 239 255
227 239 255
227 239 255
227 239 255
227 239 255
227 239 255
227 239 255
227 239 255
227 239 255
227 239 255
227 239 255
227 239 255
227 239 255
227 239 255
227 239 255
227 239 255
227 239 255
227 239 255
227 239 255
227 239 255
227 239 255
227 239 255
227 239 255
208 220 233
187 200 209
131 146 145
114 131 127
113 129 124
116 130 128
106 123 116
113 127 126
51 72 40
66 89 53
83 101 83
85 101 90
90 107 96
125 139 139
109 125 122
106 119 117
119 131 134
112 126 125
98 114 105
76 92 82
74 94 68
57 77 47
44 61 34
54 75 44
51 70 41
108 121 118
117 131 134
95 109 106
112 125 125
91 104 99
83 97 91
65 83 60
60 76 56
48 67 38
49 68 38
54 74 44
52 70 42
50 69 40
54 74 43
43 60 34
51 70 41
47 65 37
62 76 64
109 120 123
90 102 98
55 69 55
58 71 59
64 77 65
41 57 31
44 61 34
45 61 35
46 63 36
46 63 35
40 55 32
40 55 31
49 67 39
42 58 33
38 53 29
38 53 29
41 57 32
63 73 67
81 92 91
84 93 94
93 104 103
79 90 88
64 74 69
62 74 64
58 69 59
47 60 43
43 54 42
29 42 23
31 43 23
35 49 27
35 48 26
31 45 23
36 49 27
35 49 27
37 51 29
76 87 81
89 100 100
82 93 89
62 75 65
80 90 87
55 65 60
57 68 60
54 64 57
63 72 68
51 58 56
61 71 64
75 84 83
69 79 75
58 67 62
71 80 80
64 72 72
60 70 65
60 70 64
33 47 26
41 54 36
31 40 28
55 64 60
58 69 60
55 65 59
59 72 60
79 88 89
49 58 51
61 70 67
54 64 58
40 49 40
55 65 58
54 64 58
57 66 62
67 77 73
42 52 41
25 37 17
37 51 28
34 47 26
31 43 24
42 57 34
35 49 28
30 42 23
30 42 24
32 46 24
34 46 26
33 46 26
31 43 23
36 50 29
31 42 24
32 45 25
25 36 18
51 61 53
55 65 57
74 83 83
64 73 69
56 66 59
61 70 66
66 75 74
66 77 72
77 86 86
58 68 62
57 66 60
56 66 60
61 70 66
79 88 89
78 87 87
68 80 73
53 66 52
36 50 28
32 45 25
34 47 26
34 46 27
41 56 33
40 54 31
28 40 21
37 51 29
38 54 30
35 49 27
32 45 25
34 48 26
36 50 27
39 53 31
49 62 47
73 83 81
58 69 60
85 96 96
76 86 85
77 88 84
81 93 88
67 78 72
80 92 88
70 80 76
69 78 75
82 94 92
71 81 77
68 80 71
97 108 107
61 73 65
44 59 39
41 56 32
47 64 37
43 60 34
35 50 26
44 60 34
41 59 32
40 55 31
45 60 39
55 71 53
77 90 84
72 87 73
67 78 72
57 74 53
64 78 65
53 68 48
66 81 67
58 75 52
51 69 40
37 53 28
41 58 32
44 61 35
49 68 38
51 70 40
48 67 38
67 84 64
113 128 126
116 129 132
101 114 111
105 119 118
92 105 99
109 124 121
107 120 119
98 112 108
115 129 129
101 115 112
105 119 118
102 117 112
120 133 134
108 122 119
110 123 121
133 148 152
120 134 136
110 125 122
138 152 156
109 122 120
115 129 127
103 118 115
96 111 101
127 141 142
137 151 153
123 138 138
119 134 134
87 105 90
84 104 83
139 153 152
167 180 185
207 219 232
227 239 255
227 239 255
227 239 255
227 239 255
227 239 255
227 239 255
227 239 255
227 239 255
227 239 255
227 239 255
227 239 255
227 239 255
227 239 255
227 239 255
227 239 255
227 239 255
227 239 255
227 239 255
227 239 255
227 239 255
227 239 255
227 239 255
227 239 255
227 239 255
227 239 255
227 239 255
227 239 255
227 239 255
227 239 255
227 239 255
227 239 255
227 239 255
227 239 255
227 239 255
227 239 255
227 239 255
227 239 255
227 239 255
227 239 255
227 239 255
227 239 255
227 239 255
227 239 255
227 239 255
227 239 255
227 239 255
227 239 255
227 239 255
227 239 255
227 239 255
227 239 255
227 239 255
227 239 255
227 239 255
227 239 255
227 239 255
227 239 255
227 239 255
227 239 255
227 239 255
227 239 255
227 239 255
227 239 255
227 239 255
227 239 255
227 239 255
227 239 255
227 239 255
227 239 255
227 239 255
227 239 255
227 239 255
227 239 255
227 239 255
227 239 255
227 239 255
227 239 255
227 239 255
227 239 255
227 239 255
227 239 255
227 239 255
227 239 255
227 239 255
227 239 255
227 239 255
227 239 255
227 239 255
227 239 255
227 239 255
227 239 255
227 239 255
227 239 255
227 239 255
227 239 255
227 239 255
227 239 255
227 239 255
227 239 255
227 239 255
227 239 255
227 239 255
227 239 255
227 239 255
227 239 255
227 239 255
227 239 255
227 239 255
227 239 255
227 239 255
227 239 255
227 239 255
227 239 255
227 239 255
227 239 255
227 239 255
227 239 255
227 239 255
227 239 255
227 239 255
227 239 255
227 239 255
227 239 255
227 239 255
227 239 255
227 239 255
227 239 255
227 239 255
227 239 255
227 239 255
227 239 255
227 239 255
227 239 255
227 239 255
227 239 255
227 239 255
227 239 255
227 239 255
227 239 255
227 239 255
227 239 255
227 239 255
227 239 255
227 239 255
227 239 255
227 239 255
227 239 255
227 239 255
227 239 255
227 239 255
227 239 255
227 239 255
227 239 255
227 239 255
227 239 255
227 239 255
227 239 255
227 239 255
227 239 255
227 239 255
227 239 255
227 239 255
222 234 249
189 201 210
152 166 169
130 146 145
113 128 128
118 133 132
124 140 139
133 149 153
122 138 137
121 137 136
133 148 151
100 116 107
98 115 106
120 135 134
116 131 130
127 141 145
122 136 136
107 121 119
111 126 123
87 104 92
79 97 82
62 83 52
48 67 39
57 77 46
52 72 41
50 68 39
52 71 40
58 78 45
67 85 64
77 92 79
82 97 87
60 79 54
52 71 41
50 69 39
46 63 35
53 72 42
51 70 40
46 65 36
50 68 39
51 70 41
48 66 38
45 63 36
49 66 42
66 83 66
64 77 68
68 81 69
103 115 114
67 80 68
44 61 34
50 69 39
40 55 31
52 70 41
39 54 30
47 64 37
50 68 40
45 61 36
46 63 37
41 57 32
40 56 31
43 60 33
41 58 32
44 61 34
39 54 34
61 75 61
58 72 58
75 87 79
60 73 64
44 57 42
42 58 33
39 55 30
45 61 35
38 53 29
40 56 31
32 45 24
34 48 26
37 52 29
28 40 21
45 61 36
38 53 30
38 52 30
38 53 29
41 58 32
47 60 44
79 92 83
80 90 89
73 84 79
65 74 72
78 88 88
77 85 87
78 89 85
71 82 77
68 79 72
65 75 70
73 82 81
51 61 52
58 68 62
51 61 55
40 51 39
53 67 53
50 62 49
59 70 63
67 76 72
64 73 72
84 95 92
76 86 85
64 73 70
81 92 89
64 74 68
74 83 82
76 88 82
69 80 76
71 81 77
63 73 67
72 82 80
77 88 84
70 81 76
71 81 77
59 70 62
35 48 27
24 35 17
34 47 27
34 47 26
31 43 24
37 51 29
34 47 27
34 47 25
32 44 25
31 44 23
39 54 31
34 48 26
33 46 25
37 51 29
33 46 25
37 51 29
53 63 55
80 90 90
65 74 71
76 87 82
71 80 77
67 77 74
55 65 57
68 78 74
54 64 58
64 75 67
77 88 87
67 76 72
61 71 66
76 85 85
89 100 99
71 81 78
47 58 47
33 46 26
34 47 26
34 48 27
38 53 30
34 47 25
36 50 28
39 54 31
38 52 29
38 53 30
33 47 25
38 53 30
43 59 35
44 60 34
36 50 27
41 55 34
75 87 82
87 99 98
81 92 89
92 104 101
75 87 80
69 81 74
73 85 80
70 81 77
93 104 105
78 87 86
83 94 91
61 71 66
81 92 88
92 104 104
86 97 94
42 57 33
45 61 35
41 57 32
49 67 39
49 68 39
53 72 43
41 58 33
43 58 33
46 62 36
46 63 35
50 69 39
45 62 35
45 62 35
62 76 64
80 93 86
92 105 99
96 107 108
107 119 118
96 109 106
79 93 86
83 96 90
76 91 79
89 103 96
76 93 77
50 66 46
59 78 50
92 108 99
110 123 123
115 128 130
99 113 108
109 123 122
99 113 109
94 107 102
109 122 122
99 111 109
123 137 139
123 137 139
106 120 117
60 78 52
64 82 60
88 105 93
90 106 96
108 123 119
99 113 109
117 131 133
116 131 133
122 137 136
93 108 104
67 89 58
67 88 59
82 100 83
110 126 124
122 138 140
104 119 113
101 118 111
105 124 115
105 122 113
115 131 123
165 178 184
183 196 204
213 225 239
227 239 255
227 239 255
227 239 255
227 239 255
227 239 255
227 239 255
227 239 255
227 239 255
227 239 255
227 239 255
227 239 255
227 239 255
227 239 255
227 239 255
227 239 255
227 239 255
227 239 255
227 239 255
227 239 255
227 239 255
227 239 255
227 239 255
227 239 255
227 239 255
227 239 255
227 239 255
227 239 255
227 239 255
227 239 255
227 239 255
227 239 255
227 239 255
227 239 255
227 239 255
227 239 255
227 239 255
227 239 255
227 239 255
227 239 255
227 239 255
227 239 255
227 239 255
227 239 255
227 239 255
227 239 255
227 239 255
227 239 255
227 239 255
227 239 255
227 239 255
227 239 255
227 239 255
227 239 255
227 239 255
227 239 255
227 239 255
227 239 255
227 239 255
227 239 255
227 239 255
227 239 255
227 239 255
227 239 255
227 239 255
227 239 255
227 239 255
227 239 255
227 239 255
227 239 255
227 239 255
227 239 255
227 239 255
227 239 255
227 239 255
227 239 255
227 239 255
227 239 255
227 239 255
227 239 255
227 239 255
227 239 255
227 239 255
227 239 255
227 239 255
227 239 255
227 239 255
227 239 255
227 239 255
227 239 255
227 239 255
227 239 255
227 239 255
227 239 255
227 239 255
227 239 255
227 239 255
227 239 255
227 239 255
227 239 255
227 239 255
227 239 255
227 239 255
227 239 255
227 239 255
227 239 255
227 239 255
227 239 255
227 239 255
227 239 255
227 239 255
227 239 255
227 239 255
227 239 255
227 239 255
227 239 255
227 239 255
227 239 255
227 239 255
227 239 255
227 239 255
227 239 255
227 239 255
227 239 255
227 239 255
227 239 255
227 239 255
227 239 255
227 239 255
227 239 255
227 239 255
227 239 255
227 239 255
227 239 255
227 239 255
227 239 255
227 239 255
227 239 255
227 239 255
227 239 255
227 239 255
227 239 255
227 239 255
227 239 255
227 239 255
227 239 255
227 239 255
227 239 255
227 239 255
227 239 255
227 239 255
227 239 255
227 239 255
227 239 255
227 239 255
227 239 255
203 215 228
178 191 199
142 157 158
111 128 122
136 152 154
110 129 119
84 102 86
76 97 72
107 123 119
125 140 137
128 143 144
98 114 106
74 92 72
49 68 38
56 77 44
79 98 77
120 134 135
94 109 100
100 116 110
78 96 80
62 83 53
53 72 42
47 65 37
54 75 43
55 75 44
56 78 45
58 79 46
63 80 57
92 108 98
95 109 104
113 127 126
110 123 123
112 124 127
66 84 66
52 71 41
46 64 36
51 70 40
46 64 36
48 67 38
55 75 44
50 68 42
66 81 67
75 88 80
84 97 91
103 115 115
102 114 115
104 118 116
101 114 112
86 99 94
103 115 116
101 114 112
41 58 32
50 69 39
45 63 35
48 67 38
51 70 39
48 67 37
38 54 29
35 50 27
48 65 37
49 62 48
65 78 67
65 77 68
77 89 81
79 92 85
93 106 101
96 107 107
89 100 99
79 90 87
31 44 24
43 59 34
47 64 38
44 59 34
42 59 33
31 45 23
44 60 34
42 59 33
36 51 27
39 54 30
42 58 32
43 58 33
36 50 27
43 59 34
42 57 33
36 51 27
30 43 23
49 63 44
82 94 90
63 74 66
63 77 65
57 69 59
47 58 47
54 66 55
49 62 45
37 51 28
41 56 32
34 48 26
34 48 27
31 43 23
35 49 27
33 48 25
40 55 31
40 56 32
36 49 29
60 70 63
81 92 89
66 77 70
65 75 71
78 88 87
81 91 91
66 78 69
65 75 71
65 74 72
73 83 82
73 83 79
88 99 99
67 78 73
70 80 77
60 72 62
66 78 72
74 84 81
49 57 51
27 38 20
32 45 25
35 49 27
41 57 32
36 50 27
35 50 28
31 44 25
37 51 29
38 53 30
33 46 26
36 50 29
35 49 26
39 54 31
37 49 29
32 44 24
26 38 19
69 80 75
64 75 68
69 82 72
74 84 80
64 75 67
78 87 87
64 76 66
72 83 79
64 75 68
97 108 110
77 88 85
84 95 93
75 84 83
69 79 75
87 97 97
82 92 91
56 66 58
40 56 31
42 56 37
39 54 29
38 53 30
31 44 23
38 52 30
39 54 31
38 54 29
34 48 26
34 48 27
38 53 30
50 68 40
37 53 28
36 52 27
36 51 28
88 99 98
80 92 85
93 104 105
78 87 86
97 109 108
76 87 80
81 93 89
84 96 95
91 102 103
81 92 88
84 97 92
83 94 92
80 91 86
74 87 80
82 94 87
54 68 52
48 66 37
45 62 35
46 64 37
52 72 40
43 60 34
45 62 35
44 61 35
39 55 31
44 61 34
54 73 43
46 64 36
44 61 35
63 78 65
95 107 105
88 102 95
99 111 112
93 107 103
95 109 106
103 115 118
99 111 108
98 110 106
101 114 111
99 112 111
97 111 107
101 115 111
97 110 105
81 97 84
95 110 104
94 109 102
109 123 121
104 118 117
106 121 114
109 122 120
112 125 126
121 136 137
119 133 134
99 115 109
87 101 91
57 78 46
54 74 43
56 78 44
56 76 45
65 85 58
90 107 91
88 103 93
112 126 121
105 120 118
92 110 98
62 85 50
57 78 45
59 81 47
58 79 46
79 100 74
67 88 63
108 125 115
119 136 132
136 151 155
127 144 143
115 132 129
148 163 165
173 186 192
206 218 231
226 238 254
227 239 255
227 239 255
227 239 255
227 239 255
227 239 255
227 239 255
227 239 255
227 239 255
227 239 255
227 239 255
227 239 255
227 239 255
227 239 255
227 239 255
227 239 255
227 239 255
227 239 255
227 239 255
227 239 255
227 239 255
227 239 255
227 239 255
227 239 255
227 239 255
227 239 255
227 239 255
227 239 255
227 239 255
227 239 255
227 239 255
227 239 255
227 239 255
227 239 255
227 239 255
227 239 255
227 239 255
227 239 255
227 239 255
227 239 255
227 239 255
227 239 255
227 239 255
227 239 255
227 239 255
227 239 255
227 239 255
227 239 255
227 239 255
227 239 255
227 239 255
227 239 255
227 239 255
227 239 255
227 239 255
227 239 255
227 239 255
227 239 255
227 239 255
227 239 255
227 239 255
227 239 255
227 239 255
227 239 255
227 239 255
227 239 255
227 239 255
227 239 255
227 239 255
227 239 255
227 239 255
227 239 255
227 239 255
227 239 255
227 239 255
227 239 255
227 239 255
227 239 255
227 239 255
227 239 255
227 239 255
227 239 255
227 239 255
227 239 255
227 239 255
227 239 255
227 239 255
227 239 255
227 239 255
227 239 255
227 239 255
227 239 255
227 239 255
227 239 255
227 239 255
227 239 255
227 239 255
227 239 255
227 239 255
227 239 255
227 239 255
227 239 255
227 239 255
227 239 255
227 239 255
227 239 255
227 239 255
227 239 255
227 239 255
227 239 255
227 239 255
227 239 255
227 239 255
227 239 255
227 239 255
227 239 255
227 239 255
227 239 255
227 239 255
227 239 255
227 239 255
227 239 255
227 239 255
227 239 255
227 239 255
227 239 255
227 239 255
227 239 255
227 239 255
227 239 255
227 239 255
227 239 255
227 239 255
227 239 255
227 239 255
227 239 255
227 239 255
227 239 255
227 239 255
227 239 255
227 239 255
227 239 255
227 239 255
227 239 255
227 239 255
227 239 255
227 239 255
227 239 255
225 237 253
204 217 230
164 177 184
118 133 127
118 132 130
124 139 140
105 124 115
95 113 102
67 90 57
63 86 50
72 92 66
96 114 101
87 105 87
59 80 50
66 90 54
63 85 50
61 83 48
71 92 67
97 112 105
99 115 107
77 95 80
56 77 46
52 71 40
55 75 43
54 75 43
52 72 41
47 66 37
70 88 69
91 106 96
118 133 132
115 128 128
122 135 138
119 133 134
106 119 119
107 121 120
116 128 128
108 122 121
107 121 121
56 76 44
53 72 42
58 75 55
60 78 56
90 104 99
101 115 113
111 125 126
106 119 121
118 132 135
99 112 109
101 114 112
91 106 99
100 114 110
115 128 131
97 111 107
82 96 88
99 112 110
78 91 81
47 66 37
46 64 37
48 67 38
62 80 59
76 89 80
81 93 85
84 97 92
77 90 82
94 108 103
82 95 88
98 110 111
93 105 103
93 105 104
94 104 105
87 100 96
96 107 109
86 99 96
65 78 65
39 55 30
40 55 31
40 55 31
39 54 30
44 60 34
49 67 39
38 54 29
41 57 32
42 59 33
42 58 34
45 62 36
57 71 57
59 72 60
70 81 75
76 87 83
93 104 102
82 94 87
44 56 41
37 51 29
44 61 34
38 52 31
43 59 33
38 53 29
38 53 29
43 59 34
40 55 32
36 52 27
39 53 31
43 59 34
46 63 37
46 63 37
40 56 31
36 51 27
34 47 26
44 57 40
66 76 71
80 92 89
70 83 74
70 81 77
81 90 91
84 95 91
76 88 84
68 79 75
65 76 68
75 85 82
71 81 80
87 97 99
82 94 91
65 76 70
78 88 85
90 100 102
70 81 76
57 69 57
37 51 30
40 54 31
38 52 29
36 50 29
41 55 36
43 54 41
39 55 30
59 69 62
59 70 62
63 75 65
66 79 69
63 75 66
52 64 52
53 63 55
57 69 60
76 87 83
58 71 60
38 48 37
61 71 65
53 68 52
46 61 42
43 57 37
44 57 38
35 50 27
43 57 38
41 52 40
42 58 33
43 60 34
36 50 27
35 50 27
40 55 31
42 58 32
71 82 76
76 87 85
89 101 98
86 98 93
79 90 84
86 99 93
87 100 96
85 96 94
84 96 93
88 99 99
97 106 108
77 90 81
77 89 84
80 93 87
86 98 94
77 88 83
57 67 59
61 76 60
57 70 56
66 79 70
62 77 59
62 78 58
57 70 56
66 80 69
64 76 67
65 79 66
73 88 74
71 82 77
81 93 87
82 94 90
85 97 92
47 62 40
41 56 36
51 67 47
40 56 31
41 58 32
49 66 38
40 56 31
41 58 31
41 58 32
46 64 36
44 61 34
46 63 36
45 62 34
64 79 62
99 114 107
94 107 105
98 112 111
92 105 100
89 102 96
76 90 79
96 109 106
104 117 114
105 119 116
104 117 117
100 112 112
113 127 126
98 111 107
70 86 69
60 81 49
44 62 34
42 61 32
62 80 57
83 101 85
85 100 88
104 119 115
99 114 107
98 113 105
117 130 134
95 109 102
60 80 51
55 76 44
54 75 43
60 82 48
58 80 46
58 79 45
57 78 45
62 84 49
67 88 58
66 86 62
80 96 83
86 103 89
70 91 63
65 86 54
62 84 50
79 100 77
114 129 124
111 126 125
117 133 127
106 122 118
134 149 154
137 151 154
130 146 145
135 149 151
178 190 199
206 218 231
225 237 253
227 239 255
227 239 255
227 239 255
227 239 255
227 239 255
227 239 255
227 239 255
227 239 255
227 239 255
227 239 255
227 239 255
227 239 255
227 239 255
227 239 255
227 239 255
227 239 255
227 239 255
227 239 255
227 239 255
227 239 255
227 239 255
227 239 255
227 239 255
227 239 255
227 239 255
227 239 255
227 239 255
227 239 255
227 239 255
227 239 255
227 239 255
227 239 255
227 239 255
227 239 255
227 239 255
227 239 255
227 239 255
227 239 255
227 239 255
227 239 255
227 239 255
227 239 255
227 239 255
227 239 255
227 239 255
227 239 255
227 239 255
227 239 255
227 239 255
227 239 255
227 239 255
227 239 255
227 239 255
227 239 255
227 239 255
227 239 255
227 239 255
227 239 255
227 239 255
227 239 255
227 239 255
227 239 255
227 239 255
227 239 255
227 239 255
227 239 255
227 239 255
227 239 255
227 239 255
227 239 255
227 239 255
227 239 255
227 239 255
227 239 255
227 239 255
227 239 255
227 239 255
227 239 255
227 239 255
227 239 255
227 239 255
227 239 255
227 239 255
227 239 255
227 239 255
227 239 255
227 239 255
227 239 255
227 239 255
227 239 255
227 239 255
227 239 255
227 239 255
227 239 255
227 239 255
227 239 255
227 239 255
227 239 255
227 239 255
227 239 255
227 239 255
227 239 255
227 239 255
227 239 255
227 239 255
227 239 255
227 239 255
227 239 255
227 239 255
227 239 255
227 239 255
227 239 255
227 239 255
227 239 255
227 239 255
227 239 255
227 239 255
227 239 255
227 239 255
227 239 255
227 239 255
227 239 255
227 239 255
227 239 255
227 239 255
227 239 255
227 239 255
227 239 255
227 239 255
227 239 255
227 239 255
227 239 255
227 239 255
227 239 255
227 239 255
227 239 255
227 239 255
227 239 255
227 239 255
227 239 255
227 239 255
221 233 249
198 211 223
150 165 166
112 130 123
77 100 74
101 118 111
109 126 117
72 93 65
61 84 48
69 92 61
87 103 92
104 121 112
100 117 107
67 88 59
63 85 51
59 82 47
61 82 52
87 104 91
108 123 120
120 135 133
128 142 143
112 128 122
120 133 134
117 134 130
59 81 47
57 79 45
79 96 79
93 108 100
92 108 100
106 120 116
113 127 124
126 139 143
113 127 126
119 131 135
129 143 145
118 132 135
106 120 119
106 120 116
105 120 116
112 126 124
83 96 88
80 95 86
102 117 112
107 120 116
101 114 110
114 126 128
104 116 114
118 130 134
97 111 109
101 113 111
101 115 110
98 112 107
103 117 113
107 120 121
116 129 130
104 118 115
101 113 113
87 101 94
82 95 86
72 86 75
91 106 98
91 103 102
87 98 95
104 116 117
97 109 109
106 119 118
101 113 113
93 106 102
96 109 105
99 112 110
96 109 105
82 93 88
92 104 103
88 99 98
91 104 101
79 91 84
68 81 70
38 54 30
40 56 31
50 68 39
44 61 35
54 69 51
62 75 62
54 67 52
80 93 87
75 87 81
98 109 111
78 89 87
79 91 85
67 78 72
88 100 98
84 96 92
72 83 79
86 98 93
84 96 89
41 57 32
46 62 37
46 62 37
40 56 31
37 52 29
44 60 35
35 49 27
40 56 30
36 52 28
49 66 39
43 58 34
43 59 34
35 49 27
42 58 32
38 53 29
34 48 27
36 50 28
66 79 69
104 114 119
95 106 107
85 96 95
66 77 71
67 77 73
75 85 83
88 99 98
71 83 77
77 88 83
82 94 91
69 80 73
64 75 66
64 75 70
60 73 62
61 72 63
54 66 54
57 72 55
70 83 74
72 83 79
89 100 98
82 93 91
91 101 100
72 82 77
58 69 61
65 77 68
89 99 101
70 83 74
65 78 70
68 79 74
70 81 75
70 81 76
94 105 106
75 86 83
61 74 62
45 61 39
36 51 28
42 57 33
42 58 33
42 57 33
35 50 27
44 61 34
40 55 31
45 61 35
43 58 34
37 52 28
38 53 29
44 61 35
34 48 26
34 49 26
38 53 29
80 93 85
89 100 100
96 109 108
92 104 103
69 80 72
76 87 83
89 102 98
77 89 84
71 82 75
101 113 114
84 96 92
74 86 81
89 101 98
83 96 89
94 105 106
84 97 93
53 65 54
43 60 34
47 65 37
43 59 34
46 64 37
41 57 32
37 53 28
39 54 30
43 60 33
49 67 39
49 67 39
45 63 35
50 68 40
43 60 34
54 71 50
98 110 110
109 121 125
115 127 127
95 108 106
86 98 94
93 106 102
85 99 92
88 102 97
79 93 86
84 98 91
80 95 82
58 75 54
59 74 57
62 77 63
95 109 103
101 113 112
106 120 121
107 119 119
107 120 121
94 107 105
109 121 121
119 132 134
112 125 125
100 114 112
115 127 128
110 123 125
118 132 133
92 107 100
50 68 39
56 77 44
48 67 38
49 67 38
50 70 40
53 74 41
54 74 43
57 77 45
56 76 48
71 88 71
74 90 73
78 98 74
79 96 81
72 90 69
60 81 51
56 77 45
56 77 45
59 82 47
58 80 47
59 81 47
55 75 43
96 114 102
131 147 149
130 146 148
116 132 129
97 112 104
82 100 83
118 134 130
132 147 149
119 134 133
93 112 96
80 100 76
108 126 115
114 133 123
137 152 158
129 145 148
134 149 150
161 176 181
193 206 217
220 232 247
227 239 255
227 239 255
227 239 255
227 239 255
227 239 255
227 239 255
227 239 255
227 239 255
227 239 255
227 239 255
227 239 255
227 239 255
227 239 255
227 239 255
227 239 255
227 239 255
227 239 255
227 239 255
227 239 255
227 239 255
227 239 255
227 239 255
227 239 255
227 239 255
227 239 255
227 239 255
227 239 255
227 239 255
227 239 255
227 239 255
227 239 255
227 239 255
227 239 255
227 239 255
227 239 255
227 239 255
227 239 255
227 239 255
227 239 255
227 239 255
227 239 255
227 239 255
227 239 255
227 239 255
227 239 255
227 239 255
227 239 255
227 239 255
227 239 255
227 239 255
227 239 255
227 239 255
227 239 255
227 239 255
227 239 255
227 239 255
227 239 255
227 239 255
227 239 255
227 239 255
227 239 255
227 239 255
227 239 255
227 239 255
227 239 255
227 239 255
227 239 255
227 239 255
227 239 255
227 239 255
227 239 255
227 239 255
227 239 255
227 239 255
227 239 255
227 239 255
227 239 255
227 239 255
227 239 255
227 239 255
227 239 255
227 239 255
227 239 255
227 239 255
227 239 255
227 239 255
227 239 255
227 239 255
227 239 255
227 239 255
227 239 255
227 239 255
227 239 255
227 239 255
227 239 255
227 239 255
227 239 255
227 239 255
227 239 255
227 239 255
227 239 255
227 239 255
227 239 255
227 239 255
227 239 255
227 239 255
227 239 255
227 239 255
227 239 255
227 239 255
227 239 255
227 239 255
227 239 255
227 239 255
227 239 255
227 239 255
227 239 255
227 239 255
227 239 255
227 239 255
227 239 255
227 239 255
227 239 255
227 239 255
227 239 255
227 239 255
227 239 255
227 239 255
227 239 255
227 239 255
227 239 255
227 239 255
227 239 255
227 239 255
227 239 255
220 232 248
191 204 216
164 178 182
112 129 123
77 100 71
104 122 111
123 139 137
127 141 141
142 156 162
121 136 133
105 124 115
112 129 126
129 143 147
134 149 151
134 150 151
69 90 63
91 108 97
94 108 103
117 133 130
120 135 135
120 135 134
115 131 128
111 127 124
129 143 148
116 131 129
115 128 129
108 125 119
104 119 113
114 128 126
113 129 128
124 137 138
125 139 139
116 130 128
114 129 127
115 129 131
124 138 140
115 130 130
103 117 118
110 124 122
70 85 74
71 88 72
56 76 44
52 72 41
53 74 40
72 89 71
116 129 130
116 128 130
100 113 109
115 128 129
122 135 139
111 124 126
110 124 123
102 115 114
115 128 129
118 133 132
105 117 118
92 104 99
71 86 73
57 73 55
54 74 42
47 66 37
49 67 38
78 92 84
97 110 107
104 116 116
84 97 90
88 101 94
96 108 107
91 102 101
114 126 130
104 118 114
93 106 103
94 106 104
97 108 106
99 111 111
85 98 93
86 98 95
105 118 117
86 99 93
94 107 105
63 76 66
91 103 101
81 93 89
92 104 103
79 91 85
95 106 105
80 93 86
95 107 105
91 101 102
88 101 99
68 81 70
103 114 116
86 97 96
86 99 97
93 107 103
90 101 98
91 102 101
74 85 80
63 76 65
39 56 30
39 55 30
34 49 26
41 57 32
40 56 31
47 64 37
45 63 36
33 46 25
42 58 33
39 55 30
48 65 38
42 59 33
41 57 32
36 50 27
40 56 32
57 72 54
45 58 42
68 78 73
72 84 79
63 75 65
53 66 52
54 70 49
53 66 52
53 69 49
43 58 34
43 59 33
41 57 32
34 47 26
40 55 31
41 56 32
43 59 34
40 55 31
43 59 34
38 53 30
59 71 57
85 96 92
82 93 89
85 96 94
92 104 99
86 98 95
88 100 100
78 88 84
77 88 84
75 86 82
65 78 70
76 87 84
75 86 80
75 88 82
101 112 114
81 93 90
84 95 91
82 92 92
45 61 37
32 46 24
46 62 36
39 55 31
35 49 27
31 46 23
41 57 32
42 58 33
45 62 36
48 65 38
40 56 31
41 57 32
39 54 30
41 57 32
39 55 30
39 54 31
72 83 81
82 96 86
90 102 100
90 101 100
92 103 102
95 107 106
92 103 101
85 96 92
83 96 90
79 90 86
78 91 83
74 85 81
100 112 111
89 101 99
86 97 96
94 107 104
54 72 47
47 64 37
43 60 32
44 60 35
38 54 30
46 64 36
41 57 32
42 58 32
45 62 35
44 62 34
46 64 36
49 68 39
41 58 31
46 64 36
51 68 44
73 86 78
108 121 121
101 114 110
90 103 99
112 124 126
100 112 111
105 120 118
112 124 127
114 126 128
97 111 107
96 108 109
95 109 102
106 120 117
118 131 133
88 101 97
52 69 46
67 84 65
83 99 88
92 109 97
93 108 97
99 111 111
82 96 87
98 112 104
114 126 130
87 101 96
106 119 118
108 122 121
91 105 98
54 74 42
55 76 43
43 61 33
55 75 44
56 77 45
59 81 47
54 74 42
56 76 45
55 76 43
61 83 49
54 74 42
88 104 95
115 130 130
113 127 124
111 128 123
90 107 98
94 109 103
68 87 64
69 90 63
57 78 45
60 82 49
68 90 57
112 127 122
128 144 145
146 161 164
124 138 139
125 140 142
94 110 99
96 113 99
130 145 143
127 143 146
78 99 76
64 88 52
69 93 55
86 106 87
108 125 114
113 131 124
121 139 134
118 134 130
143 157 158
191 203 214
222 234 250
227 239 255
227 239 255
227 239 255
227 239 255
227 239 255
227 239 255
227 239 255
227 239 255
227 239 255
227 239 255
227 239 255
227 239 255
227 239 255
227 239 255
227 239 255
227 239 255
227 239 255
227 239 255
227 239 255
227 239 255
227 239 255
227 239 255
227 239 255
227 239 255
227 239 255
227 239 255
227 239 255
227 239 255
227 239 255
227 239 255
227 239 255
227 239 255
227 239 255
227 239 255
227 239 255
227 239 255
227 239 255
227 239 255
227 239 255
227 239 255
227 239 255
227 239 255
227 239 255
227 239 255
227 239 255
227 239 255
227 239 255
227 239 255
227 239 255
227 239 255
227 239 255
227 239 255
227 239 255
227 239 255
227 239 255
227 239 255
227 239 255
227 239 255
227 239 255
227 239 255
227 239 255
227 239 255
227 239 255
227 239 255
227 239 255
227 239 255
227 239 255
227 239 255
227 239 255
227 239 255
227 239 255
227 239 255
227 239 255
227 239 255
227 239 255
227 239 255
227 239 255
227 239 255
227 239 255
227 239 255
227 239 255
227 239 255
227 239 255
227 239 255
227 239 255
227 239 255
227 239 255
227 239 255
227 239 255
227 239 255
227 239 255
227 239 255
227 239 255
227 239 255
227 239 255
227 239 255
227 239 255
227 239 255
227 239 255
227 239 255
227 239 255
227 239 255
227 239 255
227 239 255
227 239 255
227 239 255
227 239 255
227 239 255
227 239 255
227 239 255
227 239 255
227 239 255
227 239 255
227 239 255
227 239 255
227 239 255
227 239 255
227 239 255
227 239 255
227 239 255
227 239 255
227 239 255
227 239 255
227 239 255
227 239 255
227 239 255
227 239 255
227 239 255
227 239 255
218 230 245
195 208 221
151 166 167
95 114 100
93 112 96
98 116 103
132 148 150
141 158 161
137 153 155
121 137 133
95 113 97
64 86 54
67 92 55
116 133 126
140 155 156
120 135 130
121 137 134
118 133 133
119 134 135
131 145 150
140 156 160
120 133 135
124 138 137
123 136 138
128 142 146
113 126 126
93 109 100
79 96 79
57 78 45
61 84 48
91 108 96
126 140 144
128 142 146
128 141 145
121 135 134
121 134 137
111 124 122
106 121 119
101 116 109
62 81 58
57 78 45
59 80 48
48 67 38
60 81 47
53 73 42
57 77 45
56 76 44
54 74 43
95 107 106
114 128 127
117 130 129
101 115 111
99 112 106
101 115 113
96 110 103
89 104 96
59 76 54
58 76 52
52 71 40
60 81 48
54 74 42
45 63 35
46 64 35
46 64 37
55 75 44
47 66 37
91 104 101
110 122 123
102 117 114
95 108 104
102 114 115
99 112 109
95 107 106
108 120 122
80 94 87
94 107 105
86 100 88
84 96 90
59 73 59
63 78 63
47 63 41
52 71 41
39 55 30
40 56 32
97 111 106
100 112 111
105 115 118
82 97 85
106 119 120
81 93 88
95 107 107
85 97 94
92 103 101
62 76 62
90 102 100
82 94 91
88 99 98
94 107 104
79 93 83
90 102 100
90 102 101
94 104 106
49 65 43
45 61 35
42 59 33
44 61 35
41 57 33
42 58 32
42 59 33
57 73 53
52 68 47
58 72 59
85 96 93
74 88 77
75 86 82
75 86 82
94 105 105
83 94 91
89 100 96
75 87 84
45 59 40
42 58 33
42 59 34
40 56 31
41 58 32
43 59 34
40 55 32
45 62 35
43 59 33
46 63 37
44 60 34
42 58 33
43 59 34
38 53 29
42 58 32
41 56 32
43 60 33
76 89 80
91 103 101
100 112 114
82 92 93
90 101 100
88 99 99
76 90 82
75 88 81
77 89 82
84 94 93
78 90 83
81 92 88
95 107 105
66 77 71
81 91 89
90 102 98
90 100 99
82 94 91
44 62 35
42 58 33
46 62 37
41 57 31
43 60 34
45 62 36
43 60 34
39 54 30
38 53 30
39 55 30
44 61 35
49 68 39
38 54 29
39 55 30
39 55 30
41 56 36
78 90 84
76 88 83
104 116 116
93 105 102
82 94 89
81 95 87
95 106 107
92 104 103
90 102 100
77 90 83
83 95 90
96 108 108
101 114 113
101 114 113
95 107 105
81 93 88
64 78 66
51 70 40
40 55 31
47 65 36
51 69 41
50 67 39
44 61 34
48 66 38
42 60 32
43 60 34
50 69 39
44 61 34
48 66 37
56 76 44
44 60 34
107 120 119
86 99 91
111 125 129
101 114 112
99 111 109
116 129 131
106 119 118
110 124 123
106 118 120
106 120 116
109 124 121
96 108 108
107 121 118
108 120 122
96 109 104
50 69 40
50 71 39
52 73 42
50 69 40
47 65 36
46 64 36
54 74 42
57 77 49
65 82 61
69 87 64
89 105 97
93 108 100
89 104 96
57 74 52
66 84 62
52 72 41
54 73 42
57 78 46
52 71 41
49 68 38
59 80 47
49 69 38
52 72 41
57 78 45
64 84 57
111 124 126
113 126 130
116 131 129
115 131 127
133 148 150
129 145 147
115 131 126
105 119 115
89 106 95
88 106 92
97 115 104
126 139 143
130 146 149
133 148 151
136 151 156
59 81 48
68 91 54
69 93 55
75 93 73
72 92 67
87 105 89
80 100 79
68 92 54
62 85 49
68 92 57
79 102 73
76 99 68
77 100 71
89 109 90
142 157 156
182 195 203
212 224 239
227 239 255
227 239 255
227 239 255
227 239 255
227 239 255
227 239 255
227 239 255
227 239 255
227 239 255
227 239 255
227 239 255
227 239 255
227 239 255
227 239 255
227 239 255
227 239 255
227 239 255
227 239 255
227 239 255
227 239 255
227 239 255
227 239 255
227 239 255
227 239 255
227 239 255
227 239 255
227 239 255
227 239 255
227 239 255
227 239 255
227 239 255
227 239 255
227 239 255
227 239 255
227 239 255
227 239 255
227 239 255
227 239 255
227 239 255
227 239 255
227 239 255
227 239 255
227 239 255
227 239 255
227 239 255
227 239 255
227 239 255
227 239 255
227 239 255
227 239 255
227 239 255
227 239 255
227 239 255
227 239 255
227 239 255
227 239 255
227 239 255
227 239 255
227 239 255
227 239 255
227 239 255
227 239 255
227 239 255
227 239 255
227 239 255
227 239 255
227 239 255
227 239 255
227 239 255
227 239 255
227 239 255
227 239 255
227 239 255
227 239 255
227 239 255
227 239 255
227 239 255
227 239 255
227 239 255
227 239 255
227 239 255
227 239 255
227 239 255
227 239 255
227 239 255
227 239 255
227 239 255
227 239 255
227 239 255
227 239 255
227 239 255
227 239 255
227 239 255
227 239 255
227 239 255
227 239 255
227 239 255
227 239 255
227 239 255
227 239 255
227 239 255
227 239 255
227 239 255
227 239 255
227 239 255
227 239 255
227 239 255
227 239 255
227 239 255
227 239 255
227 239 255
227 239 255
227 239 255
227 239 255
227 239 255
227 239 255
227 239 255
227 239 255
227 239 255
227 239 255
227 239 255
227 239 255
227 239 255
216 229 244
189 202 214
145 160 160
104 121 109
83 107 79
109 126 117
141 157 164
135 152 155
135 151 152
130 146 147
97 114 103
76 97 70
67 91 54
58 80 46
65 88 52
79 98 75
98 113 107
81 101 79
60 82 48
86 104 90
116 131 131
123 137 138
134 149 150
128 142 146
117 132 128
90 106 96
74 93 72
63 85 54
58 80 47
61 83 49
60 82 48
59 81 47
58 79 47
64 85 56
118 133 132
119 133 134
118 134 134
97 115 104
89 107 95
62 82 54
57 78 45
54 74 42
59 80 47
56 76 44
59 80 47
49 69 38
64 87 51
57 78 45
57 78 45
55 76 44
47 65 36
73 88 78
108 121 118
77 91 85
74 90 72
63 79 59
50 69 39
51 70 40
53 73 42
55 74 43
54 74 42
50 69 39
52 72 41
49 67 38
52 71 41
46 64 37
50 68 40
49 68 39
44 62 35
91 105 101
116 130 132
105 117 114
111 123 124
103 115 115
99 112 111
80 96 84
60 76 55
61 78 56
40 57 30
52 71 41
52 71 40
48 66 37
37 54 29
45 63 35
46 64 37
46 64 36
47 65 36
74 88 76
89 101 99
89 103 95
93 105 104
94 106 105
89 101 96
87 99 96
95 108 104
102 114 111
113 126 129
95 108 104
98 111 111
83 96 90
95 107 107
91 104 101
94 108 104
106 119 119
110 121 125
72 84 76
69 82 72
73 85 78
81 94 89
98 111 109
94 107 104
88 99 95
83 95 90
97 109 107
94 105 105
86 98 93
92 104 101
89 101 99
104 116 118
79 92 84
90 102 99
97 109 110
92 104 100
61 74 63
44 61 34
49 67 39
42 59 32
44 61 35
42 58 33
45 62 36
41 58 32
47 65 37
46 64 36
43 59 34
48 66 38
43 60 34
46 63 36
47 64 37
41 58 31
36 52 27
46 63 36
67 81 67
84 97 90
71 86 75
94 107 103
89 100 101
70 81 74
87 101 93
78 89 84
89 101 97
87 97 98
87 100 95
96 106 109
87 99 94
85 96 92
90 102 100
94 105 105
96 109 109
57 72 56
47 64 37
44 60 35
39 55 30
47 64 36
49 67 39
46 63 37
48 66 37
45 62 36
45 62 36
38 54 30
48 67 38
44 60 35
45 63 35
51 70 40
45 62 35
52 69 44
72 87 74
92 105 102
95 107 105
98 110 113
114 126 128
86 99 92
97 110 107
98 110 111
89 102 96
84 97 90
98 110 109
90 103 100
91 102 101
83 96 90
95 107 106
90 102 98
64 82 59
50 69 39
49 68 38
47 65 36
45 61 35
47 65 37
46 64 35
46 63 36
47 66 36
44 62 35
45 62 35
47 66 38
49 69 40
47 66 37
49 68 39
83 95 87
104 117 116
97 110 107
94 107 101
107 119 118
97 110 107
102 115 114
111 125 125
123 136 142
97 110 108
96 109 107
116 129 129
95 108 105
111 124 127
105 118 115
57 75 51
52 72 41
54 74 43
50 69 40
54 74 43
50 69 39
45 63 36
59 81 47
56 77 45
55 75 43
52 72 41
51 70 40
60 81 48
116 130 129
120 135 135
98 112 108
93 107 101
93 108 100
92 107 100
77 95 78
71 90 68
55 76 43
57 79 46
58 79 46
56 77 44
113 128 127
127 141 146
130 144 146
108 123 121
119 134 133
127 141 141
128 143 145
120 136 136
112 125 124
122 137 140
130 145 148
117 132 129
100 116 108
120 136 135
85 102 89
53 75 42
58 80 46
59 81 47
63 86 51
65 88 51
107 124 119
126 142 142
116 132 128
113 128 124
82 101 81
66 89 52
72 96 60
87 109 85
107 127 118
103 123 110
81 103 77
136 151 147
170 183 189
215 227 241
227 239 255
227 239 255
227 239 255
227 239 255
227 239 255
227 239 255
227 239 255
227 239 255
227 239 255
227 239 255
227 239 255
227 239 255
227 239 255
227 239 255
227 239 255
227 239 255
227 239 255
227 239 255
227 239 255
227 239 255
227 239 255
227 239 255
227 239 255
227 239 255
227 239 255
227 239 255
227 239 255
227 239 255
227 239 255
227 239 255
227 239 255
227 239 255
227 239 255
227 239 255
227 239 255
227 239 255
227 239 255
227 239 255
227 239 255
227 239 255
227 239 255
227 239 255
227 239 255
227 239 255
227 239 255
227 239 255
227 239 255
227 239 255
227 239 255
227 239 255
227 239 255
227 239 255
227 239 255
227 239 255
227 239 255
227 239 255
227 239 255
227 239 255
227 239 255
227 239 255
227 239 255
227 239 255
227 239 255
227 239 255
227 239 255
227 239 255
227 239 255
227 239 255
227 239 255
227 239 255
227 239 255
227 239 255
227 239 255
227 239 255
227 239 255
227 239 255
227 239 255
227 239 255
227 239 255
227 239 255
227 239 255
227 239 255
227 239 255
227 239 255
227 239 255
227 239 255
227 239 255
227 239 255
227 239 255
227 239 255
227 239 255
227 239 255
227 239 255
227 239 255
227 239 255
227 239 255
227 239 255
227 239 255
227 239 255
227 239 255
227 239 255
227 239 255
227 239 255
227 239 255
227 239 255
227 239 255
227 239 255
227 239 255
227 239 255
228 239 255
228 239 255
228 239 255
228 239 255
228 239 255
228 239 255
228 239 255
228 239 255
213 225 239
169 182 187
152 167 169
117 136 130
92 112 94
119 138 132
126 142 141
138 154 158
134 149 154
109 125 119
95 113 99
61 85 50
62 85 50
63 86 50
65 88 52
96 113 103
105 123 117
128 144 147
136 152 155
135 149 150
67 90 56
61 83 48
91 107 98
131 145 149
118 133 130
96 113 103
68 88 62
59 81 47
64 87 51
61 84 49
55 77 44
59 79 46
62 84 50
54 74 43
57 78 46
70 90 61
84 102 85
91 110 96
60 80 50
52 72 40
54 74 43
55 77 43
58 79 47
56 77 44
56 77 45
65 88 52
52 72 40
54 75 42
53 73 42
52 71 40
55 74 45
88 107 91
99 113 110
108 121 120
106 120 117
56 75 47
48 66 36
54 73 43
49 67 38
58 79 47
48 66 37
55 76 45
54 73 43
51 70 40
53 74 42
46 64 36
59 81 47
57 77 45
54 74 43
59 80 47
53 72 41
52 70 44
74 88 77
86 101 93
78 94 80
57 74 54
51 70 41
48 65 37
48 66 37
56 77 45
57 78 46
52 71 40
48 67 37
45 63 35
52 71 41
51 70 41
45 63 35
51 69 40
53 74 42
42 59 33
56 74 47
92 105 100
100 113 110
102 115 116
99 111 108
94 106 104
112 125 127
96 108 104
103 116 116
95 109 103
98 110 107
79 94 83
80 93 85
76 89 81
64 79 63
56 71 52
40 57 30
41 58 32
52 71 41
101 113 114
104 115 118
78 92 83
96 108 107
99 112 109
79 93 83
83 96 92
89 100 98
92 105 102
79 93 84
103 115 113
88 100 97
101 113 111
89 101 96
98 109 111
89 100 97
100 112 112
82 94 91
63 76 64
44 61 34
46 63 36
48 66 37
45 62 35
44 61 34
51 70 41
45 63 36
52 70 42
43 59 33
38 54 30
42 58 32
47 65 37
45 61 36
46 64 37
44 61 33
47 65 36
45 58 42
99 111 109
90 103 97
102 113 114
83 94 91
97 109 109
98 109 110
79 91 85
91 103 100
96 108 108
104 116 119
98 111 109
88 100 94
91 103 100
92 105 102
84 95 94
81 94 87
79 92 87
58 69 62
67 81 67
75 89 79
84 96 94
66 79 68
68 81 69
92 105 100
69 82 72
68 82 73
79 93 84
98 112 107
84 97 93
84 99 90
94 105 105
77 90 83
109 121 126
90 102 98
61 72 62
68 83 69
50 63 50
55 70 53
50 66 42
66 81 67
60 76 56
61 76 61
59 73 61
63 79 60
70 86 67
70 84 68
63 79 62
83 99 86
62 79 59
63 78 60
70 83 72
88 101 97
87 100 95
87 101 95
90 104 98
82 96 87
78 92 82
77 91 82
76 89 80
64 78 65
71 87 72
64 78 65
51 68 44
53 71 47
48 66 38
103 118 114
100 113 113
93 107 100
116 129 130
100 112 112
120 132 134
105 118 117
108 121 123
117 130 132
124 137 140
101 114 112
111 125 124
108 121 120
110 124 124
98 112 108
48 65 38
51 71 40
51 70 40
56 77 45
57 78 46
60 82 48
55 75 42
55 76 44
51 70 40
55 76 44
44 63 34
54 74 42
57 79 45
88 104 98
122 135 137
107 122 120
103 117 113
131 145 149
123 138 138
114 128 130
106 120 114
99 113 110
100 115 111
86 101 91
92 109 99
106 121 115
119 133 134
127 141 144
137 151 155
132 147 150
124 140 139
121 134 136
129 144 143
116 131 130
125 141 139
123 138 140
107 123 115
58 78 52
126 142 142
116 131 125
121 136 136
98 116 100
82 103 80
63 86 51
62 85 50
67 90 59
114 130 126
129 145 149
136 151 152
130 145 147
124 141 138
111 128 117
87 108 84
106 125 113
126 143 141
140 156 161
115 134 127
93 115 91
112 130 118
187 201 210
207 219 232
228 239 255
228 239 255
228 239 255
228 239 255
228 239 255
228 239 255
228 239 255
227 239 255
227 239 255
227 239 255
227 239 255
227 239 255
227 239 255
227 239 255
227 239 255
227 239 255
227 239 255
227 239 255
227 239 255
227 239 255
227 239 255
227 239 255
227 239 255
227 239 255
227 239 255
227 239 255
227 239 255
227 239 255
227 239 255
227 239 255
227 239 255
227 239 255
227 239 255
227 239 255
227 239 255
227 239 255
227 239 255
227 239 255
227 239 255
227 239 255
227 239 255
227 239 255
227 239 255
227 239 255
227 239 255
227 239 255
227 239 255
227 239 255
227 239 255
227 239 255
227 239 255
227 239 255
227 239 255
227 239 255
227 239 255
227 239 255
227 239 255
227 239 255
227 239 255
227 239 255
227 239 255
227 239 255
227 239 255
227 239 255
227 239 255
227 239 255
227 239 255
227 239 255
227 239 255
227 239 255
227 239 255
227 239 255
227 239 255
227 239 255
227 239 255
227 239 255
227 239 255
227 239 255
227 239 255
227 239 255
227 239 255
227 239 255
227 239 255
227 239 255
228 239 255
228 239 255
228 239 255
228 239 255
228 239 255
228 239 255
228 239 255
228 239 255
228 239 255
228 239 255
228 239 255
228 239 255
228 239 255
228 239 255
228 239 255
228 239 255
228 239 255
228 239 255
228 239 255
228 239 255
228 239 255
228 239 255
228 239 255
228 239 255
228 239 255
228 239 255
228 239 255
214 226 240
187 200 207
145 161 160
136 154 154
131 147 148
104 124 112
101 121 109
148 165 171
141 157 163
114 131 126
98 116 103
70 95 56
63 87 52
68 92 55
62 84 49
93 112 99
109 127 116
134 149 153
141 157 162
115 130 128
144 159 163
130 144 148
135 150 154
93 110 98
92 111 95
123 138 140
63 84 56
58 80 46
59 81 47
65 89 52
61 83 48
58 80 47
55 76 45
55 77 44
62 83 53
81 99 81
109 124 121
114 128 132
132 146 151
131 145 149
100 118 108
54 74 42
50 70 38
59 80 48
57 78 45
51 71 40
57 78 45
59 81 47
58 80 46
59 79 50
78 95 79
96 112 104
109 123 122
111 126 126
121 135 136
127 140 142
122 135 137
105 120 114
67 84 65
53 73 41
52 72 41
60 82 48
53 74 42
54 74 42
51 70 40
50 69 39
55 75 43
50 69 38
50 69 39
69 86 67
78 92 81
81 96 85
107 120 119
113 127 127
107 121 120
108 120 121
94 108 102
50 69 38
55 75 43
51 71 40
48 66 38
46 64 36
47 65 37
53 73 42
45 64 34
46 64 36
51 71 41
44 63 34
55 75 43
48 67 39
51 70 41
54 73 42
48 66 38
46 65 36
88 102 95
108 121 121
103 117 115
106 119 120
84 97 90
63 77 64
75 90 78
73 88 75
47 62 40
49 67 38
49 66 39
46 63 36
50 69 39
47 65 38
51 70 41
45 62 35
41 58 31
46 63 36
54 71 48
90 103 100
104 117 119
97 109 106
85 97 93
106 118 117
113 125 127
95 107 105
102 114 113
90 102 101
85 96 93
89 102 96
82 94 90
101 115 113
103 116 118
99 112 110
86 99 94
88 100 96
76 91 80
47 62 40
46 63 36
39 55 30
40 56 30
47 64 36
46 64 36
43 60 34
49 68 37
49 67 38
46 64 36
50 68 40
45 62 35
46 64 36
56 72 51
48 66 38
62 76 63
71 85 75
88 101 96
54 69 51
61 75 62
67 81 67
65 79 65
61 77 59
47 64 37
44 58 37
51 67 47
47 65 37
46 64 37
47 64 37
42 58 32
39 55 31
42 59 33
42 59 32
45 62 35
58 72 56
96 109 104
87 98 96
99 111 112
92 105 101
90 103 97
90 101 97
94 106 106
94 108 103
105 120 118
111 123 125
87 100 95
93 105 104
98 110 108
90 101 100
95 109 105
99 111 109
76 89 83
46 63 36
47 65 37
45 63 35
41 59 31
47 65 36
53 73 43
49 67 40
51 70 40
51 70 41
42 58 32
52 71 41
51 70 40
48 67 38
46 64 36
53 73 42
60 75 61
111 123 125
97 109 109
89 103 96
107 120 121
118 132 133
100 112 110
114 128 128
105 117 118
116 129 127
99 112 110
100 113 111
121 134 137
114 127 127
124 137 140
93 106 104
78 93 79
62 80 53
71 89 70
68 85 67
72 88 75
86 101 93
80 95 85
96 112 102
88 104 92
92 105 102
88 104 94
111 125 123
115 130 128
100 112 112
116 131 130
60 79 54
53 73 41
61 83 49
59 80 47
55 76 43
55 75 44
58 78 46
51 70 40
58 78 47
55 76 44
54 75 42
61 83 48
56 75 46
101 116 109
127 142 145
116 128 131
132 146 152
117 131 132
127 141 144
126 140 143
141 155 161
121 135 133
130 144 148
123 137 138
121 135 137
116 130 128
73 93 69
84 100 87
95 112 102
102 119 112
127 143 143
123 139 138
128 143 146
126 140 140
140 155 160
128 144 144
126 140 140
109 127 122
130 146 147
145 160 168
131 146 147
128 143 142
134 149 152
106 122 118
102 120 111
91 110 96
103 121 108
144 160 163
138 154 162
126 142 143
140 155 159
138 153 157
142 158 162
121 141 134
128 143 139
147 164 168
155 170 177
151 167 173
118 136 129
118 136 129
149 165 168
198 211 223
219 231 246
228 239 255
228 239 255
228 239 255
228 239 255
228 239 255
228 239 255
228 239 255
228 239 255
228 239 255
228 239 255
228 239 255
228 239 255
228 239 255
228 239 255
228 239 255
228 239 255
228 239 255
228 239 255
228 239 255
228 239 255
228 239 255
228 239 255
228 239 255
228 239 255
228 239 255
228 239 255
228 239 255
228 239 255
227 239 255
227 239 255
227 239 255
227 239 255
227 239 255
227 239 255
227 239 255
227 239 255
227 239 255
227 239 255
227 239 255
227 239 255
227 239 255
227 239 255
227 239 255
227 239 255
227 239 255
227 239 255
227 239 255
227 239 255
227 239 255
227 239 255
227 239 255
227 239 255
227 239 255
227 239 255
227 239 255
227 239 255
227 239 255
227 239 255
227 239 255
228 239 255
228 239 255
228 239 255
228 239 255
228 239 255
228 239 255
228 239 255
228 239 255
228 239 255
228 239 255
228 239 255
228 239 255
228 239 255
228 239 255
228 239 255
228 239 255
228 239 255
228 239 255
228 239 255
228 239 255
228 239 255
228 239 255
228 239 255
228 239 255
228 239 255
228 239 255
228 239 255
228 239 255
228 239 255
228 239 255
228 239 255
228 239 255
228 239 255
228 239 255
228 239 255
228 239 255
228 239 255
228 239 255
228 239 255
228 239 255
228 239 255
228 239 255
228 239 255
228 239 255
228 239 255
228 239 255
222 234 248
179 192 199
161 176 180
132 150 150
139 156 159
113 130 120
82 105 77
68 93 55
78 101 72
109 126 118
85 107 82
65 88 52
66 90 54
73 99 60
74 96 67
102 122 105
120 137 133
130 144 144
141 156 160
141 155 158
140 156 160
142 157 160
123 138 137
134 150 152
103 120 110
67 87 60
106 123 113
135 151 154
134 148 153
90 107 98
61 83 49
61 84 49
60 81 48
61 83 49
67 86 65
101 118 108
115 131 127
124 138 139
137 152 155
113 127 127
117 130 131
128 142 144
133 148 152
124 139 138
59 81 47
61 83 49
61 84 49
59 81 47
67 89 58
96 111 104
106 122 115
104 119 113
104 119 116
124 137 137
114 130 131
117 132 129
130 145 149
114 128 126
120 133 136
115 130 129
117 133 134
90 106 96
59 80 48
58 79 46
58 79 46
49 69 39
57 78 45
59 78 52
62 79 57
81 98 83
93 110 101
89 102 98
123 136 139
113 126 127
111 125 125
118 131 134
107 120 120
120 134 136
102 115 113
90 103 97
55 75 44
51 70 41
49 68 39
60 81 48
46 64 36
48 67 37
54 74 42
54 74 43
48 66 38
57 77 46
48 66 37
54 73 43
49 68 37
52 72 41
55 73 47
71 88 70
91 104 97
83 98 88
49 63 45
65 85 58
54 74 43
52 71 41
47 64 37
53 73 41
46 64 36
48 66 38
47 65 37
43 60 34
43 60 32
53 72 42
47 65 36
44 61 34
47 65 38
46 64 36
52 72 41
47 65 38
95 107 104
111 124 125
95 108 106
94 106 102
106 118 118
107 119 120
98 111 109
93 106 103
87 99 96
111 124 124
96 109 106
114 126 129
86 99 95
107 120 120
97 109 104
109 122 120
102 114 112
103 115 114
67 81 70
59 79 50
48 63 44
62 79 59
53 69 49
76 90 80
82 94 90
75 91 79
84 96 94
69 83 73
86 100 92
102 113 114
100 113 112
85 99 92
108 121 121
106 118 120
94 108 103
97 110 106
48 63 40
50 68 40
42 59 33
43 60 34
43 60 34
47 65 37
48 66 38
50 68 39
43 59 33
41 57 31
45 64 35
52 71 42
49 68 39
48 67 38
43 59 34
45 61 36
49 67 38
74 86 77
95 108 105
96 109 106
96 109 107
93 106 102
113 126 127
108 120 121
111 123 126
104 116 118
103 115 116
103 116 114
107 120 120
101 113 110
104 117 116
109 124 122
98 111 107
106 118 116
72 86 75
46 64 36
46 63 36
52 72 41
51 70 40
52 71 41
54 73 43
51 71 40
49 68 38
53 74 43
51 71 41
47 65 36
49 68 39
52 72 41
46 65 36
45 63 34
72 86 75
94 107 103
104 117 117
106 119 117
103 116 115
116 129 131
105 117 117
94 109 101
101 114 108
88 101 96
107 119 121
108 121 121
111 124 124
106 120 116
112 125 128
99 111 111
73 90 72
52 72 41
54 74 43
52 71 41
57 78 45
55 74 43
56 76 43
58 79 47
52 72 41
58 79 47
52 72 41
57 77 45
61 81 51
65 86 58
62 79 56
101 114 109
101 117 110
100 114 109
75 92 74
84 99 86
71 89 69
61 82 52
55 75 43
56 76 44
57 78 45
51 70 40
60 82 48
55 76 43
89 106 93
125 139 142
110 124 123
132 147 149
124 138 140
115 130 132
118 132 134
121 135 139
127 141 144
141 156 160
127 140 144
123 138 136
123 138 136
75 92 75
62 84 49
55 76 43
62 85 51
67 88 59
71 91 65
88 108 88
105 121 115
117 133 133
115 131 126
64 88 52
89 107 94
129 145 149
130 145 146
124 140 139
131 146 145
142 157 162
134 150 152
148 164 170
139 155 161
123 140 139
134 149 150
116 131 127
131 147 149
158 173 181
149 165 173
127 143 144
132 149 151
142 158 163
125 141 139
124 142 139
147 163 167
151 168 175
147 163 167
150 167 169
157 173 179
180 195 206
202 214 229
220 232 247
228 239 255
228 239 255
228 239 255
228 239 255
228 239 255
228 239 255
228 239 255
228 239 255
228 239 255
228 239 255
228 239 255
228 239 255
228 239 255
228 239 255
228 239 255
228 239 255
228 239 255
228 239 255
228 239 255
228 239 255
228 239 255
228 239 255
228 239 255
228 239 255
228 239 255
228 239 255
228 239 255
228 239 255
228 239 255
228 239 255
228 239 255
228 239 255
228 239 255
228 239 255
228 239 255
228 239 255
228 239 255
228 239 255
228 239 255
228 239 255
228 239 255
228 239 255
228 239 255
228 239 255
228 239 255
227 239 255
227 239 255
227 239 255
227 239 255
227 239 255
227 239 255
228 239 255
228 239 255
228 239 255
228 239 255
228 239 255
228 239 255
228 239 255
228 239 255
228 239 255
228 239 255
228 239 255
228 239 255
228 239 255
228 239 255
228 239 255
228 239 255
228 239 255
228 239 255
228 239 255
228 239 255
228 239 255
228 239 255
228 239 255
228 239 255
228 239 255
228 239 255
228 239 255
228 239 255
228 239 255
228 239 255
228 239 255
228 239 255
228 239 255
228 239 255
228 239 255
228 239 255
228 239 255
228 239 255
228 239 255
228 239 255
228 239 255
228 239 255
228 239 255
228 239 255
228 239 255
228 239 255
228 239 255
228 239 255
228 239 255
193 206 214
160 175 177
134 152 154
123 141 138
117 135 128
89 111 90
71 97 58
86 108 83
112 129 124
130 147 146
142 157 160
147 162 167
69 93 59
81 101 77
106 125 113
133 150 153
147 164 169
134 150 151
134 151 151
145 160 165
131 148 148
133 148 152
127 142 142
90 110 93
75 96 69
59 81 46
62 84 50
67 91 53
86 105 87
131 145 148
136 151 155
131 146 147
91 110 96
91 109 97
116 131 126
127 142 141
122 137 138
118 132 131
129 143 147
126 140 145
124 137 141
117 132 133
114 129 125
129 143 145
120 135 134
126 140 142
76 95 71
87 105 92
94 111 101
109 124 120
120 135 135
116 132 129
123 136 137
122 137 136
123 137 138
107 122 116
118 133 135
124 139 140
128 141 145
127 140 143
122 137 136
126 140 144
102 116 113
121 136 137
68 89 61
69 86 68
90 105 97
98 113 108
95 110 102
102 116 111
133 147 153
104 118 113
121 135 137
118 133 135
103 117 113
120 134 136
115 129 128
108 122 120
120 134 133
115 128 127
117 130 134
108 122 118
73 91 68
51 71 40
51 70 39
53 72 42
48 66 38
54 74 42
55 76 43
57 77 45
50 69 39
66 83 62
76 89 78
91 103 102
93 109 101
89 103 94
106 121 116
124 138 142
97 110 107
105 119 113
86 99 91
51 70 40
46 64 36
50 70 39
48 67 38
51 69 40
53 72 42
54 73 43
51 69 40
50 69 40
56 77 44
49 69 39
48 66 38
48 66 38
44 62 34
56 77 45
54 74 43
49 66 39
60 78 55
103 116 116
105 118 116
99 111 109
119 132 133
100 112 111
97 111 105
93 106 101
110 123 125
96 108 108
92 105 100
90 102 100
87 102 91
96 109 107
87 102 95
72 86 73
74 88 77
53 70 48
57 71 57
100 112 111
102 116 115
97 111 107
105 118 115
99 111 110
102 115 115
123 135 140
83 96 89
100 113 111
87 100 96
96 109 104
101 113 113
105 117 118
98 111 110
100 114 111
84 97 93
97 109 107
88 101 98
52 70 44
43 61 35
43 59 33
49 67 39
47 65 38
53 72 42
46 64 35
48 67 37
46 64 36
48 67 38
45 63 35
49 68 39
45 62 35
53 72 42
50 69 39
53 72 42
44 61 34
78 92 83
94 107 103
113 126 129
100 113 106
104 117 116
99 114 109
99 113 108
103 116 115
109 122 121
98 111 109
74 88 80
91 105 98
103 115 115
109 122 120
87 101 95
110 123 123
104 117 115
76 90 81
50 68 39
47 66 37
50 69 39
54 73 43
54 74 43
54 74 43
49 67 38
47 66 37
40 56 30
53 72 42
48 66 37
44 63 35
50 68 39
45 63 35
51 70 41
76 92 77
108 121 122
113 126 128
98 111 107
109 123 123
119 132 134
110 122 125
101 116 113
104 117 118
118 132 133
87 102 94
99 113 111
119 132 135
98 111 106
109 122 122
109 122 124
65 84 60
54 74 42
54 75 43
51 72 40
47 67 37
49 68 37
55 76 44
48 67 38
57 78 46
55 76 44
49 68 40
55 75 44
58 78 46
52 72 41
67 88 62
121 135 135
114 129 129
115 128 129
108 123 121
109 125 120
119 133 134
116 131 133
116 131 132
98 112 107
99 115 107
91 107 99
83 100 84
76 93 78
86 103 93
126 142 142
130 145 148
120 136 135
130 144 145
138 153 154
130 144 146
133 148 152
121 135 138
114 129 125
126 140 145
125 139 142
132 147 148
84 102 88
62 85 50
61 83 48
63 86 51
60 82 47
60 82 48
61 84 49
86 106 83
130 145 144
127 144 144
112 128 125
111 127 121
110 126 119
136 151 153
128 143 145
143 158 165
148 162 168
132 146 151
137 152 155
133 149 150
135 150 153
114 131 125
79 100 74
76 98 70
94 113 101
132 148 150
139 155 158
137 152 152
143 159 165
126 143 140
109 126 117
86 106 84
105 124 113
126 143 144
155 170 176
132 148 148
136 153 154
118 136 129
165 179 185
208 220 233
227 238 254
228 239 255
228 239 255
228 239 255
228 239 255
228 239 255
228 239 255
228 239 255
228 239 255
228 239 255
228 239 255
228 239 255
228 239 255
228 239 255
228 239 255
228 239 255
228 239 255
228 239 255
228 239 255
228 239 255
228 239 255
228 239 255
228 239 255
228 239 255
228 239 255
228 239 255
228 239 255
228 239 255
228 239 255
228 239 255
228 239 255
228 239 255
228 239 255
228 239 255
228 239 255
228 239 255
228 239 255
228 239 255
228 239 255
228 239 255
228 239 255
228 239 255
228 239 255
228 239 255
228 239 255
228 239 255
228 239 255
228 239 255
228 239 255
228 239 255
228 239 255
228 239 255
228 239 255
228 239 255
228 239 255
228 239 255
228 239 255
228 239 255
228 239 255
228 239 255
228 239 255
228 239 255
228 239 255
228 239 255
228 239 255
228 239 255
228 239 255
228 239 255
228 239 255
228 239 255
228 239 255
228 239 255
228 239 255
228 239 255
228 239 255
228 239 255
228 239 255
228 239 255
228 239 255
228 239 255
228 239 255
228 239 255
228 239 255
228 239 255
228 239 255
228 239 255
228 239 255
228 239 255
228 239 255
228 239 255
228 239 255
228 239 255
228 239 255
228 239 255
228 239 255
213 225 238
179 192 200
143 160 160
148 165 169
122 140 134
80 103 74
67 92 55
74 96 66
115 134 125
148 163 168
149 166 167
142 157 162
135 151 154
133 149 152
111 128 120
123 140 138
139 155 158
130 145 149
137 152 158
142 158 162
135 150 151
129 144 145
114 128 128
101 120 107
70 92 61
70 95 56
66 89 53
62 85 49
63 85 50
62 85 50
67 91 55
65 86 57
102 118 111
109 126 119
85 103 88
66 87 59
111 126 120
123 138 143
128 143 145
128 143 143
132 146 146
123 138 140
132 148 152
129 145 147
135 151 156
115 130 128
101 116 111
115 131 126
79 98 78
104 119 117
129 144 146
131 145 148
110 126 121
122 136 138
125 139 140
126 140 140
124 138 141
109 124 122
128 142 145
131 145 149
126 139 144
113 129 127
113 127 128
127 141 144
97 112 106
91 105 99
74 91 74
86 101 91
120 134 133
125 139 139
110 124 125
109 123 124
130 143 149
112 128 123
104 118 115
101 114 110
114 127 127
111 123 126
119 133 136
115 129 130
114 127 128
118 132 132
113 128 127
104 119 114
110 124 124
96 112 104
51 71 40
54 75 43
56 72 52
60 79 54
92 106 99
83 98 91
98 113 108
100 115 109
111 125 124
112 126 125
102 115 112
107 121 117
115 129 130
110 123 123
106 121 114
111 125 123
92 106 100
101 116 113
50 69 40
49 69 39
53 72 41
47 65 37
48 67 38
50 69 39
51 70 40
50 68 39
53 72 41
44 62 35
49 67 38
51 70 40
53 73 43
55 75 44
49 68 38
51 71 41
49 67 39
50 69 41
86 99 94
115 128 131
104 118 115
116 129 132
102 115 112
94 109 101
62 77 63
81 96 83
60 76 58
47 65 37
53 73 42
51 71 40
49 68 38
42 60 33
45 63 33
50 69 39
46 64 35
48 67 37
77 91 80
98 112 109
118 132 134
94 106 105
90 105 98
106 119 118
112 124 127
100 113 110
84 97 93
91 104 100
103 116 115
97 110 107
109 122 121
95 107 107
92 105 101
106 119 119
103 116 115
102 114 114
84 97 91
46 64 37
57 79 46
47 65 37
44 61 33
48 68 37
45 63 36
46 65 35
48 67 38
47 66 38
47 65 36
49 67 38
54 74 44
51 69 39
49 67 38
50 69 40
54 73 42
53 70 49
91 103 102
111 123 127
89 101 96
95 107 107
106 119 120
109 123 120
103 115 115
98 110 107
102 115 114
103 116 114
101 115 111
96 108 105
106 120 120
109 123 120
119 133 134
105 119 115
90 104 98
61 82 52
52 72 42
51 70 39
44 61 34
52 72 41
44 62 34
48 66 37
50 68 39
55 75 44
44 62 35
53 72 42
50 69 39
50 69 39
55 75 43
45 63 35
51 71 41
95 112 101
119 132 132
111 125 123
95 109 106
106 119 116
111 125 125
119 132 134
105 118 118
118 133 130
89 104 94
115 130 129
110 124 122
103 118 115
111 126 125
106 120 116
113 126 129
59 77 55
46 64 35
51 71 40
54 75 43
60 82 48
52 72 42
54 75 42
53 73 41
57 78 46
52 71 41
61 83 49
48 67 38
55 75 43
52 73 41
64 82 64
110 125 122
117 132 132
103 117 114
122 137 139
113 126 128
109 124 121
116 130 128
119 134 134
120 135 136
115 130 131
126 139 142
127 143 141
119 133 131
111 127 123
68 89 62
80 100 75
72 89 73
97 113 105
105 120 116
110 125 121
129 144 146
131 147 149
102 118 112
126 141 142
121 136 137
122 136 137
104 119 112
64 87 51
60 82 48
58 80 46
57 79 45
79 98 80
116 133 129
134 148 154
144 159 164
131 144 148
123 139 138
140 155 157
90 109 93
86 106 86
86 104 90
119 137 130
127 142 140
128 144 144
138 154 156
135 151 155
139 154 157
143 159 164
112 130 123
62 85 49
69 93 55
66 90 52
82 103 78
95 114 99
122 140 135
144 159 163
130 146 145
81 104 73
66 90 54
71 94 62
100 122 105
120 137 134
136 152 150
101 119 106
106 126 112
131 150 146
182 196 206
213 225 240
228 239 255
228 239 255
228 239 255
228 239 255
228 239 255
228 239 255
228 239 255
228 239 255
228 239 255
228 239 255
228 239 255
228 239 255
228 239 255
228 239 255
228 239 255
228 239 255
228 239 255
228 239 255
228 239 255
228 239 255
228 239 255
228 239 255
228 239 255
228 239 255
228 239 255
228 239 255
228 239 255
228 239 255
228 239 255
228 239 255
228 239 255
228 239 255
228 239 255
228 239 255
228 239 255
228 239 255
228 239 255
228 239 255
228 239 255
228 239 255
228 239 255
228 239 255
228 239 255
228 239 255
228 239 255
228 239 255
228 239 255
228 239 255
228 239 255
228 239 255
228 239 255
228 239 255
228 239 255
228 239 255
228 239 255
228 239 255
228 239 255
228 239 255
228 239 255
228 239 255
228 239 255
228 239 255
228 239 255
228 239 255
228 239 255
228 239 255
228 239 255
228 239 255
228 239 255
228 239 255
228 239 255
228 239 255
228 239 255
228 239 255
228 239 255
228 239 255
228 239 255
228 239 255
228 239 255
228 239 255
228 239 255
228 239 255
228 239 255
228 239 255
228 239 255
228 239 255
228 239 255
228 239 255
228 239 255
217 228 243
193 206 214
142 158 157
148 166 171
124 141 135
105 123 117
68 93 55
77 102 67
109 127 117
139 155 160
136 152 154
145 162 167
140 156 161
142 158 161
120 136 135
91 112 92
66 89 56
65 89 52
132 148 149
134 150 150
142 157 160
133 149 150
120 137 136
86 104 88
61 85 49
60 83 48
65 88 53
69 93 56
60 84 48
58 81 47
61 83 48
59 82 47
87 105 88
112 129 122
135 152 154
70 93 61
60 83 48
63 86 50
58 80 46
57 79 46
106 123 116
122 136 134
124 140 139
134 149 153
127 142 145
129 145 145
92 108 100
79 95 81
71 91 66
59 81 48
55 76 43
51 72 39
99 115 107
122 135 137
118 133 133
135 149 154
111 126 123
127 142 143
124 140 142
121 135 137
118 132 131
118 134 133
117 130 132
119 132 131
93 108 103
88 106 93
60 81 51
56 78 45
54 75 43
57 78 45
93 108 98
112 126 124
138 151 158
126 139 142
116 131 129
121 136 134
114 129 126
111 126 122
111 125 122
110 124 122
106 120 116
108 122 121
126 139 141
120 133 136
112 128 125
99 113 108
101 115 113
110 124 122
86 103 90
98 112 106
102 116 113
112 125 126
108 121 119
109 124 123
123 137 140
116 130 128
112 127 124
108 123 123
111 124 124
114 126 128
116 130 130
126 139 142
120 133 136
102 116 113
116 131 129
110 123 124
108 121 118
72 87 73
56 76 45
51 70 39
56 77 45
55 77 44
49 68 40
55 75 44
51 70 40
49 68 39
55 76 44
51 70 40
48 67 38
52 71 41
44 62 33
72 86 73
69 86 69
73 87 76
103 117 115
89 104 95
64 81 62
53 73 42
56 76 44
55 75 44
49 67 39
51 69 40
53 72 42
49 68 38
53 72 41
50 69 40
51 71 41
51 69 40
50 70 40
49 68 39
45 64 36
45 63 35
44 62 34
43 59 33
91 106 96
107 120 118
104 118 117
105 118 120
112 126 127
100 114 112
106 117 116
94 107 104
106 120 119
116 128 131
110 123 123
112 124 126
107 120 122
112 126 124
105 118 116
103 117 114
96 110 104
100 112 110
65 81 65
47 64 36
53 72 43
49 68 38
53 72 41
45 62 34
50 69 39
53 72 42
48 67 38
45 63 35
61 82 49
56 77 45
45 64 36
51 70 40
47 65 36
50 70 40
54 75 43
66 82 64
112 125 125
124 136 141
102 116 113
106 118 119
107 120 119
106 120 118
116 128 130
119 134 135
114 127 128
92 106 102
116 129 128
105 117 116
108 121 120
109 122 122
116 131 132
118 132 135
91 107 96
55 72 49
46 64 36
49 68 38
49 67 38
53 73 42
57 78 45
53 73 42
51 71 40
45 63 34
56 76 45
49 68 37
56 78 45
51 71 40
50 69 39
49 67 39
48 67 38
107 122 120
98 111 110
107 120 121
114 129 129
128 141 146
117 131 130
102 116 112
103 118 112
109 122 123
120 133 133
117 129 129
116 131 130
114 128 130
115 128 130
118 131 130
105 119 116
60 76 60
62 84 50
59 80 47
60 82 48
60 82 48
56 77 44
56 77 45
53 74 42
59 81 47
51 70 40
54 75 43
56 77 45
56 76 43
61 83 50
68 87 64
126 140 143
121 136 137
105 121 118
131 146 148
124 139 141
125 141 144
116 131 132
110 125 121
120 135 137
123 138 138
129 144 148
123 136 138
130 144 148
112 127 124
68 90 59
57 78 45
58 80 46
57 79 46
56 77 45
60 83 49
78 98 74
89 108 94
83 102 84
98 115 105
125 139 140
105 120 117
106 122 116
62 83 52
69 91 61
101 117 109
135 150 156
119 135 135
135 149 154
135 151 155
154 169 177
111 126 121
145 159 166
134 150 153
104 122 114
63 87 51
62 85 49
66 90 54
68 92 60
90 108 94
118 135 129
117 133 129
138 155 157
149 164 168
122 139 137
79 101 76
67 91 55
70 95 57
71 95 57
69 93 55
69 93 59
88 110 90
108 126 117
106 126 114
69 93 55
73 98 60
71 96 57
66 90 53
93 115 92
113 132 123
86 110 82
74 100 63
107 126 115
156 171 178
200 214 226
225 236 253
228 239 255
228 239 255
228 239 255
228 239 255
228 239 255
228 239 255
228 239 255
228 239 255
228 239 255
228 239 255
228 239 255
228 239 255
228 239 255
228 239 255
228 239 255
228 239 255
228 239 255
228 239 255
228 239 255
228 239 255
228 239 255
228 239 255
228 239 255
228 239 255
228 239 255
228 239 255
228 239 255
228 239 255
228 239 255
228 239 255
228 239 255
228 239 255
228 239 255
228 239 255
228 239 255
228 239 255
228 239 255
228 239 255
228 239 255
228 239 255
228 239 255
228 239 255
228 239 255
228 239 255
228 239 255
228 239 255
228 239 255
228 239 255
228 239 255
228 239 255
228 239 255
228 239 255
228 239 255
228 239 255
228 239 255
228 239 255
228 239 255
228 239 255
228 239 255
228 239 255
228 239 255
228 239 255
228 239 255
228 239 255
228 239 255
228 239 255
228 239 255
228 239 255
228 239 255
228 239 255
228 239 255
228 239 255
228 239 255
228 239 255
228 239 255
228 239 255
228 239 255
228 239 255
228 239 255
228 239 255
228 239 255
228 239 255
228 239 255
227 238 254
195 207 216
145 161 156
90 113 87
97 119 98
102 122 107
72 96 64
74 100 60
95 115 99
127 145 143
148 164 170
154 168 175
153 168 175
142 156 163
132 150 150
104 125 109
66 89 52
65 89 52
69 93 55
61 85 49
71 96 58
115 132 126
117 135 130
94 114 99
67 90 54
66 90 54
66 90 53
66 90 53
70 95 57
64 87 51
68 92 55
73 95 69
97 116 102
120 136 132
134 150 155
131 148 149
128 142 143
128 143 145
88 106 93
68 92 55
65 88 51
62 84 49
59 81 47
62 83 48
87 107 87
122 139 137
104 120 114
75 96 71
56 77 44
64 87 51
62 84 49
58 79 45
58 80 47
59 82 47
60 83 48
70 92 61
134 149 153
117 133 130
132 147 151
139 153 156
120 134 134
134 149 150
111 125 125
104 120 111
79 98 81
65 84 62
55 77 44
63 86 51
54 75 44
56 77 45
59 80 47
60 81 48
57 79 45
52 73 40
121 135 136
118 133 133
116 129 131
111 124 123
104 116 113
119 134 134
134 147 152
119 133 135
121 138 135
117 130 132
121 134 137
103 117 114
92 107 98
86 101 91
78 96 78
57 77 49
52 72 41
58 79 45
101 114 110
117 131 132
105 119 115
118 132 131
115 128 131
126 139 143
121 135 138
111 125 124
111 124 125
96 110 108
101 117 111
114 126 129
115 129 127
106 122 115
110 123 124
116 130 130
119 132 135
111 125 124
87 102 94
57 78 46
55 76 44
43 61 33
51 71 40
52 71 41
46 65 35
69 87 67
78 95 81
77 92 79
95 110 106
93 108 102
105 117 116
117 131 130
114 128 129
114 127 126
103 117 116
112 126 125
113 126 127
75 90 77
51 71 41
53 73 42
49 68 38
46 64 36
51 70 39
51 70 40
43 61 32
43 61 32
51 69 40
60 81 48
49 67 38
52 71 41
47 65 37
50 69 39
51 71 40
54 74 43
50 70 39
67 84 64
93 107 102
107 120 120
96 109 106
109 122 121
117 129 131
106 120 120
113 124 125
113 126 126
106 119 120
111 124 125
105 119 113
114 127 129
103 116 117
102 116 112
108 120 121
105 119 115
106 118 118
93 106 101
54 73 43
56 76 45
51 70 40
49 67 38
50 69 39
55 75 44
45 63 34
50 69 39
43 60 32
48 67 38
49 68 38
45 64 36
53 71 45
58 77 49
60 77 55
77 91 81
62 78 58
93 106 101
110 123 123
83 98 87
91 104 97
92 106 99
75 89 81
85 103 87
82 98 87
88 103 95
83 97 89
88 102 93
88 103 95
82 99 83
67 83 66
69 85 68
83 98 85
76 91 76
86 100 90
77 92 81
116 131 128
112 127 123
101 114 111
100 114 109
95 109 102
88 102 94
97 112 108
95 110 103
94 108 102
92 107 100
106 120 117
90 103 98
86 103 91
78 94 80
99 115 109
88 103 96
100 116 109
90 106 94
89 104 96
88 105 93
83 99 88
99 114 108
92 106 100
100 114 112
96 111 104
115 129 129
118 132 133
118 132 133
127 141 143
126 140 144
119 133 136
64 82 60
55 76 44
51 71 40
55 76 44
52 72 42
55 75 43
55 76 43
57 78 45
58 79 47
62 84 49
51 71 40
56 76 44
55 76 44
60 82 48
71 89 68
128 143 145
130 144 147
122 135 135
113 128 127
127 142 144
122 136 138
132 146 149
131 146 151
129 143 149
126 140 143
126 140 143
124 138 138
129 144 147
105 120 114
66 86 59
56 77 44
58 79 46
61 83 48
61 84 49
65 88 52
58 80 46
62 85 50
62 84 50
60 82 48
58 80 46
69 91 61
93 112 98
93 110 100
101 118 109
119 134 131
130 146 149
135 150 152
132 147 147
127 142 143
127 143 145
132 147 147
135 150 152
142 158 162
121 137 134
68 91 58
65 89 53
69 94 56
72 97 58
68 92 55
66 90 53
60 83 48
85 106 83
115 133 123
121 138 135
78 98 75
69 93 56
62 85 49
68 92 54
69 93 56
65 88 53
66 90 52
65 89 53
71 94 63
115 133 124
104 125 113
83 105 79
71 97 57
74 100 60
67 91 54
85 106 82
95 117 99
92 114 92
74 97 65
121 139 132
163 178 181
209 221 235
228 239 255
228 239 255
228 239 255
228 239 255
228 239 255
228 239 255
228 239 255
228 239 255
228 239 255
228 239 255
228 239 255
228 239 255
228 239 255
228 239 255
228 239 255
228 239 255
228 239 255
228 239 255
228 239 255
228 239 255
228 239 255
228 239 255
228 239 255
228 239 255
228 239 255
228 239 255
228 239 255
228 239 255
228 239 255
228 239 255
228 239 255
228 239 255
228 239 255
228 239 255
228 239 255
228 239 255
228 239 255
228 239 255
228 239 255
228 239 255
228 239 255
228 239 255
228 239 255
228 239 255
228 239 255
228 239 255
228 239 255
228 239 255
228 239 255
228 239 255
228 239 255
228 239 255
228 239 255
228 239 255
228 239 255
228 239 255
228 239 255
228 239 255
228 239 255
228 239 255
228 239 255
228 239 255
228 239 255
228 239 255
228 239 255
228 239 255
228 239 255
228 239 255
228 239 255
228 239 255
228 239 255
228 239 255
228 239 255
228 239 255
228 239 255
228 239 255
228 239 255
228 239 255
228 239 255
210 222 234
177 192 198
135 151 145
88 112 86
108 127 116
143 161 165
151 168 174
138 154 155
125 143 139
141 159 163
153 169 176
154 169 176
138 156 160
120 138 133
111 129 121
71 96 58
71 96 57
67 91 54
71 96 57
64 88 52
64 87 51
102 121 110
130 146 145
100 119 107
69 93 55
67 91 54
66 90 52
68 92 55
65 88 51
66 91 53
72 94 68
114 133 120
117 135 130
133 148 151
134 150 152
141 158 162
138 154 158
133 147 151
135 151 157
137 152 157
100 117 106
67 90 53
65 89 52
75 95 69
98 116 104
119 135 131
126 141 143
146 161 168
116 133 130
78 97 80
68 90 58
59 81 47
58 80 46
59 82 47
62 85 50
61 84 48
60 82 47
58 79 46
123 139 140
126 140 143
117 132 129
106 123 114
97 113 104
77 97 71
57 78 45
60 82 48
60 82 49
50 70 39
60 83 48
61 84 48
61 82 49
58 80 45
60 82 48
66 88 53
63 85 50
63 86 50
112 128 122
124 139 140
112 126 127
112 126 125
120 135 136
112 127 127
110 125 124
122 136 135
87 103 91
73 92 72
60 79 53
52 72 41
54 74 43
51 71 39
57 78 45
61 82 49
48 66 37
52 72 41
60 81 52
126 141 143
117 132 134
103 117 113
121 135 134
116 130 129
130 145 148
120 134 135
127 140 146
114 128 129
108 121 119
112 124 124
114 127 127
119 133 132
116 129 130
115 130 129
104 119 114
121 134 135
117 131 132
80 95 85
75 91 75
87 103 93
95 110 104
101 114 110
96 110 104
112 126 126
114 127 124
116 131 129
129 141 146
123 136 140
107 120 120
123 137 140
111 123 124
115 128 128
110 122 124
129 143 147
118 131 136
118 130 134
60 79 55
50 69 39
55 75 44
56 76 44
50 69 40
54 74 43
50 70 39
46 64 36
54 74 42
54 74 42
51 71 40
55 75 43
52 72 41
49 68 38
55 75 43
53 73 43
53 73 42
55 75 43
85 100 92
100 114 111
106 119 119
115 129 129
108 121 121
108 122 121
102 117 114
113 126 126
110 124 124
107 122 119
108 122 121
116 130 128
109 122 123
100 112 111
113 126 124
109 123 122
103 117 112
113 127 124
77 92 82
75 89 77
77 92 78
90 103 96
84 100 87
78 91 83
92 104 101
94 108 103
97 111 106
99 113 111
100 115 114
111 123 125
109 123 121
114 126 127
109 123 118
103 116 115
107 120 119
115 129 129
81 98 83
54 74 43
57 78 46
56 76 45
53 73 42
56 77 45
47 66 37
51 70 40
54 74 43
51 70 39
48 67 38
53 73 42
55 75 43
53 73 42
52 71 41
52 73 41
52 71 40
92 107 98
109 122 124
118 132 132
96 110 105
106 121 117
108 122 122
118 131 133
116 129 129
116 130 132
113 128 124
118 133 135
112 127 125
113 127 128
119 133 133
116 130 130
123 136 140
107 120 117
58 78 49
58 79 46
54 74 42
56 77 44
58 78 47
53 73 42
50 69 40
49 67 38
60 82 47
61 83 48
50 70 39
53 73 42
61 84 50
52 71 40
55 76 44
77 94 78
109 124 122
105 120 116
98 114 106
100 117 106
97 112 105
92 108 100
86 103 90
81 99 81
82 101 81
78 94 81
79 97 77
62 83 55
58 79 49
57 79 46
79 97 82
121 135 135
121 136 139
133 147 151
133 148 152
130 145 147
118 133 134
125 138 138
124 139 141
125 139 140
132 147 151
138 152 156
137 153 158
132 145 150
120 134 137
71 91 65
60 82 48
61 83 48
61 83 48
57 79 45
69 93 56
59 82 47
64 87 52
60 82 48
86 104 87
115 132 127
131 146 146
131 146 151
79 99 77
60 83 48
58 80 47
65 89 52
79 99 80
96 113 102
122 138 135
108 125 120
129 145 148
143 158 162
125 140 142
118 136 131
80 100 76
69 93 55
61 84 49
60 83 48
63 86 50
67 90 53
64 88 53
69 94 56
58 81 46
65 89 56
93 111 95
114 132 125
103 120 113
83 106 77
74 100 61
72 97 57
68 93 54
71 96 58
71 96 58
118 137 133
141 158 163
131 148 148
123 141 138
90 111 89
75 102 61
73 99 62
90 112 89
142 159 161
129 148 144
95 119 95
86 110 82
143 161 161
185 198 208
221 233 248
228 239 255
228 239 255
228 239 255
228 239 255
228 239 255
228 239 255
228 239 255
228 239 255
228 239 255
228 239 255
228 239 255
228 239 255
228 239 255
228 239 255
228 239 255
228 239 255
228 239 255
228 239 255
228 239 255
228 239 255
228 239 255
228 239 255
228 239 255
228 239 255
228 239 255
228 239 255
228 239 255
228 239 255
228 239 255
228 239 255
228 239 255
228 239 255
228 239 255
228 239 255
228 239 255
228 239 255
228 239 255
228 239 255
228 239 255
228 239 255
228 239 255
228 239 255
228 239 255
228 239 255
228 239 255
228 239 255
228 239 255
228 239 255
228 239 255
228 239 255
228 239 255
228 239 255
228 239 255
228 239 255
228 239 255
228 239 255
228 239 255
228 239 255
228 239 255
228 239 255
228 239 255
228 239 255
228 239 255
228 239 255
228 239 255
228 239 255
228 239 255
228 239 255
228 239 255
228 239 255
228 239 255
228 239 255
228 239 255
225 236 252
185 198 206
156 171 174
127 146 139
122 141 134
125 142 140
158 175 186
153 169 175
115 135 126
110 130 118
113 133 123
145 161 167
138 154 157
133 151 151
117 134 128
74 99 63
73 97 58
68 92 56
72 98 59
70 96 57
77 101 70
95 114 98
126 143 143
141 157 163
146 161 165
139 156 159
97 115 103
65 89 53
63 86 50
63 87 51
83 104 81
95 112 101
117 134 133
134 149 150
134 150 151
133 149 151
145 159 165
119 135 134
130 147 149
125 140 141
137 152 155
125 140 142
140 155 160
108 125 116
98 115 104
126 141 143
133 147 151
128 145 141
138 152 155
134 148 153
131 145 148
135 150 154
127 144 144
134 148 151
89 108 92
72 92 66
62 84 50
59 80 46
65 89 52
76 95 74
89 106 91
88 107 91
78 97 77
58 80 47
60 82 48
59 81 47
59 81 46
56 77 43
57 78 45
59 81 48
61 83 48
64 85 50
56 78 45
62 84 50
61 84 49
62 84 50
60 82 48
61 82 49
55 76 43
81 100 82
121 135 137
116 131 130
93 110 101
85 102 86
78 97 75
53 73 41
55 76 43
53 72 41
58 79 46
57 78 45
57 79 45
53 74 42
58 79 46
55 76 43
53 74 43
61 83 49
57 78 45
57 78 45
97 113 107
122 137 137
111 126 125
134 148 152
111 124 125
118 132 134
117 131 132
121 136 138
118 132 133
128 142 147
125 141 144
106 120 117
112 127 125
101 116 111
103 117 114
87 103 91
77 94 77
64 84 57
56 75 47
113 127 126
126 141 141
122 136 137
112 128 125
103 118 112
124 138 140
99 112 110
122 136 138
110 124 123
115 130 129
106 119 116
111 126 123
123 137 137
115 129 130
110 122 121
123 136 140
119 132 136
123 137 141
90 105 95
50 69 39
52 73 42
55 76 44
57 77 46
49 69 38
50 69 39
56 77 45
55 75 43
50 69 39
48 66 37
48 67 38
50 70 40
56 77 43
58 79 46
52 72 42
56 76 44
49 67 38
68 84 68
117 130 133
115 127 129
106 118 120
111 125 124
101 114 111
104 119 114
104 117 113
98 112 108
84 99 90
86 101 91
79 96 81
75 91 77
64 81 61
61 79 56
50 69 40
51 71 40
51 70 40
63 83 57
102 115 113
108 122 122
112 126 125
121 135 134
123 137 138
110 124 120
104 117 114
117 131 132
124 138 141
96 109 103
115 128 129
112 125 124
110 125 121
117 131 133
107 120 119
123 137 139
115 129 128
101 117 110
52 72 40
55 76 44
61 82 49
56 76 44
55 76 45
56 76 44
50 70 39
49 68 38
51 69 40
50 69 39
56 76 44
52 72 41
52 72 41
52 71 41
53 73 42
57 78 45
60 79 54
115 129 128
119 133 134
119 133 135
107 120 118
124 137 141
116 129 130
112 126 126
103 118 114
113 125 127
120 134 134
106 121 117
123 136 141
120 134 134
119 133 135
119 132 135
114 128 128
107 122 120
57 78 44
52 72 40
53 73 41
51 71 40
52 71 40
53 73 42
55 76 44
49 69 39
58 79 46
54 74 42
58 79 46
63 86 50
57 79 45
50 70 40
47 66 36
87 103 91
115 130 129
114 128 127
125 140 142
107 121 119
119 134 132
106 120 117
125 138 144
126 140 142
132 146 149
126 141 141
122 136 139
126 140 141
128 143 142
113 128 128
114 129 127
88 106 91
91 107 98
89 104 94
108 123 120
106 121 116
113 128 129
125 142 141
129 145 145
132 147 150
104 120 115
132 148 149
119 134 135
125 139 141
123 138 140
67 88 62
55 77 44
63 86 49
59 81 48
59 81 46
67 89 56
93 110 99
119 136 131
121 135 135
116 129 131
146 159 165
130 146 149
121 136 134
83 103 83
63 86 51
64 87 51
63 86 51
62 85 50
64 87 51
61 84 48
61 84 49
70 89 67
87 106 90
104 123 114
114 131 128
104 124 107
64 87 51
65 89 52
66 90 53
65 88 51
65 89 53
65 89 53
67 91 54
68 93 55
63 86 50
96 116 99
136 151 153
137 152 157
146 162 170
123 140 136
109 128 118
81 101 79
68 92 55
70 95 56
93 115 93
130 149 148
152 167 175
149 165 170
155 170 177
121 139 134
109 129 118
86 110 78
113 131 122
151 168 176
156 174 180
120 139 136
99 120 101
120 137 132
167 182 186
196 209 220
226 238 254
228 239 255
228 239 255
228 239 255
228 239 255
228 239 255
228 239 255
228 239 255
228 239 255
228 239 255
228 239 255
228 239 255
228 239 255
228 239 255
228 239 255
228 239 255
228 239 255
228 239 255
228 239 255
228 239 255
228 239 255
228 239 255
228 239 255
228 239 255
228 239 255
228 239 255
228 239 255
228 239 255
228 239 255
228 239 255
228 239 255
228 239 255
228 239 255
228 239 255
228 239 255
228 239 255
228 239 255
228 239 255
228 239 255
228 239 255
228 239 255
228 239 255
228 239 255
228 239 255
228 239 255
228 239 255
228 239 255
228 239 255
228 239 255
228 239 255
228 239 255
228 239 255
228 239 255
228 239 255
228 239 255
228 239 255
228 239 255
228 239 255
228 239 255
228 239 255
228 239 255
228 239 255
228 239 255
228 239 255
228 239 255
228 239 255
228 239 255
228 239 255
228 239 255
212 224 237
179 192 199
136 154 150
154 170 178
142 159 160
153 170 175
158 173 180
120 138 136
101 122 103
78 103 67
68 94 55
73 99 60
110 130 120
105 123 112
90 111 88
66 91 53
68 92 55
69 94 56
64 88 51
77 101 67
111 130 119
129 145 146
140 155 157
148 165 171
144 160 165
141 158 164
138 155 162
135 151 153
104 122 112
76 96 74
122 140 136
133 149 150
140 155 157
138 154 158
133 149 151
140 156 161
149 164 169
143 158 166
141 157 158
122 138 135
143 157 162
125 140 140
120 135 134
105 122 114
76 98 69
84 103 85
135 150 151
124 139 140
144 158 164
134 149 152
135 149 153
137 152 155
132 147 152
138 152 156
141 156 161
140 154 159
132 147 150
123 138 134
103 119 113
79 100 76
118 133 134
134 149 154
123 139 137
115 132 130
62 85 50
59 81 47
60 82 48
65 88 52
66 90 54
59 79 47
58 79 45
61 84 49
59 80 47
61 83 48
62 84 50
59 81 46
62 84 50
60 82 49
61 83 50
86 104 92
93 109 100
103 117 113
65 84 58
58 80 46
56 77 44
55 76 44
55 76 44
62 84 49
64 87 52
54 75 42
50 69 39
53 73 41
57 79 45
56 78 44
51 71 41
51 71 40
52 72 41
57 78 46
63 86 50
55 76 44
81 97 82
108 123 119
119 132 132
133 147 153
119 133 132
103 115 111
125 139 142
106 121 114
109 124 121
86 103 89
73 89 74
76 94 73
57 78 45
60 81 48
54 75 43
59 81 47
56 77 45
56 77 45
54 75 44
104 119 112
111 127 126
104 117 114
130 142 146
125 139 139
127 141 145
118 133 132
116 130 131
123 137 138
123 138 138
99 112 110
131 144 149
109 122 123
115 128 127
110 123 124
106 119 119
110 122 125
120 135 136
110 124 122
62 81 55
55 76 44
54 75 42
60 81 48
55 76 44
53 72 42
49 69 38
52 72 42
53 73 42
54 74 43
58 80 46
54 75 43
52 72 40
59 78 50
73 90 73
78 94 79
84 98 88
85 99 91
99 115 109
75 90 75
60 79 54
45 62 34
57 78 45
55 74 42
53 72 41
57 79 45
50 69 40
44 61 33
53 73 41
57 77 45
52 71 41
54 74 43
51 71 41
57 78 45
55 74 43
54 73 43
91 108 95
102 115 112
120 134 137
116 129 131
113 128 127
114 128 127
106 121 121
103 117 115
108 121 122
119 131 134
131 145 149
122 136 137
119 133 135
114 127 130
100 114 110
121 136 135
125 138 145
117 129 132
87 102 93
44 62 34
53 73 42
55 76 44
57 79 46
59 80 46
55 76 44
55 76 44
55 76 44
48 67 37
55 74 43
53 74 42
58 79 46
57 77 46
55 76 43
56 76 44
60 82 48
79 95 78
104 118 116
116 130 132
121 136 137
118 133 134
107 122 121
118 132 134
128 143 146
116 131 128
108 124 119
108 122 120
117 131 131
111 124 124
105 120 118
117 130 132
129 143 145
118 133 130
93 108 100
54 75 42
53 74 43
53 73 41
57 77 44
62 84 50
54 75 43
53 73 42
60 81 47
57 79 46
56 77 44
60 81 47
52 72 41
55 75 43
60 81 47
49 68 38
88 105 96
129 144 148
123 138 137
124 138 138
121 136 134
124 138 141
118 132 134
132 147 150
138 153 156
117 131 131
141 157 163
110 124 120
118 132 132
130 145 148
129 143 145
110 125 122
56 76 47
57 79 45
56 76 44
56 78 44
62 84 49
64 87 52
59 80 50
71 90 65
90 109 93
85 102 88
105 121 115
107 124 117
118 134 131
111 126 124
65 85 61
64 87 54
95 112 101
114 130 122
138 153 156
132 147 146
140 155 161
133 148 149
120 135 135
143 158 164
145 160 168
131 147 148
132 147 152
76 98 73
60 83 48
61 84 49
58 80 46
67 91 55
64 86 51
69 94 56
67 90 54
68 92 54
66 90 53
65 89 52
68 91 56
119 136 136
112 129 122
105 123 114
91 110 90
72 94 66
69 94 56
67 91 54
66 90 53
71 96 57
65 89 52
72 95 65
132 149 148
149 163 172
151 166 173
142 156 162
150 165 170
140 157 160
122 139 134
105 123 112
81 103 80
118 135 132
147 163 168
152 168 173
155 171 180
151 168 174
152 167 174
132 149 145
131 150 146
140 155 159
153 170 174
151 167 172
151 168 174
151 168 173
128 147 144
123 142 134
170 184 189
218 230 246
228 239 255
228 239 255
228 239 255
228 239 255
228 239 255
228 239 255
228 239 255
228 239 255
228 239 255
228 239 255
228 239 255
228 239 255
228 239 255
228 239 255
228 239 255
228 239 255
228 239 255
228 239 255
228 239 255
228 239 255
228 239 255
228 239 255
228 239 255
228 239 255
228 239 255
228 239 255
228 239 255
228 239 255
228 239 255
228 239 255
228 239 255
228 239 255
228 239 255
228 239 255
228 239 255
228 239 255
228 239 255
228 239 255
228 239 255
228 239 255
228 239 255
228 239 255
228 239 255
228 239 255
228 239 255
228 239 255
228 239 255
228 239 255
228 239 255
228 239 255
228 239 255
228 239 255
228 239 255
228 239 255
228 239 255
228 239 255
228 239 255
228 239 255
228 239 255
228 239 255
228 239 255
228 239 255
228 239 255
228 239 255
206 218 231
167 181 188
142 160 163
142 160 163
124 142 137
155 172 180
147 165 167
132 152 151
78 102 73
70 95 57
71 96 57
69 93 58
114 133 123
140 156 159
104 122 115
75 101 62
75 101 61
68 93 55
76 102 64
97 116 99
123 141 137
144 160 165
140 156 159
144 161 163
145 161 163
144 158 161
144 160 164
144 160 164
142 159 162
119 135 130
107 123 118
144 161 163
134 149 151
135 151 153
134 150 152
142 158 163
129 145 145
130 146 148
130 146 149
143 160 164
132 148 150
111 128 120
96 115 98
73 96 64
64 88 52
54 75 42
62 86 50
67 89 59
145 161 166
134 150 154
144 160 165
142 156 161
125 140 140
144 158 161
125 141 140
135 150 153
126 141 142
104 121 111
100 117 105
71 92 64
65 89 52
64 87 51
59 81 47
98 115 102
121 137 133
119 134 134
57 78 46
55 76 43
63 86 51
57 79 45
58 81 47
66 90 54
60 83 48
63 86 52
56 78 45
58 79 47
63 86 50
76 94 76
89 106 94
116 131 129
143 159 162
115 129 127
125 140 141
133 148 151
93 110 101
63 84 49
59 81 47
60 82 48
63 85 50
60 84 48
53 74 42
50 69 39
59 80 47
61 83 49
59 81 48
51 72 40
56 77 44
52 72 42
56 76 44
60 82 48
58 80 46
48 68 38
60 81 51
110 125 123
122 136 135
99 113 110
100 117 109
78 94 77
62 83 52
57 78 46
61 83 49
55 76 43
50 70 39
56 76 44
56 77 45
53 72 41
52 72 41
56 77 43
56 77 45
57 78 45
54 75 42
71 91 67
110 124 120
121 137 136
101 114 111
104 119 115
124 138 138
113 127 126
119 133 136
124 137 142
121 135 138
123 136 139
106 120 119
106 119 116
125 139 142
117 131 132
117 131 131
118 132 132
125 139 141
111 126 124
99 114 107
56 77 44
54 74 43
55 76 44
55 75 43
55 74 45
59 78 52
73 91 74
87 102 94
94 109 100
93 108 101
118 131 134
103 118 112
105 120 117
119 133 133
96 110 107
105 119 116
106 121 118
104 118 117
53 71 45
59 81 47
54 75 43
55 76 44
55 75 43
51 70 39
58 79 47
54 75 42
55 76 44
47 66 37
55 76 44
57 78 46
49 67 39
59 80 46
59 80 46
54 74 42
51 71 40
54 75 43
97 110 105
128 141 146
101 115 113
106 120 120
106 120 118
118 133 135
119 134 135
125 139 142
124 137 140
110 122 122
105 121 117
119 134 134
121 134 137
117 130 134
120 135 134
110 124 122
126 141 141
113 126 126
63 82 58
56 76 43
52 72 41
56 77 45
47 66 37
56 77 44
56 77 44
54 75 42
61 83 49
50 70 39
55 75 43
49 68 39
51 71 41
58 79 46
58 80 47
51 69 40
55 76 43
75 93 72
118 132 136
101 117 108
115 130 131
120 134 133
126 140 143
132 147 151
116 130 130
122 136 138
120 135 134
125 140 140
118 132 134
122 137 137
120 135 135
126 139 139
105 118 117
124 137 138
74 91 75
56 77 44
53 74 41
56 77 44
61 83 48
58 79 46
53 73 42
58 79 46
53 73 42
60 82 47
55 77 44
59 81 46
54 74 42
57 79 46
66 90 54
58 79 46
115 131 128
132 147 149
117 131 130
115 131 133
122 137 136
130 145 148
124 139 139
118 134 133
118 133 135
126 141 144
134 149 150
134 148 152
120 135 136
126 141 145
122 137 140
103 119 114
61 83 48
61 83 48
57 79 45
60 82 48
53 74 42
61 83 49
58 80 46
68 92 55
62 84 49
61 84 49
60 82 47
63 83 55
87 106 90
107 123 116
70 92 63
90 107 92
102 119 109
109 126 120
107 123 114
127 144 143
128 144 145
145 161 164
124 139 141
139 153 159
133 148 150
129 144 145
134 149 151
90 110 92
61 83 50
65 88 52
68 93 56
69 93 55
65 90 54
63 85 50
64 88 51
65 88 52
64 88 51
61 84 49
71 96 57
128 145 142
140 156 160
137 154 157
145 161 166
137 153 155
128 144 144
100 120 105
82 102 79
66 89 53
63 87 51
66 91 53
118 135 131
139 155 159
152 169 172
145 161 167
152 169 175
143 159 168
148 164 171
148 164 170
143 160 168
138 156 157
144 161 164
154 171 178
145 161 165
155 170 178
161 178 187
139 156 159
145 161 167
143 160 163
120 138 132
141 157 160
148 164 170
148 165 170
120 140 134
85 110 78
96 119 97
140 158 151
203 215 226
228 239 255
228 239 255
228 239 255
228 239 255
228 239 255
228 239 255
228 239 255
228 239 255
228 239 255
228 239 255
228 239 255
228 239 255
228 239 255
228 239 255
228 239 255
228 239 255
228 239 255
228 239 255
228 239 255
228 239 255
228 239 255
228 239 255
228 239 255
228 239 255
228 239 255
228 239 255
228 239 255
228 239 255
228 239 255
228 239 255
228 239 255
228 239 255
228 239 255
228 239 255
228 239 255
228 239 255
228 239 255
228 239 255
228 239 255
228 239 255
228 239 255
228 239 255
228 239 255
228 239 255
228 239 255
228 239 255
228 239 255
228 239 255
228 239 255
228 239 255
228 239 255
228 239 255
228 239 255
228 239 255
228 239 255
228 239 255
228 239 255
228 239 255
228 239 255
224 235 251
200 213 225
138 155 154
140 159 161
120 139 129
82 106 75
124 142 139
128 147 144
97 119 98
72 98 59
71 96 57
74 101 61
108 128 117
131 148 150
160 175 183
159 175 184
153 169 175
108 127 115
73 99 59
112 131 120
106 124 114
135 152 150
148 164 171
153 169 178
150 165 172
150 167 176
155 170 179
155 170 176
143 160 165
128 145 143
90 111 87
62 86 49
70 95 57
94 115 100
147 162 167
133 149 148
145 160 165
132 147 149
148 163 167
150 167 176
129 144 147
121 137 135
81 101 78
71 93 65
62 85 50
63 86 51
64 87 52
63 87 51
64 87 50
58 80 47
68 92 55
129 144 143
118 135 132
134 147 150
137 153 159
128 144 144
114 130 129
111 127 122
86 104 86
58 80 46
67 91 54
62 85 49
63 85 50
64 88 52
70 94 56
60 82 48
64 87 52
60 82 47
66 89 57
105 120 114
108 125 116
88 107 91
60 82 47
65 88 52
63 85 50
63 85 51
89 109 92
95 112 104
119 135 132
122 137 135
129 144 145
119 134 131
131 145 148
125 138 141
126 141 142
136 150 153
130 144 147
110 126 119
59 81 47
61 83 48
56 77 44
57 79 45
60 82 48
59 80 46
56 77 45
54 75 43
58 80 46
57 77 45
58 80 46
57 78 45
56 76 44
54 75 42
61 81 55
89 104 94
94 110 101
99 113 110
97 114 108
50 70 39
52 72 42
61 84 49
54 76 44
60 82 49
64 86 51
50 71 38
55 75 43
64 87 52
61 82 49
57 78 44
57 79 45
54 75 43
55 76 44
57 79 45
58 79 45
54 75 43
53 72 41
112 127 125
134 148 156
118 132 132
118 133 131
121 135 138
110 125 122
119 132 132
131 145 149
121 135 137
125 140 140
117 132 131
109 123 122
123 138 138
113 127 125
96 111 104
133 148 150
122 137 140
101 117 111
90 107 97
90 105 97
95 110 105
102 118 112
109 123 120
109 123 124
112 127 127
120 135 136
120 133 140
131 145 148
124 139 141
122 136 138
125 139 142
121 135 136
122 136 137
120 134 136
114 127 128
114 127 128
112 126 127
81 96 87
55 76 43
57 78 45
60 81 48
55 76 43
64 86 52
55 76 43
53 74 43
57 78 45
52 72 42
56 77 44
52 73 41
60 81 48
55 74 43
54 75 42
54 75 43
50 70 39
53 73 42
71 91 65
130 144 147
116 129 130
119 134 131
104 118 117
120 133 136
130 145 150
112 124 128
132 145 149
119 134 135
109 123 121
115 130 128
120 133 137
123 135 140
107 122 120
103 117 115
113 127 123
121 135 135
116 130 131
63 84 53
53 73 42
56 77 44
56 77 44
60 81 48
51 70 39
50 69 39
55 76 44
54 74 42
50 70 38
61 83 49
59 80 47
54 73 42
48 68 39
54 75 43
53 73 42
52 72 40
109 125 119
118 133 132
121 137 135
121 135 135
114 128 128
128 142 145
126 140 143
118 132 134
119 131 133
109 124 121
121 136 137
135 150 155
128 143 144
121 137 137
119 135 133
123 137 139
129 143 145
63 84 54
56 78 45
54 75 43
51 72 40
56 77 44
53 74 42
57 79 45
61 83 49
52 73 41
54 74 42
59 81 47
64 87 51
56 77 45
61 83 49
57 78 45
59 82 47
109 124 120
123 138 141
127 141 143
122 138 136
144 158 162
116 132 130
122 136 135
109 124 119
121 135 134
122 136 136
119 135 130
118 132 133
129 144 144
130 145 146
130 146 147
102 118 111
59 81 47
60 81 47
58 80 46
60 82 47
58 80 46
65 88 52
64 86 54
81 100 77
108 124 120
120 135 131
132 146 147
133 148 149
137 152 155
112 127 127
74 94 71
54 75 43
58 80 46
60 82 49
67 91 54
65 88 52
76 97 70
78 97 74
99 118 107
122 140 138
105 121 116
111 129 126
125 140 140
87 106 91
65 89 53
65 88 52
61 83 48
67 92 54
62 85 50
67 91 53
70 95 57
62 85 49
61 83 49
56 78 44
64 88 52
107 124 114
134 151 153
153 168 174
132 149 150
143 159 163
139 155 162
149 163 172
140 157 159
118 137 131
115 132 126
95 117 98
97 115 102
137 153 158
153 169 175
148 162 168
144 160 165
144 160 167
149 165 170
150 167 171
145 161 167
147 164 170
109 129 118
112 131 120
118 138 128
142 160 164
152 168 173
149 165 173
155 171 175
156 173 180
109 127 116
100 121 105
137 154 156
135 153 153
137 155 155
92 116 89
104 125 110
106 127 110
121 139 128
187 201 207
221 233 247
228 239 255
228 239 255
228 239 255
228 239 255
228 239 255
228 239 255
228 239 255
228 239 255
228 239 255
228 239 255
228 239 255
228 239 255
228 239 255
228 239 255
228 239 255
228 239 255
228 239 255
228 239 255
228 239 255
228 239 255
228 239 255
228 239 255
228 239 255
228 239 255
228 239 255
228 239 255
228 239 255
228 239 255
228 239 255
228 239 255
228 239 255
228 239 255
228 239 255
228 239 255
228 239 255
228 239 255
228 239 255
228 239 255
228 239 255
228 239 255
228 239 255
228 239 255
228 239 255
228 239 255
228 239 255
228 239 255
228 239 255
228 239 255
228 239 255
228 239 255
228 239 255
228 239 255
228 239 255
228 239 255
216 229 244
170 185 190
114 134 119
116 136 120
116 134 123
73 100 60
82 107 73
97 119 101
72 96 60
72 98 58
73 99 59
98 120 98
122 139 136
146 163 167
150 167 173
157 173 183
145 160 164
141 159 164
150 167 175
116 133 127
147 164 169
153 168 173
156 172 179
148 165 172
138 153 158
136 151 156
152 167 175
130 147 146
124 140 137
95 115 96
69 94 56
70 95 56
69 94 56
65 89 52
73 99 60
83 104 79
146 162 166
139 154 159
148 164 171
131 146 147
119 137 132
94 114 99
65 90 53
66 90 53
61 84 49
68 92 54
66 89 52
64 88 51
66 90 53
67 91 54
63 86 51
58 80 46
61 84 49
121 137 135
135 151 152
117 133 128
103 121 109
74 95 71
63 87 50
69 93 56
64 87 52
67 91 54
63 87 50
64 87 52
62 86 50
62 85 50
67 90 53
61 83 48
64 87 52
64 88 52
58 80 46
108 124 118
122 136 137
131 148 149
122 137 135
94 111 100
98 118 103
115 132 130
133 147 150
133 148 149
131 147 150
114 129 127
128 143 143
118 132 133
135 149 155
126 140 140
135 151 155
131 146 150
122 136 137
113 128 124
54 75 42
57 79 45
62 84 50
57 78 46
54 75 43
52 73 41
56 76 44
61 83 49
57 79 45
61 83 49
91 111 91
81 98 80
108 123 118
117 133 130
126 141 141
131 146 147
129 143 148
138 153 158
121 135 135
60 81 48
57 78 44
60 82 48
52 72 40
59 81 47
55 76 43
56 76 44
58 79 46
59 80 47
57 78 44
52 72 41
56 77 44
57 78 45
56 77 45
53 73 42
63 85 50
54 74 43
56 76 44
79 98 79
122 136 136
132 145 149
128 142 145
115 129 129
126 140 142
105 119 113
126 140 144
116 131 127
115 128 127
107 121 118
102 118 112
100 115 110
94 109 100
68 87 62
58 78 48
57 78 45
62 85 50
63 85 50
100 117 109
110 125 125
108 124 119
125 141 142
117 132 131
115 128 130
117 131 134
124 138 141
116 129 126
126 140 144
111 125 124
112 126 124
109 124 121
128 142 144
113 127 123
119 133 132
113 127 127
124 139 141
126 139 143
73 91 71
58 78 45
57 77 45
57 78 45
56 77 44
58 78 46
57 78 46
54 75 43
52 72 42
57 79 46
55 76 44
55 75 44
53 74 42
59 81 46
53 74 42
60 81 47
53 72 41
55 76 45
94 109 102
98 112 107
120 134 136
125 139 140
118 132 133
122 137 136
109 124 122
117 131 134
121 136 137
115 129 131
135 149 154
119 134 134
124 138 141
120 134 133
113 126 124
128 142 144
119 134 135
123 138 139
88 105 92
51 72 40
50 70 41
54 75 43
50 69 39
65 88 53
56 78 45
48 68 36
50 69 39
56 77 44
58 79 46
53 74 42
54 75 43
58 80 45
56 77 43
56 77 44
52 71 41
64 84 57
115 130 127
122 136 138
122 137 138
135 150 156
104 118 114
121 136 137
120 135 135
123 138 140
137 151 154
113 129 124
114 129 125
115 130 128
117 132 133
107 121 119
117 130 130
125 139 141
109 124 121
56 78 45
56 77 45
56 78 45
61 84 49
55 76 43
56 77 44
59 81 47
58 80 47
54 75 43
62 85 49
62 85 50
63 85 50
59 81 46
64 86 51
64 87 51
72 93 67
127 143 144
115 129 128
107 121 116
127 141 142
113 129 124
122 137 139
138 153 157
123 139 140
117 132 132
127 141 144
126 141 142
129 143 146
132 147 148
114 128 128
121 136 134
97 114 104
65 89 52
63 86 50
73 91 69
96 113 102
110 125 121
124 139 139
121 136 138
130 144 146
129 144 147
118 134 133
135 151 156
128 143 149
129 145 145
123 140 138
72 94 65
64 87 51
67 92 55
63 85 50
62 85 50
64 87 52
64 87 51
63 86 51
69 94 56
64 88 52
63 86 51
63 86 50
90 110 89
92 111 95
111 129 119
101 121 110
84 105 82
68 91 57
62 85 49
66 90 54
70 96 57
62 85 49
62 85 49
71 96 56
70 95 56
90 110 94
138 151 153
137 152 155
149 164 172
136 152 154
139 155 159
144 159 162
137 153 158
146 161 165
141 158 160
145 161 168
134 150 151
120 137 133
128 145 141
140 155 158
148 164 168
145 161 166
153 168 175
151 168 176
145 160 170
153 169 179
130 147 147
80 103 71
74 100 60
88 110 87
115 133 128
141 158 162
155 173 181
152 169 176
135 151 151
88 110 84
71 97 58
110 129 115
101 123 105
84 108 81
100 123 100
134 152 153
135 153 153
111 133 116
147 163 157
212 224 236
228 239 255
228 239 255
228 239 255
228 239 255
228 239 255
228 239 255
228 239 255
228 239 255
228 239 255
228 239 255
228 239 255
228 239 255
228 239 255
228 239 255
228 239 255
228 239 255
228 239 255
228 239 255
228 239 255
228 239 255
228 239 255
228 239 255
228 239 255
228 239 255
228 239 255
228 239 255
228 239 255
228 239 255
228 239 255
228 239 255
228 239 255
228 239 255
228 239 255
228 239 255
228 239 255
228 239 255
228 239 255
228 239 255
228 239 255
228 239 255
228 239 255
228 239 255
228 239 255
228 239 255
228 239 255
228 239 255
228 239 255
228 239 255
228 239 255
227 238 254
196 208 220
141 157 154
95 119 97
132 151 149
155 173 178
160 177 185
128 146 142
131 149 146
82 105 78
72 98 59
79 104 71
108 128 113
130 147 144
156 172 181
155 172 179
148 165 171
151 167 175
151 167 173
124 141 140
87 109 86
67 92 55
136 152 156
159 174 182
147 164 172
154 169 172
141 157 162
127 143 143
132 149 147
103 124 108
74 97 65
68 92 55
73 99 60
70 95 57
70 95 56
64 88 52
67 91 54
65 90 52
83 104 84
141 155 158
109 127 119
84 104 83
59 82 46
66 89 52
64 88 52
66 89 52
65 88 51
66 90 53
69 94 56
70 95 57
59 82 47
69 93 56
62 86 50
64 87 52
74 96 67
89 106 90
96 115 100
63 86 50
65 88 51
64 88 52
67 90 53
59 82 47
64 87 50
67 90 54
66 90 54
63 85 51
64 87 51
61 84 48
68 92 55
69 93 55
68 92 55
57 79 45
67 91 54
75 98 70
104 120 115
105 122 111
75 97 66
68 92 55
60 83 48
62 85 50
55 75 43
65 85 56
83 103 84
117 134 128
106 122 120
122 139 140
118 132 133
139 155 159
136 150 153
132 146 152
118 132 131
123 138 137
124 141 141
77 95 75
61 83 48
66 88 52
56 76 43
60 82 48
66 88 56
75 93 75
98 114 104
123 139 138
108 124 117
123 139 136
125 140 141
115 132 129
140 154 159
141 155 159
119 135 133
125 140 139
130 144 146
134 148 151
67 88 58
55 77 44
62 85 50
59 80 46
52 72 40
59 80 46
58 79 46
60 82 48
57 79 45
59 81 48
58 79 46
57 78 46
62 85 49
60 83 47
60 82 48
55 75 44
55 75 43
59 80 46
59 80 47
122 136 138
100 116 112
123 137 137
120 135 133
118 133 131
102 118 112
80 97 81
75 94 73
60 82 48
61 84 48
61 84 49
56 78 44
57 77 45
56 77 44
59 80 48
55 75 44
56 76 44
60 83 49
65 83 62
116 131 127
120 134 135
120 135 134
110 126 125
122 137 137
112 127 124
125 139 139
120 136 136
127 141 145
127 141 143
130 145 145
117 130 129
111 124 124
109 125 120
120 135 132
114 128 128
116 130 130
124 139 144
83 100 89
59 81 47
57 79 45
62 84 48
58 79 46
52 72 41
56 77 44
60 82 47
62 84 49
55 75 43
53 73 42
58 80 46
54 75 43
61 83 49
53 74 41
55 76 44
56 78 44
60 82 48
63 83 57
117 133 130
122 136 138
111 126 124
121 135 135
110 125 121
109 122 121
125 139 142
113 128 125
119 134 136
120 135 135
129 144 148
126 141 143
120 134 134
113 128 127
139 153 159
106 121 118
108 124 118
112 128 126
70 89 68
75 92 78
91 107 97
93 108 101
91 106 97
85 102 88
93 111 100
107 122 118
96 112 104
105 122 115
105 121 111
98 114 106
96 113 103
107 123 119
110 125 122
110 126 121
107 122 118
113 129 123
65 83 62
85 102 88
74 90 74
70 90 65
69 88 65
84 103 87
75 92 74
76 94 76
77 96 77
71 88 70
83 99 88
82 98 84
78 97 77
78 96 77
71 91 67
88 106 92
85 101 88
107 123 118
109 123 122
103 118 115
98 113 104
107 124 115
98 116 103
91 108 98
87 104 91
97 114 105
92 109 96
81 100 83
78 98 78
77 97 75
77 95 77
71 91 66
74 91 76
114 130 126
126 140 144
128 143 146
118 132 131
124 138 139
119 133 132
131 146 149
132 146 147
128 142 145
143 157 160
134 149 150
128 143 144
125 141 140
118 133 132
98 115 105
101 117 109
131 145 151
145 160 168
135 150 155
140 155 160
138 153 157
134 149 150
131 146 148
126 143 145
147 162 165
129 144 147
130 146 148
120 136 134
136 152 156
120 137 132
69 90 63
67 91 55
59 81 47
66 90 53
65 89 53
66 89 53
62 85 50
70 95 58
65 88 51
62 84 49
61 84 49
63 86 51
66 90 53
117 134 129
142 158 163
147 163 168
144 160 164
139 154 156
112 130 126
119 136 131
96 114 103
70 91 63
71 95 58
70 95 56
65 89 53
86 105 85
138 153 155
136 152 155
154 169 178
141 158 161
139 154 161
152 168 173
143 159 161
162 177 187
134 150 152
144 159 162
140 156 159
81 102 79
70 95 57
91 112 92
116 136 131
131 149 149
157 173 182
155 171 178
147 162 167
155 170 179
146 162 167
94 114 95
74 101 61
68 93 55
72 97 58
82 107 76
106 126 111
127 146 142
143 161 164
121 139 133
71 96 58
74 100 60
85 108 81
138 156 155
107 128 114
132 150 149
153 169 175
151 167 174
115 135 125
142 159 153
201 214 224
226 238 253
228 239 255
228 239 255
228 239 255
228 239 255
228 239 255
228 239 255
228 239 255
228 239 255
228 239 255
228 239 255
228 239 255
228 239 255
228 239 255
228 239 255
228 239 255
228 239 255
228 239 255
228 239 255
228 239 255
228 239 255
228 239 255
228 239 255
228 239 255
228 239 255
228 239 255
228 239 255
228 239 255
228 239 255
228 239 255
228 239 255
228 239 255
228 239 255
228 239 255
228 239 255
228 239 255
228 239 255
228 239 255
228 239 255
228 239 255
228 239 255
228 239 255
228 239 255
228 239 255
228 239 255
224 236 252
192 205 215
118 137 130
114 135 123
139 158 157
161 177 185
157 174 181
121 139 135
99 120 103
156 172 178
94 118 95
89 113 84
124 144 140
150 167 174
159 175 182
160 176 184
156 174 179
148 165 169
134 152 153
111 131 121
78 101 73
65 89 52
75 101 61
73 98 60
145 162 167
160 174 184
150 167 172
127 144 142
105 126 111
74 99 63
70 94 56
65 89 52
72 98 59
65 89 53
63 86 51
71 96 56
69 94 57
68 93 55
77 99 73
108 126 119
118 137 131
69 94 56
62 86 50
67 90 54
68 93 55
71 96 57
63 87 51
65 88 52
69 94 56
69 93 57
61 84 48
63 85 49
70 94 57
79 100 77
110 129 119
121 138 134
136 151 154
134 150 153
120 136 137
65 89 52
72 97 59
66 90 53
70 95 57
67 92 55
65 89 52
61 84 48
68 92 55
63 86 51
60 83 47
67 91 55
65 88 53
67 90 57
95 112 95
107 124 118
131 146 148
135 149 151
125 141 138
62 85 50
62 84 49
58 81 47
65 88 51
65 88 53
60 82 47
63 86 51
55 75 43
62 85 49
60 81 48
62 85 50
67 87 63
92 108 97
98 117 104
118 134 129
124 141 138
131 145 149
131 146 146
109 126 118
68 88 64
105 120 113
108 124 118
122 138 137
131 146 148
132 146 149
131 146 149
129 144 145
146 161 167
128 142 143
134 149 153
128 143 147
115 130 130
123 138 142
121 135 135
127 141 143
146 160 166
131 146 149
75 93 78
60 82 48
59 80 46
51 71 40
62 84 49
62 85 50
53 73 41
59 81 47
67 91 54
62 84 50
58 79 45
60 83 49
56 77 44
56 77 44
63 86 50
58 79 46
70 89 68
87 105 89
90 106 92
92 107 101
71 90 67
66 88 54
56 77 44
52 73 40
54 75 42
53 74 42
60 82 48
55 75 43
58 80 47
58 80 47
61 83 49
61 83 49
59 81 48
60 83 48
53 72 41
59 82 47
59 80 46
57 79 45
122 137 137
122 138 138
130 144 147
137 151 157
124 139 140
112 126 125
117 132 131
116 130 127
109 124 119
113 127 126
117 130 129
128 143 145
115 128 128
122 137 135
133 147 150
119 133 135
136 150 155
131 145 149
120 134 134
68 88 59
59 80 46
57 79 46
62 85 50
57 78 46
63 85 50
59 81 47
62 84 49
55 76 44
54 74 42
54 74 42
54 75 43
59 80 48
60 82 48
59 79 46
54 75 43
54 75 43
55 75 43
98 112 107
103 117 113
93 109 100
102 116 115
102 118 111
104 120 116
92 109 97
91 108 99
79 97 81
72 89 70
72 90 74
74 95 69
62 82 56
58 79 46
65 87 52
58 79 46
58 79 46
61 83 49
70 90 63
113 129 129
124 139 140
122 136 139
123 139 140
127 141 144
131 145 150
128 142 144
127 142 142
125 139 140
117 131 131
119 132 133
138 152 156
116 131 132
128 143 144
127 142 144
115 129 129
123 138 140
80 97 81
56 78 45
63 85 50
54 75 42
61 83 48
65 88 52
61 84 50
54 75 42
56 77 44
57 79 46
59 81 47
62 84 50
61 83 49
61 83 48
60 82 48
63 85 50
59 81 46
110 125 118
124 140 140
131 146 148
121 136 135
126 141 144
129 143 143
116 131 132
135 149 154
126 142 143
128 141 144
122 136 138
125 140 143
134 150 153
132 148 151
125 140 140
134 148 151
107 122 119
62 84 52
67 87 62
86 105 85
82 101 79
85 104 84
113 130 124
103 119 111
127 143 140
125 141 138
97 112 105
80 98 81
79 99 78
68 88 61
68 91 60
68 89 59
119 136 133
128 142 144
121 135 137
130 144 144
127 142 144
132 147 149
141 157 161
143 159 165
135 151 151
136 152 158
135 150 153
126 142 141
137 152 157
141 155 161
131 146 147
68 92 58
65 89 52
67 91 53
64 88 51
59 81 45
72 96 57
65 89 52
61 83 49
66 90 54
72 97 58
66 90 52
68 92 54
61 85 49
112 129 123
144 158 163
140 155 160
139 154 159
158 173 182
145 161 169
151 167 174
136 153 153
144 160 163
127 142 141
105 121 115
100 119 105
94 115 97
137 154 156
146 161 167
146 161 166
143 158 160
144 160 165
141 157 160
136 153 154
150 168 175
139 154 157
141 157 162
148 165 169
99 119 102
73 99 60
72 98 58
71 96 58
76 102 64
95 116 94
118 137 130
146 163 167
138 154 157
147 163 168
120 137 130
76 103 63
69 94 56
69 94 56
69 94 56
75 102 62
73 96 63
109 129 118
101 123 106
76 100 67
75 101 61
94 117 92
156 173 179
154 171 179
155 172 176
161 179 189
167 182 192
162 178 188
129 149 146
143 159 164
190 204 214
220 232 246
228 239 255
228 239 255
228 239 255
228 239 255
228 239 255
228 239 255
228 239 255
228 239 255
228 239 255
228 239 255
228 239 255
228 239 255
228 239 255
228 239 255
228 239 255
228 239 255
228 239 255
228 239 255
228 239 255
228 239 255
228 239 255
228 239 255
228 239 255
228 239 255
228 239 255
228 239 255
228 239 255
228 239 255
228 239 255
228 239 255
228 239 255
228 239 255
228 239 255
228 239 255
228 239 255
228 239 255
228 240 255
228 240 255
228 240 255
228 240 255
215 227 242
180 195 200
112 133 119
116 137 124
152 169 175
157 173 184
140 157 158
116 137 127
76 104 63
76 103 63
98 120 102
147 163 168
135 152 151
152 168 176
148 165 171
156 171 179
149 166 171
152 170 175
119 136 131
85 108 81
73 99 60
69 94 56
73 99 59
74 100 61
71 96 58
72 98 59
139 157 158
119 136 130
76 97 72
71 96 57
70 96 57
71 95 56
72 97 58
66 91 54
70 95 57
65 90 53
64 88 51
81 105 78
112 130 123
139 155 157
144 160 164
136 152 153
147 164 170
73 99 60
72 97 58
71 97 58
66 89 53
72 98 58
65 88 52
65 89 53
66 88 51
65 89 51
95 115 100
112 130 122
133 150 153
143 158 163
152 168 175
134 150 152
136 151 154
147 162 169
120 135 134
68 93 56
64 87 51
66 90 53
57 79 45
66 90 54
68 93 55
67 91 54
60 82 48
63 87 49
74 96 65
97 116 99
117 132 131
132 148 149
133 148 152
146 161 167
141 155 157
132 147 151
133 148 153
70 91 62
62 85 50
63 86 51
60 82 47
63 86 51
62 85 49
58 80 47
65 89 51
61 84 49
62 85 49
56 76 43
60 83 49
60 82 47
66 89 52
61 84 49
79 99 77
95 111 103
119 135 133
119 134 130
100 117 107
109 124 119
126 142 144
137 152 154
145 159 166
131 146 147
139 154 159
120 134 134
132 147 151
135 149 153
130 145 146
128 143 144
124 139 140
133 149 152
128 142 143
129 142 146
131 146 147
129 142 147
128 144 144
62 85 51
61 82 49
60 83 49
62 85 50
59 81 47
65 87 52
62 84 50
58 79 45
61 83 49
58 79 46
85 104 87
103 120 113
109 125 118
117 132 130
136 151 155
137 153 156
137 151 154
136 150 153
124 139 137
59 80 46
60 82 48
59 81 47
55 76 45
61 82 49
63 85 50
68 92 55
58 80 46
57 79 44
65 87 52
58 80 46
54 75 43
52 72 41
57 78 44
55 76 44
59 80 46
58 80 47
54 75 42
69 88 64
108 123 120
117 132 131
110 123 124
124 138 142
131 145 148
133 146 150
135 149 155
113 128 128
107 123 117
122 136 138
122 138 138
118 131 132
120 135 135
139 152 158
129 145 147
128 142 144
120 134 136
118 132 133
94 112 101
61 83 48
58 80 47
56 77 43
54 75 42
53 74 43
57 78 45
73 92 67
82 101 82
90 106 95
87 104 89
93 109 100
100 114 108
112 128 126
120 136 135
118 133 132
117 131 128
115 129 128
115 131 130
72 89 71
53 73 41
55 75 43
63 86 51
55 76 44
63 86 51
60 82 48
52 72 41
57 79 45
57 79 46
55 76 43
56 78 45
65 88 52
61 83 49
59 81 47
50 69 40
59 80 47
60 82 48
98 114 105
117 133 133
117 134 129
135 148 154
124 138 143
131 146 149
119 133 132
111 126 122
133 148 151
120 136 134
116 130 131
122 137 140
124 138 141
133 148 153
130 145 150
121 135 135
127 142 143
136 150 155
61 81 55
57 78 45
58 80 46
58 79 45
55 76 42
56 76 44
67 90 54
60 82 48
58 79 47
55 76 43
59 80 46
58 79 46
55 76 42
58 80 46
62 84 49
59 81 47
62 84 50
129 144 148
125 141 142
112 127 126
132 147 150
129 143 146
115 128 128
132 147 149
140 155 157
122 138 137
135 149 153
126 141 142
116 129 130
134 150 152
132 148 149
131 145 148
124 138 138
85 104 85
88 107 93
98 113 108
101 119 107
123 138 140
125 140 143
127 142 143
130 144 147
134 149 152
135 150 152
132 147 148
132 147 150
128 144 143
131 146 148
134 149 153
126 140 141
96 115 102
109 127 119
95 112 99
109 127 120
115 132 123
104 121 114
143 158 163
130 147 148
148 164 173
136 152 158
138 154 158
132 146 148
127 143 141
143 159 164
117 134 132
66 88 55
62 85 50
69 93 56
61 83 48
65 88 51
60 82 47
64 87 51
65 88 52
68 93 55
63 86 50
64 88 51
67 92 54
60 83 48
119 136 131
141 157 163
143 158 163
145 160 165
139 154 157
141 156 159
134 152 153
139 153 158
139 155 160
133 148 149
149 164 171
136 152 153
136 153 157
107 126 116
123 140 138
121 139 135
148 165 171
147 163 168
145 161 166
157 173 180
134 151 154
127 144 145
147 163 170
146 163 169
119 137 128
76 101 64
70 94 56
65 90 53
67 91 53
72 98 59
63 88 52
76 100 68
99 120 104
121 139 138
114 132 121
69 93 58
72 98 58
70 95 56
67 93 55
71 97 58
75 102 62
69 95 57
76 101 67
119 138 133
117 136 128
131 147 147
159 175 183
157 174 182
159 176 187
155 172 178
134 153 151
136 153 152
166 183 193
146 163 169
153 171 179
189 203 214
216 228 243
228 240 255
228 240 255
228 240 255
228 239 255
228 239 255
228 239 255
228 239 255
228 239 255
228 239 255
228 239 255
228 239 255
228 239 255
228 239 255
228 239 255
228 239 255
228 239 255
228 239 255
228 239 255
228 239 255
228 240 255
228 240 255
228 240 255
228 240 255
228 240 255
228 240 255
228 240 255
228 240 255
228 240 255
228 240 255
228 240 255
228 240 255
228 240 255
228 240 255
228 240 255
228 240 255
226 238 254
207 219 232
162 177 181
103 125 108
135 154 155
156 174 183
155 172 179
126 146 139
89 111 87
76 102 62
71 96 56
99 120 99
122 141 133
121 140 136
155 171 179
158 175 184
151 168 178
149 164 169
137 154 153
108 127 117
73 98 61
74 100 60
62 86 49
66 91 53
72 98 59
69 94 56
84 108 82
111 130 122
133 150 150
83 106 78
72 97 58
72 97 59
69 94 57
70 96 57
69 94 56
70 96 56
71 96 57
74 97 64
104 123 112
124 141 140
138 154 156
152 167 175
149 166 175
142 158 166
152 168 176
150 164 170
79 103 70
69 95 57
63 86 50
69 94 56
66 89 53
71 95 61
87 107 89
120 137 137
145 162 167
129 144 146
151 166 175
129 146 143
139 155 161
146 162 168
138 154 159
139 156 159
130 146 147
129 146 146
61 85 49
62 86 50
62 85 49
66 90 54
57 79 46
73 96 64
91 109 95
100 117 104
132 146 148
132 147 150
137 152 155
130 146 151
133 149 151
153 167 175
131 147 148
140 154 157
128 143 145
137 153 158
102 120 106
65 88 52
67 91 55
64 88 52
64 87 52
63 86 51
57 79 46
66 90 53
58 79 47
62 84 48
60 82 48
76 96 71
104 121 114
99 117 106
131 146 147
133 146 151
134 149 152
123 138 139
126 140 143
64 83 58
65 88 53
57 78 45
70 91 64
81 98 81
91 108 93
108 125 116
103 120 112
108 123 121
130 145 146
139 154 159
131 146 151
123 138 138
139 153 160
115 131 133
131 146 149
122 137 135
136 150 154
127 141 139
83 103 80
60 82 47
64 87 52
60 83 48
67 87 57
89 105 93
93 110 101
105 121 113
118 134 132
112 127 124
131 146 149
130 145 146
122 137 137
130 144 147
146 159 167
129 146 144
146 160 167
115 130 126
126 140 143
70 89 65
64 86 50
59 81 47
61 83 48
60 81 48
67 90 54
56 77 45
55 76 44
63 86 50
60 82 48
57 79 44
58 80 45
58 79 46
60 83 49
64 87 51
61 83 48
62 84 49
62 84 49
61 82 48
120 134 135
123 138 140
124 138 138
126 140 141
125 140 143
132 146 151
117 130 129
124 140 140
116 133 130
131 146 150
136 152 154
130 144 148
122 136 137
123 139 140
143 158 162
136 150 152
122 136 136
115 130 127
91 107 98
100 115 109
114 130 126
95 111 102
124 139 142
123 138 139
113 129 124
128 143 143
129 145 146
130 144 146
115 130 130
128 143 146
127 143 144
136 152 157
117 132 132
130 145 147
121 135 134
123 137 141
132 146 148
113 127 126
65 88 52
54 76 42
54 74 42
58 79 46
58 80 46
53 74 42
60 81 48
56 78 45
59 81 48
64 86 50
66 90 53
55 76 43
59 81 47
55 76 43
65 88 52
58 79 46
58 80 46
55 76 43
131 145 147
129 144 146
124 139 141
127 142 143
124 139 141
134 149 154
115 129 127
132 147 149
121 136 136
143 158 163
125 140 142
121 136 135
120 136 133
121 136 137
117 132 132
127 142 144
129 144 148
109 126 119
54 75 42
58 80 46
60 81 48
60 82 47
60 82 49
58 79 46
63 86 51
57 78 45
64 87 51
53 73 42
55 75 44
58 80 47
60 82 48
62 84 49
60 82 48
63 85 50
92 110 96
112 127 124
145 160 168
126 141 142
128 142 145
139 153 158
136 150 154
136 150 153
115 130 127
125 141 137
111 126 123
111 127 122
102 118 108
78 98 78
79 100 74
58 81 46
64 88 52
110 127 123
127 141 143
139 154 159
135 151 154
126 141 141
136 152 156
130 145 147
130 145 147
136 150 154
132 148 151
133 148 150
142 157 162
130 146 148
132 148 152
118 135 131
121 135 138
70 92 62
65 88 52
68 92 54
63 87 51
62 86 51
61 84 49
59 81 47
74 97 67
78 99 77
84 104 88
100 118 107
105 123 113
123 140 135
126 143 144
107 124 120
63 86 51
68 93 55
66 90 53
56 78 44
67 92 54
65 88 52
67 91 53
67 91 54
64 87 52
65 89 52
70 95 57
68 92 55
61 83 49
109 126 117
136 152 157
136 151 153
136 151 153
136 151 154
143 159 161
150 166 171
147 163 170
144 158 164
135 151 155
144 161 164
139 156 159
140 156 159
88 109 90
64 87 52
70 95 57
73 97 65
99 118 102
122 140 137
129 145 145
145 160 164
140 156 159
146 162 167
151 166 172
126 142 141
77 101 67
69 94 55
69 95 57
72 98 60
68 93 55
69 95 56
71 97 57
73 98 58
68 94 56
92 116 90
106 124 113
100 122 104
80 106 71
72 98 59
71 96 58
72 97 58
73 100 61
75 101 62
116 136 127
153 170 176
112 131 124
131 149 146
157 173 180
156 173 184
158 175 185
127 147 142
103 122 107
120 142 131
161 178 187
157 175 182
158 175 185
169 184 190
212 225 240
228 239 255
228 240 255
228 240 255
228 240 255
228 240 255
228 240 255
228 240 255
228 240 255
228 240 255
228 240 255
228 240 255
228 240 255
228 240 255
228 240 255
228 240 255
228 240 255
228 240 255
228 240 255
228 240 255
228 240 255
228 240 255
228 240 255
228 240 255
228 240 255
228 240 255
228 240 255
228 240 255
228 240 255
228 240 255
228 240 255
228 240 255
224 236 251
195 209 219
119 139 123
117 138 123
140 159 159
158 176 188
154 171 178
122 141 134
75 101 64
76 103 64
77 104 64
98 120 99
131 149 145
158 175 182
152 169 178
150 167 173
148 164 171
150 165 167
120 139 131
87 112 81
66 91 53
72 98 59
74 100 60
72 97 58
71 97 58
76 100 67
98 120 100
137 155 157
148 163 171
156 172 181
150 166 171
83 107 79
71 97 59
72 97 59
73 99 60
66 91 55
71 97 58
89 112 87
117 134 129
144 160 167
147 163 167
139 155 157
144 161 165
141 157 163
149 164 168
145 160 166
140 155 156
142 157 162
87 110 84
65 89 52
67 91 57
94 113 93
113 129 122
144 160 163
137 153 156
137 152 154
145 161 168
144 159 164
147 162 168
139 155 160
126 142 143
139 154 158
142 158 161
144 158 165
143 160 167
148 164 171
64 86 54
67 92 55
65 87 55
110 127 120
118 136 131
147 162 167
143 158 162
150 165 171
151 167 173
136 152 155
138 154 157
135 151 155
139 155 158
135 150 154
151 166 174
134 148 153
142 157 162
130 145 149
97 115 105
67 91 54
62 86 50
65 89 54
63 86 51
66 90 54
63 86 51
80 102 78
103 121 108
117 132 126
143 157 162
129 145 145
130 145 146
133 149 151
139 154 158
136 151 156
132 147 147
136 153 154
139 154 160
98 114 104
62 85 50
62 85 49
61 83 49
61 83 48
60 82 47
63 86 50
64 87 51
60 83 48
66 90 53
61 83 48
65 85 59
78 96 79
95 113 101
107 123 115
105 122 119
116 132 130
122 137 137
134 149 155
94 110 102
101 118 109
103 119 112
125 141 139
137 152 154
121 136 135
133 147 148
130 144 146
116 131 131
135 150 151
130 144 146
127 144 144
120 135 134
113 127 126
130 145 147
129 144 143
140 155 161
118 134 133
126 141 142
110 125 119
65 88 52
55 76 44
62 85 49
56 78 45
58 79 45
54 74 42
57 78 45
58 79 47
56 77 44
61 82 49
62 85 50
62 85 50
63 86 50
58 80 46
61 84 49
62 84 49
58 80 46
57 79 45
71 89 69
122 138 141
128 143 144
124 138 138
130 146 149
127 140 140
125 139 142
130 143 147
127 141 144
110 126 121
105 122 115
88 106 92
92 111 96
71 89 67
60 80 54
59 80 46
64 87 52
57 78 45
59 81 47
89 107 94
129 142 146
102 117 114
119 133 132
131 145 148
131 146 149
135 148 152
118 133 132
125 140 140
130 145 147
130 146 147
125 139 141
133 147 150
126 139 142
121 136 134
133 147 151
135 150 156
129 144 145
129 144 148
95 112 99
52 72 41
57 79 46
63 86 50
58 80 46
62 84 49
57 78 45
58 80 45
60 82 48
62 84 49
61 83 48
58 79 46
55 76 43
60 82 48
57 79 46
60 82 49
60 83 47
57 79 45
95 112 101
130 145 147
123 138 138
124 139 141
136 152 157
141 155 158
124 137 140
131 146 147
122 139 137
145 159 167
126 142 143
126 141 142
122 136 138
128 142 147
121 136 137
127 142 141
124 139 140
133 147 152
88 106 91
65 88 51
62 84 49
58 79 47
67 90 54
61 83 48
60 82 47
61 84 50
65 88 52
65 89 52
63 87 51
57 78 45
61 83 49
63 85 50
61 83 49
61 83 49
63 84 56
107 122 118
109 124 121
112 129 127
112 128 126
89 105 95
89 106 92
78 98 76
69 92 59
55 76 43
62 85 49
56 78 44
65 88 53
65 90 53
64 87 51
60 82 46
60 82 47
79 101 76
133 148 151
117 133 132
128 143 142
138 152 158
130 147 148
124 139 137
132 148 150
138 153 157
146 162 168
133 148 151
130 145 148
148 163 169
134 150 152
139 155 155
125 141 140
122 139 139
68 93 55
59 81 47
64 87 50
68 91 54
64 87 51
69 93 56
68 91 54
66 90 53
63 86 50
59 81 47
65 89 53
61 83 48
68 92 55
67 91 54
104 121 112
142 158 161
129 145 144
123 141 138
100 119 108
99 118 104
70 91 65
69 93 59
66 89 52
68 92 54
70 95 57
66 89 52
64 88 52
69 93 56
124 141 139
138 153 155
144 160 163
147 161 168
143 157 164
130 148 148
140 156 164
157 174 183
138 153 157
149 164 169
137 151 157
144 160 165
154 169 175
89 109 93
67 91 54
69 94 58
67 92 55
74 99 60
69 94 55
71 95 59
93 112 94
106 127 114
130 147 143
141 157 159
132 150 150
83 107 75
63 87 51
67 92 55
70 95 57
68 93 55
69 94 57
69 93 56
67 91 54
69 94 56
81 105 74
142 159 164
148 165 172
136 152 154
122 140 131
84 107 78
72 99 59
76 104 63
74 101 60
88 110 87
96 119 96
72 99 59
77 103 63
105 128 108
130 149 147
143 160 164
147 164 168
97 119 98
80 108 66
124 144 135
140 158 159
147 165 173
131 149 145
143 160 158
202 215 228
226 237 253
228 240 255
228 240 255
228 240 255
228 240 255
228 240 255
228 240 255
228 240 255
228 240 255
228 240 255
228 240 255
228 240 255
228 240 255
228 240 255
228 240 255
228 240 255
228 240 255
228 240 255
228 240 255
228 240 255
228 240 255
228 240 255
228 240 255
228 240 255
228 240 255
228 240 255
228 240 255
224 236 251
187 201 209
163 180 186
144 162 164
158 175 185
161 178 189
138 156 159
107 129 114
77 105 64
72 98 59
74 100 64
114 134 125
149 165 169
163 179 189
161 179 189
162 179 190
153 170 176
132 150 148
116 136 125
73 100 63
76 103 62
74 100 61
72 98 58
73 99 61
70 96 58
80 103 74
118 136 130
157 173 182
145 162 168
152 168 175
153 169 177
156 173 180
141 157 160
79 103 70
67 92 53
68 92 54
93 114 92
129 147 143
138 155 154
155 172 182
151 167 174
154 170 179
140 156 161
140 156 161
147 163 168
161 177 186
144 160 165
151 168 176
148 164 172
143 159 165
99 119 106
116 133 130
144 159 165
155 171 179
142 159 163
140 155 162
147 163 168
138 154 160
141 157 163
151 166 173
142 158 161
134 149 153
143 159 164
138 153 158
139 154 157
154 170 176
150 165 172
119 136 137
107 124 117
140 156 160
142 158 165
146 163 169
139 155 160
140 155 160
140 155 159
142 157 160
146 161 168
133 149 149
140 156 159
131 146 148
140 156 162
139 154 158
141 157 161
125 141 141
134 150 150
143 158 162
116 133 127
71 96 58
66 89 52
74 96 66
98 116 105
126 142 140
125 140 138
128 145 145
138 153 156
146 162 168
146 162 169
127 142 144
126 140 142
145 160 164
139 154 157
138 153 157
140 157 161
132 148 151
139 154 156
121 136 135
63 87 51
64 88 52
61 84 49
62 85 49
63 87 51
60 82 48
60 83 48
67 91 54
60 83 48
60 83 47
66 90 54
68 91 55
61 83 49
71 91 66
92 110 95
120 135 134
110 126 122
133 148 152
118 134 134
74 95 69
86 104 89
97 114 106
103 120 113
118 135 130
105 121 115
134 148 152
116 132 130
125 140 141
138 154 154
132 147 150
122 136 137
132 146 149
123 138 137
125 139 140
120 136 135
128 143 145
134 149 151
122 137 137
62 85 50
58 79 46
63 85 50
56 78 44
60 82 47
63 86 50
66 89 53
67 89 53
64 87 51
62 85 49
60 83 48
54 74 43
64 87 52
61 84 48
61 83 49
63 86 51
67 91 54
59 81 48
67 89 56
124 138 140
115 131 128
105 122 111
95 112 101
89 107 95
72 93 67
53 75 42
57 79 44
60 83 47
59 81 47
66 89 52
60 82 48
62 84 49
53 74 41
61 84 49
58 80 46
56 76 43
62 85 51
56 77 44
123 138 138
141 155 161
123 138 135
125 140 143
131 145 148
133 148 154
127 142 143
137 152 154
135 149 155
131 146 148
136 151 156
122 136 136
132 146 150
132 146 148
118 133 134
142 157 162
121 136 138
119 134 134
129 143 145
57 77 49
55 76 43
61 84 49
61 84 49
56 77 44
62 84 49
53 73 41
62 85 50
58 80 46
58 80 46
66 89 54
54 76 44
60 82 48
63 86 51
61 83 49
62 83 49
61 84 49
61 83 48
111 126 125
134 149 151
125 139 136
129 144 145
132 148 150
124 139 138
130 145 148
141 156 161
113 128 123
138 152 152
112 127 123
132 149 149
125 139 141
129 143 147
135 149 153
130 145 150
121 136 136
133 148 148
70 91 67
63 86 51
64 88 52
61 82 48
66 89 53
64 86 54
72 94 68
83 102 82
99 116 107
90 108 95
87 104 88
113 130 127
114 128 126
123 139 137
117 133 129
126 141 141
133 148 151
88 105 94
60 82 48
62 84 50
60 82 47
58 80 46
56 77 44
63 86 50
62 84 49
65 89 52
64 87 52
55 76 44
57 79 44
52 73 41
61 84 48
61 84 49
65 89 53
106 124 113
127 143 140
146 160 165
143 159 166
141 156 164
136 152 156
144 159 162
137 154 154
124 140 139
127 143 142
119 134 134
144 160 166
140 155 161
134 149 153
147 163 170
145 160 168
113 130 124
67 91 55
64 87 51
60 83 47
68 92 55
66 90 53
67 92 55
66 90 53
65 88 52
66 90 53
67 91 54
64 89 53
59 81 46
64 89 52
57 79 45
109 126 116
143 158 164
137 152 154
135 150 152
140 156 158
128 144 145
146 161 167
124 141 139
123 138 137
117 134 130
99 118 103
102 121 108
84 104 81
65 89 52
127 143 144
129 146 146
150 166 173
133 150 151
144 160 166
146 161 168
135 150 154
152 168 176
151 166 174
154 169 179
145 161 169
147 163 167
147 163 169
91 111 93
67 92 54
65 88 51
71 96 58
64 88 52
69 94 56
68 94 56
67 92 55
70 95 57
68 93 55
98 120 98
90 111 90
98 120 101
91 111 96
74 100 61
72 97 58
69 95 56
72 97 58
72 98 59
67 92 54
66 91 53
73 98 58
134 150 146
158 175 186
164 178 186
168 185 197
133 152 149
127 146 141
100 122 101
79 104 72
104 125 110
107 128 112
74 101 61
70 96 58
76 103 63
74 101 61
107 128 114
129 148 147
127 146 143
82 107 76
73 99 60
87 111 81
121 141 132
137 155 155
105 126 108
141 158 159
199 212 224
224 236 251
228 240 255
228 240 255
228 240 255
228 240 255
228 240 255
228 240 255
228 240 255
228 240 255
228 240 255
228 240 255
228 240 255
228 240 255
228 240 255
228 240 255
228 240 255
228 240 255
228 240 255
228 240 255
228 240 255
228 240 255
228 240 255
228 240 255
217 228 242
197 211 221
160 176 182
130 148 146
100 122 98
154 172 181
137 156 156
81 105 74
77 104 64
76 103 63
102 124 102
133 150 149
154 171 179
154 171 180
153 171 178
157 174 182
148 166 171
127 146 142
103 126 105
69 95 57
70 95 58
68 93 54
72 97 59
71 97 59
73 99 60
107 125 114
132 148 146
152 168 174
158 174 182
149 165 172
149 165 174
148 164 170
145 161 165
153 169 176
141 157 158
87 110 83
118 137 129
141 157 162
147 163 166
147 165 171
143 158 166
145 160 166
143 161 166
150 167 172
140 157 160
150 166 173
150 165 173
157 173 183
135 152 151
124 142 144
109 127 117
83 105 82
140 156 159
150 166 172
141 158 161
155 171 178
136 152 152
146 163 169
150 166 172
145 160 165
154 169 176
149 165 174
149 165 172
140 155 160
142 157 163
146 162 170
139 155 158
100 119 105
92 111 93
65 89 53
128 145 143
147 163 168
141 158 163
140 155 158
155 170 179
140 156 162
136 151 153
141 157 160
153 168 174
141 156 160
146 161 166
129 145 148
149 164 173
140 155 157
128 144 142
135 152 150
143 158 164
135 150 152
123 140 140
108 125 117
124 141 141
138 153 156
135 150 153
139 154 156
152 166 173
135 151 152
142 156 163
144 160 168
147 163 170
129 146 146
137 153 159
129 146 143
138 151 155
138 153 158
138 154 158
131 146 149
144 158 164
133 148 150
65 89 52
66 90 54
63 85 50
60 82 47
64 88 51
63 85 50
54 76 43
64 88 52
67 90 57
95 114 95
100 117 107
111 129 122
128 142 143
131 146 148
127 142 143
132 146 150
141 156 161
124 140 138
129 146 148
82 101 82
64 87 51
64 87 51
61 83 48
64 87 51
62 84 49
59 80 47
66 90 54
67 90 54
60 80 51
74 95 68
81 101 79
90 106 91
98 116 100
101 116 109
99 117 107
99 115 108
116 131 128
122 137 134
89 108 88
75 95 68
73 95 66
60 83 48
62 84 49
61 83 48
60 82 49
62 85 50
59 81 47
68 92 55
61 83 48
64 86 51
75 93 73
86 105 86
86 103 91
91 107 97
123 138 139
128 142 144
127 143 145
116 133 131
64 87 51
64 87 50
61 84 48
65 88 52
59 80 46
63 86 51
64 87 51
61 83 48
55 76 42
61 83 48
59 81 48
61 83 48
57 79 46
62 85 50
65 89 52
59 82 47
63 86 51
56 77 44
89 108 96
128 142 145
117 133 131
126 141 142
128 141 141
132 148 150
138 153 158
121 137 136
136 150 152
141 156 164
129 145 149
119 133 132
126 141 143
131 146 151
116 131 128
123 138 136
116 132 128
118 132 132
134 149 154
102 119 112
64 88 51
62 85 50
59 80 47
61 83 48
61 84 50
58 80 47
55 76 44
62 85 50
62 84 49
63 86 51
53 73 40
64 87 51
66 89 52
61 83 49
64 87 52
67 91 53
59 82 47
81 97 80
131 147 148
137 151 156
121 135 136
132 147 150
123 138 138
133 147 150
124 138 140
131 145 149
121 134 137
128 144 146
120 136 133
118 134 132
113 129 128
119 135 132
107 123 118
106 122 120
91 108 93
87 107 88
129 144 147
120 135 136
132 148 151
123 139 137
135 150 153
126 141 141
130 145 148
132 148 148
131 144 148
127 144 142
131 146 150
135 149 154
130 143 147
139 154 159
130 146 148
137 153 157
125 141 141
67 90 57
59 81 48
64 88 52
58 80 45
61 84 48
60 82 48
62 85 50
65 88 52
62 85 50
67 91 54
62 85 50
62 85 50
58 80 47
64 88 52
68 93 55
65 89 52
103 121 114
146 161 167
138 154 157
137 152 158
147 163 169
139 153 157
133 149 151
133 148 149
133 148 152
137 153 156
123 139 136
128 143 143
124 140 141
135 150 155
135 150 152
146 161 169
96 114 98
62 85 50
67 91 54
63 87 50
68 92 55
60 82 48
66 89 53
68 92 55
66 90 53
64 87 52
63 85 51
65 88 52
66 89 52
64 88 52
61 84 49
109 126 117
135 150 152
144 160 166
126 143 142
143 159 163
136 152 156
137 152 154
130 147 149
138 154 155
150 167 174
141 158 162
148 164 170
145 161 166
145 161 166
108 125 120
95 114 98
114 130 124
126 143 140
147 164 170
146 162 170
139 156 159
140 156 162
156 172 180
142 157 163
141 158 161
140 157 162
147 161 168
91 112 92
68 94 55
67 92 54
69 94 55
64 88 51
69 94 56
62 86 50
66 90 53
66 90 53
72 98 60
69 93 55
81 104 74
130 147 151
135 153 156
134 151 150
122 141 135
85 108 86
66 91 53
73 99 60
68 93 55
71 96 57
76 103 63
109 129 117
151 168 173
151 168 177
146 162 165
149 164 169
150 167 173
153 170 178
131 150 148
143 160 165
128 147 148
78 103 68
72 99 59
73 100 60
68 93 54
74 100 60
79 105 67
107 129 108
81 105 72
75 101 61
74 100 60
76 104 63
97 120 97
93 116 92
91 116 86
122 142 131
166 182 187
225 237 252
228 240 255
228 240 255
228 240 255
228 240 255
228 240 255
228 240 255
228 240 255
228 240 255
228 240 255
228 240 255
228 240 255
228 240 255
228 240 255
228 240 255
228 240 255
228 240 255
228 240 255
228 240 255
213 225 238
184 198 206
149 166 170
120 139 129
81 109 70
87 111 81
109 129 116
86 112 78
78 106 64
77 104 64
108 130 115
142 160 163
162 179 187
159 176 185
166 182 192
160 176 185
151 166 172
110 131 121
79 104 69
73 99 58
91 115 89
75 100 63
77 104 63
71 96 58
87 109 86
120 137 132
154 170 177
159 175 186
155 172 178
148 163 168
152 168 178
148 163 169
151 166 175
156 173 183
152 168 175
132 151 150
105 124 111
152 167 174
158 173 182
147 164 171
150 166 174
145 161 167
143 160 165
154 171 181
147 164 169
137 152 156
145 161 168
143 159 163
131 149 148
110 128 120
76 99 67
71 96 58
69 94 57
67 91 54
136 153 154
155 170 176
134 151 152
141 157 160
151 167 175
144 160 163
141 156 160
141 157 160
139 155 159
156 172 179
141 157 159
131 147 150
109 127 116
78 101 71
69 93 55
65 88 52
67 92 55
64 87 52
114 132 125
142 157 159
143 159 164
144 160 166
140 156 161
135 150 154
145 161 167
133 148 150
146 161 169
131 146 150
140 157 160
140 155 160
147 162 170
139 156 160
129 145 146
115 133 125
97 117 103
69 93 58
63 85 50
129 145 144
123 139 140
135 152 152
147 163 170
133 150 150
128 145 144
139 155 158
131 145 147
147 163 170
152 166 172
137 152 157
142 157 161
131 146 147
143 157 161
139 155 160
127 144 143
129 145 146
143 157 163
134 150 152
77 99 75
64 87 52
67 92 55
66 90 53
86 107 84
90 108 93
110 125 119
126 143 144
144 158 162
141 155 160
134 150 154
137 152 156
139 154 158
137 152 156
133 149 150
144 159 164
134 150 151
133 148 150
144 160 167
98 114 103
64 87 51
70 94 57
68 91 54
60 82 47
67 90 53
68 92 54
65 87 51
67 90 54
61 83 48
60 83 48
64 87 52
65 88 53
59 81 47
62 84 49
63 86 51
65 88 52
68 92 55
57 78 44
80 99 78
134 150 150
130 144 145
136 150 155
117 133 130
123 138 138
123 139 136
91 108 95
79 97 80
64 85 57
81 100 78
88 106 92
101 119 106
82 100 86
114 130 125
113 128 123
114 131 127
109 125 122
117 132 130
118 134 130
73 93 69
77 96 73
72 91 70
80 100 77
77 99 71
67 90 57
62 85 50
55 76 43
61 83 48
61 84 49
60 81 48
61 83 49
56 77 44
61 83 48
63 85 49
65 88 52
58 80 45
59 81 48
66 89 56
119 135 132
141 154 157
131 147 145
133 147 152
133 149 152
134 148 155
132 147 151
126 143 144
127 143 144
132 147 149
133 149 153
127 144 145
135 150 155
138 152 156
116 131 132
141 155 160
125 139 141
129 143 146
134 147 153
70 93 61
56 77 44
64 87 51
61 83 48
69 92 59
71 91 70
67 88 62
70 90 67
84 101 87
82 103 81
95 115 101
84 102 84
98 115 104
91 109 92
100 117 108
92 111 95
94 111 100
104 120 112
108 125 115
90 108 90
100 118 107
84 103 87
81 102 80
77 97 76
66 85 63
66 87 57
65 88 52
62 84 50
63 84 50
60 83 48
62 84 49
60 83 48
63 86 51
65 88 53
61 84 49
62 85 50
114 131 127
151 164 170
136 150 154
128 143 144
133 148 150
130 146 150
126 141 142
138 153 157
122 137 136
144 159 165
126 142 141
139 155 157
131 147 150
143 159 163
126 140 141
134 149 152
135 150 154
122 139 137
64 87 51
67 91 54
68 93 55
62 86 49
59 81 47
63 86 51
62 85 50
64 87 52
60 83 48
65 89 52
65 89 53
66 89 53
61 84 50
70 94 56
64 86 51
61 83 48
107 125 116
132 148 148
137 151 158
133 149 151
127 144 145
134 150 152
134 149 149
131 146 146
135 150 153
127 143 143
144 158 163
143 159 164
145 160 167
148 163 169
138 155 156
148 162 169
85 104 84
64 87 51
62 86 50
63 87 51
57 79 45
64 88 51
63 87 51
61 85 48
68 92 55
66 90 52
65 89 53
71 96 58
67 92 55
64 87 52
71 95 60
132 149 150
129 146 149
138 155 158
154 170 178
138 154 159
148 163 168
148 165 171
142 158 164
131 149 148
154 169 179
152 168 177
155 171 179
141 157 160
145 161 167
96 117 100
68 93 56
70 95 57
67 92 54
92 112 92
105 124 110
123 139 136
127 145 144
139 155 160
144 160 166
147 164 172
148 165 175
137 153 155
104 123 112
66 91 54
68 93 55
67 92 55
73 99 61
70 95 57
64 88 51
71 97 58
69 94 55
73 99 59
69 95 56
92 115 91
142 159 163
154 170 177
148 163 169
149 166 173
152 168 171
123 141 133
99 120 103
86 107 83
66 90 53
73 99 59
103 125 106
129 147 147
154 171 179
143 161 166
152 169 175
166 183 195
151 167 176
70 94 59
78 102 70
83 107 78
97 121 97
88 111 85
73 98 60
74 100 60
74 101 61
75 102 62
76 102 66
113 133 119
112 132 122
92 116 91
70 96 58
76 103 62
75 101 61
95 118 97
87 114 80
107 129 110
177 192 195
213 225 238
228 240 255
228 240 255
228 240 255
228 240 255
228 240 255
228 240 255
228 240 255
228 240 255
228 240 255
228 240 255
228 240 255
228 240 255
228 240 255
228 240 255
213 225 239
179 194 203
157 177 185
116 138 124
78 105 64
108 130 113
130 150 150
154 173 178
102 125 107
80 106 73
126 146 138
158 175 181
161 179 190
160 177 187
160 178 190
155 171 180
131 149 148
103 123 107
73 100 60
75 101 61
77 104 62
71 96 58
99 120 104
93 115 89
113 134 123
139 157 160
156 172 181
158 175 186
152 169 174
150 165 170
158 175 186
144 160 165
155 171 178
155 170 179
128 146 142
125 142 135
76 101 64
70 96 57
78 104 67
150 168 176
157 174 183
149 166 171
153 169 176
151 166 170
152 169 175
159 174 182
148 165 173
134 150 152
114 133 126
88 110 86
73 98 59
72 97 58
70 95 56
71 96 58
69 93 55
67 91 53
112 131 120
147 162 167
148 164 171
143 159 163
146 161 166
140 155 161
149 165 174
138 154 160
132 149 153
92 112 94
75 98 69
72 97 58
70 95 57
62 84 50
65 89 53
63 86 50
68 93 56
70 94 56
111 128 123
152 168 179
136 152 156
140 155 160
144 160 164
143 158 163
139 155 160
128 144 145
136 150 156
142 156 162
126 142 146
120 136 131
114 132 124
81 103 81
74 99 62
64 87 51
66 89 53
66 89 52
73 98 60
133 150 154
152 167 177
143 159 163
144 158 160
135 150 151
139 154 156
144 160 169
141 157 162
145 161 168
124 140 141
134 148 148
138 153 156
134 149 151
140 155 159
134 148 151
137 153 157
141 156 162
142 156 161
127 142 141
107 124 116
113 130 125
116 131 126
121 137 135
132 148 145
130 145 145
129 145 145
137 152 153
145 160 166
139 154 157
141 157 162
131 147 149
136 150 156
148 163 169
130 146 148
144 159 163
131 147 149
132 148 149
138 154 157
105 122 113
61 84 48
67 92 54
63 86 51
60 83 48
67 90 54
62 85 49
63 85 50
65 89 52
66 90 53
61 84 49
60 83 48
59 80 47
62 85 50
58 80 46
64 88 52
62 84 49
68 92 55
64 88 51
71 90 65
113 130 127
106 122 117
92 110 96
70 90 65
69 92 58
64 87 51
60 82 49
63 86 50
67 91 54
61 83 49
62 85 50
58 79 47
61 84 49
58 80 46
58 80 46
64 87 51
60 83 48
73 98 59
61 84 49
105 122 114
139 154 158
140 155 157
131 147 147
131 146 148
139 155 160
143 158 164
126 141 142
126 140 140
118 134 131
120 134 132
133 148 148
125 141 140
115 131 129
125 139 138
125 140 138
126 140 141
121 137 136
117 133 131
124 140 140
83 102 81
74 95 69
77 97 77
88 108 91
69 90 63
85 105 81
86 105 85
88 106 88
67 87 60
76 95 73
83 103 83
66 87 60
76 99 71
75 95 71
72 92 67
72 92 66
76 97 74
79 100 77
93 110 97
135 149 154
137 153 156
134 149 155
127 141 143
140 155 161
128 144 144
121 136 137
124 139 141
130 145 148
125 141 142
127 142 143
140 155 160
117 132 127
138 151 153
137 152 155
112 128 126
121 135 136
124 138 141
91 111 95
92 111 98
91 108 94
100 117 107
106 122 118
102 119 111
97 114 104
99 117 104
107 124 118
116 132 127
111 128 121
119 136 131
114 132 127
104 120 116
119 134 134
114 130 125
129 145 148
121 137 137
87 107 89
83 101 85
79 99 77
69 89 62
83 102 82
83 103 84
82 103 81
67 89 59
84 102 86
84 103 82
82 101 82
80 99 81
83 103 82
76 97 73
66 86 56
82 100 82
94 113 99
99 118 105
124 141 137
124 140 139
115 132 127
116 132 127
110 127 120
127 144 141
113 130 125
98 115 104
100 118 108
107 124 114
103 121 108
90 108 92
97 115 101
79 98 74
90 109 94
87 106 86
122 138 135
140 154 156
139 155 157
127 143 144
132 147 148
135 149 154
124 140 139
139 153 159
138 153 161
133 149 152
119 135 136
134 151 152
144 159 168
139 155 161
133 149 152
141 157 162
83 105 79
71 95 57
61 84 48
68 92 55
63 86 50
61 84 48
65 89 53
64 88 52
72 96 59
63 86 50
68 94 56
69 94 56
67 91 55
59 82 48
81 103 75
138 154 159
147 164 169
142 158 163
140 156 160
140 156 164
140 156 162
140 155 159
137 152 154
149 165 172
152 169 174
154 169 177
144 161 165
135 151 155
156 172 179
92 112 98
68 93 55
68 92 55
67 91 53
70 95 57
70 95 57
68 93 55
69 95 57
81 105 75
92 113 92
103 122 111
114 133 126
147 163 167
95 114 99
68 93 55
68 93 54
69 94 54
66 91 54
72 98 59
70 95 56
65 90 53
73 99 60
69 93 55
70 96 57
65 89 56
138 156 159
153 170 178
152 168 176
149 164 168
160 177 189
156 173 184
151 168 175
153 170 178
118 136 128
113 132 123
103 123 106
140 156 158
143 160 165
153 169 175
151 169 176
139 155 156
75 102 62
71 96 57
74 100 60
89 115 80
132 152 147
138 156 160
112 131 119
87 113 82
70 96 57
77 104 63
74 100 60
102 124 106
163 180 191
142 160 163
111 133 119
79 104 75
76 102 61
110 131 116
134 153 150
103 126 107
87 114 76
162 178 178
211 223 234
229 240 255
228 240 255
228 240 255
228 240 255
228 240 255
228 240 255
229 240 255
229 240 255
229 240 255
229 240 255
224 236 251
191 205 218
142 161 162
121 141 130
84 110 75
105 129 110
151 171 175
163 181 191
168 185 197
150 169 175
124 144 141
162 179 191
156 172 180
169 186 198
164 180 192
146 163 168
129 148 140
89 112 86
76 102 63
79 106 65
75 102 62
71 97 59
68 94 55
86 111 78
103 123 114
136 153 153
149 167 173
150 167 177
149 165 170
153 169 175
155 171 175
156 172 181
160 175 185
148 165 171
122 142 138
87 110 84
74 101 61
73 99 59
69 94 55
74 100 62
78 102 70
154 169 177
155 171 176
155 170 176
158 174 182
151 168 172
148 164 169
112 130 123
93 114 93
69 94 55
68 93 56
69 94 57
69 93 55
69 93 55
65 89 53
74 99 59
69 94 56
69 93 55
128 147 142
143 160 164
144 160 164
150 165 172
139 155 161
121 138 137
92 112 97
72 95 63
68 93 56
69 94 56
64 88 52
65 89 53
68 94 55
71 96 58
68 92 54
68 92 55
69 94 56
74 100 61
100 120 104
147 163 170
139 155 156
146 163 168
144 160 165
133 149 152
137 154 159
141 158 162
110 129 119
90 109 96
72 95 60
67 91 55
68 92 55
65 88 52
64 87 52
68 93 55
65 88 51
64 86 51
69 93 54
109 127 122
144 159 165
143 158 162
139 155 160
133 150 152
153 169 180
134 149 151
136 153 156
141 156 159
142 157 162
141 157 162
136 151 157
142 158 162
136 151 154
136 150 154
134 149 151
123 138 137
101 118 108
82 103 79
103 121 110
145 160 165
139 154 155
131 145 147
138 153 156
139 154 158
149 165 171
134 150 150
125 141 141
141 156 162
124 140 140
139 156 161
144 159 166
131 147 151
137 152 156
138 153 156
140 154 160
131 145 150
142 157 163
134 149 153
70 93 62
60 83 48
68 91 55
65 89 53
61 84 49
65 88 52
59 80 47
65 88 52
55 77 44
62 85 50
62 84 49
62 84 48
69 92 57
68 89 62
94 110 102
111 127 124
113 129 126
122 136 137
139 153 157
100 117 108
55 76 43
68 92 55
66 89 52
62 84 48
57 79 45
64 87 52
59 81 47
63 86 51
61 83 49
67 91 54
53 74 42
65 88 53
66 89 54
58 79 45
63 86 50
66 89 53
63 86 50
61 81 48
75 97 70
146 161 168
121 136 133
135 150 151
143 158 166
127 143 142
136 151 156
131 147 150
147 161 167
129 144 144
147 161 166
138 152 155
132 147 145
125 140 141
134 150 153
128 144 144
135 151 152
120 135 133
127 143 144
136 151 155
77 99 71
64 88 52
60 83 48
62 84 49
64 87 52
63 86 49
62 84 49
62 85 49
63 85 50
66 90 53
65 89 53
63 86 50
61 84 49
64 88 52
58 81 46
62 84 49
62 85 49
62 84 50
75 97 68
131 146 147
119 134 132
121 137 137
127 142 141
119 134 133
107 123 116
102 118 111
95 112 100
92 108 100
90 109 93
77 97 72
83 102 84
79 101 74
68 88 62
62 84 49
59 81 47
61 84 48
60 82 48
100 117 107
148 163 167
126 141 142
130 147 153
124 138 142
131 147 147
131 148 149
120 137 134
136 152 154
126 142 142
141 155 159
136 151 153
139 154 155
139 154 159
127 143 142
128 144 146
129 143 146
128 143 143
121 137 133
58 80 46
67 92 55
65 88 53
64 87 51
64 88 52
64 88 52
61 84 48
59 82 48
59 80 46
66 89 52
60 82 47
66 89 52
64 86 51
66 90 53
62 85 50
66 89 53
79 101 72
123 139 134
127 143 142
141 156 162
141 156 161
137 152 155
142 158 160
139 153 158
144 158 164
146 162 169
137 153 155
146 162 167
125 141 138
134 149 151
131 147 151
135 152 155
135 151 152
127 145 142
66 89 57
69 93 56
73 96 64
76 99 68
79 102 73
94 113 101
90 110 92
118 135 133
107 124 114
100 119 105
100 118 103
117 134 131
129 145 144
129 144 144
137 153 156
132 147 147
69 91 60
67 91 54
72 97 59
68 93 54
66 89 52
66 89 53
66 91 54
67 91 53
63 86 50
60 83 48
66 90 53
67 90 53
67 92 55
65 89 53
75 99 66
142 157 161
142 158 163
140 156 158
139 157 161
150 165 172
146 162 168
142 157 159
151 167 175
141 157 164
141 157 162
141 156 161
150 166 172
146 162 166
137 153 156
86 107 83
66 90 53
69 93 55
64 87 50
67 92 55
72 97 58
66 90 54
71 97 59
72 98 60
67 92 55
62 86 49
64 88 51
83 106 77
100 120 102
123 141 136
102 121 109
89 111 88
70 95 58
68 94 56
66 89 54
73 99 60
71 97 58
74 101 61
73 99 60
75 100 65
120 140 133
151 168 176
159 175 182
157 173 182
153 171 180
152 168 176
163 180 191
157 172 179
155 171 182
156 172 181
143 160 165
123 140 135
148 166 168
157 173 183
134 153 151
72 98 59
73 99 59
77 104 63
72 98 58
78 105 68
121 142 134
158 176 186
162 178 189
131 148 144
117 137 127
80 105 71
77 104 63
77 103 67
141 158 160
164 181 190
159 177 188
138 157 158
96 119 98
78 104 68
139 159 157
152 170 179
123 144 135
105 127 108
166 182 186
220 232 247
229 240 255
229 240 255
229 240 255
229 240 255
229 240 255
229 240 255
210 222 236
179 194 203
141 160 162
113 135 120
93 117 89
115 135 124
156 175 182
161 177 184
164 181 193
144 162 166
89 112 87
126 147 140
159 177 186
167 183 195
161 178 189
149 166 173
113 134 120
77 104 64
78 105 65
72 98 59
74 102 62
72 98 60
81 107 67
103 122 108
137 155 155
156 173 181
123 141 134
90 114 88
152 169 176
156 172 181
163 178 190
153 170 179
161 178 188
140 158 159
111 132 119
76 99 68
75 101 62
75 100 61
72 97 58
72 98 60
72 97 58
70 95 56
70 93 61
156 172 180
149 165 172
151 167 177
135 153 152
98 119 101
68 89 59
66 89 52
68 93 54
72 98 59
71 96 58
72 98 59
71 96 58
73 98 58
72 97 58
66 90 53
68 92 54
73 99 59
114 132 122
148 164 170
129 146 146
105 124 112
73 96 64
71 96 58
63 87 51
69 94 56
71 96 57
72 98 59
68 92 54
68 93 55
72 98 59
71 96 57
74 99 60
67 92 54
69 94 56
69 93 56
86 109 86
132 148 149
148 164 167
146 162 165
130 147 145
106 124 115
93 113 95
69 93 55
67 90 54
72 97 58
66 89 52
64 88 51
62 86 50
64 87 51
67 91 54
68 93 55
67 92 53
68 93 56
68 92 54
91 110 94
143 159 164
142 157 161
134 150 153
139 153 157
139 154 155
146 161 167
144 159 166
139 154 156
139 152 156
136 152 157
142 158 161
120 137 132
96 113 104
66 90 57
63 86 51
65 89 52
68 92 54
62 85 50
71 94 62
136 151 153
145 161 168
124 140 142
136 152 155
151 166 174
131 147 150
127 142 144
134 150 153
142 156 162
131 146 147
139 154 161
133 149 153
140 154 162
144 159 165
132 148 151
120 136 135
135 150 155
125 140 143
123 140 137
104 121 112
64 88 51
67 91 54
63 85 51
62 85 50
62 85 50
69 94 56
64 86 54
70 91 65
100 118 108
118 134 131
126 142 142
121 138 137
129 145 144
142 157 161
144 159 165
151 165 171
132 147 150
139 155 158
133 147 151
61 83 49
59 81 47
64 87 52
59 82 48
62 85 49
58 79 45
60 82 48
62 85 50
66 89 52
61 84 48
60 82 47
63 86 50
64 88 51
64 87 51
66 90 53
64 87 51
59 81 48
64 87 52
68 92 55
112 128 124
125 140 142
133 148 152
133 148 152
142 156 162
137 152 154
132 146 149
127 142 142
136 151 156
138 152 159
140 154 158
140 155 158
132 147 150
114 130 127
129 145 145
131 146 148
144 160 165
141 156 163
138 152 156
92 110 98
59 82 47
60 82 48
65 88 53
65 88 52
65 88 52
62 85 50
58 81 45
65 88 52
61 84 50
95 114 99
87 107 88
102 120 107
103 121 112
112 128 123
118 135 132
114 130 125
122 137 135
121 136 135
99 116 107
65 88 52
64 87 52
66 90 53
67 91 54
63 87 51
63 86 51
60 83 47
61 83 49
62 84 49
65 89 52
65 88 51
64 87 51
62 85 50
68 92 55
69 93 56
63 85 50
61 83 48
63 85 51
128 144 143
134 149 150
135 150 153
134 151 156
135 150 154
131 148 148
131 145 148
140 154 158
130 145 146
132 147 149
137 152 152
140 155 158
142 158 160
142 158 162
142 158 166
135 149 152
143 158 161
138 154 159
70 91 66
68 92 54
61 83 49
62 84 50
61 84 48
67 91 55
64 87 52
66 89 54
63 85 51
65 88 52
64 88 51
66 90 53
71 96 57
59 82 47
62 86 51
66 89 53
66 90 54
96 114 103
135 152 154
136 152 155
143 159 162
138 154 159
137 152 156
139 155 160
132 148 151
139 155 158
130 147 147
136 152 152
134 149 153
142 156 162
138 154 155
140 156 160
136 152 157
147 162 168
114 130 127
66 90 54
70 95 57
66 91 54
63 86 50
65 88 51
68 93 55
67 92 55
67 91 53
67 91 53
68 92 54
62 85 49
64 87 51
64 88 53
64 87 51
67 91 54
92 112 93
136 153 156
121 139 131
117 135 133
116 134 126
112 130 121
101 121 107
99 118 103
74 94 71
63 87 50
66 89 53
70 95 56
72 98 59
68 93 55
65 89 52
96 116 100
142 158 161
148 164 169
143 160 165
138 156 159
141 157 165
142 158 163
139 155 160
155 170 179
139 155 157
139 154 159
145 161 166
145 161 168
142 159 162
130 147 147
83 107 76
65 89 52
71 97 57
72 98 59
70 96 57
69 94 55
70 95 56
67 92 54
74 100 60
74 100 61
70 96 58
72 97 58
76 102 67
127 144 143
155 172 180
148 164 167
148 165 172
127 146 144
127 147 142
103 123 106
80 104 71
70 95 56
72 98 59
70 96 56
70 95 57
127 144 144
147 164 171
154 171 177
147 164 170
153 171 180
147 165 172
156 172 177
150 165 172
162 180 190
161 177 187
162 179 187
106 128 117
81 104 74
130 148 147
107 128 113
83 109 75
78 104 62
74 101 61
75 102 62
74 100 60
113 134 120
156 173 183
165 181 191
162 179 187
154 171 179
124 144 137
103 125 107
84 110 76
121 141 132
160 177 186
166 182 189
164 182 193
161 178 187
127 147 140
124 145 136
147 165 169
153 171 179
133 153 149
118 139 128
156 174 174
212 224 238
229 240 255
229 240 255
209 221 232
158 175 175
130 151 146
104 127 111
86 114 76
126 147 137
165 181 189
161 179 189
164 182 194
141 160 163
97 119 99
77 104 63
78 106 65
157 175 185
156 173 180
137 156 156
95 118 96
76 103 63
76 104 63
73 99 60
74 100 61
74 100 60
86 112 80
125 144 139
166 181 192
160 176 183
164 181 192
164 181 191
97 117 101
72 99 59
129 147 144
148 164 170
146 164 169
129 146 144
78 102 67
71 97 58
73 99 59
72 98 59
70 95 55
76 102 62
72 98 59
72 98 60
74 100 61
69 94 55
79 103 72
145 162 167
111 133 117
79 101 72
73 99 60
72 98 58
73 99 60
75 101 62
67 92 55
71 95 57
74 100 60
69 93 55
73 98 59
72 98 60
70 96 57
68 92 56
77 101 70
97 115 98
121 139 132
83 105 79
74 100 60
67 92 54
71 96 57
62 86 50
71 96 58
66 90 53
71 96 57
69 94 56
67 91 53
66 90 54
64 88 52
74 99 59
72 97 57
68 92 55
61 83 49
71 97 57
71 94 62
119 138 131
114 131 122
80 102 80
62 85 50
70 94 57
66 90 54
67 92 55
70 95 58
68 93 54
67 92 54
68 93 56
69 94 56
65 88 52
67 91 54
64 88 51
68 92 55
65 89 53
66 90 53
72 94 62
155 170 177
137 152 155
143 159 163
141 157 161
131 146 150
147 163 168
143 159 165
121 137 135
95 113 99
92 113 95
69 93 55
68 92 55
71 95 58
70 95 57
67 91 55
63 86 51
70 94 56
64 88 52
61 84 49
137 153 155
132 148 148
138 154 161
147 162 169
145 162 167
129 144 145
143 159 160
129 143 143
136 152 152
134 151 152
140 156 160
124 141 139
134 150 151
145 160 165
140 155 161
139 155 159
139 154 159
134 150 152
143 159 165
123 141 138
63 87 51
65 88 51
87 105 89
91 108 93
95 112 102
133 147 148
138 153 156
153 167 174
135 150 154
133 148 149
143 159 165
124 139 138
131 145 146
139 154 157
143 158 163
136 150 155
142 156 161
122 137 134
131 147 148
87 106 89
62 86 50
65 88 53
68 92 55
64 88 52
64 88 52
67 91 54
62 85 50
68 92 55
63 86 50
65 89 53
61 83 48
68 92 55
71 96 57
64 88 52
62 85 50
68 93 56
61 82 48
61 85 49
78 96 79
140 154 160
144 159 163
129 146 145
130 146 146
134 151 151
141 155 160
141 156 160
122 138 137
131 146 145
135 150 156
122 138 137
125 140 138
139 154 160
138 154 157
139 153 156
137 152 156
137 152 153
136 153 156
126 140 142
91 109 94
104 121 112
100 118 106
112 129 122
113 130 126
125 140 137
120 136 133
136 152 156
151 166 174
143 159 163
129 142 147
134 149 150
136 151 153
122 138 137
126 142 140
133 148 148
131 148 149
137 153 155
134 149 154
79 101 74
66 90 53
59 81 47
65 88 53
61 85 50
58 80 45
55 76 42
60 82 47
60 82 48
64 87 51
62 85 49
63 86 51
58 80 46
63 86 51
65 88 52
62 85 50
68 92 56
63 87 51
91 110 90
129 146 147
131 147 151
129 143 147
134 149 151
135 151 152
143 158 162
128 144 145
127 142 143
136 151 157
133 148 152
151 165 173
134 150 152
144 158 164
151 168 177
144 159 161
136 152 155
133 148 150
122 138 137
60 82 51
58 80 46
63 86 50
63 86 50
61 84 49
62 84 49
60 83 48
62 86 50
63 87 51
66 90 54
62 85 49
62 85 49
64 87 51
63 87 51
60 84 48
64 87 51
66 90 53
111 129 118
125 140 141
135 150 154
141 156 162
149 164 170
149 164 170
138 154 157
128 144 145
140 156 161
140 156 159
143 158 163
140 156 157
145 160 166
140 156 159
141 158 163
145 161 166
135 151 153
99 118 104
71 96 58
61 84 48
65 88 52
66 90 53
70 95 57
66 91 54
67 91 53
64 86 51
68 92 55
64 87 51
68 92 55
66 90 53
65 89 53
65 89 52
70 94 56
111 128 121
142 157 162
145 161 163
142 157 163
146 162 165
149 166 172
148 163 167
139 154 156
127 145 144
134 151 148
130 147 147
126 144 142
118 137 129
113 131 124
113 130 124
119 138 133
146 161 164
140 156 161
141 158 161
145 161 167
157 172 180
150 166 172
155 171 178
145 161 164
143 160 163
152 167 174
147 162 167
145 161 167
160 176 185
140 157 158
84 107 78
66 90 53
72 97 58
70 94 56
70 96 57
68 93 55
72 97 58
64 87 51
67 93 55
76 103 63
71 96 58
69 95 56
68 92 54
124 140 138
156 172 178
144 161 163
142 159 162
149 163 167
152 168 176
151 166 174
147 163 169
119 137 132
102 122 104
89 111 87
68 93 55
121 138 132
157 172 179
148 166 170
158 174 181
144 162 166
156 172 182
161 179 191
150 168 177
157 174 183
154 171 180
160 177 185
136 154 151
160 176 186
158 175 183
159 177 187
137 156 154
117 135 126
96 118 97
69 94 56
74 100 60
98 122 97
150 167 170
155 173 179
154 170 180
158 174 183
169 186 201
157 175 182
122 141 133
121 142 131
156 174 180
156 173 179
155 172 180
161 177 186
160 176 182
146 165 167
158 176 184
161 178 189
164 181 192
142 159 161
139 159 158
162 179 179
208 220 233
127 148 144
93 118 92
82 109 73
134 154 150
161 179 189
169 185 196
158 175 184
142 159 156
89 113 88
74 101 61
72 98 58
76 103 64
83 107 79
128 147 145
80 106 70
73 99 59
81 108 67
73 98 59
75 102 62
74 100 61
106 127 108
131 150 147
154 171 179
162 179 188
166 182 192
154 171 180
160 176 185
158 175 183
106 129 109
75 100 59
109 130 119
115 134 129
77 104 66
72 98 58
78 105 64
69 94 56
71 97 58
72 97 57
76 103 63
72 98 59
76 103 62
70 96 58
85 110 79
120 140 135
147 165 168
70 96 57
74 100 61
71 97 57
74 100 61
72 97 58
74 101 62
70 96 58
73 99 60
73 98 60
69 94 56
65 88 51
72 98 59
70 95 57
99 119 101
120 138 133
138 155 155
146 162 169
122 139 136
75 100 60
72 97 58
70 95 56
63 87 51
71 97 58
68 93 55
64 89 52
64 88 52
72 98 59
68 93 55
69 94 56
70 95 57
65 89 52
67 90 53
73 98 62
100 119 101
120 138 133
133 149 147
81 103 79
71 97 58
70 95 58
67 91 54
61 84 49
65 88 52
67 91 54
69 93 56
70 95 57
68 93 54
72 97 59
68 92 56
65 90 52
65 89 52
63 86 51
68 92 54
66 89 53
74 99 60
67 92 54
139 156 160
142 158 163
143 159 164
140 156 159
120 136 131
78 100 74
69 93 56
64 88 52
65 90 53
63 87 51
63 86 50
64 87 50
61 83 48
65 88 52
70 95 57
65 88 53
68 93 56
64 87 52
63 86 50
109 127 115
142 158 166
136 151 154
136 153 154
139 154 160
139 155 159
139 155 159
139 153 157
150 166 172
138 154 154
142 156 162
129 144 144
143 158 162
143 157 162
143 158 164
139 155 160
137 152 155
132 147 148
125 141 140
125 142 140
135 150 152
137 152 155
138 154 157
138 155 158
128 144 143
139 156 158
133 150 152
146 160 168
128 143 143
137 152 155
136 151 157
141 157 162
139 155 158
133 148 148
147 163 166
145 161 165
140 155 158
136 153 154
139 153 156
111 129 123
63 86 51
65 88 52
68 93 55
67 91 53
61 83 48
65 88 51
64 88 51
64 87 51
58 81 46
61 84 48
61 84 48
68 93 55
65 89 52
60 83 48
61 84 49
65 89 52
65 88 51
63 86 50
62 85 50
124 139 139
136 152 159
125 139 140
142 157 161
133 149 149
133 149 150
131 146 148
126 142 145
137 154 157
135 151 152
127 144 145
125 141 141
115 132 124
104 121 113
77 96 76
87 106 86
70 93 62
61 83 48
62 86 50
82 102 81
138 154 160
138 153 159
140 155 159
142 157 162
125 140 142
133 148 152
137 152 155
134 150 153
147 162 167
134 150 151
133 149 152
136 152 156
137 153 159
133 148 152
143 158 164
133 148 152
147 162 169
124 140 137
106 122 110
69 94 56
68 92 55
61 84 49
60 82 48
67 91 53
66 90 53
67 91 53
64 87 51
64 87 52
63 87 51
62 86 50
69 92 55
61 84 49
64 88 52
58 81 46
67 90 54
63 86 51
61 83 49
116 132 130
137 151 157
123 138 138
127 143 147
140 155 158
142 157 162
143 158 163
139 154 159
131 148 148
133 148 149
150 165 172
129 144 145
133 149 148
130 146 148
138 152 157
138 154 158
143 158 163
139 154 158
102 119 110
68 92 54
61 83 47
64 87 51
63 86 50
64 88 52
64 88 51
64 87 51
62 85 49
67 91 55
67 92 54
62 85 49
69 94 55
65 88 52
64 88 51
67 91 54
68 93 56
72 96 60
136 154 155
126 142 140
150 166 173
143 158 164
131 147 147
144 160 168
143 158 164
135 152 152
130 146 143
146 161 166
132 148 148
143 159 165
136 151 151
139 154 158
140 156 159
143 159 163
143 158 162
82 105 74
66 89 53
67 91 54
66 89 53
67 91 54
71 95 58
69 94 56
68 92 56
70 95 57
67 90 53
70 94 57
67 91 55
67 92 54
69 94 55
69 94 56
71 94 59
119 137 132
137 152 152
140 156 159
144 160 164
138 154 157
152 168 175
146 161 166
138 153 154
149 165 172
152 168 176
149 164 172
148 164 171
154 170 179
144 160 163
143 158 161
114 131 125
79 102 70
81 104 76
98 118 100
112 130 123
124 142 140
125 143 139
134 152 152
141 157 163
135 152 153
138 153 159
146 162 167
146 162 168
148 165 171
125 142 140
84 107 79
71 97 58
71 96 57
67 92 55
68 92 55
70 95 57
68 93 55
67 91 54
69 94 56
74 100 61
66 91 53
73 99 60
80 104 74
135 152 155
152 168 174
153 169 176
142 159 161
160 176 185
139 155 160
160 177 186
150 167 170
141 157 161
150 167 173
142 159 167
131 148 149
145 162 169
140 156 160
149 165 171
156 171 178
150 166 175
149 166 172
147 163 168
146 163 168
150 166 172
146 163 168
72 98 62
123 142 139
149 166 172
148 164 172
164 181 192
163 181 192
166 182 193
145 163 166
130 149 147
100 122 106
79 103 71
135 153 153
159 175 183
156 174 183
157 174 181
162 180 189
171 188 199
171 188 201
154 172 182
143 161 166
162 180 190
164 181 189
168 186 198
168 186 199
176 194 211
159 176 184
142 160 162
162 179 189
164 182 192
167 184 194
132 151 145
89 115 85
131 150 150
171 188 202
166 183 195
157 175 185
129 149 146
89 114 82
76 104 63
77 104 63
76 103 63
92 116 92
130 149 146
128 147 140
74 101 61
76 103 63
76 103 62
72 98 59
80 107 68
123 143 139
144 163 166
158 174 181
160 176 187
156 172 178
157 174 185
149 166 174
157 174 183
166 182 193
160 176 185
120 138 134
153 171 179
156 173 179
141 159 162
86 109 83
67 92 53
72 98 59
74 100 61
77 104 63
73 100 60
74 99 60
79 104 67
111 132 118
137 155 155
156 172 180
152 168 174
147 164 169
78 104 64
76 102 63
72 98 59
68 93 55
72 97 59
73 99 59
70 95 58
70 95 57
68 93 56
74 100 60
81 101 77
107 127 117
140 157 159
148 165 171
153 169 178
162 178 186
151 167 173
121 140 134
72 98 58
70 95 56
69 93 55
69 95 56
73 99 60
69 94 56
65 89 52
65 89 53
74 100 60
71 95 57
70 96 58
88 111 86
123 140 134
129 146 146
141 158 162
153 169 177
149 166 172
150 166 171
98 118 103
68 91 55
68 92 55
69 94 56
68 93 55
68 92 55
73 98 59
68 92 54
72 97 58
74 99 60
68 92 54
66 90 52
71 96 57
68 92 54
68 92 55
71 97 58
66 90 54
69 94 56
81 103 76
113 132 125
96 116 100
75 100 67
66 89 52
66 89 53
70 94 57
66 91 53
71 95 57
66 91 53
72 97 58
63 87 50
72 97 59
71 96 58
68 93 55
66 90 53
70 94 56
66 90 53
63 86 49
70 96 58
90 111 90
143 159 168
147 162 169
135 150 153
135 151 153
137 153 155
140 156 163
127 142 144
147 162 169
151 165 173
124 139 137
127 144 144
143 158 161
127 145 142
113 131 126
88 108 86
78 101 72
66 90 52
59 81 47
65 89 54
123 140 135
148 163 170
146 162 168
153 167 176
142 156 161
142 157 163
151 167 176
125 141 142
148 163 169
137 153 155
139 154 160
146 161 168
133 149 149
142 157 163
135 150 155
146 161 170
142 157 161
130 145 144
143 159 166
128 145 144
65 89 52
63 87 51
61 84 48
62 86 49
56 77 43
67 92 55
66 90 54
68 92 54
67 91 54
67 91 53
67 91 54
67 91 54
64 87 52
64 87 51
66 90 54
67 90 53
68 92 54
71 96 58
62 85 50
112 130 123
123 139 141
139 156 161
129 144 146
108 125 120
119 135 130
97 115 103
93 112 94
77 97 72
70 93 59
67 90 54
65 88 52
66 89 53
64 87 50
65 87 52
67 90 53
61 84 48
61 84 48
63 86 51
78 100 71
138 153 157
126 142 141
142 156 162
135 151 154
139 154 159
133 147 149
127 142 143
136 152 155
143 159 165
135 150 151
134 150 152
132 147 149
134 148 153
140 156 161
139 153 159
143 160 164
141 158 164
132 148 148
126 142 140
78 99 76
62 85 50
63 87 51
70 95 56
63 87 51
71 95 57
66 90 53
62 85 51
68 91 54
61 83 48
65 89 52
65 89 53
63 86 51
69 93 55
62 86 50
68 92 55
65 88 52
70 94 56
79 100 76
139 155 159
138 152 156
125 140 142
144 160 164
139 156 159
143 158 164
131 147 149
123 138 138
142 157 161
138 154 159
128 145 143
145 161 165
135 149 152
139 152 155
129 146 146
140 155 158
136 152 158
134 149 148
90 112 89
64 89 52
64 87 51
68 92 54
65 89 53
66 90 53
70 95 57
74 100 61
64 87 50
67 91 54
64 87 52
60 83 48
71 95 57
60 83 49
67 91 54
72 96 57
66 89 53
84 105 84
144 161 167
151 167 175
130 148 148
141 156 162
161 175 184
139 154 159
135 151 154
141 156 161
149 164 171
142 158 162
139 155 164
142 157 163
137 153 154
136 153 154
137 153 154
148 163 168
116 132 128
67 92 54
64 87 52
71 96 57
58 81 45
74 99 59
67 92 54
64 88 51
67 91 54
68 91 55
67 91 53
71 97 57
63 87 51
62 85 50
69 93 56
63 86 50
74 98 65
140 156 159
147 161 167
157 171 179
147 163 169
135 151 152
155 172 179
144 160 166
145 160 165
140 155 160
140 158 160
135 151 153
153 169 175
147 162 169
135 151 154
141 158 161
104 125 111
63 87 51
71 96 58
68 92 55
65 89 51
68 92 54
69 94 56
68 93 56
83 103 80
107 128 114
113 132 121
125 142 140
138 155 157
136 152 155
133 149 151
71 96 61
74 100 60
72 98 59
69 94 56
69 93 56
72 98 58
69 94 56
69 94 55
69 94 55
70 95 57
71 96 58
72 98 59
77 102 67
134 152 150
148 165 170
149 166 173
146 162 167
145 161 164
156 171 179
155 172 181
151 166 176
150 166 172
144 162 165
154 170 180
156 173 181
123 143 133
74 99 62
97 119 96
113 131 119
139 156 156
163 179 190
153 168 174
149 166 171
82 104 74
73 99 60
75 101 61
108 129 116
164 181 190
160 178 189
147 165 171
169 185 197
147 164 169
160 177 186
154 170 175
150 168 173
119 137 130
136 154 153
153 170 177
166 182 193
159 175 184
169 186 198
147 164 167
171 188 201
165 181 192
142 162 163
112 134 121
137 156 154
159 177 186
168 185 199
156 174 183
162 179 189
121 141 130
123 144 135
151 169 175
170 187 199
160 177 187
158 176 187
150 168 175
126 146 138
77 103 69
74 100 60
76 104 64
76 103 63
108 129 109
139 158 160
161 178 190
171 187 199
114 133 124
76 103 63
78 106 65
92 116 85
131 150 144
148 165 171
153 168 174
156 173 182
157 175 185
149 166 172
153 170 175
153 170 176
158 175 180
139 158 159
121 140 130
89 113 89
162 179 189
161 176 183
155 171 177
157 174 183
143 159 163
96 118 100
74 101 61
74 101 60
73 100 61
97 119 97
131 149 144
151 169 175
157 173 184
159 176 187
156 172 180
151 167 174
145 161 165
69 94 57
72 99 59
76 102 63
73 99 60
71 97 58
69 94 57
73 98 59
70 95 60
115 134 123
146 163 165
162 178 189
145 161 165
144 161 166
149 165 170
152 168 173
148 164 170
147 162 171
142 160 163
72 97 58
71 97 59
69 94 56
69 94 56
74 100 61
70 96 58
73 99 59
68 94 55
86 108 86
112 132 121
142 158 160
147 162 168
147 164 170
154 170 177
143 159 161
160 174 182
152 168 174
146 160 164
112 132 123
64 87 51
71 97 57
67 91 55
60 83 48
68 92 55
67 91 53
73 99 59
69 93 55
69 94 56
74 100 60
72 97 59
69 94 56
71 97 58
79 102 71
93 113 90
128 146 143
142 159 160
142 156 161
115 132 127
62 85 49
66 90 53
68 93 55
69 93 56
71 96 56
64 88 51
68 92 55
67 91 54
66 90 53
69 94 56
68 92 54
64 88 51
69 93 57
72 97 58
64 88 52
69 93 55
69 94 56
70 94 56
74 95 68
137 152 158
145 161 165
137 152 156
149 165 169
137 154 155
140 155 159
139 154 161
138 153 158
116 133 128
112 129 121
93 114 95
84 106 80
71 96 58
66 90 53
64 88 52
71 97 58
63 87 51
66 90 53
68 93 55
107 125 114
135 151 155
142 158 158
132 149 151
152 169 175
153 168 175
127 142 144
140 156 161
132 147 149
151 166 175
137 152 156
150 166 175
132 146 148
131 147 150
124 140 140
142 156 162
144 158 162
141 157 160
137 152 154
139 156 160
106 124 113
67 91 54
69 94 56
66 90 54
65 89 52
68 91 55
70 94 57
65 89 53
68 92 55
68 92 55
64 88 52
65 88 53
67 92 54
67 91 53
64 87 52
78 99 77
102 120 104
102 119 108
118 133 131
121 138 134
86 107 84
66 90 52
66 90 53
68 93 55
60 82 48
69 93 56
61 83 48
68 93 55
68 92 54
66 90 53
64 87 52
65 88 52
63 86 50
68 92 55
67 91 54
63 86 50
66 89 52
62 86 50
68 92 55
95 113 103
137 154 158
139 155 160
139 153 156
144 160 166
121 137 134
135 151 155
141 157 162
140 155 162
133 148 152
137 152 154
126 141 144
134 149 150
129 145 146
142 157 161
143 157 162
148 163 167
139 155 158
143 159 162
106 124 116
70 95 56
64 87 51
59 82 47
64 88 51
63 87 50
62 85 51
61 84 48
65 89 53
63 86 52
69 93 55
63 86 51
64 88 52
58 81 46
66 89 53
67 91 54
63 86 50
61 84 48
70 94 56
117 135 129
137 151 159
136 150 154
134 148 150
143 159 164
140 156 159
137 152 157
147 164 170
123 139 138
132 147 149
138 153 156
151 165 174
145 160 166
147 162 168
144 159 166
138 155 156
142 157 161
140 156 161
116 134 129
65 89 52
71 96 58
62 85 49
63 87 51
68 92 55
66 90 53
69 93 56
64 87 51
62 85 50
69 94 56
69 93 55
63 87 51
65 89 53
67 91 54
72 97 58
66 90 53
61 83 48
111 129 119
139 154 159
149 163 169
140 155 162
140 156 164
152 167 174
149 166 171
134 150 152
151 167 174
141 156 161
146 162 168
144 159 163
146 162 167
142 158 163
137 153 160
144 159 168
144 160 165
103 122 110
70 95 57
67 92 55
70 95 57
66 91 54
64 89 53
65 89 51
75 101 60
67 91 54
67 92 54
73 97 58
61 84 49
68 92 55
70 94 57
77 104 63
65 89 52
91 110 94
142 159 162
145 160 166
135 151 153
147 163 170
135 152 155
150 166 175
155 171 181
147 163 169
160 176 183
147 163 169
150 165 173
144 160 165
146 161 163
145 161 167
143 158 160
89 111 90
71 96 58
66 91 53
72 98 59
71 97 58
67 91 54
72 99 59
70 95 57
65 89 51
69 94 56
69 95 57
71 96 58
65 89 53
75 100 63
101 122 101
118 136 132
111 130 120
102 123 109
79 102 76
66 91 54
74 101 61
75 101 62
72 97 58
68 93 55
72 97 59
64 88 52
69 94 56
75 99 69
139 156 161
156 173 179
145 161 166
153 168 175
154 169 177
155 172 180
137 155 157
150 167 171
150 167 175
156 172 180
152 169 176
148 164 168
110 131 118
71 96 57
72 99 59
75 102 62
82 106 75
114 133 124
140 157 159
96 119 99
72 97 61
76 103 63
74 101 61
102 124 105
154 171 177
159 177 189
160 177 188
159 176 186
165 181 194
154 169 178
162 178 185
158 175 182
159 175 183
133 151 151
113 134 120
142 161 166
170 187 200
153 171 178
163 180 190
162 179 190
160 177 186
144 161 162
98 122 96
83 110 72
108 130 119
141 159 161
165 182 195
167 184 195
139 158 161
90 116 84
101 122 104
157 174 180
102 126 102
87 113 81
73 100 60
78 105 64
80 108 67
107 130 113
153 170 176
157 175 185
161 179 189
159 176 186
167 184 195
82 108 69
97 121 97
124 143 140
167 183 195
163 180 191
149 166 172
161 177 188
163 180 189
155 171 177
159 176 185
149 167 171
128 147 142
96 118 101
76 103 63
76 102 62
98 120 98
160 176 187
154 170 178
162 179 188
161 176 186
156 172 182
150 167 173
111 130 118
115 135 127
146 164 165
159 176 186
154 171 178
167 184 194
156 173 182
157 172 182
154 170 177
145 162 166
146 162 165
70 95 57
72 98 59
67 93 55
72 98 59
82 106 79
114 133 121
141 159 159
155 171 177
158 174 183
144 160 164
157 172 181
141 157 163
155 172 180
150 165 171
152 167 175
141 156 159
157 173 181
156 172 179
70 95 57
72 97 58
71 96 58
72 98 58
69 95 56
80 104 73
109 126 116
128 144 146
145 163 168
148 165 173
154 170 179
154 170 177
163 179 190
151 165 172
151 166 173
146 161 170
149 165 172
143 159 162
116 133 127
71 96 57
66 91 53
70 95 57
66 90 52
68 93 55
75 101 61
66 90 53
63 87 50
67 91 53
66 91 53
73 96 66
105 124 114
124 141 136
136 152 153
145 161 165
155 171 182
156 172 179
150 166 174
129 146 144
66 89 53
63 86 51
65 90 53
69 94 56
64 88 52
68 92 55
71 96 58
65 88 52
65 90 52
67 91 54
69 95 55
63 87 51
66 90 53
64 87 51
71 96 58
61 85 49
64 88 52
68 92 54
69 93 56
149 165 173
142 159 163
129 145 147
131 147 148
120 137 133
106 123 116
85 105 82
62 86 50
67 91 54
71 95 57
71 96 58
65 89 52
66 90 54
61 85 49
68 91 54
70 94 56
67 92 54
66 90 53
64 88 52
72 95 63
145 160 165
143 158 164
145 159 163
131 147 148
144 160 164
133 148 150
134 150 151
140 156 158
119 135 135
135 151 154
125 142 142
132 148 152
132 149 150
143 158 163
140 155 158
137 152 157
145 161 166
141 156 161
142 157 160
117 133 131
63 86 51
65 89 52
69 93 56
58 80 46
66 90 53
62 86 50
68 92 54
71 95 60
77 98 73
97 115 100
109 128 116
131 148 149
115 132 129
133 149 150
140 156 160
119 135 133
136 151 153
143 159 164
143 158 163
99 119 104
59 81 47
61 84 48
68 92 55
68 92 53
67 91 54
65 89 53
62 85 50
62 85 50
66 90 53
67 92 54
66 89 52
67 92 54
64 87 52
71 96 57
66 90 53
68 93 55
67 91 54
64 88 51
81 102 76
129 145 144
129 145 146
135 151 154
127 143 145
141 156 162
145 160 168
143 157 163
136 152 156
132 147 148
140 155 157
139 154 159
138 153 159
142 158 161
148 164 171
150 165 175
127 143 145
136 151 152
141 158 161
133 149 150
81 100 79
68 92 55
65 88 51
60 83 48
65 89 53
67 92 54
67 90 53
68 92 55
63 86 51
70 94 56
66 89 52
74 99 60
67 91 53
62 85 49
63 87 51
69 94 56
60 83 49
67 91 54
69 91 61
144 159 165
139 154 157
137 153 154
141 156 162
131 146 146
140 156 162
144 160 165
128 145 144
135 151 151
134 151 154
140 156 159
146 161 166
136 151 152
133 150 152
125 142 139
132 148 150
147 163 170
139 156 160
89 109 93
70 94 57
73 99 60
68 92 55
65 89 53
59 81 47
65 89 52
65 89 53
63 86 50
68 92 55
61 84 48
68 93 55
61 85 49
63 87 51
64 88 52
64 87 52
66 91 54
65 90 52
129 144 145
131 147 150
145 160 166
135 151 153
139 154 158
147 162 167
154 170 178
135 151 152
131 148 149
136 152 153
141 157 164
144 160 166
141 157 162
133 149 150
141 157 162
132 148 149
138 154 157
98 119 102
70 95 57
63 86 51
67 91 53
63 86 50
63 87 51
66 91 53
68 93 55
67 91 53
71 95 57
67 92 55
70 95 58
70 95 56
65 89 53
69 93 55
67 91 53
111 128 118
146 162 173
143 159 167
152 168 176
146 161 165
148 164 167
154 170 178
148 164 171
145 161 165
142 158 165
137 153 153
143 159 164
141 156 162
155 170 177
154 170 179
143 159 164
84 105 80
73 99 59
70 95 57
70 95 56
72 98 59
73 98 60
75 101 61
64 88 52
67 92 54
71 96 57
66 91 53
74 100 60
64 88 50
73 98 59
121 141 133
152 167 177
142 158 161
155 170 179
148 165 170
144 160 164
114 133 125
117 136 130
87 110 83
75 99 69
71 96 58
76 103 62
72 98 58
83 106 82
151 168 175
157 174 182
152 168 176
155 171 179
152 169 176
140 156 158
150 168 175
159 176 183
153 170 180
155 172 178
154 171 178
150 166 173
116 135 126
70 96 56
72 98 60
119 140 132
160 177 188
153 170 177
161 177 186
149 165 171
137 156 156
112 132 119
89 111 88
105 127 107
162 179 189
162 178 188
155 172 180
164 182 194
155 172 180
160 178 189
158 175 184
156 173 178
161 179 189
153 170 176
75 100 68
88 112 83
109 130 113
142 161 164
167 183 193
157 174 185
163 180 189
164 181 189
101 124 106
77 105 64
82 110 67
99 125 100
131 151 146
160 177 184
168 185 195
104 126 109
85 110 74
78 106 65
78 105 65
76 104 64
114 135 123
154 172 178
170 187 198
166 183 195
154 171 180
162 179 190
159 177 186
151 167 174
142 160 161
159 176 188
165 182 194
158 175 185
168 184 195
154 169 176
159 177 187
163 181 190
152 170 176
126 146 138
87 112 81
77 104 63
74 100 60
74 100 60
71 98 59
114 134 123
156 174 185
157 175 181
155 170 180
174 189 202
145 162 164
104 124 111
80 105 68
116 137 129
153 170 177
160 178 189
148 164 168
153 169 175
152 169 176
146 163 169
169 185 196
156 174 183
135 152 154
71 97 58
69 94 55
103 124 107
133 151 151
164 179 187
149 164 172
148 163 168
157 173 182
152 169 176
154 171 178
157 173 184
146 161 167
143 160 163
146 162 169
157 172 179
143 160 163
145 162 167
144 161 166
69 93 55
74 100 61
79 102 73
112 132 121
142 158 160
149 165 170
150 167 174
141 157 164
153 168 177
144 160 166
150 165 168
152 168 175
148 164 167
157 174 184
153 170 177
151 168 174
149 165 169
145 162 166
114 134 128
63 87 51
71 96 57
70 96 57
71 96 58
68 93 56
70 95 56
74 97 64
102 122 105
118 136 129
139 155 157
149 165 172
152 169 176
140 155 161
150 165 172
137 153 157
154 170 176
148 165 170
141 157 162
134 151 151
73 99 59
66 90 53
72 97 58
65 89 52
64 88 51
67 92 53
67 90 54
69 94 55
69 93 56
66 91 53
69 94 56
68 92 54
75 100 61
67 91 52
72 98 58
73 99 60
64 87 52
66 89 53
68 88 62
117 135 127
108 126 117
75 97 73
65 89 53
68 93 55
66 90 53
64 88 52
71 96 57
64 88 52
67 91 54
64 88 52
67 92 54
66 90 53
71 95 58
62 85 50
66 90 53
69 93 55
66 90 53
63 85 49
57 80 45
135 151 153
140 155 159
150 165 169
150 165 170
131 148 149
147 163 168
146 161 167
141 157 159
141 156 161
150 166 173
152 168 176
136 151 152
146 161 167
146 161 165
146 162 169
134 149 155
139 155 158
146 162 170
138 154 157
140 156 160
72 93 65
65 89 53
71 93 62
78 97 74
109 127 116
115 131 123
128 145 145
138 153 156
148 162 170
146 161 170
140 155 158
150 166 176
139 153 159
141 157 161
141 157 162
141 157 159
140 155 159
128 143 142
137 152 154
146 161 168
63 86 50
66 91 54
65 89 53
63 85 50
66 90 54
69 94 56
67 91 53
60 83 48
65 88 51
63 87 51
65 89 52
65 88 50
64 87 51
67 91 54
65 89 53
67 91 54
63 86 50
65 89 53
70 95 57
117 134 130
137 153 159
140 155 158
132 147 149
125 141 143
139 155 161
135 151 154
141 156 159
133 149 153
137 152 153
129 145 148
142 158 161
143 158 163
125 140 141
144 160 166
134 150 153
132 148 150
147 163 173
156 172 179
117 134 128
61 84 50
63 87 51
68 93 55
68 92 55
63 85 50
68 91 54
62 84 49
58 79 45
66 90 53
67 91 54
64 88 51
67 92 54
64 87 51
63 87 51
68 92 54
65 88 52
65 89 53
65 89 51
102 121 108
139 154 156
130 146 147
137 152 154
142 157 163
153 168 178
141 155 160
126 142 142
143 160 163
137 153 158
137 152 155
149 164 170
141 157 162
131 146 147
141 156 158
143 158 165
141 158 161
139 156 160
120 136 132
62 83 54
67 91 54
64 88 51
68 92 55
70 94 56
67 91 54
70 95 56
64 86 50
71 96 58
59 81 47
69 94 56
63 86 50
71 96 57
62 84 49
68 93 55
66 90 53
65 89 52
81 103 80
135 150 154
149 164 172
140 155 159
141 157 162
136 153 154
146 162 169
152 167 173
137 155 158
143 160 163
149 163 171
143 160 162
133 150 151
134 151 152
144 159 166
147 164 172
140 156 162
137 155 154
68 93 55
67 92 54
67 91 54
67 91 54
71 95 57
69 94 55
70 95 57
64 88 51
67 92 54
72 98 59
73 98 60
74 99 59
65 89 53
72 97 58
72 97 58
74 99 62
117 135 129
143 159 166
152 168 173
144 160 166
140 155 161
151 166 174
147 163 167
152 167 174
161 177 189
147 163 170
149 165 172
160 176 188
146 162 169
155 171 179
138 156 158
130 148 150
67 93 55
73 98 59
72 98 59
61 85 49
67 91 55
70 95 57
73 98 59
75 101 61
66 91 53
70 96 57
71 97 59
66 90 52
77 103 63
72 97 63
127 144 142
159 175 184
137 154 157
150 167 173
154 169 179
147 164 167
148 164 166
147 164 168
155 172 181
151 168 175
128 146 145
100 118 107
101 122 104
95 116 92
162 178 187
153 168 176
148 164 170
153 169 176
155 171 175
152 169 175
149 164 171
150 166 174
159 174 184
159 176 186
157 172 181
152 169 175
119 139 130
125 143 141
154 171 179
152 169 177
154 170 178
152 169 178
157 174 181
159 175 184
158 175 182
149 166 175
150 167 173
140 157 158
139 156 161
156 172 180
158 175 186
158 175 184
162 179 190
159 175 187
156 173 182
164 182 195
154 170 175
148 164 168
87 111 83
72 99 60
77 104 64
88 113 84
128 148 141
141 158 163
163 180 193
159 176 184
119 141 135
77 104 63
78 105 64
70 97 58
84 111 71
100 122 104
160 177 184
75 103 62
89 114 82
121 142 135
153 170 176
161 179 189
157 174 182
174 190 203
159 176 184
167 183 196
135 153 150
97 121 100
117 137 128
162 179 189
166 183 195
155 174 182
158 175 181
153 170 177
153 171 178
143 161 165
104 124 107
73 98 65
70 96 58
76 103 62
73 98 60
76 103 63
77 103 63
74 101 63
107 129 114
160 177 188
158 175 183
134 152 152
97 121 97
76 103 62
70 95 56
72 99 59
69 94 55
96 116 96
142 160 161
159 176 187
162 177 187
160 176 184
145 162 166
159 175 185
151 168 176
152 168 176
119 137 129
158 175 183
156 172 180
148 163 170
163 178 188
152 168 177
155 172 176
138 154 157
158 174 183
156 172 182
146 163 170
159 176 185
154 170 177
153 170 178
151 167 173
149 165 172
146 162 165
147 164 169
109 130 116
133 151 150
153 170 177
147 164 169
150 166 173
142 160 164
150 165 171
153 169 176
156 173 184
148 164 172
151 167 172
150 166 172
148 164 169
146 163 168
146 161 169
145 161 167
147 164 170
158 172 179
149 164 166
71 96 57
66 91 54
68 93 56
92 113 92
104 123 110
121 138 135
155 170 179
144 159 161
142 157 161
142 158 162
155 170 178
134 151 153
147 162 167
151 167 176
161 177 185
156 172 178
144 160 165
144 160 162
141 157 163
79 104 72
65 89 52
73 99 60
73 99 60
68 92 55
70 95 57
68 92 54
69 93 55
69 94 56
70 95 56
65 88 53
68 93 54
67 91 55
71 96 58
77 100 72
109 127 118
120 138 131
145 161 164
147 162 168
124 141 135
65 89 53
70 95 57
68 91 54
69 93 57
68 92 55
67 91 54
70 95 58
67 91 54
73 99 60
70 94 56
68 92 55
64 87 52
72 97 59
72 98 59
70 94 56
66 90 53
68 93 55
65 88 52
63 86 51
106 124 114
144 160 168
143 159 165
135 151 152
132 149 151
133 148 154
143 158 164
141 157 161
143 159 165
133 148 152
141 157 161
138 153 156
140 156 162
131 146 148
136 151 155
132 148 148
142 157 162
128 145 145
115 132 127
116 133 128
113 132 123
136 152 155
144 160 166
139 153 155
132 148 149
151 167 177
145 160 165
146 162 170
132 148 149
129 145 148
141 158 160
143 158 163
138 153 159
143 159 165
132 148 146
127 143 143
153 167 174
132 148 149
137 152 154
140 154 158
101 122 107
67 91 53
72 97 59
64 87 52
61 84 48
68 92 55
66 90 52
65 89 52
66 89 53
59 83 48
67 91 54
62 86 51
63 86 50
69 94 56
64 88 52
64 88 51
72 97 58
65 89 53
71 96 58
80 102 77
136 151 150
128 142 145
138 153 156
139 154 157
143 160 162
144 160 166
139 155 158
146 161 164
128 145 145
140 155 160
128 144 144
146 162 166
126 143 144
142 158 162
131 147 151
131 147 151
140 155 160
142 158 162
133 149 152
81 100 81
72 97 58
64 88 51
65 89 52
68 93 56
65 89 53
62 85 50
59 81 47
63 87 52
68 93 55
70 94 56
64 88 52
70 94 56
68 93 55
62 85 49
65 88 52
65 89 53
66 90 53
71 93 63
138 154 157
129 145 146
127 143 144
129 147 144
114 131 124
120 137 131
123 141 140
124 140 139
112 129 121
116 134 128
111 130 121
98 115 102
106 124 113
116 134 130
100 119 106
113 132 124
107 125 114
80 102 75
108 127 118
134 151 154
127 143 144
128 144 143
130 146 145
135 152 153
128 145 144
122 139 137
135 151 152
128 144 146
116 134 129
141 159 161
141 156 161
128 145 145
132 148 150
120 138 133
127 143 143
128 146 145
128 144 141
76 98 69
93 114 95
87 107 84
100 120 103
95 116 97
107 127 115
102 120 106
111 129 123
102 119 108
107 125 113
102 118 112
102 120 108
118 136 123
124 143 138
127 144 140
146 163 169
107 126 116
71 94 63
78 100 72
69 93 55
65 89 52
71 96 57
67 91 55
70 94 56
72 97 58
68 93 54
69 95 57
73 99 60
70 96 57
71 96 59
68 92 54
72 98 59
76 100 67
134 151 150
140 157 160
143 160 164
148 163 167
147 163 166
152 167 173
141 158 163
160 174 182
143 159 161
148 165 172
147 163 170
153 170 177
149 165 172
151 166 172
150 165 172
127 145 142
74 100 61
71 97 58
71 96 57
69 95 56
68 93 55
69 94 56
70 94 57
73 98 59
68 93 56
71 96 58
72 97 59
73 99 60
73 98 59
72 97 58
132 149 150
156 173 181
150 166 173
144 160 163
158 174 180
152 169 176
154 171 180
148 163 165
153 168 175
158 173 179
151 169 176
155 171 178
149 167 172
147 165 169
113 133 124
120 140 134
141 159 162
146 163 170
155 171 180
157 174 186
148 164 170
158 175 180
154 170 175
157 174 182
141 159 160
94 117 96
125 144 140
163 178 188
164 181 192
157 173 183
154 171 177
161 177 187
153 169 176
152 170 180
157 174 184
162 179 189
159 176 186
147 164 169
97 119 100
99 119 104
127 146 142
154 170 177
158 175 183
160 176 184
156 171 179
165 182 193
164 181 192
150 169 176
91 114 89
77 104 64
76 103 63
76 102 62
75 102 62
86 111 83
129 148 142
158 177 187
145 163 171
91 117 85
73 100 61
78 105 63
80 108 66
75 101 61
128 146 144
153 172 178
171 188 200
165 183 194
169 186 197
155 173 181
165 183 195
131 151 149
90 113 86
78 105 64
78 105 64
139 158 158
164 181 190
162 179 188
168 185 196
165 181 191
127 146 146
96 119 95
76 103 63
74 101 61
74 101 61
73 99 61
70 96 57
77 104 63
75 101 61
76 104 64
77 105 64
109 130 117
117 138 129
77 103 66
70 95 57
66 92 53
78 104 63
73 99 60
73 98 59
70 96 57
70 96 57
75 101 61
108 128 115
152 169 174
157 173 184
141 158 162
118 137 131
95 117 94
91 114 89
161 177 186
163 179 188
158 175 184
156 172 180
151 167 172
164 179 189
150 167 173
156 174 183
160 176 185
146 161 167
153 170 178
150 167 174
152 168 175
157 172 180
150 167 173
135 151 152
102 122 106
76 100 69
141 157 163
157 174 183
152 169 178
146 163 169
150 167 171
150 167 174
146 163 168
158 174 183
151 168 172
151 167 174
146 163 169
139 156 161
151 167 172
135 152 153
161 177 189
161 176 186
154 171 177
151 167 175
151 167 175
89 111 89
126 145 139
135 152 154
153 168 174
155 171 180
149 164 170
150 166 171
142 158 161
147 163 169
154 171 181
144 158 162
148 163 169
155 169 175
147 164 170
150 166 174
144 160 164
149 165 168
141 157 160
141 156 162
99 121 97
68 93 55
75 101 62
66 90 53
69 95 56
71 96 58
71 96 58
70 95 57
67 92 54
69 92 56
78 103 69
95 115 99
120 137 135
120 139 135
144 160 162
147 163 167
152 168 173
140 155 159
146 162 168
133 149 150
71 94 62
73 98 58
66 89 52
67 91 54
63 86 51
67 92 54
64 88 52
68 92 54
69 94 58
61 85 49
66 91 53
67 91 54
68 92 54
66 90 53
67 91 54
64 88 52
64 87 51
60 84 48
73 98 59
79 100 76
150 165 171
141 157 159
133 149 152
144 161 164
133 149 151
154 170 179
148 163 168
137 153 156
145 161 167
146 162 169
141 156 164
140 156 160
114 132 124
101 118 109
83 105 82
66 90 53
67 91 54
67 92 55
62 85 50
78 98 75
149 165 170
141 156 159
139 155 160
151 166 175
133 149 151
138 152 159
132 148 150
142 157 163
136 151 156
148 164 171
143 159 163
152 167 175
140 155 157
144 159 163
147 163 168
139 154 155
139 154 157
130 146 148
142 157 163
131 148 147
65 89 53
73 98 60
64 88 52
65 89 52
66 89 52
62 85 50
67 92 54
68 94 56
67 90 52
66 90 55
62 85 49
69 93 55
61 84 47
63 86 50
64 88 52
69 93 56
67 92 55
70 95 57
68 91 55
135 151 151
132 147 147
150 165 174
138 155 159
146 162 168
134 149 151
145 159 166
147 161 167
139 155 158
137 152 155
148 163 170
141 156 162
126 143 144
141 157 159
134 150 155
144 159 165
136 150 151
132 147 147
146 162 167
123 140 136
66 90 53
65 89 51
62 85 50
73 96 64
85 107 82
88 109 85
97 116 100
106 125 112
106 124 116
106 123 117
111 128 120
122 139 135
132 149 151
130 147 147
133 150 151
137 152 157
142 158 162
144 158 165
132 148 149
67 91 54
70 95 57
69 93 55
72 97 59
70 95 57
70 94 57
67 92 55
69 94 56
65 88 52
66 89 53
60 82 47
67 91 55
63 87 51
64 88 51
68 92 55
61 84 48
70 95 57
70 95 57
127 144 140
148 165 174
132 149 150
146 162 167
146 162 168
141 158 161
150 166 174
145 162 168
138 154 159
145 160 168
147 164 169
146 162 169
137 153 156
145 160 165
136 152 154
149 164 169
140 155 156
136 152 157
84 106 80
66 91 54
62 85 49
66 90 52
65 90 53
71 96 58
73 98 60
68 93 55
71 96 58
71 96 57
67 91 54
66 89 53
66 90 54
65 88 52
75 101 61
69 94 55
73 99 61
126 144 141
153 169 176
152 167 174
149 165 170
147 165 167
146 162 164
128 145 144
139 155 158
118 135 128
116 134 129
112 131 119
121 139 133
103 124 110
93 116 92
93 114 95
71 94 62
110 131 118
141 157 161
154 170 179
143 158 162
145 161 168
140 155 161
142 156 159
150 166 174
140 157 160
144 161 164
142 159 165
146 162 165
147 163 167
150 167 174
157 174 183
150 166 173
113 133 123
73 99 59
67 92 54
70 96 57
69 94 56
68 92 54
68 92 54
72 99 60
71 96 57
69 94 56
70 94 56
71 96 58
67 92 55
74 100 59
85 109 77
139 156 161
158 174 181
152 167 175
152 168 175
153 170 177
151 167 172
156 173 182
158 174 186
149 165 171
156 174 183
156 173 180
148 165 171
161 178 189
143 160 165
84 109 74
70 96 57
68 92 54
81 105 75
123 142 133
120 140 133
146 163 168
153 168 174
98 120 100
71 97 58
70 95 56
74 101 61
122 143 134
162 179 188
162 179 188
155 171 176
153 170 177
155 172 180
154 171 178
160 176 184
158 174 182
156 173 183
167 185 196
148 165 170
92 117 89
75 102 62
75 101 62
93 117 93
126 145 139
146 163 169
150 167 173
164 181 190
165 182 191
154 171 179
99 122 103
79 107 66
78 106 66
75 102 61
72 99 59
76 103 63
74 101 61
86 112 77
109 132 118
89 114 83
75 102 62
78 106 64
81 110 69
167 182 194
166 185 199
168 185 198
158 176 187
155 173 182
122 142 135
80 105 69
76 102 63
83 111 69
77 105 65
78 106 65
151 169 176
166 183 193
154 171 177
122 141 136
85 111 75
78 105 64
75 101 62
71 97 58
72 98 59
74 101 61
75 101 60
69 95 56
76 103 63
77 103 65
107 127 117
143 160 161
124 145 140
73 99 60
72 98 60
76 103 63
73 99 60
71 96 57
77 103 63
79 106 64
68 93 56
76 103 62
71 97 58
74 101 61
106 126 112
136 154 154
81 105 71
72 98 59
73 99 59
103 126 105
145 161 168
169 185 197
148 164 169
153 170 175
150 166 171
145 161 164
149 166 173
159 175 183
152 169 178
157 175 184
155 171 181
149 165 168
130 147 144
112 132 121
77 102 69
70 96 59
68 94 56
73 99 60
143 158 164
147 163 168
163 178 187
147 164 172
152 169 177
159 175 185
159 174 185
146 163 169
153 170 177
153 167 175
144 161 167
140 157 160
151 168 176
146 161 165
155 171 179
153 169 176
142 158 160
121 139 134
84 107 81
146 163 166
143 159 164
156 172 178
157 174 184
157 174 183
148 164 172
146 162 169
146 162 164
158 174 183
148 164 170
152 168 177
144 160 166
145 161 164
141 157 163
145 161 167
149 166 172
150 167 175
144 159 164
151 166 173
120 138 133
72 98 59
68 93 56
67 91 53
64 88 52
68 93 54
76 99 68
96 116 103
125 142 141
134 151 149
146 161 168
157 173 181
156 172 180
141 156 162
144 160 164
142 156 158
138 154 159
142 157 163
144 160 166
151 167 176
93 113 93
68 93 56
68 92 55
71 95 57
65 89 52
71 97 58
71 97 58
72 97 58
67 91 54
67 91 54
67 91 55
72 97 58
71 96 58
62 86 50
71 96 57
66 90 54
68 93 55
62 85 50
71 97 58
67 91 54
141 156 159
136 152 157
148 163 169
155 170 178
136 152 154
146 162 167
147 163 166
126 143 142
106 124 112
85 107 85
67 91 54
70 94 57
65 89 53
67 91 54
72 97 58
64 88 52
65 89 53
71 96 58
73 99 59
69 93 55
147 162 168
140 155 162
144 160 164
139 154 156
140 156 158
132 148 154
142 157 166
140 156 159
152 166 173
131 148 149
150 167 174
139 155 157
135 151 151
134 148 150
140 156 160
145 161 165
141 156 161
148 164 169
130 146 147
131 146 145
80 102 73
72 98 59
65 90 53
63 86 50
63 87 51
68 92 55
66 90 54
62 84 49
65 88 51
69 94 56
69 93 55
63 86 49
68 92 54
61 84 48
63 87 52
68 92 55
68 92 54
71 96 58
62 85 49
97 116 103
135 151 156
143 158 164
139 155 160
144 160 165
133 151 152
139 154 158
145 161 165
140 155 159
141 156 160
143 159 164
130 147 144
133 150 152
120 137 136
117 134 130
124 142 139
122 137 134
105 123 114
99 119 106
92 112 96
120 137 133
147 163 169
139 154 158
142 157 161
155 170 177
143 158 163
145 160 165
150 165 170
148 164 171
155 171 178
148 165 172
143 159 165
144 158 163
141 158 161
150 165 172
150 166 172
142 159 164
143 159 164
151 165 169
75 96 67
69 94 56
68 93 55
70 94 56
71 96 58
64 87 52
63 87 50
61 83 48
66 90 53
68 92 55
74 100 60
67 91 55
62 85 49
65 88 52
67 92 54
63 87 51
68 93 56
72 96 58
96 114 102
146 162 167
153 169 175
140 155 157
160 177 188
155 171 180
149 165 171
151 166 172
142 157 163
142 158 160
150 165 172
138 154 159
140 156 160
144 161 165
143 159 166
152 168 175
141 158 164
139 154 157
127 147 142
70 95 57
68 92 55
69 95 57
66 91 53
68 91 54
68 93 55
67 91 54
72 98 58
67 90 53
70 95 57
71 96 57
67 92 55
66 90 53
65 88 52
73 98 59
71 96 58
75 97 70
144 162 167
153 168 175
147 163 170
139 155 158
146 162 166
154 169 176
141 158 162
152 168 175
149 165 171
155 170 179
149 166 171
154 170 177
157 173 181
150 166 171
140 156 161
158 174 183
119 136 132
95 114 96
100 121 106
111 129 116
99 118 102
113 132 124
123 141 135
130 147 145
138 154 157
146 162 168
150 165 172
148 165 169
156 172 181
153 170 179
150 166 170
146 163 169
97 119 98
74 99 61
69 94 55
66 91 53
75 101 62
62 87 49
66 91 54
73 99 60
71 97 59
73 98 60
72 98 58
70 96 57
69 94 56
69 94 55
85 108 78
147 164 169
152 170 179
157 173 181
159 175 185
152 169 177
151 167 177
158 175 183
155 171 181
140 158 164
148 164 169
150 167 173
162 179 189
154 170 179
130 149 147
78 102 67
71 97 58
70 96 56
74 101 61
86 108 86
123 141 131
154 171 178
136 155 157
122 140 133
106 127 113
89 113 84
72 98 60
129 146 143
161 177 188
151 168 175
156 172 178
156 173 183
149 166 171
166 182 193
158 174 182
153 169 177
162 179 190
159 175 183
157 173 180
89 114 85
78 105 64
75 101 62
72 99 59
79 107 66
83 109 73
115 136 123
126 146 143
154 171 179
168 185 197
102 124 109
73 99 59
76 104 63
76 103 63
81 110 67
72 99 59
80 107 65
75 102 61
88 114 85
126 147 146
116 136 126
85 112 77
175 192 206
167 185 198
142 159 161
127 147 144
74 99 63
77 103 62
80 108 66
79 107 66
77 104 63
77 104 63
81 109 71
142 160 162
113 132 123
83 110 73
73 100 59
76 104 63
76 103 63
75 102 62
77 104 63
73 99 59
76 102 62
74 101 61
90 115 85
128 148 146
153 170 177
161 178 186
152 170 175
106 127 115
73 100 60
77 103 62
74 101 61
73 99 59
78 105 64
73 100 61
70 95 57
76 103 63
83 108 75
122 141 132
143 160 165
167 183 192
150 168 173
169 185 196
136 155 154
88 111 82
87 108 84
157 175 183
154 170 179
152 168 177
156 172 183
159 176 185
163 178 186
160 176 187
154 170 178
166 182 191
134 152 149
107 127 114
82 107 74
74 101 62
69 94 56
72 98 58
76 102 62
68 93 56
71 97 58
156 173 181
161 177 186
153 170 179
152 168 175
153 170 177
143 160 163
142 159 163
152 168 173
151 167 175
150 167 174
154 170 179
147 164 170
158 173 182
138 155 160
113 132 121
87 110 83
79 105 65
72 98 58
71 97 58
143 160 163
143 160 163
156 171 177
152 167 175
149 166 169
150 165 173
146 163 167
136 153 157
142 158 162
149 165 168
152 167 176
147 162 166
158 174 183
144 160 168
149 164 168
148 164 170
164 181 190
146 162 168
156 171 181
107 126 117
69 94 56
66 91 54
85 105 83
116 135 126
132 149 149
131 148 147
142 157 162
138 153 156
146 160 166
147 162 167
134 151 154
142 159 161
142 158 160
149 166 174
151 166 173
147 162 167
149 165 173
137 152 157
150 167 172
108 125 117
68 94 56
68 92 55
64 87 51
70 96 57
68 92 54
69 94 55
68 93 56
70 94 56
72 98 59
69 94 55
69 94 56
67 91 54
66 90 52
67 92 55
62 85 49
67 91 54
69 93 55
68 92 55
66 90 54
125 143 139
133 149 152
125 143 142
95 112 97
94 113 97
77 101 67
67 92 55
67 91 54
64 88 51
69 93 56
71 96 58
70 94 56
70 95 57
73 99 59
68 92 55
67 90 54
69 94 55
70 95 57
62 86 50
66 89 53
113 132 121
143 160 165
149 164 170
156 171 177
152 168 177
150 164 172
156 171 180
149 165 171
152 168 176
156 171 179
146 160 168
132 148 154
131 148 148
145 161 167
145 161 164
150 166 175
141 157 159
152 168 177
145 159 165
152 167 176
111 131 121
59 82 47
63 86 50
67 91 54
69 94 56
68 93 55
62 85 49
71 96 57
65 89 53
66 91 53
65 89 51
64 88 52
68 92 55
69 94 57
64 88 52
67 91 54
66 90 52
69 94 56
69 94 57
71 97 58
142 158 164
139 157 156
129 146 147
130 147 145
132 148 152
117 134 131
90 109 96
111 130 120
89 110 91
79 101 74
74 98 62
66 90 53
66 90 54
65 88 53
71 96 57
66 90 54
65 89 53
68 92 55
67 92 54
103 122 110
139 156 157
150 165 172
142 158 164
149 165 173
147 163 166
149 165 171
143 158 163
144 159 165
155 172 180
151 166 174
148 163 171
160 175 184
141 157 162
154 170 179
145 161 168
145 161 164
153 169 177
150 167 173
131 147 148
66 89 53
65 90 53
68 91 53
62 85 48
70 94 56
69 94 56
68 93 56
69 94 56
71 96 58
74 100 60
70 95 57
72 98 59
63 86 50
66 89 52
69 93 55
67 91 54
68 93 55
64 88 52
115 133 126
153 169 177
147 162 167
145 162 169
153 168 175
141 157 160
144 159 165
143 160 163
139 155 157
157 172 180
140 157 161
144 159 162
149 165 169
161 176 185
146 161 167
148 164 170
153 169 177
145 162 168
103 123 106
73 98 60
67 91 54
71 96 58
67 91 55
67 93 55
64 87 50
70 95 57
72 98 59
69 94 56
73 100 60
68 93 56
67 92 55
65 89 52
70 96 58
67 91 54
71 95 57
89 109 91
149 166 172
154 169 179
148 163 171
135 151 150
135 151 153
149 165 174
147 163 170
145 160 164
153 169 175
159 175 183
144 161 164
157 173 181
149 165 172
146 162 167
142 158 163
156 171 178
97 119 101
71 97 58
71 97 58
68 93 55
70 94 56
77 104 64
69 93 55
67 93 54
65 90 53
77 100 71
75 98 67
112 131 121
107 127 113
126 144 138
120 138 131
122 141 139
95 118 93
76 101 62
68 92 55
76 102 63
71 97 58
72 99 60
71 96 58
74 100 60
70 96 57
72 98 58
75 101 60
67 92 55
71 96 58
70 95 56
106 127 110
157 172 180
152 168 176
143 160 166
150 167 175
160 176 185
160 175 183
147 164 168
157 174 184
155 173 183
156 173 180
153 170 178
147 164 169
164 181 191
130 147 147
69 95 56
93 116 92
119 140 133
155 172 180
149 166 171
161 177 185
151 168 177
161 178 186
163 179 186
155 172 179
151 168 175
132 149 148
142 161 163
150 166 171
151 168 175
158 175 186
154 170 175
156 172 180
151 169 178
152 169 175
159 176 183
169 185 196
165 182 194
149 167 174
97 118 98
74 101 61
73 100 60
79 106 64
77 104 64
80 108 66
75 102 62
73 98 63
102 125 104
135 154 154
105 126 112
77 105 64
79 107 65
77 104 63
72 98 60
77 105 64
77 104 64
76 103 63
77 104 64
147 165 168
154 172 178
139 157 160
120 141 132
85 112 74
77 103 62
77 104 63
73 100 60
72 98 60
81 109 68
82 110 68
101 124 104
133 153 150
73 100 60
75 103 62
78 104 63
77 105 64
74 101 60
72 98 59
75 101 61
75 101 61
75 102 62
96 120 93
137 155 155
167 184 196
155 172 182
160 177 188
154 172 179
152 169 175
87 110 84
73 99 59
76 103 63
71 96 57
76 103 63
76 102 62
75 102 62
110 131 116
141 160 162
154 172 181
152 168 175
159 175 184
150 167 174
151 166 172
167 182 193
161 177 187
160 178 188
129 147 142
141 158 159
138 156 161
159 176 184
152 169 176
164 180 190
156 172 178
138 155 156
120 138 133
82 105 77
69 93 56
73 98 59
73 98 59
70 96 57
72 97 59
71 97 58
77 103 62
67 92 55
74 100 60
133 148 150
147 163 166
149 165 172
156 172 181
152 168 173
159 174 184
158 174 182
141 157 162
153 168 175
149 165 170
142 159 162
119 138 133
89 111 85
68 94 56
69 94 56
73 98 60
65 90 51
74 99 60
70 95 58
134 151 152
153 170 178
156 172 181
150 167 170
148 164 173
148 165 171
148 164 167
147 163 170
151 167 171
152 168 175
156 172 182
144 160 162
154 171 180
153 169 177
135 152 154
145 161 167
149 166 172
150 166 171
146 162 170
130 146 147
117 136 129
126 143 139
150 166 176
147 162 171
145 161 165
146 160 166
155 171 179
147 163 169
142 158 164
155 171 178
154 171 180
151 167 173
147 164 168
147 163 168
157 173 183
148 164 171
142 158 161
144 160 164
154 170 178
129 148 146
68 93 55
72 97 59
71 97 58
66 89 52
76 102 63
69 93 55
67 92 54
65 90 54
61 84 48
71 96 57
70 95 57
71 95 57
72 97 58
67 91 53
68 92 54
74 97 67
99 119 102
116 133 128
132 149 148
122 140 133
68 91 54
65 90 53
72 97 59
72 97 58
62 86 49
75 100 61
72 97 58
70 95 57
68 92 54
70 96 57
72 97 58
77 103 63
63 86 50
72 97 58
65 90 53
72 98 59
66 90 53
67 91 53
68 92 55
87 109 87
147 163 169
150 164 174
138 153 156
143 159 164
150 166 174
152 168 174
141 157 162
148 164 170
147 162 169
136 152 154
149 164 170
143 158 164
146 161 166
140 156 161
137 152 156
138 153 157
143 159 167
149 164 169
144 160 162
123 139 140
67 91 53
63 86 50
66 90 54
71 96 57
67 92 55
63 87 51
67 92 54
66 89 53
63 87 51
66 90 54
72 98 58
64 87 52
70 95 57
76 97 72
95 114 100
97 114 101
102 122 107
112 129 121
119 136 134
119 137 131
68 91 57
64 88 52
69 94 56
67 91 53
66 90 53
67 91 54
67 92 54
71 96 58
65 89 51
68 93 55
65 89 54
71 96 57
68 92 55
68 93 56
71 96 57
63 87 51
65 89 52
68 93 55
65 88 52
152 169 173
140 155 159
132 149 149
152 166 175
140 155 162
135 151 152
141 157 162
149 164 170
142 157 164
141 156 158
149 165 168
136 152 154
150 166 171
140 156 161
154 169 176
145 162 167
151 168 175
144 159 164
146 162 169
92 113 95
68 92 54
65 88 53
66 90 52
69 95 56
69 93 55
69 93 55
74 99 60
75 102 63
64 87 51
63 87 51
71 96 58
69 94 57
67 91 54
61 84 49
69 93 55
61 84 48
71 97 58
86 109 84
140 156 154
148 165 170
151 167 176
149 164 173
145 161 166
150 166 175
137 154 157
133 150 154
142 158 163
136 153 156
150 167 173
146 161 169
156 173 182
139 156 161
149 165 172
138 155 159
141 159 165
146 162 166
78 101 73
67 92 55
67 91 53
73 97 58
68 93 55
70 95 56
65 89 51
68 92 55
68 93 55
73 99 60
70 95 57
72 97 59
70 96 58
70 95 57
66 91 54
68 93 56
66 90 53
136 152 156
150 166 174
154 170 177
146 162 168
137 154 157
147 163 168
150 167 176
149 165 172
144 160 164
146 161 166
149 165 172
140 155 160
146 161 165
157 174 181
153 170 179
146 163 169
142 158 162
80 105 74
68 94 55
72 98 59
68 94 56
71 96 57
72 98 59
68 92 55
71 97 58
67 92 55
69 95 56
72 98 58
71 97 58
66 91 53
71 97 59
70 96 58
93 116 96
126 143 139
145 162 167
126 146 140
124 143 138
122 140 136
102 122 107
102 123 107
79 102 72
68 93 55
76 103 62
66 91 54
76 102 62
74 101 61
74 100 61
103 122 109
150 167 175
156 173 181
155 172 178
160 177 187
148 163 168
163 178 190
160 174 181
154 171 180
148 165 170
153 171 177
156 173 181
151 168 175
149 165 171
119 138 130
167 183 194
152 169 177
149 165 172
156 173 180
165 182 194
153 171 180
152 169 177
154 171 177
152 169 174
165 180 193
149 166 171
153 170 177
109 129 115
84 109 80
116 136 127
128 147 145
148 165 171
156 174 181
160 176 185
159 177 189
157 175 186
158 175 186
144 161 164
141 159 160
100 123 105
77 104 63
79 106 65
73 99 60
78 105 64
76 103 62
76 103 63
75 101 62
78 106 64
74 101 61
113 134 120
127 149 144
80 107 71
77 104 63
74 101 60
75 102 62
79 107 66
79 107 65
79 106 67
123 143 137
78 105 67
76 103 62
73 100 60
79 106 65
79 107 65
75 101 61
76 103 63
112 135 124
155 173 181
167 185 197
130 149 144
77 103 63
76 103 63
77 104 64
72 99 60
74 101 61
75 102 61
77 104 63
117 137 127
140 158 160
166 183 196
162 179 192
148 165 169
166 183 195
162 178 188
159 177 187
158 176 185
89 112 85
72 98 58
78 105 64
74 100 61
85 108 83
122 141 135
159 176 186
164 181 191
151 169 176
163 179 192
167 182 193
158 175 186
154 170 178
158 174 184
159 176 185
157 173 181
153 170 177
144 160 160
69 95 56
89 112 85
121 141 132
158 175 181
124 144 136
92 113 91
75 101 61
76 103 62
71 97 57
78 104 63
70 96 57
71 96 57
73 99 60
69 94 56
73 99 60
77 104 63
73 100 60
72 98 58
137 153 153
157 172 178
144 160 165
153 168 175
158 174 183
158 175 184
155 172 181
133 151 153
108 128 116
75 100 63
71 97 58
70 94 56
70 96 58
71 96 58
64 89 52
69 95 56
74 100 60
72 98 58
68 93 55
132 149 152
152 168 175
158 174 183
147 164 170
149 166 170
156 172 181
144 159 163
143 160 164
147 162 167
162 178 187
150 166 171
166 181 194
150 166 175
156 171 181
137 153 159
146 162 167
119 137 131
101 121 103
73 97 60
79 102 73
152 167 173
154 169 177
148 163 169
146 162 166
149 165 169
153 169 175
150 166 174
153 169 174
150 167 174
152 169 175
146 163 167
143 158 163
152 168 174
145 162 166
147 164 170
140 155 159
146 163 165
152 169 180
149 164 170
144 160 165
74 100 60
69 94 55
69 93 55
67 91 53
75 101 62
65 89 52
71 97 58
74 100 60
61 85 49
70 95 56
73 99 60
86 108 86
110 128 115
124 142 138
130 146 147
142 158 161
133 149 153
145 160 161
137 153 156
140 155 162
77 103 66
69 93 56
72 97 59
72 97 58
68 92 55
74 100 61
66 91 54
72 97 58
70 94 57
70 95 57
68 93 55
73 99 60
68 93 55
62 85 50
65 88 51
69 93 55
69 93 56
67 91 54
68 92 54
73 97 61
143 159 165
144 160 167
152 167 175
149 166 173
147 162 167
138 153 155
134 150 150
154 170 177
137 153 157
139 155 159
145 162 163
138 156 161
136 152 156
147 162 168
145 161 167
135 152 152
149 164 169
131 149 150
155 171 178
139 155 159
78 98 75
71 96 58
65 90 53
74 99 60
69 94 55
70 93 61
91 113 90
101 122 105
118 135 130
116 133 129
121 139 135
131 148 151
141 157 160
141 157 159
143 158 163
150 167 174
147 162 167
146 162 165
148 165 173
149 165 171
70 93 58
68 93 56
70 95 56
69 94 56
67 92 55
67 92 55
70 95 57
67 91 54
67 91 54
70 95 57
66 91 53
66 90 53
70 95 57
64 88 51
71 96 58
62 85 49
67 91 54
72 98 59
67 92 55
102 122 111
132 148 147
142 158 163
147 163 168
134 150 153
141 158 162
129 145 145
150 166 172
139 157 157
120 136 137
148 164 170
141 156 158
156 172 181
144 159 164
134 150 152
139 155 158
147 163 169
152 167 172
142 158 163
122 139 136
74 99 62
74 100 60
70 95 57
70 95 57
70 94 56
68 93 55
70 95 56
64 88 51
72 98 59
67 92 54
67 91 54
61 83 49
68 93 55
71 97 58
69 94 55
68 93 54
67 92 54
67 91 54
125 140 137
151 166 173
150 165 171
142 157 161
136 153 158
151 166 176
143 159 164
143 161 167
146 162 168
146 161 167
145 162 166
155 170 179
143 160 161
147 163 170
138 154 158
153 168 174
145 162 167
148 165 172
120 138 134
65 88 51
68 94 56
73 99 59
71 97 59
69 93 55
70 95 57
72 97 58
68 93 55
74 99 60
75 102 62
72 97 59
72 97 59
70 95 57
68 94 55
67 92 54
70 95 57
75 100 64
152 169 177
150 166 169
154 169 178
141 157 160
151 166 169
148 165 172
148 164 169
146 162 168
156 171 179
152 169 174
137 153 156
152 167 174
148 165 170
153 170 179
160 175 183
152 168 174
130 146 148
72 97 58
74 101 61
70 94 57
68 93 54
72 98 59
68 94 55
71 97 57
70 97 58
73 100 60
77 103 62
71 97 58
72 98 59
71 95 57
69 94 56
72 99 59
113 132 122
155 171 179
149 165 174
149 166 172
161 178 188
148 164 169
162 177 186
148 163 167
151 168 172
152 169 178
136 153 153
123 141 137
103 124 107
91 112 90
81 105 75
125 144 136
157 174 181
152 168 177
153 170 180
159 175 186
151 169 175
156 174 184
157 173 181
146 162 167
148 164 170
129 147 147
84 109 79
74 101 61
75 101 61
128 145 144
150 168 174
155 171 179
156 173 182
150 168 174
162 180 192
152 168 175
153 171 176
160 176 186
163 181 192
145 163 167
156 172 179
160 176 186
110 131 116
72 99 59
74 100 61
72 98 59
90 115 88
123 144 136
132 149 146
159 177 186
166 182 195
161 178 190
163 180 193
147 165 169
90 115 89
76 103 63
74 100 59
74 100 60
77 104 63
72 98 59
72 98 58
77 104 63
76 103 63
78 105 64
125 145 138
166 183 193
147 165 168
113 134 124
87 113 80
76 104 63
76 104 64
78 106 65
83 111 69
82 111 69
80 108 67
79 107 67
78 106 65
81 106 76
125 145 137
156 172 179
163 180 188
160 177 187
154 173 181
122 142 134
77 103 62
74 101 60
75 102 62
78 106 65
91 116 89
129 147 146
145 163 166
158 174 178
170 186 198
165 181 192
151 168 177
158 174 182
164 180 189
158 175 185
154 169 175
168 184 194
78 104 69
74 100 61
94 116 96
142 160 166
155 173 182
161 177 186
155 171 177
157 174 183
154 171 177
153 170 178
153 170 176
153 170 177
150 166 171
169 184 194
153 170 175
161 178 188
155 172 179
145 161 166
80 106 69
115 136 123
139 157 160
154 170 178
131 149 145
110 130 117
74 100 60
72 98 58
75 102 62
73 100 60
80 107 66
72 97 58
74 100 60
74 100 60
74 101 60
76 103 62
76 103 63
70 96 57
146 164 167
151 166 172
165 181 190
142 158 159
147 163 167
110 130 117
88 111 81
71 96 57
75 101 60
73 99 60
73 99 60
71 96 57
75 101 62
71 96 57
77 103 63
68 93 56
74 99 60
77 104 63
71 96 57
114 132 123
152 168 177
150 166 172
151 168 173
144 161 165
151 168 178
149 164 170
159 175 185
151 167 175
154 169 174
154 170 176
149 165 171
126 143 138
113 132 124
95 115 98
76 103 62
73 99 59
73 100 61
65 88 51
71 96 58
129 147 143
140 155 159
152 169 174
151 167 174
145 162 168
155 171 180
148 165 170
149 164 170
159 175 184
158 174 187
139 155 157
151 167 174
142 159 164
141 158 163
147 162 165
141 157 158
135 153 156
151 168 175
155 171 178
147 162 166
82 106 75
67 91 54
69 94 56
64 88 52
74 99 60
69 95 57
73 97 61
83 105 78
112 130 121
121 139 136
143 160 164
145 161 168
149 163 169
148 165 171
137 153 156
147 163 170
149 165 170
148 164 168
149 166 172
149 166 174
95 115 97
71 97 58
64 87 52
70 94 56
69 94 56
67 92 54
69 93 57
68 94 56
73 99 60
67 92 54
71 96 58
66 89 53
72 97 58
63 87 51
70 95 57
70 95 56
71 96 58
69 94 56
66 90 53
68 93 56
125 141 140
133 149 151
153 168 176
140 156 160
138 153 157
140 155 157
138 154 155
140 157 161
140 155 161
144 159 165
158 174 184
150 165 173
142 158 162
143 159 164
140 156 162
146 161 166
152 167 173
145 162 166
132 149 152
138 154 158
114 132 124
104 123 112
119 137 131
123 141 137
131 149 149
146 162 165
144 161 168
144 160 166
148 163 170
154 170 179
157 173 178
141 159 163
148 164 170
137 153 158
141 157 162
145 160 166
136 152 154
147 162 168
144 161 164
143 159 164
106 125 114
71 96 57
64 88 52
70 95 57
65 90 53
66 91 54
69 94 56
63 87 50
70 95 56
66 90 53
70 95 57
75 100 61
72 98 59
68 92 55
73 98 59
71 95 56
71 96 57
68 93 54
72 98 58
79 102 73
144 160 166
146 164 171
147 162 166
150 166 172
144 160 163
150 167 174
147 163 170
147 163 169
131 146 146
153 169 178
147 164 170
140 156 163
153 169 175
142 158 162
141 157 161
153 167 174
141 156 158
147 163 169
154 170 176
104 123 113
71 96 58
63 87 51
67 92 54
72 96 58
74 100 60
72 97 58
65 90 52
68 92 55
69 94 56
66 90 53
65 89 53
70 94 57
68 92 55
76 102 62
72 97 59
67 91 53
67 92 54
67 90 57
137 154 158
148 165 170
142 157 160
143 160 164
154 169 179
144 159 163
144 161 168
138 154 158
137 153 154
143 159 163
156 172 179
141 158 162
148 165 172
156 172 183
136 153 156
144 161 165
154 171 179
147 164 170
83 105 81
73 98 59
72 97 58
70 95 56
73 99 59
70 95 56
73 99 60
67 92 54
71 97 58
65 90 52
69 94 56
64 87 51
67 92 54
68 94 56
71 96 58
72 98 59
71 97 58
101 122 105
147 164 169
153 169 179
150 165 170
151 169 177
158 173 181
147 162 168
147 164 172
151 167 172
152 167 174
136 153 156
152 167 174
157 174 184
147 163 169
154 170 177
155 171 180
159 175 183
111 131 117
70 95 57
72 98 59
70 96 57
70 95 57
74 100 61
69 94 55
70 95 57
66 90 53
71 97 58
69 94 55
73 99 60
71 97 58
70 95 57
74 101 60
70 95 56
132 148 146
150 167 175
138 155 160
143 160 165
157 173 179
153 170 178
153 168 175
158 175 186
158 173 178
154 170 178
149 166 171
150 166 171
142 161 164
155 172 180
149 165 170
131 150 148
118 138 131
136 154 154
133 152 152
148 165 170
158 174 182
126 144 141
104 126 109
83 109 72
77 103 62
74 101 61
79 107 65
75 101 61
75 100 64
136 155 154
153 169 174
155 171 177
150 166 171
164 181 192
161 178 186
159 176 183
165 181 191
153 170 177
160 176 185
153 171 181
158 175 183
155 171 181
113 134 121
75 102 62
76 102 62
72 99 59
75 102 62
73 100 60
72 99 60
91 113 87
110 132 114
145 164 165
152 170 178
146 164 170
88 113 83
76 103 63
74 101 62
79 106 65
75 101 61
79 107 66
75 102 62
77 104 63
78 106 64
78 105 64
127 146 139
169 187 201
173 191 205
172 188 200
154 172 178
116 136 124
91 116 90
79 107 66
76 103 62
75 102 62
89 116 82
136 155 151
159 175 181
167 184 195
164 181 191
161 179 187
165 181 192
161 180 191
103 126 110
76 103 63
81 109 67
100 122 99
139 158 156
160 177 189
155 172 179
162 179 190
166 183 195
155 171 181
160 178 188
159 176 187
153 169 175
156 174 183
167 184 197
171 187 202
160 177 185
112 133 121
156 173 179
156 174 184
158 175 184
162 180 189
156 173 182
150 167 176
162 177 188
161 177 188
163 181 192
165 182 191
152 169 176
150 167 175
166 182 194
165 182 192
168 184 196
152 170 173
119 138 130
157 172 180
158 175 184
160 177 187
159 175 185
162 179 186
156 173 183
148 164 171
134 152 155
92 115 87
77 103 63
77 104 64
76 103 62
76 103 63
73 99 60
76 103 63
72 97 58
71 97 58
75 102 62
137 156 157
129 148 146
123 142 137
81 104 76
75 102 62
77 104 64
71 96 58
74 100 59
72 98 59
66 91 54
74 100 60
72 98 59
74 100 60
70 96 57
74 99 59
72 98 59
76 103 63
72 98 58
75 102 63
102 122 109
146 162 166
149 166 175
152 168 176
148 163 169
159 175 184
149 165 169
153 169 177
140 156 161
129 146 142
112 131 118
70 95 56
73 99 59
70 95 57
73 99 60
67 92 54
76 102 61
76 102 62
76 103 63
74 100 61
115 132 128
158 175 187
163 179 191
149 166 173
148 165 171
147 163 167
153 168 175
159 175 183
151 167 172
155 171 181
159 174 185
151 167 173
153 170 177
147 163 171
145 161 167
140 155 159
146 161 166
142 158 163
155 170 179
142 159 165
104 123 111
68 93 56
70 95 57
95 115 97
111 129 123
129 146 144
141 157 156
150 166 172
147 163 170
144 161 161
135 153 152
156 171 178
146 163 168
145 161 165
140 156 162
144 160 165
153 168 176
148 164 168
147 163 167
141 157 160
119 136 131
70 94 55
71 96 57
75 102 62
67 92 55
70 94 57
72 97 59
67 91 54
73 99 61
70 94 56
74 100 61
70 95 57
71 96 57
71 95 57
70 94 56
70 95 57
67 92 54
71 96 58
71 96 57
70 95 57
92 113 96
148 164 169
156 172 182
148 164 169
140 156 160
157 173 182
151 167 175
150 167 173
149 165 173
137 154 157
145 160 165
145 162 168
146 162 168
144 160 166
124 140 138
107 124 115
106 126 112
87 108 87
77 100 69
67 91 54
82 103 81
149 164 168
131 146 150
139 155 160
140 155 158
152 168 175
142 157 162
152 168 174
140 157 160
149 165 170
153 169 176
126 142 141
156 173 182
140 157 159
140 157 160
142 157 160
147 163 167
135 150 153
144 159 164
146 163 169
140 156 159
69 93 56
75 101 61
72 97 59
63 87 51
67 91 54
71 96 57
69 94 56
66 91 54
71 95 57
69 94 56
65 89 53
71 95 57
73 98 59
66 91 54
67 91 53
67 92 54
74 99 60
67 91 54
67 92 54
107 124 115
137 154 156
148 164 170
146 162 169
140 157 155
149 165 170
154 169 176
137 153 158
139 155 160
141 158 162
145 161 171
142 158 164
147 164 170
145 160 162
136 151 152
150 166 172
159 175 184
153 169 176
147 163 170
125 141 141
70 96 58
70 95 56
65 89 53
67 90 54
65 88 52
70 95 56
68 92 54
71 96 58
67 92 54
67 92 54
69 94 56
73 98 59
64 88 52
69 94 56
65 89 51
73 99 60
65 89 52
68 93 55
115 133 125
143 158 161
141 158 160
148 165 172
144 160 165
138 155 158
156 171 180
152 169 173
150 166 174
137 153 154
140 157 163
142 158 163
157 172 181
140 157 159
158 174 184
154 170 178
145 163 169
161 177 186
135 152 149
65 88 52
68 93 55
75 100 60
68 94 56
71 96 58
66 90 53
70 95 57
74 100 61
75 101 60
66 90 53
73 98 60
72 97 58
75 101 61
74 100 60
74 100 61
70 95 56
69 94 56
139 156 157
140 155 159
141 158 163
154 171 180
153 169 175
156 171 178
143 160 164
154 170 177
160 177 188
145 161 168
155 171 181
160 174 183
148 166 171
158 174 184
135 152 153
155 171 181
153 169 175
86 110 80
66 91 53
74 99 60
72 98 57
75 101 61
70 95 57
69 95 58
70 95 57
69 93 56
71 96 57
73 98 59
68 94 56
77 105 64
72 97 58
70 95 56
71 97 58
146 164 168
148 166 171
155 172 181
152 169 176
153 170 179
153 170 179
155 171 181
147 163 168
154 170 178
158 176 186
164 181 191
153 169 173
146 164 169
152 169 178
144 158 162
95 116 97
69 94 56
99 120 103
124 143 138
151 168 173
127 145 141
128 147 141
108 128 115
89 111 89
75 101 61
75 102 62
76 103 63
71 97 58
85 110 80
146 163 165
162 178 188
147 163 169
155 173 182
151 170 176
162 178 188
152 169 179
157 174 184
146 163 165
164 180 190
163 178 190
161 176 185
154 172 181
93 116 90
75 102 61
71 98 59
72 98 60
74 101 61
73 99 59
78 106 64
78 105 64
76 103 63
78 105 66
113 133 121
105 127 112
90 115 89
77 104 64
77 104 63
77 104 63
78 105 64
78 105 64
74 100 60
76 103 63
81 109 67
73 100 60
120 141 133
153 171 177
163 179 186
167 184 195
165 181 188
165 183 195
141 160 159
95 117 96
130 149 149
166 184 196
167 185 197
171 187 202
153 171 180
167 185 197
166 184 195
167 183 193
162 180 191
89 114 83
114 136 121
135 153 152
155 172 181
161 178 189
166 184 196
161 177 186
153 171 181
170 187 200
160 177 187
153 170 178
166 182 195
163 180 189
163 180 191
155 171 179
116 137 124
101 124 103
170 187 200
161 177 188
161 178 189
151 168 176
162 179 189
160 177 188
154 172 180
163 181 194
155 171 181
156 173 181
160 177 184
148 165 172
157 173 179
161 177 188
136 153 153
95 118 97
73 99 60
107 128 113
158 174 184
161 177 189
153 169 178
156 173 180
144 162 169
163 179 189
156 172 179
146 163 168
157 174 184
146 164 170
133 151 149
94 118 94
79 104 69
74 100 59
68 94 56
76 102 62
91 114 86
124 143 137
109 128 120
75 101 61
70 96 57
77 103 62
74 101 61
72 97 58
72 97 58
71 97 57
75 101 61
74 100 61
72 98 59
76 102 62
72 97 57
71 97 57
75 101 61
74 100 61
74 100 61
72 98 59
72 98 59
103 124 107
151 168 175
147 164 170
146 162 167
141 158 163
137 154 154
126 144 137
88 110 88
72 97 58
70 95 57
73 99 60
74 100 61
70 94 56
73 99 60
72 98 58
70 94 56
76 102 62
73 100 60
72 98 59
72 99 59
116 135 127
147 163 169
158 174 184
149 165 170
154 170 182
144 161 165
144 161 167
157 171 177
152 168 175
152 167 176
156 172 181
153 168 174
155 171 179
148 164 169
150 166 172
155 171 178
143 160 167
148 164 171
150 166 174
139 155 159
106 125 113
125 142 139
134 150 150
152 169 176
149 165 170
138 154 155
149 165 172
152 167 176
147 163 168
153 168 178
148 164 171
145 161 167
151 167 173
156 171 177
152 168 174
146 163 168
150 165 171
149 164 172
147 164 172
136 153 157
137 154 156
72 98 59
73 98 59
68 93 56
69 93 56
67 91 54
67 91 54
69 95 57
72 97 59
71 96 58
71 96 58
67 91 53
67 92 55
73 99 59
70 94 56
68 93 55
67 92 54
73 99 60
69 93 55
70 95 57
69 93 59
127 143 144
147 165 174
137 153 155
142 157 163
139 156 160
147 163 172
145 162 166
124 140 135
116 135 131
90 109 92
91 112 87
75 98 67
66 91 53
70 95 57
67 91 54
68 93 56
70 95 55
72 97 57
69 93 56
69 94 56
132 150 150
147 164 169
152 168 177
149 165 171
129 147 149
152 167 174
140 156 157
138 155 158
147 164 170
152 167 174
151 167 174
151 167 175
143 159 164
125 142 143
146 163 172
156 171 179
144 159 164
142 159 163
145 160 166
133 150 151
89 109 91
68 93 56
72 97 58
65 89 51
64 88 52
71 97 57
70 95 57
66 91 53
69 93 55
66 90 53
62 85 48
67 91 54
71 96 58
66 90 53
67 91 54
68 94 56
71 97 59
69 95 57
71 95 56
81 105 75
132 147 150
141 156 158
144 159 165
141 157 162
150 165 174
151 167 174
152 168 173
141 157 161
153 169 178
142 158 162
158 174 182
147 163 168
147 163 169
152 167 173
149 165 171
141 157 162
144 160 164
143 159 164
154 170 181
118 136 126
69 94 56
64 88 52
71 96 57
67 92 54
75 101 62
69 94 57
72 97 58
73 98 59
64 88 51
74 101 61
72 98 59
68 92 54
66 91 54
69 95 56
66 90 53
74 100 61
72 98 59
67 90 54
141 158 161
152 168 175
148 164 170
144 159 162
143 158 164
154 171 179
142 157 160
143 159 162
144 160 166
147 163 170
143 159 164
152 168 175
158 173 180
133 149 150
151 167 176
146 162 168
149 165 170
138 153 156
108 127 118
77 103 63
69 93 55
68 94 56
71 97 59
66 91 54
76 102 62
72 98 59
70 95 57
70 95 56
69 94 56
70 95 56
71 96 57
69 94 57
65 90 53
77 104 63
68 93 55
80 103 78
155 171 179
148 165 171
149 165 172
146 163 167
155 172 180
148 165 172
155 172 181
156 174 181
153 170 177
158 175 184
146 162 168
153 169 173
152 169 176
149 165 174
152 169 176
162 178 188
144 161 164
68 93 55
73 98 59
73 99 59
73 99 59
70 94 57
73 99 59
72 98 58
76 103 63
72 97 58
75 101 62
72 98 59
73 99 60
73 99 59
70 95 57
67 92 54
101 121 106
154 170 178
163 179 190
156 172 179
155 171 179
152 169 173
153 170 175
154 171 178
152 168 176
150 166 172
156 174 184
159 175 183
151 168 174
147 163 169
134 150 152
106 127 111
153 170 176
159 175 182
151 167 173
163 179 189
162 178 189
158 174 185
158 174 182
155 171 178
150 167 172
158 174 182
125 142 140
114 134 122
100 121 103
82 107 76
158 175 184
147 165 173
165 181 192
166 182 193
169 185 196
156 172 179
157 174 182
166 184 194
161 178 188
154 172 180
152 170 178
158 175 184
158 175 185
86 109 82
71 97 58
73 100 61
78 105 65
79 106 65
74 101 60
78 105 64
76 103 62
76 103 62
78 105 64
76 104 62
94 119 94
150 169 174
133 152 147
115 135 126
85 111 79
78 105 64
76 104 63
76 103 62
73 100 61
80 108 67
75 102 62
93 117 94
165 182 194
165 182 193
169 186 200
172 189 205
166 183 195
169 186 197
164 183 195
169 186 200
160 178 186
165 182 194
169 186 196
167 184 196
153 171 179
164 181 191
130 149 147
157 174 180
164 180 190
167 183 192
153 170 176
154 170 178
168 184 197
153 170 177
161 177 184
156 174 182
162 179 188
161 178 186
168 184 194
136 156 155
112 134 118
67 92 53
71 96 57
95 117 95
159 175 185
154 171 177
168 184 193
166 184 198
166 183 195
163 180 190
170 187 199
153 171 179
163 180 192
160 177 185
158 176 185
139 157 160
120 138 131
75 98 68
73 99 60
75 102 63
73 100 60
107 128 113
158 173 178
154 171 181
159 176 185
152 168 175
153 170 177
153 169 174
154 171 176
155 171 179
154 170 178
160 176 185
157 173 183
151 167 173
160 176 185
135 153 151
85 109 83
155 172 176
158 174 181
156 173 182
130 149 146
69 94 55
74 100 61
76 103 63
72 98 58
67 92 53
72 97 58
69 95 57
71 97 58
74 99 60
74 99 59
74 100 60
72 98 58
75 101 62
75 102 61
74 100 60
73 100 60
77 103 63
77 104 63
85 108 81
157 172 180
148 164 169
118 136 127
84 107 81
66 90 53
74 99 59
72 96 58
70 95 57
71 97 58
76 102 62
70 95 57
71 96 58
74 99 60
72 98 59
75 101 62
73 99 59
71 97 58
73 99 59
75 101 61
112 131 116
157 173 184
138 154 160
162 177 187
139 156 163
148 166 174
149 165 170
148 164 170
151 168 173
149 164 170
147 163 169
158 174 185
159 176 186
146 164 169
160 176 183
135 151 155
126 143 139
93 114 95
71 95 59
67 92 55
92 114 93
159 175 183
153 168 176
147 163 167
152 166 172
155 171 177
150 166 171
161 176 184
144 160 162
148 164 172
154 169 178
144 160 164
145 161 167
153 169 178
148 165 171
152 169 178
148 164 168
148 164 167
159 175 184
158 173 182
147 163 170
83 106 76
64 88 51
66 91 54
72 97 58
69 95 56
69 94 55
72 97 58
68 93 55
71 96 57
68 93 55
74 100 60
60 83 48
73 99 60
70 96 58
72 97 59
65 89 52
68 93 55
67 91 54
69 94 56
68 93 55
110 129 119
131 146 150
117 136 130
109 127 119
101 121 103
84 107 80
70 96 57
71 96 57
71 96 58
70 95 56
73 98 59
72 97 58
74 99 60
71 96 59
70 94 57
67 91 54
71 97 58
61 84 47
70 96 57
67 92 54
109 128 118
139 156 161
144 160 166
147 163 168
148 164 170
149 166 169
157 173 181
146 163 168
156 171 177
144 160 163
143 158 162
143 159 163
146 163 168
148 164 170
145 161 166
146 162 169
144 159 160
150 166 173
139 155 158
155 171 180
133 151 150
71 97 58
71 95 56
70 95 57
68 92 55
71 96 59
71 95 57
69 94 57
74 99 59
70 95 57
67 92 55
72 97 58
69 93 56
71 96 57
70 95 57
70 95 57
69 94 57
69 94 55
73 98 59
66 91 53
112 132 120
147 163 171
149 166 175
148 164 171
141 158 161
157 174 182
136 153 157
139 155 158
152 168 177
157 173 182
140 156 162
149 165 171
145 160 165
158 175 184
149 165 170
155 171 177
151 169 176
156 172 183
151 167 174
140 157 159
71 97 57
68 92 55
68 93 55
64 88 51
70 95 57
72 98 59
68 94 56
69 93 56
64 88 51
69 93 56
69 94 56
69 93 54
70 95 57
72 97 58
71 97 57
69 94 57
70 94 57
70 95 57
92 112 95
149 166 173
152 169 172
157 172 182
149 165 174
159 174 186
146 162 168
148 164 168
147 164 169
143 159 163
153 170 177
146 162 166
154 171 181
149 165 170
143 160 168
161 176 184
136 154 156
148 163 170
153 170 178
76 100 66
69 94 55
68 92 56
71 97 58
71 97 58
73 98 60
67 92 54
76 103 63
68 93 53
73 99 61
70 94 56
75 101 62
72 98 59
69 95 56
65 90 53
73 99 60
69 94 56
99 119 105
145 161 165
154 171 177
147 163 169
158 173 178
150 166 175
148 164 169
148 164 167
161 178 187
152 168 176
149 165 171
154 171 178
145 162 166
138 154 155
160 177 186
152 168 177
158 175 184
119 137 132
71 97 58
72 98 59
71 96 58
69 94 55
73 99 60
68 94 55
71 97 58
71 96 58
72 97 58
71 97 58
75 101 61
69 94 56
68 93 56
70 96 57
72 98 59
108 129 119
153 170 178
149 166 172
146 163 168
156 171 178
161 177 187
155 171 180
156 172 180
160 177 188
143 160 161
139 158 157
106 127 113
78 103 71
74 101 61
70 96 57
112 133 120
160 177 188
156 172 181
154 170 177
152 169 179
146 163 166
158 175 184
146 163 168
158 176 185
153 171 177
153 171 178
165 181 191
151 167 172
167 183 196
151 169 177
123 142 137
125 145 136
146 163 166
157 173 182
162 178 189
156 174 181
156 173 181
162 179 188
154 172 179
151 169 178
153 171 181
164 181 192
152 170 178
77 102 67
73 100 61
74 101 61
77 104 64
78 105 64
72 98 59
78 105 65
79 106 65
73 100 60
77 105 63
77 103 62
90 115 87
159 177 184
160 177 187
171 188 200
148 166 170
129 148 143
98 123 100
82 110 68
76 103 63
77 105 64
76 103 62
108 131 115
158 175 181
166 183 194
154 172 179
172 190 204
163 181 193
161 178 189
164 182 192
170 188 200
171 186 199
156 173 181
163 180 192
127 148 143
92 117 85
97 120 98
164 180 189
172 188 200
156 173 181
162 179 192
172 188 202
165 182 193
165 182 195
164 182 193
158 175 183
163 179 188
137 155 150
100 123 103
73 99 60
78 105 65
75 101 61
77 104 63
103 126 110
162 179 190
168 186 199
166 182 192
161 178 187
163 179 189
164 181 193
153 169 178
162 179 191
152 169 174
132 151 149
94 118 94
70 96 57
75 101 62
76 103 63
76 103 62
70 95 57
77 103 63
101 123 103
153 170 177
156 173 183
165 181 191
157 174 180
159 176 186
154 170 179
157 174 185
156 174 184
147 164 168
167 182 195
163 179 189
125 144 142
96 117 95
80 106 70
73 98 59
78 105 64
93 114 95
114 133 126
131 150 150
78 102 71
75 102 62
75 102 62
73 99 60
74 100 61
76 103 62
75 101 61
72 99 60
77 104 63
72 96 57
76 103 63
65 89 52
73 99 59
72 97 58
70 95 57
71 96 58
76 102 64
91 114 91
129 147 144
82 104 77
76 103 63
78 105 64
69 94 56
68 93 54
70 95 57
70 95 57
74 100 61
76 102 63
67 91 53
73 98 59
70 95 57
72 99 59
70 96 58
75 101 62
72 97 58
71 97 58
74 100 61
76 103 62
84 108 81
152 168 173
154 170 179
147 164 171
163 177 187
148 164 170
147 163 168
156 171 179
156 172 181
149 164 173
152 167 174
134 151 153
128 145 143
110 128 118
77 103 68
74 100 60
75 100 60
75 101 61
76 102 61
73 99 59
73 99 60
158 174 181
137 154 156
142 158 163
148 163 169
151 168 174
151 167 171
158 174 183
150 167 176
145 161 165
152 169 175
150 167 172
157 174 182
150 166 170
156 172 180
136 153 157
149 165 171
146 161 166
153 168 174
159 175 185
154 170 179
116 134 125
71 97 58
64 88 52
71 96 57
72 97 59
62 87 50
71 97 59
67 92 54
71 97 57
76 102 62
70 96 57
76 103 63
71 97 58
73 99 60
71 96 57
84 108 77
94 115 97
118 137 133
132 149 148
134 150 149
128 145 145
69 95 56
65 90 52
72 98 60
68 92 54
72 98 58
70 95 56
72 98 59
64 88 52
63 87 50
69 94 56
74 100 61
73 99 58
70 95 57
68 93 55
69 94 56
72 97 59
67 91 54
74 100 60
72 97 58
72 98 59
145 161 167
149 164 171
147 163 169
142 159 163
156 171 181
149 165 171
147 163 167
161 176 187
144 161 166
142 159 164
151 165 169
147 164 168
149 165 172
150 166 172
149 167 171
147 164 171
143 160 165
152 167 170
144 161 166
161 176 185
82 105 79
64 88 50
70 94 56
74 100 61
66 91 54
71 97 57
66 91 53
75 102 62
70 96 57
71 97 58
67 92 54
73 98 59
74 100 61
70 95 57
68 93 55
70 95 57
68 93 55
71 97 58
74 101 61
78 101 72
147 164 170
139 154 157
145 162 168
143 160 165
145 161 165
155 171 179
148 163 166
138 155 161
149 166 175
146 162 166
147 164 172
146 163 168
159 175 182
153 168 176
149 165 170
141 157 161
150 166 173
158 173 182
158 174 184
101 121 112
68 92 55
73 100 61
70 95 57
70 94 55
66 91 53
74 100 60
79 102 74
75 99 66
84 107 81
86 107 87
95 116 93
98 120 100
99 120 101
89 110 87
107 128 116
126 144 140
112 131 117
116 134 127
125 142 137
125 143 142
118 137 130
121 137 135
115 133 125
106 125 113
115 133 125
113 132 123
109 127 113
113 131 120
121 139 132
114 134 123
108 128 114
110 129 118
120 139 131
108 128 118
116 136 126
113 133 123
100 120 105
123 141 138
114 133 125
119 137 129
122 141 133
122 141 136
117 135 126
117 136 129
114 134 123
104 125 112
109 128 113
103 122 109
101 123 103
94 117 94
98 120 98
82 104 79
83 106 80
77 102 64
127 143 140
146 163 167
156 173 181
153 170 178
152 168 173
158 175 184
159 174 183
151 167 174
150 166 171
163 180 189
163 180 189
155 171 179
149 166 171
152 169 175
157 173 183
148 165 171
149 165 170
92 114 95
75 101 61
71 95 57
77 103 62
72 98 58
69 93 54
69 94 56
71 97 59
70 96 58
73 99 60
72 98 58
73 99 59
75 101 61
74 101 61
75 101 61
72 98 59
137 153 155
165 181 193
167 183 191
158 175 184
153 169 175
132 150 144
113 131 121
93 114 95
78 105 64
71 97 58
76 103 63
72 98 58
73 100 60
69 94 56
72 98 59
117 136 129
148 165 173
149 166 172
154 171 179
148 165 169
161 178 188
158 175 186
162 179 189
157 175 184
169 186 199
155 172 179
156 174 180
156 173 181
157 174 181
136 155 152
73 99 61
74 101 62
81 108 70
89 113 87
121 142 138
127 145 139
143 159 163
151 169 176
164 180 189
155 172 181
163 179 189
163 180 192
156 173 179
84 109 75
75 102 62
69 95 56
79 107 66
79 107 66
79 107 65
73 100 61
76 103 62
79 106 65
74 101 62
74 101 60
93 117 91
153 170 177
157 174 182
161 178 188
169 186 199
163 179 190
161 178 189
124 143 138
102 123 107
79 106 68
78 106 65
114 134 121
166 182 192
162 179 190
172 188 203
164 181 194
157 175 184
164 181 193
167 183 194
160 177 183
132 151 145
86 113 75
75 102 61
79 107 65
118 138 128
160 178 189
155 173 181
154 171 180
168 185 198
167 184 196
164 182 194
162 180 188
154 171 177
107 129 114
79 105 68
79 106 64
73 100 61
79 106 64
80 107 66
77 104 63
74 101 61
119 138 129
165 182 194
167 184 195
161 177 188
162 179 190
155 172 180
157 173 181
146 164 167
103 125 109
80 107 65
73 100 60
76 103 63
77 104 63
75 102 61
74 100 61
73 99 60
76 103 62
75 102 62
107 129 115
152 169 176
154 171 178
148 165 169
159 175 184
138 156 159
157 174 182
155 172 181
152 168 175
152 170 177
102 123 110
73 98 65
72 97 58
71 97 57
75 101 61
77 103 63
76 103 62
75 101 62
71 97 58
124 144 136
153 169 176
129 146 139
133 153 152
97 118 101
78 104 66
75 101 61
73 99 59
77 104 64
73 99 60
67 91 54
79 107 65
75 101 61
71 97 58
80 105 72
117 137 126
130 148 148
157 173 181
138 156 157
165 180 189
79 103 73
73 99 60
66 91 53
75 101 62
73 99 60
72 98 60
69 94 55
72 97 58
73 99 60
73 99 60
75 101 62
76 102 62
75 102 62
72 97 58
69 94 55
70 94 56
68 92 55
73 99 60
71 96 57
74 102 62
152 168 176
152 168 179
145 163 167
154 169 177
154 169 176
153 169 177
145 161 167
125 142 135
100 120 105
86 110 80
75 101 62
75 101 62
71 97 57
76 102 61
71 97 58
72 97 58
72 97 58
69 94 56
76 102 62
72 97 58
143 160 162
153 169 177
158 173 183
161 177 186
154 170 176
152 168 177
149 165 167
143 160 163
150 167 174
143 159 163
152 167 174
156 171 178
146 163 168
142 158 162
145 161 168
144 161 161
147 163 169
150 167 174
162 178 186
153 168 177
128 145 142
73 99 59
64 88 51
72 97 58
73 99 60
71 96 58
72 98 58
67 91 54
75 101 62
70 96 58
77 102 68
91 113 92
113 131 126
129 147 146
139 156 159
146 163 167
152 169 174
151 167 171
161 176 186
146 162 168
155 171 179
82 105 79
73 99 60
69 95 57
67 92 54
71 96 57
69 94 56
67 92 54
70 96 58
72 98 60
70 96 57
74 100 60
68 93 56
64 87 50
74 100 60
66 91 54
70 94 56
71 96 57
67 92 55
74 99 59
67 92 54
132 150 149
153 169 177
155 171 180
145 160 167
142 158 159
144 161 169
154 170 179
147 163 169
144 162 168
136 153 159
152 168 174
148 164 173
159 175 183
153 168 174
136 152 155
143 159 164
149 164 172
152 167 175
144 161 166
142 159 163
110 129 119
70 95 57
73 99 59
72 97 58
75 101 61
71 97 58
70 95 57
68 93 55
69 94 55
70 96 58
75 102 61
73 98 59
68 93 56
78 104 64
71 96 58
71 96 58
67 92 55
64 88 51
70 94 56
74 100 60
125 142 139
150 167 175
165 181 194
158 173 181
149 165 170
154 171 180
156 171 182
158 173 182
139 154 159
147 163 169
138 155 156
124 141 139
134 150 150
122 139 134
128 146 144
110 129 120
113 130 122
118 136 130
108 127 118
87 109 86
140 157 155
133 149 150
141 158 161
149 166 173
141 157 161
146 162 168
153 169 178
154 171 181
152 168 175
141 158 162
142 159 167
161 177 186
142 159 166
164 179 188
156 173 182
138 154 157
164 181 194
148 163 173
149 165 172
75 100 64
71 97 58
71 96 57
68 93 56
71 96 58
72 98 59
76 103 63
71 96 57
67 92 54
72 97 59
72 97 59
73 99 60
74 99 60
71 97 58
73 99 60
74 99 59
72 97 59
70 95 56
147 164 168
151 167 175
152 168 177
146 162 169
150 166 172
152 167 172
161 176 184
151 167 175
155 172 181
159 174 186
158 173 180
154 171 179
153 168 178
155 172 178
156 172 181
152 168 175
156 172 182
150 166 172
92 114 88
88 110 85
83 107 78
92 113 98
100 122 103
101 122 104
114 133 122
110 130 121
113 132 126
133 150 148
130 147 145
113 130 124
143 159 163
158 175 182
156 173 181
153 170 178
148 166 172
70 94 59
66 91 53
72 97 58
72 98 59
75 101 62
74 100 61
70 96 57
76 103 62
80 108 67
69 94 57
70 96 56
66 91 54
72 98 59
76 103 63
75 102 61
79 104 72
138 156 159
111 131 119
107 129 111
71 97 57
78 105 64
70 95 57
73 99 59
74 100 61
71 97 58
75 101 61
75 102 62
75 102 61
73 99 59
75 101 61
74 100 61
148 166 172
153 171 178
148 165 172
165 182 196
158 175 184
161 177 186
162 178 187
162 179 187
157 174 181
158 175 186
147 164 169
162 179 187
161 176 185
159 175 181
128 146 142
68 93 55
75 101 62
76 102 62
75 101 60
78 105 64
74 101 61
80 106 72
105 126 114
116 136 128
139 157 162
159 177 187
153 170 177
147 165 171
75 102 61
74 101 61
76 103 63
76 103 63
77 104 64
75 101 61
73 100 60
80 108 66
74 101 62
80 109 67
76 103 62
95 119 98
165 181 193
163 180 190
164 181 193
164 182 197
165 181 190
165 183 195
149 168 172
164 181 190
138 157 157
112 133 124
100 123 106
159 177 188
170 185 195
171 189 201
170 188 203
153 170 176
121 141 132
73 99 59
78 105 65
81 109 67
80 108 66
79 107 66
132 152 150
165 181 190
158 176 186
161 179 190
162 178 189
159 175 186
147 166 170
105 129 111
76 103 63
75 102 62
79 106 65
78 105 64
76 104 62
76 103 63
75 101 61
74 101 61
72 99 60
127 146 142
168 186 198
160 177 184
162 179 188
164 182 193
136 153 150
90 115 87
73 99 60
73 98 59
80 107 66
74 101 62
74 100 61
77 104 64
75 102 62
79 106 64
79 107 65
74 101 62
69 95 56
115 137 122
164 180 191
164 180 191
168 186 197
168 184 195
161 178 191
148 165 169
107 126 114
73 98 58
77 105 65
75 101 61
74 100 60
75 101 61
71 96 58
73 100 61
75 102 62
74 100 60
74 100 60
70 95 57
105 125 112
167 184 197
154 170 177
157 175 182
157 173 182
158 176 185
140 158 160
122 141 135
104 126 108
81 106 75
74 101 60
92 115 88
113 134 123
143 161 164
160 176 186
156 172 181
158 175 186
157 173 183
146 163 167
153 169 176
89 110 93
75 101 62
76 102 62
74 101 61
71 97 58
73 99 60
72 97 58
72 98 59
75 102 62
72 98 59
75 101 61
74 99 59
78 105 63
78 104 63
76 102 62
75 101 61
70 96 57
72 98 59
71 96 57
70 95 57
142 158 162
157 173 182
154 170 176
145 161 165
117 137 127
87 108 88
75 101 64
73 98 59
73 98 59
71 96 58
70 96 57
71 97 57
66 91 53
70 95 57
76 103 62
71 96 57
70 95 57
77 103 63
72 98 59
72 98 59
117 136 128
152 168 173
153 170 178
148 163 169
160 175 181
160 175 184
143 161 163
147 163 168
140 156 160
157 172 181
149 164 170
156 173 182
157 172 179
147 164 169
148 165 174
154 170 176
152 168 174
150 166 172
153 170 177
141 157 159
141 156 156
68 92 58
72 97 58
73 100 61
72 98 59
78 103 68
95 116 98
118 136 128
117 135 126
148 164 171
144 160 163
155 172 181
164 180 192
154 170 176
151 166 172
157 174 183
139 156 159
145 162 165
152 167 175
143 160 166
150 166 172
113 131 124
71 96 57
70 96 58
70 95 56
66 91 54
72 98 59
70 96 57
68 93 56
69 94 56
70 96 58
73 98 60
62 86 49
72 97 58
64 87 51
66 91 52
72 98 59
71 96 58
72 97 58
73 99 59
74 100 61
87 109 86
141 158 163
151 167 172
150 165 172
146 163 168
140 156 160
156 173 183
156 173 184
156 172 180
143 159 161
159 174 183
152 169 177
145 160 165
155 171 179
146 162 167
136 153 154
154 170 178
151 168 177
153 169 179
155 172 182
143 159 161
78 102 72
68 92 55
63 86 50
69 94 56
67 91 54
71 96 57
75 102 62
74 101 62
69 94 57
70 96 57
71 96 59
72 98 59
71 97 58
71 97 58
73 98 58
64 88 51
74 99 64
75 99 66
100 120 105
102 123 111
130 148 146
113 133 121
114 132 126
106 125 112
95 114 100
105 124 109
77 99 71
69 94 56
70 95 56
70 96 58
71 97 58
69 93 55
68 93 55
68 93 56
70 95 57
70 95 57
74 101 61
71 96 57
71 96 57
125 143 136
156 171 179
145 162 165
149 165 172
155 172 179
151 166 173
144 161 167
150 166 170
151 167 176
156 171 180
142 157 160
143 159 164
153 168 176
148 164 169
144 160 167
153 169 177
150 167 171
151 167 171
149 167 174
106 128 114
73 100 60
69 94 56
71 97 59
69 93 55
73 98 59
64 88 51
69 93 56
70 96 57
69 94 56
74 99 60
72 97 58
66 91 53
75 102 62
72 97 58
72 97 58
71 97 58
72 97 58
76 100 69
156 173 182
160 176 185
155 170 179
150 167 172
157 173 181
144 161 165
158 175 184
145 162 167
152 168 177
152 169 178
150 166 176
158 174 183
145 162 169
153 170 177
156 172 178
150 167 173
153 169 174
121 140 134
71 97 59
74 101 60
71 96 57
71 97 58
69 94 54
71 96 57
77 104 63
69 94 56
74 99 60
75 101 62
74 100 60
74 101 60
72 98 59
74 101 61
73 99 62
87 110 79
104 124 108
136 153 154
129 148 148
123 142 139
115 135 127
108 129 114
104 124 110
95 116 98
83 107 77
77 103 63
78 105 64
86 111 78
108 128 116
116 135 129
140 158 160
152 168 171
138 155 159
74 100 61
79 106 65
75 102 62
78 105 64
68 94 56
73 99 60
71 96 58
73 99 60
76 103 63
74 99 61
74 100 60
72 99 60
70 96 56
72 97 58
81 107 71
141 157 160
157 174 181
154 171 177
154 170 178
163 179 188
157 174 184
169 187 199
153 171 176
154 171 179
163 180 189
166 183 196
150 168 174
157 174 183
161 178 188
124 142 133
74 101 61
76 104 63
74 101 61
73 99 59
69 94 56
74 100 60
72 98 59
75 101 61
76 103 63
81 107 68
96 119 96
118 139 131
107 129 116
86 112 76
73 98 59
76 104 64
81 109 66
76 103 63
75 102 61
78 106 65
79 106 65
75 103 62
75 102 62
79 106 65
105 128 110
151 168 175
157 174 180
173 190 204
168 185 196
159 177 185
171 188 202
161 177 184
167 184 196
159 176 184
160 178 190
153 171 179
133 152 148
149 167 171
118 139 125
72 99 59
77 105 64
80 108 66
82 111 69
75 102 61
81 109 67
82 111 69
142 160 161
167 184 195
155 172 181
159 177 189
131 151 149
97 121 98
81 108 67
73 100 60
76 103 62
78 105 65
80 108 66
75 102 62
76 104 63
76 103 63
77 103 63
76 103 63
71 97 57
112 133 120
170 186 196
152 169 175
121 141 134
76 102 67
77 104 64
77 105 64
77 103 62
79 107 65
77 104 63
72 99 60
70 96 56
76 104 63
76 103 62
79 106 64
75 102 62
79 105 64
79 107 66
109 131 117
161 178 186
172 189 203
162 179 188
137 154 153
98 121 97
76 102 61
75 102 61
72 98 59
75 101 61
72 98 59
75 101 61
74 101 61
74 100 61
73 100 59
77 104 63
76 101 62
67 92 55
73 99 60
111 132 120
162 179 189
153 169 175
160 175 185
166 182 193
149 165 171
154 170 178
154 171 179
158 175 183
133 152 150
90 114 87
106 126 112
140 158 158
149 165 168
154 171 178
159 176 185
156 171 178
159 175 183
167 182 191
161 178 187
113 131 123
78 105 64
69 94 56
75 101 61
73 99 60
77 103 63
73 98 59
73 99 59
76 103 63
73 99 60
71 97 58
71 96 57
75 102 62
70 95 56
69 94 56
74 101 62
73 99 59
69 95 56
71 97 58
78 101 73
113 131 122
110 129 114
85 109 79
73 99 59
74 100 61
71 96 57
68 93 55
72 97 58
71 95 57
75 100 60
70 96 57
75 102 63
68 93 55
71 96 58
66 91 53
74 99 59
72 98 58
73 98 59
71 97 58
67 93 55
103 123 106
154 170 177
155 171 180
153 170 176
165 181 191
158 174 181
151 168 173
154 169 175
154 171 180
153 170 175
156 173 180
155 172 180
151 167 176
149 164 170
159 174 182
160 176 184
152 168 178
156 173 179
150 167 173
143 159 166
153 168 176
107 126 112
100 120 105
112 132 127
136 153 153
147 164 170
156 171 179
147 163 170
151 167 176
159 176 184
157 173 181
145 161 165
146 163 166
152 168 175
151 167 172
153 169 178
159 175 182
147 166 173
148 164 173
156 172 178
158 175 185
123 139 139
74 100 61
72 98 59
67 92 55
69 94 56
72 97 58
69 93 55
70 95 57
71 97 57
71 96 58
70 95 56
77 103 63
65 90 52
76 102 62
75 101 61
72 98 58
77 103 63
67 92 54
67 92 54
69 94 56
73 98 60
136 154 158
148 164 170
159 175 186
149 165 170
147 162 167
144 160 166
151 168 175
145 160 166
157 173 180
157 173 181
150 166 170
140 155 161
143 159 163
155 171 179
136 154 152
144 160 165
151 168 177
142 159 163
147 162 169
152 168 174
124 142 135
72 98 59
68 92 54
67 92 53
70 95 57
70 95 56
69 95 57
80 103 76
90 113 88
105 124 110
107 126 117
126 144 138
122 141 135
137 154 156
146 162 168
138 154 157
144 159 161
160 176 187
147 164 168
151 167 174
114 132 124
76 102 63
70 95 57
71 96 57
66 91 53
70 95 57
68 93 55
62 86 50
75 102 61
77 103 63
68 93 55
66 91 54
71 97 59
72 97 59
69 94 56
69 94 56
73 99 59
68 92 54
73 99 60
85 109 79
155 172 180
150 168 176
148 165 170
147 163 166
155 170 177
153 169 177
145 161 167
148 165 170
147 164 168
157 174 183
153 168 174
153 170 178
152 169 177
152 170 178
155 170 178
156 172 181
149 165 170
144 160 164
144 160 165
80 105 69
75 101 61
70 95 57
77 103 63
73 98 59
73 99 59
72 97 57
72 98 59
70 96 58
70 96 57
70 95 56
74 99 60
71 96 57
71 96 58
72 97 58
74 100 62
75 102 61
72 98 59
130 147 146
150 166 173
151 168 171
164 181 191
151 168 174
152 169 177
155 171 178
151 169 175
157 172 181
150 167 176
156 173 182
150 166 170
160 176 186
143 159 161
156 172 180
154 171 179
153 168 177
155 171 180
89 111 89
71 97 58
74 100 60
73 99 60
69 94 56
70 96 57
72 97 60
75 101 61
70 95 57
71 97 57
71 96 57
72 98 59
79 106 64
70 96 58
67 92 54
72 98 60
75 102 62
126 144 139
157 173 182
153 170 176
163 178 188
151 168 175
150 166 174
141 159 162
122 142 135
111 133 120
95 118 96
108 131 114
100 122 102
122 140 134
136 153 154
128 148 145
142 158 159
123 142 137
79 106 65
71 97 59
73 99 59
68 92 56
78 104 64
72 98 60
73 99 60
71 97 59
75 101 61
71 95 57
70 96 57
73 100 60
76 103 62
73 100 60
103 125 108
153 170 178
159 177 188
165 182 194
157 175 183
156 174 183
160 176 187
151 168 175
159 174 184
154 171 178
151 169 175
164 181 193
163 180 188
157 174 184
160 177 185
102 122 107
80 107 66
75 102 63
75 101 62
74 100 61
74 101 61
73 100 60
78 105 64
79 107 66
80 108 67
76 103 63
78 106 65
76 104 63
125 144 137
146 164 167
135 155 156
110 132 118
96 119 96
79 107 65
79 107 65
73 99 60
76 103 63
75 102 62
78 105 64
78 105 64
119 141 127
163 179 189
156 172 178
164 182 194
163 180 189
169 186 199
164 180 190
164 181 193
165 181 190
158 176 182
176 191 205
144 162 165
77 104 62
80 108 67
75 102 61
78 106 65
76 103 64
79 107 66
75 101 61
84 112 70
77 105 65
158 176 186
159 176 186
126 145 141
80 105 72
76 103 63
72 98 59
76 104 63
78 105 64
79 106 65
73 100 60
78 105 63
81 109 67
78 106 65
74 100 60
74 101 61
79 107 65
81 106 75
125 145 138
104 125 105
74 101 60
75 101 61
69 94 56
80 107 66
77 104 63
78 105 64
72 98 59
73 99 60
78 105 64
76 103 62
76 102 61
78 105 64
75 102 62
78 106 65
73 99 60
73 100 61
99 118 104
138 156 157
117 138 125
76 103 63
72 98 59
72 98 58
75 102 63
78 106 65
68 94 56
74 100 60
76 103 63
78 105 65
74 100 61
71 96 58
73 100 59
75 102 62
73 100 61
75 101 62
72 98 59
103 124 107
157 174 184
166 182 193
166 182 193
153 169 175
156 172 180
142 159 160
107 127 116
73 98 59
75 101 62
75 102 62
76 102 62
79 107 65
72 98 59
80 104 69
102 125 105
112 132 121
130 148 146
150 167 173
155 171 181
121 141 131
77 105 65
75 101 61
72 99 59
78 105 63
77 104 63
76 103 62
72 97 59
66 91 53
74 99 59
73 100 60
69 94 56
70 95 57
70 95 57
79 106 64
73 100 60
101 124 104
124 144 137
150 166 172
146 163 167
136 153 151
71 96 57
74 100 61
74 100 61
73 99 60
75 101 62
69 95 56
72 98 59
74 100 60
72 97 59
71 96 58
72 98 59
73 99 59
76 102 62
73 99 59
72 98 58
73 99 60
74 100 61
74 100 60
75 101 61
86 108 83
152 168 175
155 171 180
146 161 164
147 163 168
144 161 164
155 172 183
158 175 183
142 159 163
144 160 165
151 167 175
153 170 179
149 165 173
154 170 177
154 171 176
151 166 174
155 171 179
144 161 166
123 143 139
103 123 108
75 99 68
110 130 118
157 173 180
145 161 165
145 161 166
153 169 177
149 165 173
156 172 180
149 166 172
163 179 189
158 173 180
157 173 181
147 163 166
152 167 178
148 164 171
154 171 180
145 161 168
148 163 166
154 170 178
152 169 175
148 164 171
147 165 171
79 102 74
69 94 56
70 95 57
70 95 57
75 102 62
68 93 55
64 88 52
71 96 57
67 91 53
71 96 57
73 99 58
70 94 56
73 98 59
71 97 58
72 98 59
72 98 59
69 94 56
71 97 58
73 99 59
68 93 54
119 138 132
150 166 175
159 176 185
148 164 172
152 169 176
151 168 174
154 171 179
153 169 180
150 167 172
154 170 178
152 168 176
144 160 163
151 167 173
144 162 168
146 161 166
151 167 175
153 169 177
142 158 162
166 180 189
168 184 194
118 136 127
111 130 119
118 137 131
127 145 143
125 142 140
140 157 161
142 159 164
157 173 182
151 168 174
145 161 167
155 171 180
142 158 162
152 169 179
150 167 173
159 174 183
150 168 173
166 183 197
145 161 166
157 173 180
142 158 161
142 159 161
70 96 58
68 92 54
74 100 61
72 98 58
70 95 56
68 93 55
72 97 58
72 98 58
69 94 56
73 98 59
72 97 59
69 94 56
73 99 60
67 92 54
77 103 63
73 99 60
67 93 55
70 95 56
71 96 57
128 145 144
144 161 163
148 164 169
146 161 166
148 163 170
158 173 182
148 165 170
157 175 182
148 165 169
153 169 173
155 171 178
158 173 177
153 169 175
155 171 179
149 166 171
152 168 174
145 162 165
157 174 183
153 170 179
125 144 140
69 95 57
72 97 59
69 94 56
70 94 56
69 93 56
70 95 56
77 104 63
67 92 55
73 98 59
69 94 56
75 100 60
72 97 57
75 101 62
71 96 57
76 102 62
72 98 60
72 98 59
78 102 70
143 160 163
154 170 177
155 171 179
151 167 174
163 177 187
143 159 162
155 172 183
149 166 172
168 184 196
160 178 187
157 174 182
164 180 189
152 169 179
158 174 182
148 166 173
149 165 172
149 166 173
154 171 178
81 107 70
71 97 58
75 101 61
76 102 62
72 97 58
71 96 58
75 101 62
70 95 57
74 101 61
73 99 60
74 101 62
76 103 62
70 95 57
74 101 60
69 94 55
68 94 56
84 108 82
151 167 172
134 153 151
119 137 128
92 115 93
75 99 68
71 98 59
75 101 61
73 99 60
74 100 61
72 98 59
69 95 57
73 99 59
73 99 60
72 98 58
73 99 59
78 104 66
137 155 157
151 168 172
138 154 155
132 152 152
109 129 118
108 130 117
91 113 90
86 111 80
72 98 59
77 104 63
75 101 61
74 101 61
76 103 63
69 95 56
75 102 63
117 137 129
153 170 177
149 166 174
162 179 190
160 177 187
164 180 191
153 170 178
164 180 189
157 173 183
164 181 191
155 172 182
158 174 182
157 174 183
155 172 179
148 166 168
87 112 86
76 104 64
75 102 63
75 103 63
77 104 64
79 106 64
74 101 60
74 101 61
76 103 62
76 103 63
77 104 63
75 102 61
74 100 61
128 149 144
171 190 203
158 175 184
172 189 200
145 163 164
129 149 147
115 136 124
78 105 67
79 106 65
79 106 65
73 100 60
75 101 60
126 146 139
169 185 197
157 175 184
160 177 185
167 183 192
161 179 189
163 179 189
167 184 193
157 175 184
164 182 192
169 186 198
81 110 68
76 103 63
81 109 68
80 108 66
77 104 62
77 104 63
80 109 67
74 101 61
94 119 92
115 136 125
81 108 72
76 104 63
76 103 62
73 99 61
73 100 61
80 109 67
76 103 62
74 101 61
74 101 61
78 106 65
75 102 62
78 105 65
77 104 63
87 112 81
139 158 158
177 193 206
110 132 119
80 107 65
73 101 61
75 102 62
73 99 59
72 99 60
79 107 66
78 106 65
71 96 57
75 102 62
74 100 60
73 99 59
77 105 64
74 100 60
79 106 65
76 103 63
94 118 94
113 132 121
144 161 162
77 103 63
75 102 63
73 98 58
75 102 63
74 100 61
77 104 64
74 100 61
73 100 60
74 100 61
74 100 61
75 102 62
76 102 62
72 97 58
74 101 61
73 99 60
77 103 63
76 103 63
73 99 60
95 118 95
163 181 190
159 175 185
142 159 160
111 130 118
75 100 63
75 102 62
75 102 61
77 104 64
76 103 64
76 103 63
79 106 65
73 99 59
74 101 61
70 95 57
71 96 56
72 98 60
73 99 60
78 106 65
77 103 65
123 143 138
139 158 159
112 132 120
106 126 112
84 108 78
71 96 57
74 102 62
74 100 60
73 99 59
72 98 59
73 100 60
72 97 57
79 105 67
108 127 114
137 154 153
152 169 176
159 174 182
157 174 186
154 170 178
154 170 177
144 159 166
71 97 58
77 104 63
76 103 62
74 100 61
72 98 59
73 99 60
72 98 60
72 98 58
71 97 58
70 96 57
75 100 61
72 98 59
77 103 63
77 104 63
75 101 61
75 102 62
72 98 58
76 103 63
74 99 60
74 101 61
151 168 176
156 172 181
148 163 170
151 167 173
150 167 174
157 175 184
140 155 160
157 173 179
149 165 169
158 174 183
158 173 182
158 174 181
142 159 164
125 145 140
94 115 95
74 99 62
75 101 61
67 92 54
71 97 59
74 100 62
115 135 122
151 168 177
157 173 179
156 173 181
152 168 178
146 162 167
145 162 169
152 168 174
150 166 171
148 164 171
152 167 174
143 160 163
150 166 176
148 165 172
151 168 175
144 160 164
158 174 181
157 172 181
150 167 172
156 174 183
155 170 177
109 127 117
74 100 60
69 93 56
73 99 60
72 97 58
77 102 62
76 102 62
77 103 62
70 95 57
70 95 57
73 99 60
68 92 54
69 95 57
73 99 60
74 100 60
66 90 53
74 100 61
71 96 57
70 95 56
74 100 60
74 99 62
149 166 171
132 148 149
140 157 162
165 181 193
149 164 170
155 171 180
151 167 173
148 166 173
151 166 172
157 173 181
142 159 164
135 153 156
136 154 155
116 133 127
112 129 121
106 125 116
92 113 92
83 107 75
67 92 54
71 97 58
137 154 156
140 156 159
144 161 164
152 168 174
152 169 176
156 172 180
156 171 178
151 167 175
159 175 185
158 173 180
147 163 169
152 167 174
155 172 182
155 172 180
148 165 176
150 165 171
155 171 178
146 162 166
143 160 164
153 170 175
102 122 107
68 93 55
70 95 57
73 99 60
70 95 56
68 93 55
72 98 58
71 96 58
68 94 55
65 90 54
70 95 56
72 98 59
73 100 60
74 101 61
73 99 59
68 93 55
73 100 60
69 95 57
72 97 58
89 113 83
143 160 165
148 164 170
156 172 181
149 165 174
147 163 166
154 170 181
155 172 179
145 162 164
157 174 182
150 167 175
145 161 166
149 165 170
152 169 174
152 168 178
149 166 172
141 157 160
163 179 188
153 170 178
158 174 184
77 101 66
73 99 59
74 100 60
75 101 62
74 100 60
70 96 57
73 99 60
74 99 60
73 99 60
71 96 58
71 97 58
69 93 56
71 96 58
71 97 59
76 102 61
77 104 63
71 97 58
74 101 61
127 146 144
150 166 172
155 171 180
161 175 182
156 173 183
157 175 185
164 179 186
159 175 184
149 165 171
155 171 176
162 178 188
151 167 171
153 168 176
152 169 175
158 174 182
159 175 184
153 169 177
148 166 173
127 146 141
73 100 60
74 100 60
74 101 60
69 94 56
71 97 58
74 100 61
74 100 60
74 100 61
76 103 62
72 98 59
77 101 67
108 128 116
125 144 135
131 149 146
144 161 165
149 165 169
133 152 149
72 98 59
71 97 58
78 104 63
75 100 60
72 99 61
72 98 59
70 95 57
74 100 61
69 94 55
74 101 61
75 101 60
81 108 66
78 105 63
73 100 61
71 97 58
82 106 77
152 169 176
158 175 184
157 175 185
162 178 188
157 173 182
151 168 173
158 174 183
151 169 177
141 157 160
132 150 147
118 138 131
115 136 123
94 116 94
76 102 65
74 101 60
134 152 152
158 175 185
159 176 184
162 178 187
154 170 177
148 165 172
164 180 192
167 184 196
157 174 182
159 176 185
157 175 183
155 173 182
157 175 181
162 179 187
157 175 182
81 107 74
75 102 62
79 106 64
78 105 64
73 100 61
76 103 62
81 109 67
75 103 64
80 107 67
78 106 65
73 99 60
73 99 59
79 105 66
150 167 172
160 177 185
171 187 201
159 175 185
159 176 185
164 181 194
171 187 197
148 167 173
136 154 153
110 132 117
79 105 72
74 101 62
115 137 124
158 176 185
164 182 191
160 178 188
167 184 194
161 178 187
159 176 183
169 186 200
167 184 195
170 186 196
75 103 62
79 106 65
78 106 65
75 103 62
77 105 63
79 107 66
123 144 134
145 163 163
156 175 181
78 105 64
74 100 61
79 106 65
82 111 69
74 101 62
77 104 63
72 99 60
81 109 68
78 105 63
75 103 63
75 102 62
79 106 65
102 125 106
145 162 164
164 182 194
159 177 184
160 177 186
99 119 100
74 101 60
77 104 63
74 101 61
76 103 63
79 106 65
79 107 66
74 101 61
75 102 62
76 103 63
76 103 63
75 101 61
79 107 66
86 111 81
121 140 133
136 155 155
166 183 194
164 180 191
144 160 164
76 103 62
76 102 62
77 103 63
74 100 61
78 106 64
78 105 64
74 100 61
72 98 58
73 100 60
72 98 59
78 104 62
77 104 63
70 95 57
78 105 65
77 104 63
73 99 59
76 102 61
79 106 68
108 130 116
116 136 125
84 110 73
75 102 62
72 99 59
71 98 58
74 100 61
75 102 62
74 100 60
69 94 56
75 102 61
81 108 67
75 101 61
73 100 60
73 98 60
78 104 63
76 103 62
74 101 60
70 96 58
73 99 59
100 120 107
161 176 185
164 181 190
155 172 181
165 181 190
149 168 171
143 159 159
110 129 124
129 148 140
90 113 86
103 124 106
145 162 163
163 179 190
155 171 180
155 171 179
159 175 184
153 170 175
165 181 193
158 174 183
153 169 177
150 167 176
63 87 50
72 97 59
69 94 55
70 95 57
76 102 63
74 100 61
72 98 58
74 100 60
75 101 62
72 97 58
72 98 58
74 100 61
76 102 61
71 97 58
74 101 62
73 99 61
71 96 58
68 93 54
65 90 54
72 98 59
142 160 163
154 170 178
156 173 179
140 156 159
158 174 184
158 175 184
161 177 188
161 178 189
125 143 140
116 135 130
88 110 90
74 98 62
72 98 60
74 100 60
75 102 62
71 96 58
67 92 53
71 97 59
66 90 53
71 97 58
77 104 63
138 156 159
150 167 174
151 167 171
156 172 182
159 176 184
149 166 174
150 167 173
153 170 179
170 187 199
149 167 171
156 172 178
160 176 187
148 164 171
155 172 179
155 171 180
148 165 173
158 174 183
154 170 178
159 175 183
147 164 168
121 139 131
76 102 62
69 93 55
69 94 56
71 96 57
73 99 60
76 103 63
75 102 62
74 100 60
72 99 59
71 97 58
63 89 51
74 101 62
72 97 59
69 93 56
69 94 56
70 95 57
75 101 61
69 93 55
74 100 61
70 95 57
138 154 154
140 158 161
152 167 175
146 162 169
141 157 160
131 148 147
120 138 132
112 130 120
88 110 85
91 113 93
66 91 53
74 99 60
78 105 64
69 95 57
70 95 56
68 92 55
74 100 60
69 95 56
68 93 56
75 101 61
121 138 134
155 171 180
156 173 180
150 168 173
156 171 181
150 165 172
170 186 195
155 172 181
150 165 170
156 174 184
155 171 180
144 161 165
159 174 185
152 169 178
152 168 175
157 173 183
155 171 178
162 178 189
155 173 182
151 167 175
134 153 155
73 98 60
73 97 59
71 96 57
72 98 58
75 101 62
76 102 62
77 104 63
71 96 58
70 95 57
72 98 58
74 101 61
72 98 60
69 94 56
75 102 62
72 97 58
73 99 60
67 92 55
75 101 61
67 92 54
131 148 147
146 162 165
146 163 169
149 167 174
150 167 173
156 171 178
148 164 171
150 166 173
157 173 182
137 154 157
159 175 184
153 167 174
151 168 175
151 167 171
152 167 173
166 183 194
162 177 186
156 172 177
158 175 181
132 151 148
72 98 58
72 98 58
69 95 56
74 100 60
73 99 59
68 93 55
74 101 61
77 104 63
76 103 62
69 94 56
72 98 59
71 96 58
70 95 56
75 102 61
70 96 58
75 101 61
75 101 61
74 99 62
138 155 158
152 169 174
154 170 181
155 172 181
154 171 179
151 167 172
152 170 175
154 171 180
153 169 175
158 175 182
148 164 169
157 174 182
153 170 178
150 166 173
152 168 177
158 174 184
157 173 181
155 173 180
93 115 93
71 97 58
76 102 62
68 93 56
84 109 77
111 131 118
110 130 119
132 150 150
146 163 167
154 171 180
155 172 180
163 178 190
157 173 182
165 181 191
154 170 180
155 172 179
150 166 173
107 128 114
74 101 61
71 96 57
71 96 58
74 99 60
73 99 60
71 96 58
75 101 60
75 102 62
71 98 59
78 106 65
75 101 61
70 96 57
72 98 58
74 100 61
73 99 60
105 125 111
160 176 181
160 176 187
155 172 179
155 172 182
154 170 177
159 177 187
156 174 182
167 183 194
153 171 176
159 176 185
155 172 179
167 183 192
157 173 181
151 168 173
153 171 176
133 152 149
129 149 149
144 162 165
153 170 177
161 178 188
155 171 180
157 175 183
170 186 197
163 181 195
158 174 181
159 177 188
162 179 186
158 176 186
154 172 179
137 157 155
78 104 66
74 101 62
72 98 59
76 103 62
77 104 63
81 109 66
76 103 63
69 95 56
79 107 66
77 106 65
80 107 66
77 105 64
81 108 71
148 167 170
159 176 183
153 171 177
162 180 189
157 174 184
152 170 180
160 176 184
157 175 181
167 184 196
164 182 194
160 177 183
117 137 127
130 149 148
160 178 189
163 180 193
160 177 185
161 178 189
179 198 217
165 183 193
169 186 200
163 180 189
79 107 66
75 103 62
81 108 66
80 107 68
117 138 122
147 164 169
164 181 190
174 191 205
132 151 147
82 111 69
74 101 61
73 99 59
77 105 65
76 104 63
79 106 63
79 107 66
74 101 61
78 105 64
85 112 77
120 140 130
153 171 177
161 178 189
161 178 186
166 182 194
156 173 181
157 175 184
96 117 97
78 105 63
79 106 65
75 102 62
73 100 60
76 104 63
75 102 61
81 109 67
73 99 59
75 102 63
78 105 63
103 125 104
142 161 163
159 176 186
166 183 193
161 177 187
161 178 189
144 162 170
135 154 153
76 103 62
74 101 61
72 98 59
81 109 67
78 105 65
76 104 64
73 98 59
74 101 61
79 106 64
76 102 61
80 108 66
75 101 61
77 104 63
77 103 62
77 105 63
94 115 93
138 158 158
153 170 174
151 167 171
78 105 65
76 102 62
80 106 65
77 104 64
76 103 63
73 100 60
75 102 62
78 105 65
71 97 58
69 95 57
71 95 56
76 102 62
76 102 62
74 100 60
75 100 60
67 92 54
76 103 63
78 105 64
70 95 57
108 129 116
146 163 167
149 166 172
155 172 179
156 173 180
160 177 186
143 161 163
124 141 133
98 119 102
76 103 63
76 103 62
90 113 88
106 126 112
111 131 119
133 149 148
137 155 157
143 160 163
157 174 184
145 162 165
159 176 186
153 170 174
79 105 72
79 106 65
72 97 58
71 97 58
73 99 60
70 95 57
73 99 59
74 100 61
77 104 63
74 101 61
77 104 63
78 105 64
74 100 60
70 95 57
70 95 57
79 106 65
69 94 56
75 101 61
69 96 58
75 101 62
97 118 103
153 170 175
162 178 188
146 163 170
128 145 142
114 134 123
91 112 92
72 99 60
75 100 61
74 100 60
70 95 57
71 96 59
75 102 62
70 95 57
78 105 64
71 97 57
73 99 58
70 95 57
73 99 60
73 98 60
66 91 54
119 138 135
143 160 166
164 179 192
148 166 168
150 167 174
155 171 181
138 155 158
141 158 160
150 166 170
153 169 178
152 168 176
153 170 177
146 162 167
151 168 174
148 164 167
146 162 168
162 179 188
153 170 179
140 156 160
153 169 177
162 179 191
80 104 73
77 103 63
74 100 60
71 96 58
73 99 59
74 99 59
68 93 54
73 98 58
72 98 59
72 98 58
73 100 60
74 100 61
69 94 55
72 98 59
73 98 60
71 97 59
65 89 52
72 97 62
93 116 95
106 128 113
118 137 131
95 117 96
91 113 90
71 96 62
73 98 60
71 96 58
72 98 59
71 97 58
71 96 57
69 94 56
74 100 60
72 98 60
69 95 57
71 97 58
72 98 59
70 94 57
72 97 58
72 98 59
70 96 58
72 98 60
76 100 65
142 159 162
151 168 173
154 170 179
159 174 185
159 175 184
152 168 175
160 176 183
152 169 174
149 165 171
149 166 172
156 172 179
148 165 169
151 168 175
153 169 179
149 164 169
146 164 169
148 164 168
155 171 178
151 168 177
149 165 172
97 118 97
71 96 58
71 96 58
72 98 59
75 101 61
75 103 62
72 98 60
75 101 61
69 94 56
73 100 61
74 100 61
70 95 56
69 94 58
73 99 59
72 98 59
75 101 62
70 96 58
68 92 54
76 103 62
94 117 94
142 159 163
154 170 177
155 173 181
149 165 171
153 169 174
152 168 175
150 167 173
155 172 181
161 177 187
158 174 184
144 161 166
146 162 168
156 172 180
154 170 177
156 173 179
150 165 170
159 176 185
154 171 180
148 164 168
82 105 77
71 97 58
72 98 58
68 92 54
78 106 65
68 93 55
75 101 61
73 98 59
74 100 61
72 97 58
76 102 62
72 98 59
72 98 59
71 97 59
71 97 58
73 99 60
67 91 54
67 92 54
98 119 99
157 173 182
151 167 174
155 171 178
147 164 170
156 172 181
160 178 187
157 173 182
160 175 181
152 168 176
151 167 174
170 186 199
158 174 184
149 166 172
156 174 184
157 173 183
153 169 176
125 144 141
110 129 118
130 148 149
140 158 161
152 168 173
157 173 182
152 169 174
161 179 188
154 172 180
158 175 183
147 163 165
158 173 181
169 185 198
165 181 193
147 165 173
146 165 171
164 180 191
167 184 196
154 172 179
78 103 68
72 98 58
73 99 60
75 101 61
70 95 56
73 99 59
75 102 62
70 96 57
80 108 67
74 101 62
69 95 57
77 103 63
75 102 62
71 96 58
72 98 58
77 104 64
142 160 163
160 177 185
151 169 176
155 171 179
156 174 184
158 176 184
161 178 186
161 177 189
165 182 193
160 175 184
165 182 193
166 182 194
166 184 195
164 180 189
158 176 186
143 161 167
89 114 85
72 98 60
76 102 62
93 116 91
109 129 116
126 146 143
133 151 148
152 171 178
157 175 185
158 174 181
152 168 176
158 176 183
160 178 187
163 178 189
125 143 140
80 107 66
76 103 63
72 99 60
75 102 63
74 100 60
77 105 64
76 103 62
80 108 67
76 103 62
78 105 64
77 105 64
72 98 59
82 108 74
169 185 196
165 183 191
159 176 188
167 184 197
170 188 201
167 184 195
161 178 186
163 181 191
160 179 189
161 179 192
171 187 200
166 184 196
137 156 155
128 147 147
136 155 153
161 179 185
150 168 171
165 181 192
166 182 192
166 183 194
83 111 69
79 107 66
119 141 131
170 188 201
156 174 181
159 178 187
171 189 204
170 187 198
116 137 124
82 110 68
78 106 65
73 100 60
77 104 64
76 102 62
74 101 61
78 105 65
86 109 81
133 154 151
155 173 181
169 185 196
164 182 195
171 187 201
166 182 193
167 183 193
170 187 201
160 178 188
88 113 80
77 105 64
75 102 61
73 100 60
77 104 63
78 104 64
76 103 62
80 108 66
79 104 69
115 135 125
136 154 156
165 181 191
162 178 189
169 185 196
167 183 194
162 179 190
149 167 173
147 164 173
139 157 161
75 102 62
78 105 63
72 98 59
77 104 63
79 106 64
77 104 63
74 100 61
74 100 61
80 107 66
78 105 64
75 101 61
78 106 65
90 114 85
119 139 130
150 167 173
158 175 182
155 171 177
152 170 176
159 175 182
82 107 73
79 107 65
70 94 56
75 101 61
72 98 59
83 111 69
74 101 61
73 99 60
72 98 59
77 105 64
76 103 62
75 101 61
77 104 63
75 102 62
76 102 61
72 97 59
73 99 59
79 106 65
78 104 64
88 112 89
165 181 192
146 162 167
139 156 159
118 137 130
85 110 81
78 105 64
77 104 64
74 101 61
64 89 51
75 101 62
77 105 64
72 99 59
73 98 59
71 96 58
74 100 60
69 95 57
75 100 63
86 109 83
108 129 115
117 138 127
116 137 128
104 126 107
86 110 83
78 103 70
73 98 59
73 99 60
72 97 57
76 103 63
70 95 56
76 103 63
71 96 57
75 101 61
70 95 57
67 92 54
72 98 60
73 99 60
76 102 62
73 99 60
74 100 61
86 108 77
114 134 123
113 133 122
97 119 99
75 101 61
72 97 59
73 98 59
73 99 59
71 97 57
69 95 57
78 104 64
73 99 61
66 91 53
73 99 60
71 96 58
72 98 59
77 104 62
71 97 59
78 104 64
70 94 56
66 91 54
74 99 60
119 139 133
146 163 170
158 173 182
158 174 184
146 162 167
156 172 180
155 171 182
140 158 160
156 172 181
149 165 171
160 177 186
158 175 184
162 177 186
156 174 180
151 165 173
153 168 176
159 176 186
156 172 179
149 165 171
161 178 187
154 170 177
99 121 102
68 93 55
71 97 58
73 99 59
73 99 59
75 101 61
70 95 56
69 94 56
65 89 53
77 104 63
72 97 58
68 93 56
98 117 103
104 125 109
134 152 151
137 156 155
150 166 171
147 163 169
152 169 174
152 169 178
147 164 168
71 95 60
72 97 59
73 98 59
73 100 60
67 91 54
69 94 55
73 99 60
78 105 64
73 99 60
69 93 55
74 100 61
70 96 58
72 97 58
70 96 57
73 99 58
71 97 58
70 94 57
71 96 58
73 98 59
69 95 56
113 132 127
144 159 163
152 169 174
152 169 174
154 171 177
153 170 178
154 170 178
145 161 165
147 164 168
154 170 175
150 167 173
152 167 172
156 172 180
155 171 177
149 166 170
151 169 177
163 180 190
157 174 182
155 172 178
153 168 175
121 140 132
70 95 57
73 98 59
74 101 61
74 100 61
76 102 62
72 98 58
72 97 59
70 95 56
71 97 57
77 104 63
70 95 57
73 99 59
71 97 59
73 99 59
69 94 55
73 100 61
72 98 59
80 107 66
75 100 61
126 145 139
159 176 185
148 165 171
154 171 177
155 171 179
149 165 171
153 170 177
157 173 180
159 175 185
160 177 188
152 169 175
163 179 191
158 173 182
157 173 182
160 176 186
149 165 170
148 165 171
147 162 165
161 177 187
119 138 134
72 98 59
71 96 57
69 93 55
72 97 58
73 99 60
69 95 55
73 100 60
75 101 61
73 99 59
67 92 55
71 97 58
73 100 60
70 96 57
73 98 59
72 98 59
75 102 61
69 94 56
76 103 62
136 153 155
151 167 171
149 165 171
165 181 191
156 171 181
160 177 185
156 172 182
154 171 178
134 151 149
128 145 142
129 147 144
101 123 106
98 119 103
101 122 103
72 98 58
75 102 61
76 103 62
75 101 62
134 151 152
166 183 193
157 173 182
143 161 167
153 170 177
153 169 177
170 187 201
152 169 174
155 172 182
159 175 183
156 173 181
163 180 190
160 177 188
164 181 191
158 175 185
149 166 171
155 172 179
132 150 150
75 101 60
69 94 57
78 106 65
75 101 61
76 102 62
74 100 60
77 104 64
80 108 65
75 101 62
74 100 61
75 101 61
79 106 65
76 103 62
72 98 60
75 102 61
83 108 76
149 166 173
165 182 192
155 171 180
158 175 186
162 180 192
152 170 179
169 186 198
165 181 190
165 182 191
159 177 188
149 167 173
170 186 199
161 177 186
152 170 175
157 174 184
138 157 157
78 104 66
72 97 59
76 103 62
73 98 59
78 106 65
75 102 61
76 103 62
82 108 74
90 113 89
115 137 126
122 141 137
145 163 169
160 177 185
171 187 199
100 123 104
76 104 64
80 108 67
78 105 64
75 102 63
73 100 59
77 104 64
76 103 63
73 100 61
76 103 63
79 107 65
76 104 63
74 101 62
98 122 101
156 174 184
167 184 197
167 183 192
161 179 189
172 188 201
170 186 196
165 183 196
170 186 197
163 181 193
168 185 196
159 177 187
155 173 181
101 123 102
78 106 65
78 106 64
105 128 108
138 157 156
160 178 185
173 190 204
116 138 125
153 171 178
170 187 199
165 183 194
164 181 193
154 172 178
169 186 196
167 185 198
113 135 119
77 104 63
80 107 66
76 103 63
76 103 63
74 102 62
93 117 91
136 156 153
154 171 176
163 180 190
165 182 193
155 174 181
168 185 197
168 186 198
165 182 192
165 181 193
165 181 191
156 174 184
79 107 66
80 108 66
77 104 64
78 106 66
77 104 63
79 106 65
95 120 91
138 157 158
154 171 178
161 179 190
165 183 195
158 175 185
160 177 189
170 188 202
156 172 178
156 173 182
163 180 192
156 173 179
140 159 161
74 100 60
76 103 63
70 95 57
73 99 60
76 103 63
81 109 67
76 104 63
80 108 67
77 104 64
84 107 77
122 142 135
141 158 159
169 185 196
158 173 184
166 183 194
169 184 195
149 165 172
160 177 185
154 170 178
79 107 69
70 96 57
74 101 61
77 104 63
77 105 64
77 103 63
80 107 66
76 103 63
75 102 62
72 99 60
75 102 63
77 105 64
74 101 61
73 100 60
70 95 57
75 101 61
71 97 58
75 101 61
76 103 66
100 122 104
118 138 127
78 102 67
76 104 63
73 100 61
75 102 62
78 105 64
76 102 62
69 94 56
74 100 61
73 99 59
75 102 62
76 103 62
73 99 60
73 99 60
72 98 59
72 98 59
77 103 62
72 98 60
75 101 62
78 105 64
140 157 158
158 173 182
164 181 193
149 164 171
152 168 174
145 162 165
132 150 148
127 144 144
111 131 118
103 124 104
85 110 80
76 101 68
72 98 59
71 97 57
72 98 58
82 107 73
108 128 116
115 135 125
147 164 168
162 178 187
162 179 191
79 105 67
74 100 60
74 101 61
71 97 58
74 100 60
75 102 62
76 102 62
71 97 58
74 99 58
71 97 58
69 94 56
77 103 63
73 98 58
70 95 56
73 99 59
69 94 56
71 98 59
71 96 58
74 100 60
75 102 61
96 119 100
159 176 185
150 166 172
164 180 191
161 178 189
157 174 181
154 170 177
159 177 187
160 175 188
158 173 180
153 170 177
144 160 166
152 168 174
159 176 183
150 166 173
163 178 188
152 168 175
158 173 180
154 171 181
149 167 177
146 164 170
124 143 135
70 95 58
75 101 61
74 100 60
75 101 61
77 102 65
89 112 84
104 125 108
118 136 130
128 145 146
141 159 161
155 170 179
145 161 165
158 175 184
153 169 174
156 172 178
148 164 170
159 174 185
141 157 161
151 166 171
151 166 172
111 131 121
65 89 53
70 96 57
75 101 61
71 96 58
68 94 55
74 100 61
70 95 57
69 95 56
71 97 57
70 95 57
75 100 61
69 94 55
72 99 59
69 94 56
70 95 56
65 90 53
71 96 58
72 98 58
73 99 60
87 111 83
152 168 177
144 161 166
149 165 172
155 171 177
163 178 188
141 158 160
160 176 186
161 178 189
159 176 186
156 173 180
154 171 180
152 168 174
151 167 174
161 177 187
152 169 177
168 184 193
155 172 181
156 172 179
154 171 178
145 161 164
84 108 76
71 97 58
69 94 57
73 99 60
72 97 58
72 97 59
70 95 57
74 100 59
62 86 50
70 95 56
64 89 52
74 100 61
77 104 63
71 96 58
73 98 59
76 102 62
73 100 60
76 102 62
75 101 62
101 124 100
166 183 194
157 174 183
157 174 182
153 167 173
156 172 182
151 168 173
153 170 177
154 170 179
158 175 183
161 177 186
152 169 178
158 174 183
155 171 179
159 175 186
152 168 175
157 173 180
157 173 183
153 169 177
157 173 180
97 118 99
76 103 62
68 93 55
74 100 60
77 104 64
74 101 62
74 100 60
76 103 63
76 102 62
75 101 61
72 98 59
78 104 63
68 94 56
75 102 62
81 108 66
71 97 58
70 96 58
83 107 76
107 128 112
136 152 150
130 146 141
126 143 139
91 113 90
104 124 110
75 100 66
69 95 57
74 101 61
69 94 56
68 93 55
68 93 55
69 94 56
75 102 61
76 102 62
70 95 57
74 100 61
75 102 62
88 111 82
145 163 169
167 183 191
158 175 182
159 176 181
158 174 183
158 174 181
150 167 172
156 173 181
158 174 183
156 172 181
158 175 186
162 180 190
158 173 182
151 169 176
158 175 185
161 179 189
157 174 182
103 123 107
78 105 65
75 101 61
76 103 63
79 106 65
74 100 60
76 103 62
75 102 62
72 98 59
73 100 60
75 101 61
78 106 65
76 102 60
75 102 62
79 107 65
72 97 59
109 131 119
162 179 192
149 166 172
175 191 205
151 168 177
160 176 184
160 176 182
158 175 181
153 171 178
162 180 191
158 174 185
162 178 186
169 185 198
150 169 175
159 175 186
166 184 195
113 134 121
79 106 65
79 106 65
73 100 61
80 108 66
77 104 63
76 102 62
73 100 61
74 101 61
73 99 60
81 109 67
78 106 65
73 100 60
88 113 84
103 125 108
130 150 142
103 126 105
83 108 77
79 106 65
74 101 62
76 103 62
75 102 62
77 105 63
79 106 64
76 103 62
78 106 66
77 104 63
76 104 63
121 143 133
166 183 193
159 176 186
174 191 206
155 172 183
166 183 194
164 182 191
174 191 202
162 179 189
165 183 193
165 183 194
161 178 187
156 173 180
114 135 120
80 108 66
77 104 64
78 106 64
79 107 66
99 123 99
161 178 187
167 184 195
167 186 199
170 187 200
152 169 177
165 181 192
156 174 180
169 186 199
95 119 95
80 107 66
74 101 61
80 108 66
113 134 119
141 159 159
175 191 205
163 181 192
164 182 192
168 186 199
152 169 174
163 179 187
166 184 195
156 173 181
164 180 189
172 189 202
158 174 184
166 181 192
76 103 64
77 104 64
79 106 65
81 108 70
113 134 120
145 164 162
160 178 187
167 185 198
164 181 191
158 175 185
161 176 184
163 181 193
159 176 184
152 169 174
155 172 181
163 179 190
160 177 186
154 170 177
134 154 153
78 105 63
76 103 62
76 102 63
73 99 59
76 103 63
76 103 63
77 105 63
99 122 102
141 160 162
158 175 184
159 176 187
158 175 183
153 169 177
158 174 182
171 188 200
155 172 179
164 182 192
166 183 193
164 179 191
94 117 91
80 107 65
79 106 66
78 105 64
74 100 61
74 101 61
76 103 63
76 103 63
79 106 64
76 103 63
78 105 64
77 104 64
75 102 61
79 106 65
72 97 58
82 108 69
103 124 110
139 157 155
151 169 174
160 177 183
83 106 80
72 98 59
73 100 61
77 104 64
76 104 64
74 100 60
68 93 55
69 94 56
74 101 62
77 104 63
77 104 63
76 103 63
70 96 57
75 102 62
71 97 57
74 100 60
79 105 64
77 104 63
73 99 60
76 102 62
127 146 141
166 182 194
163 178 187
162 179 190
152 169 178
151 167 175
167 182 192
160 177 185
149 165 169
152 168 173
151 168 176
154 171 179
138 156 157
111 131 117
98 120 97
117 137 127
128 147 144
126 146 144
135 152 152
150 167 172
145 163 168
95 117 95
73 99 60
79 106 64
71 97 59
75 100 60
71 97 58
72 98 59
74 100 61
65 90 53
69 95 56
67 92 54
72 98 59
72 98 59
71 97 58
71 98 59
75 100 61
76 102 62
73 100 60
76 102 63
76 102 62
69 94 57
144 162 166
160 178 188
145 160 161
164 180 190
163 179 188
164 181 194
163 178 189
158 174 182
152 169 178
155 171 179
157 173 182
154 170 176
153 170 177
160 176 182
154 170 177
153 169 173
155 171 177
165 180 190
151 168 175
150 166 172
155 172 179
92 114 91
103 124 109
123 142 138
140 158 158
160 176 187
155 172 178
152 168 175
146 162 170
160 176 187
162 179 188
156 173 179
150 166 173
158 174 183
156 173 183
155 170 177
159 175 184
148 163 171
149 168 174
155 170 178
151 169 175
127 144 141
73 99 59
67 92 54
76 102 62
73 99 60
72 97 59
67 92 55
74 99 60
72 99 59
75 102 62
75 102 62
73 99 60
77 104 64
74 100 59
71 97 59
74 101 62
78 105 65
69 95 56
76 103 62
67 93 55
74 100 60
127 145 140
152 168 177
151 168 173
148 165 172
149 166 173
156 172 176
155 171 180
152 169 177
156 173 181
154 170 181
160 175 183
160 177 188
150 166 173
158 174 181
164 179 189
157 173 179
147 164 169
154 171 178
149 165 170
160 178 188
125 145 138
72 98 59
75 101 61
73 99 59
72 99 59
70 95 57
73 100 61
72 97 58
74 101 61
73 99 60
73 99 60
64 88 51
72 97 57
71 96 57
72 98 59
73 99 60
71 96 58
73 99 60
74 101 61
72 98 59
136 154 154
161 177 187
159 176 185
155 171 181
158 174 183
156 173 180
147 165 169
153 170 177
163 180 192
154 171 176
154 171 178
159 175 186
164 181 191
158 173 178
150 167 174
152 167 173
162 179 188
145 161 166
160 176 184
142 159 161
75 102 61
76 104 64
72 98 60
69 95 57
73 99 60
74 101 60
74 100 63
80 106 71
101 122 103
91 114 91
117 137 126
118 137 126
140 159 163
141 159 160
154 172 177
149 167 174
152 168 175
153 169 174
121 140 129
76 103 62
69 95 56
73 100 60
76 102 62
74 101 61
73 99 60
72 97 58
74 100 60
73 99 59
76 103 63
71 97 58
73 100 60
66 91 54
71 96 57
73 99 59
71 97 58
77 104 63
120 139 133
154 172 179
149 165 170
163 179 186
149 166 170
153 171 177
155 173 180
154 171 179
159 176 184
157 174 184
156 172 184
164 181 192
149 166 174
159 176 186
159 176 185
168 184 195
152 169 177
159 177 186
80 105 70
78 105 65
76 103 62
74 101 62
74 101 62
77 104 64
75 102 63
78 104 63
76 103 63
76 103 62
79 107 65
74 101 60
76 102 61
81 109 67
74 100 60
75 101 61
127 146 139
167 184 192
158 174 183
153 168 175
156 173 180
165 182 189
153 170 176
164 181 191
167 182 192
171 188 199
166 183 195
161 178 187
162 178 189
159 176 185
174 189 200
163 181 195
93 116 95
73 99 60
77 104 63
76 103 63
78 105 65
75 102 61
75 102 62
75 101 60
78 105 64
80 108 66
75 101 61
78 105 63
78 106 65
72 98 59
96 120 97
164 181 194
163 180 189
152 170 174
138 157 158
127 147 144
104 126 112
90 116 85
75 101 61
76 103 62
76 103 63
76 104 64
74 100 61
80 108 67
130 148 145
156 174 184
147 164 171
162 179 191
160 177 182
170 187 199
156 174 184
162 179 189
169 186 197
164 182 194
173 189 202
171 190 204
164 180 186
90 113 86
80 109 67
77 105 63
82 112 70
78 106 65
167 185 194
166 185 198
171 188 203
173 191 206
162 180 190
168 185 199
169 186 198
166 184 196
87 114 79
81 108 71
107 131 115
149 166 168
157 174 183
168 185 196
168 184 194
176 194 210
165 182 193
167 185 198
164 181 193
160 178 184
161 178 188
156 173 180
162 179 189
163 179 189
166 184 199
166 183 193
75 103 63
86 111 81
125 145 140
157 174 182
157 175 187
164 181 191
166 183 194
158 174 182
156 174 184
164 181 192
170 186 197
165 182 190
168 184 194
165 181 194
164 179 189
162 179 191
160 178 186
164 181 191
138 156 158
75 102 62
77 105 64
73 99 60
77 104 63
86 111 81
131 151 147
156 174 184
163 180 193
156 174 183
169 185 196
172 188 203
171 188 202
165 182 194
159 176 187
162 180 192
162 179 189
162 179 191
163 179 189
163 180 191
91 114 87
72 99 58
73 99 60
77 104 63
72 98 60
76 103 62
74 100 61
75 101 61
75 103 62
73 100 60
76 103 63
76 103 63
78 103 68
112 133 118
130 147 145
158 175 183
153 170 175
168 185 198
156 172 180
157 174 182
96 117 96
75 101 61
75 102 62
79 106 65
78 106 65
79 106 65
73 100 60
73 99 60
74 101 60
77 104 64
78 105 65
72 97 58
76 102 62
72 98 59
75 103 62
75 102 62
78 105 64
78 105 64
78 105 64
76 103 62
116 136 123
159 175 184
160 176 185
163 179 191
156 174 183
155 172 181
160 177 188
158 174 184
146 163 168
139 156 157
100 120 105
85 109 83
71 97 58
75 101 62
76 103 63
76 103 63
72 98 58
72 97 58
74 101 61
75 101 62
71 97 59
129 147 142
156 173 180
148 166 169
134 152 154
137 154 158
120 138 133
118 138 130
112 133 119
104 123 108
104 126 107
87 109 84
75 100 64
70 96 57
74 100 61
70 95 57
68 94 55
74 100 61
78 104 64
71 97 59
75 101 61
75 101 61
131 149 148
155 171 179
150 168 176
154 170 177
162 177 186
156 172 181
157 173 184
155 172 182
155 171 178
153 169 175
164 180 192
157 173 179
160 177 187
158 176 184
158 174 182
155 171 179
140 158 163
125 143 140
113 134 126
95 118 96
73 100 60
136 153 155
155 171 178
153 169 175
156 172 178
154 170 179
157 173 183
155 172 180
158 173 181
151 168 172
164 181 192
152 169 175
158 175 184
162 179 189
165 180 188
158 174 184
151 169 175
160 177 187
160 177 185
163 180 189
152 169 177
158 175 182
81 105 76
68 94 55
70 96 57
72 97 58
72 97 58
77 104 64
78 106 66
72 98 60
73 100 59
72 97 58
74 101 61
75 102 62
77 104 63
76 103 62
73 100 60
77 102 62
73 98 59
67 91 54
71 97 58
75 102 62
103 125 106
157 173 180
159 175 186
151 169 174
153 168 173
152 168 176
156 172 179
147 164 169
157 174 186
163 179 188
152 169 174
152 168 178
165 180 190
162 178 186
162 178 186
145 162 166
151 168 175
152 170 176
149 164 173
145 162 163
155 171 177
78 105 67
73 99 59
76 102 62
70 96 56
70 96 57
74 100 61
69 94 56
70 95 55
74 101 61
74 100 61
72 98 59
75 101 61
73 99 59
72 97 58
76 103 63
73 99 60
71 97 59
77 104 64
73 100 60
90 112 90
145 162 166
158 174 184
158 175 183
163 179 189
158 174 183
156 173 183
152 169 175
156 174 183
146 163 169
158 174 181
144 160 167
166 181 193
164 179 189
162 178 189
144 161 165
146 163 169
147 165 169
133 152 149
124 143 143
106 127 113
126 144 137
144 162 164
141 160 159
155 172 179
147 164 172
151 166 173
155 173 182
153 170 179
149 166 172
155 172 178
154 171 177
155 171 180
151 168 173
161 178 188
160 176 183
153 170 177
154 172 178
144 161 166
82 107 78
82 108 71
82 108 70
75 102 62
73 99 59
75 101 61
77 104 63
72 99 59
75 101 61
72 98 58
70 96 58
76 104 62
74 101 62
72 99 58
71 97 58
76 103 64
77 104 63
74 101 61
137 154 152
158 174 181
162 180 191
155 173 180
163 180 189
160 177 185
153 169 176
157 173 182
156 173 183
159 176 186
162 178 189
165 182 194
168 183 195
162 179 187
158 174 180
161 177 185
160 177 188
135 153 151
76 103 63
74 100 61
73 99 60
76 102 62
72 98 59
75 102 62
78 105 64
75 102 61
73 100 60
75 102 61
75 102 61
75 102 62
77 104 64
77 105 64
74 100 60
85 110 78
152 168 173
169 186 198
165 182 194
155 172 178
153 168 176
161 178 189
164 180 189
154 171 177
155 172 179
162 179 186
162 180 190
163 180 191
161 177 185
165 181 190
153 171 178
153 171 175
82 108 71
75 101 61
75 102 62
74 100 61
79 107 66
77 104 63
74 101 61
73 99 59
80 108 68
75 101 62
75 103 62
74 101 60
75 101 62
74 101 61
116 137 125
155 172 180
171 187 200
164 181 192
167 184 196
155 172 181
150 169 177
147 165 170
141 159 159
117 139 128
90 114 87
76 104 63
77 104 63
75 102 62
148 166 169
169 187 198
154 172 182
169 185 199
169 186 200
171 187 200
164 181 194
162 178 188
156 173 177
172 189 201
163 179 189
168 186 200
156 174 182
93 117 92
78 106 65
78 107 67
81 109 67
170 187 202
165 182 195
155 173 181
164 181 190
162 178 189
170 187 199
161 178 189
165 182 194
129 150 145
158 176 182
163 181 192
156 174 182
169 185 198
162 179 190
167 183 195
162 178 190
156 174 181
157 175 185
169 186 200
165 183 194
165 182 193
168 185 199
163 181 191
168 184 196
161 177 186
146 163 167
144 162 164
165 182 190
162 179 188
163 180 191
165 182 189
162 179 192
163 181 194
154 171 178
164 181 194
161 178 189
163 180 193
160 177 185
164 181 191
168 184 196
161 179 190
159 176 186
159 177 186
164 181 194
128 147 143
77 104 63
80 105 68
117 139 129
149 167 174
168 184 195
170 186 197
160 177 188
148 166 172
167 184 197
158 174 181
153 170 174
158 173 183
153 170 177
159 176 183
162 180 192
168 184 196
148 164 170
162 178 188
166 184 196
100 122 102
75 101 62
72 98 59
73 100 60
75 102 61
74 101 62
76 103 62
75 102 62
74 100 61
75 101 61
104 126 111
133 152 148
164 183 196
161 176 183
160 176 184
157 173 182
162 178 189
158 175 183
168 184 196
156 173 183
113 135 124
76 103 63
77 104 63
78 106 65
79 107 65
77 104 63
74 101 61
76 103 63
77 104 63
76 102 63
73 100 60
72 98 59
70 95 57
70 95 57
73 100 61
74 101 61
72 98 59
74 100 61
69 94 55
78 106 64
93 117 88
159 174 181
162 178 187
155 171 179
164 179 189
141 159 159
118 137 130
94 116 98
72 98 59
79 106 64
75 101 61
73 99 60
73 99 59
77 103 62
73 100 61
75 101 60
73 99 60
76 103 63
75 101 61
74 100 61
75 101 61
111 131 121
156 173 181
167 184 196
162 178 187
169 185 198
156 174 182
153 169 175
146 164 169
165 182 194
161 177 189
157 173 179
166 182 190
155 172 178
158 175 184
133 151 154
129 148 147
137 156 157
131 149 145
123 142 137
128 146 141
111 131 121
132 149 150
143 160 163
141 159 159
154 169 177
153 169 177
147 165 171
164 181 190
147 163 167
157 174 182
156 173 180
156 172 180
147 163 167
127 145 139
114 133 124
92 114 92
73 98 62
69 94 56
75 102 62
70 95 57
73 99 59
72 99 59
108 128 116
165 181 192
151 167 175
153 169 177
144 161 166
155 171 180
156 173 181
157 173 183
151 167 173
151 167 172
154 172 182
154 171 177
158 173 182
143 161 165
163 180 188
153 171 177
154 170 177
159 176 186
158 175 184
152 168 176
164 180 188
120 140 134
70 95 56
75 101 61
73 99 59
76 103 62
72 97 58
72 99 60
74 100 60
73 99 60
75 101 61
72 98 59
76 103 62
75 101 62
74 100 61
70 95 56
70 96 57
74 100 61
75 101 61
72 99 59
76 103 63
75 100 65
151 168 174
155 171 178
153 171 178
148 166 171
149 166 170
161 178 188
158 174 183
159 175 186
139 156 158
147 164 165
158 174 184
151 168 173
152 168 175
151 168 175
152 169 177
155 171 179
156 173 182
156 173 184
157 172 179
155 171 181
120 139 133
75 101 61
78 105 64
73 100 60
77 104 63
72 98 59
73 99 60
73 98 59
75 100 60
72 98 60
73 99 60
72 98 60
77 104 63
76 102 62
76 104 63
75 101 60
70 95 57
74 100 61
73 99 59
72 98 60
139 157 157
155 171 175
161 177 186
154 171 178
160 177 187
153 169 175
151 167 174
144 161 165
160 176 185
161 177 185
148 165 169
143 159 163
137 155 156
136 154 152
140 156 155
139 157 161
154 171 178
142 161 162
147 164 165
146 164 168
85 107 82
76 102 64
76 102 63
73 99 59
72 98 59
79 106 64
73 99 59
74 100 60
71 97 59
76 102 62
77 104 63
70 96 57
74 100 61
70 95 56
73 100 61
70 95 57
74 101 61
72 97 59
115 135 121
151 168 174
150 166 174
139 157 158
153 170 176
157 173 182
154 170 177
148 166 173
154 170 177
159 175 186
147 164 167
146 165 171
151 168 176
147 164 168
146 164 165
140 159 160
136 153 155
133 151 150
143 162 163
115 134 120
121 141 134
141 160 162
137 154 155
151 168 175
137 155 153
148 166 170
155 171 178
150 167 175
158 175 183
151 170 179
160 176 183
150 168 174
162 179 188
166 182 194
161 177 186
165 181 192
104 126 110
76 102 61
76 103 62
77 104 63
72 99 60
76 104 64
72 99 59
79 106 65
77 104 64
77 104 63
78 105 64
75 102 62
73 99 60
76 103 62
72 98 58
71 98 58
92 115 86
152 169 176
164 182 195
164 180 189
158 175 184
169 185 197
162 180 188
170 186 199
162 180 189
159 175 185
168 184 196
155 173 180
167 183 191
161 178 188
159 177 182
161 179 189
128 148 143
75 101 62
77 105 64
79 106 65
78 106 64
77 104 63
78 106 64
80 108 65
77 104 63
77 105 64
77 104 63
79 107 66
76 104 63
75 102 62
76 103 63
129 149 144
165 182 193
164 181 192
170 187 199
153 171 178
161 179 191
172 188 201
158 177 187
161 177 186
170 186 200
156 173 182
137 155 156
125 144 140
107 130 113
151 169 175
167 185 198
162 181 193
166 183 192
173 190 202
165 183 195
159 175 181
162 180 191
168 185 196
162 180 187
168 187 202
168 187 200
164 182 193
88 114 80
74 101 60
78 105 64
167 185 199
169 187 200
172 190 204
168 185 197
159 178 189
162 180 187
117 139 129
102 125 104
171 188 200
162 180 190
167 184 194
164 182 193
165 182 195
165 183 196
174 190 201
168 184 197
173 190 204
172 188 202
159 176 186
166 185 198
160 178 189
171 188 202
162 179 186
145 163 163
101 125 104
113 135 117
161 178 189
155 172 178
165 182 191
169 184 194
159 176 186
163 180 189
150 167 175
171 188 202
171 189 203
161 179 189
162 181 193
167 184 194
159 175 183
175 192 207
167 184 198
167 183 195
159 177 185
165 183 195
149 167 169
135 154 153
144 162 165
170 187 198
163 180 191
167 184 197
161 177 186
157 174 183
169 186 199
165 181 192
156 174 182
162 178 186
165 181 192
161 178 186
163 181 194
163 180 191
163 178 185
163 179 190
159 176 185
158 174 182
117 138 124
78 105 65
73 99 59
76 103 62
79 107 66
73 99 60
80 107 68
96 118 96
138 156 154
144 160 162
167 184 194
172 188 203
163 180 193
155 172 179
157 173 182
159 176 188
160 178 190
175 192 208
171 187 198
153 169 177
114 134 121
75 102 62
79 107 65
75 100 61
75 101 62
77 104 64
73 100 60
73 100 60
74 100 60
76 102 62
77 103 63
74 101 61
72 98 60
72 98 58
76 103 63
75 102 62
74 100 60
78 105 64
76 102 62
71 97 59
78 105 64
153 168 172
116 136 128
113 133 119
75 101 64
69 95 56
74 100 60
76 103 62
79 107 65
79 106 64
75 102 62
74 100 60
78 104 64
70 96 59
74 100 60
76 102 61
76 102 61
73 99 60
71 97 57
73 99 60
72 99 59
76 100 72
156 173 178
165 181 192
157 173 183
155 172 180
166 181 194
162 177 188
160 176 185
159 176 187
149 166 175
156 172 178
153 171 178
170 185 199
159 175 185
153 170 176
157 173 182
144 161 164
160 175 186
157 174 180
157 175 184
160 177 187
154 172 179
74 100 59
73 99 60
68 94 56
72 98 58
71 97 58
91 111 90
118 137 128
139 157 157
156 173 180
140 158 161
134 152 148
128 147 146
124 143 139
120 138 134
127 146 142
117 137 129
112 132 120
111 131 121
111 131 121
94 116 92
100 122 104
146 163 167
157 173 180
151 168 174
156 173 183
158 174 181
164 179 189
159 175 181
157 173 180
161 177 188
157 174 184
152 170 178
155 172 181
163 180 191
152 169 177
164 179 187
156 173 183
156 173 184
147 163 171
154 171 177
159 177 186
139 158 157
78 104 64
79 106 66
71 97 58
76 103 63
74 101 61
69 94 55
73 99 59
73 99 60
75 101 61
73 99 60
76 102 62
74 100 61
71 97 59
70 95 57
73 99 60
75 101 61
71 97 58
76 102 62
71 97 58
79 106 65
111 129 119
159 175 185
148 165 169
157 175 184
157 174 183
147 164 170
156 173 181
156 172 180
156 172 181
161 178 189
161 178 186
163 179 191
155 171 178
149 166 173
150 166 170
151 168 176
155 170 178
146 163 168
157 174 181
160 176 183
141 158 157
90 114 89
90 111 87
96 117 98
98 120 99
109 130 116
103 125 109
105 126 111
101 123 103
83 103 83
92 115 92
90 114 84
87 113 83
75 99 68
75 100 63
80 105 74
74 99 62
73 99 60
75 100 63
75 102 62
86 108 86
160 177 188
151 168 176
153 169 174
167 183 194
155 173 184
144 161 164
151 167 174
162 179 188
156 172 181
152 167 175
155 171 175
158 175 185
155 172 177
160 177 185
162 178 189
160 176 185
162 178 188
156 174 182
155 171 178
101 122 105
77 104 63
74 100 61
75 100 61
70 96 57
71 98 59
72 97 59
71 97 58
71 97 57
78 105 63
70 95 57
72 99 58
80 107 66
73 98 58
79 106 65
72 98 59
76 103 63
74 101 61
78 104 66
157 173 182
164 182 191
162 177 186
150 168 172
159 175 185
164 181 194
159 175 183
156 174 182
157 175 183
152 169 175
156 174 184
170 185 197
166 181 193
150 166 174
167 184 195
171 187 199
155 173 182
159 175 184
120 140 135
75 101 60
74 100 59
73 99 60
69 96 58
73 99 59
72 99 60
79 106 65
76 103 63
73 100 60
87 112 85
79 105 68
96 119 95
117 138 127
117 139 128
121 140 131
123 141 137
126 145 142
113 135 121
101 122 104
87 111 85
83 108 74
76 103 66
79 106 65
77 104 64
77 105 64
71 97 57
77 104 63
75 102 61
72 100 61
77 103 63
76 103 63
76 103 63
77 104 63
113 133 122
156 173 182
163 182 193
154 171 176
165 182 193
156 174 181
162 179 189
164 180 190
159 176 186
158 175 183
153 171 179
165 181 190
161 177 185
155 172 179
163 179 188
163 180 189
111 131 122
72 98 60
79 107 65
79 107 66
79 106 65
80 107 66
78 106 65
78 104 64
77 105 64
75 102 62
79 107 66
72 99 60
75 103 62
83 111 68
80 107 69
149 167 170
169 187 201
166 182 192
166 184 194
163 181 192
172 189 204
161 178 188
166 183 194
160 176 187
175 191 204
156 175 185
159 176 187
161 177 185
165 183 195
110 132 121
130 148 142
142 161 160
161 179 190
159 176 187
168 186 198
169 185 197
160 177 185
168 183 194
167 185 198
172 189 204
162 179 192
144 162 164
80 109 67
83 111 68
154 173 180
163 180 190
168 184 194
158 176 184
126 146 141
81 107 70
82 110 68
118 140 130
165 183 195
169 186 199
157 174 185
168 185 197
169 184 196
162 179 187
163 179 188
166 184 197
173 190 202
164 181 192
162 179 190
164 181 192
165 182 192
128 149 142
78 104 69
74 101 62
76 104 63
115 138 122
157 175 182
174 191 205
165 181 193
164 181 194
164 181 195
164 181 191
160 178 190
165 182 193
162 180 193
161 179 188
175 192 206
163 181 193
158 175 184
165 182 191
164 181 193
159 176 186
142 160 162
106 130 112
113 134 122
164 180 190
163 180 190
158 175 185
165 182 194
155 173 178
155 173 183
159 176 187
157 173 181
170 186 198
163 180 190
168 184 195
162 179 191
161 178 189
147 164 170
158 175 183
169 185 195
161 178 191
164 182 194
158 175 184
115 135 125
74 100 60
77 104 64
77 104 64
101 124 104
121 141 135
153 169 173
160 177 186
157 174 185
169 186 198
163 179 190
154 170 176
160 177 189
172 190 202
163 178 190
171 188 201
164 180 189
157 174 183
155 171 180
159 175 186
131 148 148
73 99 59
73 100 59
73 99 59
77 104 64
74 100 61
74 101 61
76 102 62
75 102 62
78 105 64
74 101 61
74 100 61
76 102 61
78 105 64
76 104 64
75 102 62
75 102 62
78 104 66
106 127 110
124 143 137
150 167 170
99 122 99
76 103 62
76 103 63
74 101 61
78 104 64
75 101 61
75 102 62
76 103 63
70 95 56
76 104 65
73 99 60
75 102 62
75 102 63
80 107 65
72 99 59
78 105 64
78 105 64
75 101 61
74 101 61
72 98 59
73 100 60
147 164 168
160 177 186
164 180 190
167 183 196
160 176 187
152 169 175
159 176 186
156 174 182
151 167 175
157 172 182
151 168 175
158 175 185
154 170 178
165 181 191
150 167 173
152 167 173
158 174 182
163 179 189
160 177 187
161 178 188
169 185 196
79 104 75
90 114 90
121 141 133
130 149 143
149 165 173
153 170 175
160 176 186
155 172 182
155 171 179
156 173 181
162 179 191
158 175 182
160 177 187
147 163 169
153 170 174
166 181 191
160 177 186
154 170 176
154 172 179
157 174 183
153 171 179
81 106 74
75 101 62
75 101 62
77 104 64
73 99 59
80 107 65
77 101 67
76 103 62
83 107 78
87 109 81
89 112 88
82 106 75
95 116 95
100 120 102
89 114 87
99 121 100
108 129 115
114 134 124
116 136 127
105 125 109
119 137 130
134 152 152
123 142 136
125 142 141
132 151 149
136 155 155
136 154 153
137 154 158
135 152 154
131 149 147
121 140 137
123 143 138
127 146 146
128 146 141
130 146 144
128 146 143
127 144 142
122 139 137
128 146 143
126 145 142
124 144 139
135 153 153
108 127 114
123 142 135
94 115 96
98 119 100
108 130 112
108 128 116
109 130 116
99 121 104
91 113 91
98 118 98
88 112 86
94 117 94
84 108 78
81 105 75
83 108 76
89 112 88
92 112 96
103 124 107
113 133 125
116 135 127
124 143 138
107 126 113
90 112 93
90 113 89
77 102 68
71 97 58
75 101 61
77 104 63
76 102 62
75 101 62
76 102 63
74 100 61
76 103 63
77 103 63
75 101 61
70 95 57
72 98 58
73 100 60
74 100 60
71 96 58
140 159 160
159 175 183
163 180 187
155 172 179
152 168 175
152 169 175
153 171 180
165 182 193
150 167 171
159 176 186
163 181 190
158 174 183
156 173 183
156 172 182
159 175 184
151 168 177
158 175 181
156 172 180
163 180 189
147 163 169
71 96 58
74 101 61
71 96 58
76 103 62
73 99 59
72 98 59
72 98 59
81 109 67
69 95 58
76 103 61
75 102 62
74 100 61
74 100 60
73 99 60
76 103 63
68 93 55
72 97 58
73 100 61
104 128 108
163 180 188
151 167 172
159 175 184
156 173 180
147 164 170
169 185 197
155 171 178
160 177 189
167 183 193
154 170 175
160 176 187
159 174 180
156 174 183
150 168 174
156 173 181
158 176 182
157 173 182
149 166 173
83 107 78
75 102 62
74 101 61
75 101 61
75 102 62
76 103 62
74 100 60
77 104 64
80 107 65
73 99 60
80 107 66
75 102 62
77 104 63
76 104 63
74 101 62
78 105 64
78 105 64
119 139 131
168 185 197
150 167 169
160 177 186
144 162 167
158 175 185
162 179 188
155 173 181
136 155 155
132 150 146
130 149 144
106 127 113
97 120 98
90 114 86
78 105 63
77 104 64
77 103 67
144 163 164
163 180 190
159 177 187
167 184 195
157 175 186
160 178 189
158 175 185
158 176 182
164 180 193
160 178 188
161 179 192
165 182 194
160 177 184
168 184 195
167 184 196
160 177 187
92 117 87
72 99 60
78 106 64
76 104 63
80 108 66
75 102 62
73 100 60
80 108 66
79 106 65
73 100 60
77 105 64
74 101 61
80 108 67
77 104 64
80 106 73
159 177 188
163 180 190
168 185 197
161 179 189
157 175 183
163 180 191
175 193 208
171 189 203
165 182 195
163 181 191
159 177 186
157 175 185
157 175 184
145 162 169
81 108 75
78 105 64
79 106 69
114 137 124
127 147 143
153 171 180
164 182 195
166 183 194
165 182 193
175 193 207
164 181 190
169 187 200
136 156 155
80 108 66
170 187 200
156 174 181
111 133 119
80 108 69
79 107 67
78 106 64
80 109 68
134 153 151
154 172 180
164 181 193
176 192 208
167 185 199
173 190 202
163 179 188
175 191 205
177 193 208
161 180 194
169 185 196
164 182 191
118 140 127
76 103 63
76 104 63
78 107 66
78 106 65
77 104 64
113 134 123
169 186 197
170 187 198
168 185 196
157 175 186
161 178 187
165 182 192
160 177 187
169 185 197
172 189 203
156 174 179
161 178 187
165 182 193
159 177 186
150 168 175
124 145 137
79 104 72
79 106 65
76 102 62
106 127 109
164 183 194
164 180 193
160 177 188
163 180 190
167 185 199
164 179 189
172 189 202
168 183 195
160 177 184
154 170 178
158 175 183
161 178 188
158 174 183
157 175 186
161 178 188
161 178 188
155 171 180
162 180 192
166 183 195
119 142 131
92 115 91
127 147 144
161 179 189
152 168 174
157 174 183
168 185 196
168 186 201
156 172 178
158 176 185
154 171 180
161 178 190
165 182 195
160 175 184
152 169 175
160 176 185
163 180 191
167 185 198
166 183 194
157 174 186
140 157 157
74 102 62
79 106 65
77 104 64
76 103 63
77 104 64
76 103 62
74 100 61
73 99 59
77 105 64
76 103 63
74 101 62
76 103 64
72 98 59
84 110 76
120 140 131
134 153 154
163 180 189
159 175 181
168 183 194
156 173 181
113 133 124
74 101 61
75 101 61
79 107 66
74 101 60
76 102 62
79 106 65
75 101 62
74 100 60
76 102 61
76 103 62
76 102 61
79 106 65
73 100 61
70 95 56
75 103 62
75 102 62
78 106 65
75 103 62
80 108 67
74 100 60
143 160 163
150 168 175
165 182 195
159 176 182
149 164 169
164 182 194
152 169 176
160 175 184
157 174 182
155 173 180
162 178 189
154 171 180
160 175 185
160 176 185
158 175 184
161 177 188
150 166 171
154 172 181
137 156 158
117 136 128
94 118 98
139 157 157
149 166 170
156 173 183
160 177 187
153 170 178
160 176 184
149 166 170
159 175 184
151 168 173
167 182 191
144 162 167
137 155 157
155 171 178
156 172 180
158 175 184
159 176 183
158 174 184
163 180 189
154 171 179
151 169 172
156 174 178
121 140 130
75 101 61
72 98 59
73 100 60
75 101 62
69 94 56
74 99 60
73 100 59
78 106 65
73 100 60
70 96 57
75 101 61
73 99 60
73 100 60
74 101 61
77 103 63
72 98 58
73 99 60
80 107 66
75 102 62
72 98 59
130 149 145
154 171 180
166 183 194
158 174 183
155 170 180
160 177 187
152 168 176
154 171 179
164 180 192
143 160 163
160 178 187
150 166 172
151 167 173
151 166 170
157 174 183
159 175 183
149 166 169
147 163 168
159 175 183
161 179 189
161 177 189
97 118 98
74 100 60
74 100 61
74 100 61
76 103 62
76 103 63
88 112 81
90 113 88
90 113 88
124 142 136
114 133 127
129 146 143
145 162 165
143 159 166
147 164 168
148 165 171
158 175 187
153 169 176
154 170 178
154 170 177
133 153 153
72 99 60
75 102 61
74 100 61
67 92 54
70 96 58
76 103 63
74 100 60
71 97 59
77 104 63
74 99 60
73 99 60
78 105 64
75 101 60
74 100 60
73 100 60
76 103 62
71 96 56
74 101 62
72 98 59
99 120 103
158 175 183
151 168 173
165 181 193
153 171 179
169 186 197
159 176 187
156 173 181
159 176 185
155 173 180
169 185 197
153 169 175
158 175 181
165 180 188
164 181 192
161 177 184
159 175 183
162 179 190
164 179 190
155 171 179
107 128 111
69 95 56
76 103 63
72 98 59
76 103 62
77 104 64
77 104 64
74 101 62
71 97 58
77 104 63
73 99 60
77 103 62
74 100 61
76 103 62
74 100 61
74 100 60
76 103 63
71 96 57
78 104 64
127 147 142
161 178 189
150 168 174
155 172 182
158 175 185
162 178 190
161 178 188
160 176 183
157 173 179
156 174 186
159 177 187
165 182 192
158 175 184
156 172 182
167 183 193
153 170 174
161 178 188
148 165 169
133 152 150
77 104 64
75 101 61
73 99 59
76 103 62
77 103 63
70 96 57
74 100 61
72 99 60
78 105 64
75 100 61
78 106 64
71 97 58
69 94 55
76 102 62
72 98 60
72 98 59
80 105 72
147 164 168
165 182 193
161 179 191
167 183 194
159 175 187
148 165 168
164 181 193
150 168 174
166 183 193
165 182 192
159 177 186
165 181 190
170 187 200
162 181 192
154 171 180
152 170 177
141 160 159
131 150 148
136 153 151
139 158 161
148 165 172
166 183 194
154 173 182
165 182 194
158 175 183
163 180 191
164 181 194
162 179 192
164 182 194
169 186 199
165 182 193
163 181 189
155 172 176
82 109 75
76 104 63
78 105 65
77 104 64
82 110 68
77 105 64
79 106 65
76 103 62
79 106 64
77 103 63
77 105 64
76 103 63
78 106 65
79 107 66
109 130 115
167 184 194
168 184 193
169 186 198
156 173 182
156 175 183
168 185 198
168 184 194
169 187 200
161 178 185
165 182 192
160 177 187
164 180 188
167 185 199
142 161 164
77 104 63
78 107 66
75 102 62
72 99 59
74 101 61
84 111 73
117 139 127
127 148 142
150 168 172
161 179 189
172 189 203
177 194 208
131 151 146
149 166 171
107 131 111
79 107 66
78 105 65
80 108 67
81 109 66
79 107 66
142 160 160
165 182 195
169 186 200
167 184 198
171 189 204
168 187 201
165 183 194
170 187 200
163 180 189
144 163 167
110 131 119
77 105 64
77 104 64
75 103 63
80 108 66
77 104 64
79 107 65
80 107 66
125 146 139
174 191 206
173 190 205
171 189 204
168 187 199
171 188 201
165 183 193
163 181 189
156 173 182
170 188 201
171 188 201
157 175 183
144 163 164
99 122 102
79 106 65
79 107 65
76 103 62
81 108 66
81 110 69
111 132 119
168 185 198
165 183 193
160 177 187
168 185 198
174 191 205
158 173 180
161 179 188
165 182 193
162 180 190
170 187 199
165 182 194
159 175 186
167 183 193
161 178 189
166 183 194
150 168 175
168 184 195
166 182 193
129 149 146
142 161 163
162 178 188
168 185 199
163 180 188
160 177 186
161 177 187
157 174 182
160 176 185
159 176 187
165 181 191
162 178 189
169 186 199
157 173 184
150 166 173
168 184 196
159 176 183
163 180 192
155 172 179
163 180 190
161 179 189
147 166 171
76 103 63
74 100 61
73 99 60
76 103 62
77 104 64
77 103 62
79 105 64
80 108 67
79 106 65
70 95 58
96 119 96
121 142 134
143 160 166
166 181 191
163 180 191
162 178 188
167 184 195
162 177 186
159 177 185
162 178 188
126 145 143
76 103 62
71 97 58
76 102 62
78 105 64
78 105 64
73 99 59
75 101 62
76 102 63
78 105 64
77 104 63
75 102 62
77 104 63
76 103 64
78 105 65
75 101 61
77 104 64
75 102 62
76 104 64
80 107 65
75 101 61
122 142 134
155 171 177
155 173 182
151 168 175
159 176 188
160 175 185
167 184 198
160 177 188
151 168 174
156 173 181
168 184 192
163 180 192
159 176 187
150 167 175
140 159 160
105 126 112
98 121 97
72 98 62
77 104 63
74 101 61
76 103 63
114 133 123
150 167 173
171 187 200
155 171 180
161 177 187
161 179 191
162 179 188
166 182 192
163 179 190
152 169 177
153 169 176
158 176 184
163 180 191
164 180 193
158 174 184
157 174 180
162 179 192
156 173 183
162 178 188
163 179 192
159 175 182
152 168 174
77 104 63
73 99 60
75 102 61
73 99 60
70 95 57
76 103 62
76 103 63
80 107 66
76 103 63
72 98 59
76 103 63
74 100 61
74 99 60
74 100 60
75 102 62
69 95 57
73 100 61
74 100 60
73 99 60
75 101 61
118 139 126
160 175 184
161 178 187
156 173 182
161 178 190
149 165 172
150 167 174
165 182 192
152 169 177
160 177 187
154 170 176
167 184 195
154 171 181
156 172 180
157 173 182
152 168 176
146 164 170
161 177 187
160 177 188
153 171 178
152 169 176
116 136 129
107 128 113
131 150 149
147 164 168
141 159 161
162 178 189
162 179 187
162 179 190
151 167 174
155 171 178
154 170 175
154 170 178
156 174 184
160 177 188
166 182 194
166 182 192
162 180 189
160 178 187
152 169 177
164 179 189
158 176 185
83 106 78
71 97 59
73 100 61
75 102 61
77 104 63
69 95 56
76 102 61
72 98 59
70 96 58
77 104 64
69 95 56
72 98 60
77 104 64
74 100 60
76 102 62
74 101 61
76 103 62
73 99 59
72 99 59
72 98 59
147 165 167
153 169 176
161 177 184
157 174 183
160 178 185
157 173 182
156 172 180
166 182 194
153 171 179
162 178 188
159 175 183
152 169 178
158 175 184
157 173 181
164 181 192
163 179 188
154 171 180
158 174 180
153 170 177
153 171 177
79 105 67
73 99 60
72 99 60
73 100 60
74 100 60
74 100 61
75 102 62
75 102 61
76 102 62
73 99 60
77 104 63
77 104 63
72 98 59
72 99 60
74 101 60
75 102 62
72 98 59
73 100 61
91 115 85
158 175 182
157 174 181
160 178 188
153 169 179
158 175 185
164 179 188
161 178 190
155 171 177
150 167 171
164 180 192
154 170 178
160 177 187
153 169 177
161 178 188
163 178 187
153 171 179
158 175 185
156 173 182
97 120 99
77 104 64
72 99 60
73 100 60
74 100 60
75 101 61
75 102 62
75 102 62
72 98 60
77 104 63
69 94 56
72 99 60
75 101 61
77 104 63
76 103 63
76 103 61
71 97 58
92 115 91
156 174 180
159 175 183
162 179 187
163 180 190
170 186 197
155 171 179
165 181 190
162 179 189
156 172 179
168 184 196
171 189 201
160 178 187
164 179 187
161 179 190
165 182 194
161 179 192
141 160 159
72 98 59
73 100 61
76 103 62
78 105 64
96 120 99
101 123 104
120 141 132
128 148 141
138 156 155
148 165 167
161 178 187
160 178 188
159 178 187
156 174 182
177 194 209
137 156 154
78 106 65
73 100 60
75 103 62
77 106 64
75 102 62
80 108 66
78 105 64
77 104 63
76 104 63
79 107 65
80 108 66
80 109 67
78 104 64
77 104 63
135 155 154
170 186 198
163 180 190
166 184 195
167 184 194
165 183 195
168 186 200
161 179 187
172 189 202
164 181 189
166 184 197
162 179 189
161 178 187
170 188 202
119 140 132
78 106 65
77 105 63
83 111 69
81 108 65
87 117 73
75 102 63
80 109 68
82 110 68
89 115 83
113 135 121
157 176 183
116 138 126
169 187 201
180 196 210
127 148 141
87 113 79
80 108 66
84 112 69
78 106 66
148 167 170
169 186 197
159 176 183
167 186 202
165 182 194
170 186 199
160 178 186
137 156 154
101 123 104
75 103 63
80 108 66
77 105 64
80 107 66
80 108 66
80 108 66
77 104 64
81 110 69
76 102 63
123 143 139
171 187 202
165 181 189
150 167 176
174 191 204
169 186 198
167 185 198
162 179 188
157 175 182
146 165 169
99 122 104
87 113 80
77 105 65
82 110 68
79 106 65
80 107 65
76 103 62
76 103 62
75 101 61
107 130 114
162 179 190
159 176 186
160 178 188
165 181 190
157 174 183
166 182 193
171 188 202
166 183 194
166 182 191
160 177 185
159 176 186
168 184 195
172 188 201
166 183 196
161 178 187
144 162 164
96 120 96
74 101 61
77 105 65
131 150 147
170 186 199
172 188 200
157 174 183
168 185 196
167 184 195
158 174 182
163 181 190
170 187 201
151 168 176
164 182 191
159 176 186
165 182 192
165 183 193
166 183 192
161 178 186
160 177 189
165 180 191
172 188 203
159 175 182
148 166 171
76 103 63
75 102 62
79 107 66
76 103 64
74 101 60
72 98 59
75 102 62
104 125 109
130 150 147
150 167 172
162 178 186
161 177 187
170 186 197
167 183 193
161 178 189
170 186 199
171 187 201
163 180 191
159 176 185
161 177 187
144 162 162
72 97 59
79 107 66
77 104 63
76 103 63
75 102 61
76 102 62
72 98 59
76 103 63
77 105 64
77 104 63
73 100 61
77 104 63
73 100 60
76 103 63
72 98 58
76 103 62
74 100 61
74 100 59
76 103 63
76 104 63
120 141 131
166 183 194
159 175 183
163 178 187
151 168 177
161 177 187
161 178 189
159 178 189
165 180 192
148 165 170
136 155 156
122 142 133
80 105 72
77 103 63
66 91 54
76 103 63
75 101 61
78 105 64
70 96 57
72 98 58
78 106 66
94 118 94
165 181 192
174 191 206
147 165 174
170 185 199
156 172 182
158 174 182
162 181 194
165 181 192
156 172 178
151 168 174
167 183 192
156 172 178
144 160 164
151 168 176
164 181 192
168 184 197
159 174 182
150 167 173
157 173 181
157 173 182
161 178 190
82 107 75
72 97 58
72 98 59
76 102 62
75 102 62
78 105 64
74 100 60
76 103 62
75 101 61
76 103 62
73 100 60
74 100 60
72 99 59
78 104 64
82 110 67
74 100 60
76 101 60
77 104 63
71 97 58
70 96 57
67 92 54
150 167 172
156 172 178
157 174 181
161 177 186
158 173 182
160 177 187
160 176 186
155 171 178
155 172 179
149 165 171
158 175 186
155 171 178
139 156 158
150 166 169
128 147 143
92 114 91
97 119 100
85 108 80
72 98 59
74 100 60
80 104 75
155 172 180
163 180 185
150 168 173
150 167 173
150 167 176
153 170 180
161 179 190
154 171 180
154 171 178
152 169 179
154 171 178
156 173 182
150 167 173
158 174 183
166 182 195
153 170 180
154 170 178
145 162 168
160 177 189
161 177 185
123 142 136
71 97 58
74 101 62
71 97 58
73 100 61
73 99 59
76 102 62
69 95 57
75 101 61
73 99 59
74 100 60
78 105 65
74 100 59
77 103 63
73 99 60
72 99 59
73 98 59
78 105 64
76 103 63
81 108 66
107 128 114
156 173 180
163 179 187
169 186 198
154 171 176
157 174 184
154 171 180
166 181 193
162 178 189
156 173 181
157 173 180
159 176 186
154 171 178
149 166 174
164 182 195
167 184 196
156 173 179
143 160 166
164 181 192
163 179 187
117 138 129
73 100 61
73 100 60
76 102 63
76 103 62
78 105 64
77 105 63
74 101 62
75 102 61
76 103 63
70 96 57
75 101 61
74 101 61
73 99 60
75 101 61
73 98 60
78 105 64
69 94 56
72 98 58
136 155 152
166 182 195
159 176 186
141 160 163
159 176 187
153 170 179
152 168 173
167 184 198
159 176 185
156 173 177
160 176 185
157 174 182
164 180 189
162 179 190
161 179 189
160 177 188
160 177 188
163 180 191
146 162 165
73 99 59
77 105 64
77 104 63
73 99 59
72 98 59
72 99 60
78 105 64
78 106 66
73 99 59
76 104 62
80 107 66
76 103 64
79 106 65
76 103 63
74 100 61
80 107 65
81 109 66
131 150 146
163 181 193
163 180 191
165 182 193
157 175 183
158 175 186
165 182 191
163 180 191
164 180 189
163 180 189
165 182 193
163 180 192
169 186 196
160 177 186
167 184 196
165 181 192
161 179 189
105 127 107
81 109 67
77 105 64
73 100 61
78 105 65
80 107 66
82 110 68
82 110 68
80 108 67
76 103 63
76 103 63
87 113 82
94 118 95
122 142 135
125 144 136
132 150 146
95 119 95
82 108 73
79 107 66
80 108 66
73 100 60
76 103 62
81 110 68
76 102 61
75 103 62
78 105 65
81 109 67
78 105 64
82 109 68
77 106 65
71 97 57
145 163 168
167 184 194
167 182 193
170 186 199
160 177 188
170 187 199
165 183 191
176 193 210
166 184 196
158 176 185
166 183 194
164 181 190
164 182 192
170 187 200
96 119 98
77 106 64
77 105 64
79 106 64
73 100 61
84 112 69
76 103 64
81 109 68
85 112 77
138 158 156
167 184 197
161 177 186
172 190 204
172 190 206
172 188 198
167 184 192
130 151 145
78 106 65
76 103 63
166 183 192
164 181 193
166 184 196
165 182 195
164 182 192
131 152 147
83 109 75
76 104 63
78 105 63
81 109 67
80 108 66
79 107 66
79 106 65
80 109 67
82 110 69
77 105 65
79 108 66
80 107 66
129 148 144
167 185 196
163 179 185
172 189 202
160 177 187
165 183 193
167 185 198
140 159 160
106 129 109
78 105 64
80 108 66
79 106 65
80 108 66
73 99 59
77 104 64
77 104 63
79 106 65
79 106 64
81 110 68
111 133 117
158 176 186
166 182 193
173 190 205
161 177 187
164 181 192
171 188 199
165 182 192
171 188 202
172 188 200
169 185 196
167 184 196
157 175 185
144 163 167
126 146 138
83 109 74
76 102 62
79 106 65
78 105 64
79 106 65
108 128 115
167 184 197
160 178 188
163 181 190
159 177 188
154 171 177
163 180 190
154 169 176
155 172 178
161 178 187
161 177 187
164 181 191
167 183 193
164 182 193
160 177 185
160 177 188
164 181 194
170 187 199
167 184 197
160 177 186
154 170 174
73 100 60
74 101 61
73 98 60
77 105 64
117 137 125
125 146 136
155 173 181
151 167 173
159 175 184
164 179 189
153 170 179
157 174 182
156 173 181
158 175 183
167 184 196
152 169 178
157 175 184
165 181 194
161 179 189
166 184 197
142 160 161
77 104 64
78 105 64
76 103 62
73 100 60
78 105 64
79 106 65
73 99 61
75 101 61
73 99 59
76 102 62
79 106 65
75 102 62
73 100 60
74 100 61
77 104 64
77 105 64
74 100 61
77 104 64
73 99 60
80 107 66
89 114 82
157 175 183
151 168 176
164 181 190
155 173 181
150 166 171
136 155 154
104 125 108
83 108 74
75 102 62
78 105 64
71 97 58
71 97 58
77 104 64
74 101 62
77 104 64
74 101 61
72 97 57
76 102 62
73 100 61
78 104 63
73 99 59
136 154 156
161 178 186
159 175 183
163 180 189
165 182 194
170 187 199
152 169 177
158 175 183
161 177 186
157 173 181
153 170 178
160 178 188
165 181 191
168 185 196
152 168 173
162 179 188
165 181 194
157 173 182
160 176 185
154 171 177
157 175 182
112 133 118
78 105 63
66 90 52
77 104 64
79 106 65
77 103 63
72 98 59
74 100 60
76 103 63
79 106 65
73 99 59
76 103 62
75 101 61
75 102 62
78 105 65
77 105 64
73 99 60
75 101 61
76 103 62
78 105 64
73 99 60
134 153 151
164 181 194
158 176 188
157 173 181
149 165 171
145 162 163
129 147 147
138 156 157
117 137 129
101 123 103
81 105 75
78 105 64
73 99 59
76 103 62
74 100 60
76 103 62
78 105 64
77 104 63
75 101 61
78 105 64
72 99 60
139 158 159
162 179 190
157 172 178
155 172 182
157 172 179
160 178 187
157 174 182
162 178 187
161 178 186
159 174 181
160 177 185
158 174 182
155 171 178
165 183 194
154 172 181
159 175 184
155 172 182
156 172 179
156 172 182
147 163 168
154 171 179
70 95 56
74 100 61
71 97 57
71 97 58
75 101 61
76 103 63
77 105 64
78 105 64
74 101 62
75 101 62
77 103 63
74 101 61
74 100 60
75 102 62
75 102 61
75 102 61
70 95 56
78 105 65
70 96 56
72 98 58
148 165 168
159 175 184
164 179 189
154 171 177
155 172 180
161 178 189
152 167 169
167 185 195
155 171 180
155 172 180
161 177 186
154 170 178
167 185 195
162 178 188
157 173 180
165 183 195
162 178 190
165 182 192
155 171 181
148 165 172
76 102 64
81 108 66
73 99 60
78 105 64
73 100 61
80 107 66
74 101 61
73 99 59
74 101 62
76 102 62
82 110 67
80 107 65
76 102 62
77 104 62
76 103 63
73 100 61
70 97 59
71 96 57
90 115 86
157 173 182
160 177 185
162 178 188
164 181 192
155 173 183
154 171 177
141 159 163
166 182 194
151 169 177
164 180 189
169 186 198
165 182 194
158 174 181
164 181 192
169 186 201
166 182 195
163 179 190
166 184 196
117 138 128
77 104 63
72 99 60
73 99 60
75 101 61
73 100 60
72 99 59
74 101 61
75 103 62
80 108 66
83 111 69
77 104 64
75 102 61
75 102 63
76 103 63
79 107 66
78 106 65
86 112 79
157 174 182
167 185 197
168 185 198
159 176 183
163 180 192
155 173 182
164 180 189
162 180 189
163 179 188
169 186 199
160 177 183
157 173 182
161 178 186
159 176 184
164 182 196
159 177 187
161 177 185
93 117 88
80 108 66
74 101 61
79 107 65
76 103 63
72 99 59
76 103 62
83 111 68
80 108 68
79 106 65
77 105 64
76 103 63
80 107 65
78 106 65
77 103 62
103 127 102
159 176 188
162 179 189
144 162 166
138 157 155
120 141 131
100 123 101
80 108 70
75 103 62
76 104 63
80 108 65
73 99 59
72 99 61
74 101 61
77 105 64
82 109 72
160 177 186
162 180 191
161 179 187
155 173 184
168 186 200
155 173 183
163 181 191
164 182 194
169 187 199
169 186 199
177 194 211
163 180 188
171 188 202
157 174 182
88 113 85
76 104 63
80 109 69
82 110 69
77 104 63
79 104 69
119 141 132
161 178 187
160 178 190
173 191 206
172 190 203
170 187 201
169 185 196
159 176 184
172 190 203
169 187 200
149 167 174
108 132 116
169 188 202
172 190 205
165 182 195
116 138 128
86 114 76
80 109 68
79 107 66
79 106 66
75 103 62
81 109 67
78 106 65
78 106 65
78 105 64
77 104 63
80 107 65
79 107 65
77 104 64
73 100 60
141 160 161
166 183 196
162 178 185
163 180 189
164 182 192
116 138 127
95 119 90
82 111 68
78 105 64
76 103 63
75 102 62
78 105 64
81 110 68
74 101 61
82 110 68
81 109 67
79 107 65
80 107 66
76 104 63
118 139 127
170 187 199
159 174 183
165 182 193
163 179 190
164 180 190
167 185 198
158 175 182
163 180 190
172 189 202
151 168 173
122 142 133
94 120 93
77 105 64
74 101 61
75 102 62
74 101 62
79 106 64
77 105 64
81 109 67
117 139 129
170 187 199
169 185 196
168 185 199
156 173 182
165 182 195
161 178 185
171 188 200
160 177 184
161 177 187
169 185 197
167 184 198
156 172 180
155 172 177
168 184 195
169 186 199
159 177 186
172 188 203
159 176 186
157 175 186
165 182 191
87 113 81
101 124 105
137 154 151
162 179 187
157 174 180
154 171 180
157 174 182
166 183 195
159 176 183
170 186 197
174 190 205
169 186 198
165 182 193
157 174 181
161 178 186
162 178 188
154 169 178
154 170 181
162 180 192
167 183 195
161 177 186
73 100 60
74 101 61
77 104 64
75 101 61
73 100 60
79 106 64
74 100 60
75 102 62
78 105 64
78 105 64
75 101 61
72 99 60
78 105 64
75 101 61
67 92 55
73 99 59
75 102 61
72 98 59
75 102 62
75 101 61
77 103 62
157 174 181
142 159 161
102 123 106
91 115 88
77 104 63
75 102 61
72 98 59
74 101 60
77 103 63
78 105 65
72 98 59
78 104 63
77 104 63
69 95 57
73 100 60
75 101 61
77 104 64
76 103 62
77 104 63
74 100 60
74 100 61
145 163 166
159 176 184
168 184 195
152 170 178
158 174 182
158 174 179
154 170 176
157 174 186
159 175 180
152 169 176
161 177 185
155 172 176
166 183 196
163 179 189
159 176 184
167 183 196
159 176 185
159 176 186
156 173 180
152 169 176
152 171 178
122 142 138
77 104 64
72 98 58
71 97 58
72 98 59
74 101 61
77 103 63
72 98 59
77 104 64
76 103 63
75 101 61
75 101 61
73 99 60
72 98 58
72 99 59
75 101 61
73 98 59
78 105 64
76 103 62
82 105 77
102 125 102
124 142 134
114 135 126
101 122 105
79 105 68
79 107 66
76 103 63
77 103 63
74 100 60
77 104 63
72 98 59
72 98 59
72 98 59
76 102 61
72 99 59
75 101 62
74 100 60
77 104 63
75 101 61
71 97 58
71 98 58
75 102 61
109 130 117
162 178 189
162 179 188
174 190 205
158 174 184
156 172 180
152 169 176
154 171 177
156 173 182
162 178 188
163 180 191
162 179 189
154 171 178
157 175 183
162 179 191
149 166 173
165 181 192
153 171 179
162 178 187
151 169 177
152 169 178
118 137 131
72 98 59
67 91 53
74 100 60
67 93 54
73 98 59
75 101 61
74 101 60
70 95 57
73 100 59
76 103 62
74 100 60
73 99 59
70 97 58
75 101 62
74 101 61
75 101 61
76 102 63
75 102 62
76 103 63
121 141 133
154 170 178
153 170 177
162 179 190
155 172 181
164 181 190
157 174 182
153 169 176
156 174 182
157 175 187
161 178 188
159 175 184
155 172 178
155 172 178
154 171 179
155 172 181
162 178 187
147 164 169
167 184 196
154 172 178
116 136 127
77 104 63
79 107 66
76 103 61
76 103 63
75 102 62
75 102 62
73 99 59
73 99 60
74 102 62
71 96 57
75 101 60
78 105 64
74 99 60
75 101 61
74 100 61
73 100 60
80 107 66
76 103 63
122 142 135
156 173 181
169 186 196
154 172 180
164 179 189
174 191 204
169 184 197
164 180 189
159 177 187
161 177 188
158 174 182
151 169 174
160 177 186
150 169 177
160 177 188
160 176 184
160 178 186
158 175 186
157 174 182
93 118 89
77 104 62
79 107 66
75 102 61
79 107 66
77 105 64
76 103 62
78 105 64
75 102 61
76 102 62
72 98 59
79 106 65
74 101 61
80 107 66
80 107 65
76 102 61
80 108 66
111 131 116
164 181 192
160 178 188
164 181 190
161 179 189
165 182 195
159 176 184
164 182 193
157 175 184
163 178 188
157 173 183
166 182 193
168 185 197
165 181 191
157 174 183
163 180 191
170 186 198
142 161 162
72 98 59
78 105 64
75 102 62
70 96 57
73 99 60
78 105 63
80 109 67
74 101 60
78 105 64
75 103 62
77 104 64
78 105 64
79 106 64
78 105 64
78 106 65
120 139 132
161 179 191
169 186 201
162 180 190
166 183 195
167 183 195
158 176 189
147 165 169
133 153 147
136 155 153
115 136 121
105 126 109
78 106 65
79 107 66
79 107 66
97 121 97
166 184 196
170 187 200
164 181 194
157 174 181
159 177 188
176 193 207
176 194 210
166 183 197
163 181 191
174 192 206
156 175 183
168 186 197
173 191 206
152 170 173
83 108 75
78 105 65
78 105 64
112 134 120
150 169 176
166 184 196
175 193 207
173 191 204
165 182 192
173 190 203
166 185 199
176 193 206
170 187 199
172 188 203
167 184 193
179 196 211
157 174 181
134 154 153
142 161 161
79 107 65
79 108 66
79 106 65
77 105 64
78 105 64
80 109 68
77 105 65
77 104 63
78 106 64
79 106 65
75 101 61
77 105 64
79 106 65
80 109 67
78 106 65
79 106 65
148 167 170
164 182 192
140 160 161
109 131 114
81 109 67
81 109 68
78 106 66
78 105 63
82 110 68
78 106 65
77 105 65
74 101 61
78 105 63
79 107 66
78 106 65
77 105 64
78 105 64
76 103 64
80 109 67
120 140 133
170 187 203
167 184 198
165 182 193
172 188 203
172 188 201
162 179 189
169 185 195
144 163 166
98 121 103
78 105 68
78 105 65
76 102 62
74 101 62
79 107 66
79 107 67
75 101 61
75 101 61
76 103 63
76 103 62
112 133 120
170 186 200
164 182 195
165 182 195
154 171 180
159 175 183
164 181 192
169 185 198
163 181 191
164 181 193
158 176 184
166 183 195
157 174 182
165 182 192
154 171 179
160 174 183
174 191 204
163 180 193
153 171 182
133 153 148
110 130 115
151 168 173
162 179 187
163 181 191
174 190 204
160 178 190
158 175 183
161 176 185
150 168 176
154 171 178
161 178 188
155 171 179
161 178 187
167 184 195
161 179 188
171 187 200
169 186 200
153 171 180
160 178 186
156 172 176
165 181 192
154 170 177
84 109 78
77 104 63
76 103 62
78 106 65
74 100 60
75 102 63
72 98 59
77 104 64
71 97 57
77 104 63
74 100 61
72 99 59
74 100 61
71 97 57
71 97 58
75 102 61
78 105 63
78 102 73
116 137 127
138 155 157
145 162 168
120 142 131
78 105 64
77 104 64
77 106 64
75 101 61
77 105 64
83 110 68
74 100 59
75 101 61
77 105 64
76 104 63
75 101 60
75 101 60
78 105 64
76 102 62
80 106 64
78 105 64
73 99 58
77 104 63
77 104 63
74 100 61
109 130 115
158 175 181
146 163 168
169 184 195
167 185 200
160 176 186
157 174 184
163 180 187
168 184 196
154 171 179
148 165 169
151 169 173
166 183 196
166 182 192
153 170 179
160 176 186
162 179 189
167 183 193
152 169 175
160 177 187
169 185 195
154 171 178
81 108 69
76 104 63
75 102 63
73 99 60
74 100 60
70 95 57
76 103 63
71 97 58
74 100 60
73 99 60
77 104 63
78 104 63
75 101 61
101 123 106
114 134 121
126 146 139
142 159 165
157 173 182
160 177 187
171 186 196
155 171 179
88 112 83
76 102 63
76 102 63
76 104 63
78 106 64
76 103 63
73 99 60
75 101 61
74 100 60
79 106 64
72 98 59
76 103 63
75 102 62
75 102 61
74 100 60
74 99 60
75 102 63
70 96 58
70 96 57
72 98 59
73 100 61
150 166 174
153 171 182
165 181 192
170 186 198
154 170 178
154 172 178
164 180 191
167 184 196
166 183 193
161 177 184
162 179 190
163 179 188
159 176 183
155 172 181
156 173 183
160 178 188
151 169 176
161 178 188
155 172 181
154 171 179
137 155 155
72 99 59
75 102 63
68 93 56
76 103 62
78 105 64
76 103 62
70 96 57
72 98 59
79 107 65
78 105 65
74 101 61
76 102 62
76 102 62
77 104 63
74 101 61
71 96 57
76 102 62
77 105 64
72 99 59
79 105 66
157 174 186
158 175 184
148 166 169
163 180 190
159 175 182
171 187 198
164 181 193
156 172 179
159 176 184
160 178 187
168 185 197
156 174 185
160 178 189
158 174 179
146 163 169
151 168 174
158 174 183
163 180 190
168 185 198
160 177 188
76 101 64
76 102 61
79 107 65
76 102 62
76 102 62
75 103 63
75 102 61
74 100 60
73 99 59
71 98 59
76 103 63
72 98 59
76 103 62
77 105 64
77 103 62
74 101 61
78 105 64
76 104 64
73 100 62
162 179 190
150 168 173
158 175 181
149 167 171
150 168 177
160 177 187
165 181 193
173 189 203
166 182 196
164 180 189
156 174 182
155 172 178
154 171 181
162 179 189
171 188 201
161 178 189
164 181 190
159 176 186
135 153 153
77 104 63
77 104 63
83 110 68
77 103 63
78 104 64
76 104 63
72 99 59
75 102 62
75 102 62
77 104 64
75 101 61
74 101 62
79 106 64
76 104 64
76 104 63
74 101 61
74 101 61
143 162 164
162 179 190
151 168 174
163 181 193
168 184 196
160 177 185
162 181 191
165 182 195
169 186 199
165 181 189
155 173 180
163 181 190
167 184 197
163 181 192
155 173 181
168 185 198
164 182 192
113 135 120
78 106 65
79 106 65
78 106 65
74 101 60
78 105 65
78 106 64
80 108 67
76 104 63
81 110 67
73 100 61
79 106 66
75 102 62
75 101 60
80 108 66
76 103 62
142 162 163
169 186 195
167 184 195
163 180 189
166 183 198
162 179 188
166 183 193
162 180 191
160 178 190
173 191 206
162 179 189
163 180 190
157 175 180
131 151 147
117 138 127
138 158 160
169 186 198
158 177 187
160 178 188
162 181 194
174 192 208
163 181 189
165 181 193
169 186 199
163 179 190
172 190 206
165 183 193
164 179 189
171 189 203
147 166 168
98 122 98
150 168 171
168 186 200
168 186 199
173 191 204
171 188 202
168 186 200
173 190 202
170 187 201
176 192 205
167 184 195
175 192 207
160 178 189
166 183 194
148 168 171
130 150 145
170 187 199
179 196 213
153 171 179
111 132 117
82 110 68
79 108 66
75 102 62
79 107 66
80 109 67
77 105 64
78 106 64
79 106 65
74 101 61
74 101 61
81 109 68
73 100 61
78 106 66
81 107 72
126 146 139
102 124 100
75 102 63
78 105 65
80 109 68
79 106 66
82 111 69
81 109 67
78 107 66
76 103 62
82 110 68
76 102 62
77 105 66
74 101 61
77 105 64
81 109 67
77 105 64
74 100 61
80 108 67
110 131 116
160 178 189
164 181 190
167 185 195
170 187 203
153 171 178
112 134 122
86 112 79
80 108 66
76 103 63
79 105 64
76 102 62
75 102 62
83 111 69
76 104 64
79 106 66
78 106 65
81 109 68
77 103 62
78 105 64
116 139 125
171 188 201
165 181 190
153 171 181
153 169 175
159 177 188
167 185 197
172 188 200
165 183 195
162 181 192
162 180 192
161 178 187
165 182 194
161 178 189
161 177 187
159 176 184
132 151 149
127 145 138
83 109 74
76 103 63
76 103 63
158 176 183
160 177 187
155 173 182
164 180 192
165 181 191
161 179 190
156 173 179
160 178 190
166 183 195
156 172 183
167 184 198
153 170 180
167 184 196
163 180 190
150 168 175
162 179 190
167 183 194
155 173 181
166 183 195
166 182 194
148 165 174
106 127 109
74 101 61
77 104 63
80 107 66
74 101 61
78 105 64
79 107 66
77 104 64
73 100 61
76 103 63
69 94 56
74 101 61
77 104 64
79 106 67
101 125 104
137 155 155
144 162 167
164 179 188
151 168 176
165 182 195
162 179 189
119 139 130
76 102 62
78 105 64
74 100 61
71 97 59
70 96 57
73 99 59
78 105 64
74 101 61
71 97 58
77 104 64
71 98 58
75 101 62
75 102 62
74 100 61
73 100 60
75 102 62
75 102 61
76 103 63
78 106 65
78 106 65
89 113 84
166 183 195
157 174 181
159 177 189
156 173 181
166 182 190
166 183 195
162 179 188
160 176 184
151 168 175
156 173 183
160 176 188
168 185 197
166 181 193
163 180 188
165 182 194
145 163 170
155 173 182
157 173 180
159 176 184
156 173 180
151 168 175
88 113 84
72 98 58
71 97 58
76 103 63
82 110 67
76 102 61
74 101 61
81 104 73
98 123 100
125 143 141
126 144 142
146 163 165
153 170 179
158 175 185
163 180 190
152 169 177
157 173 178
158 175 185
156 173 180
156 173 179
157 173 180
121 141 134
74 100 61
73 100 60
72 98 58
75 102 63
72 98 59
71 97 58
69 94 56
72 98 59
74 100 61
75 102 62
81 110 68
77 104 63
76 102 62
73 99 60
79 105 64
74 101 61
74 101 61
73 99 60
78 105 64
76 104 62
117 138 126
143 160 165
159 175 181
154 171 178
159 177 187
163 178 185
165 181 191
166 183 191
164 180 190
172 189 203
157 174 182
153 171 178
162 179 189
156 173 181
163 180 192
160 176 188
166 183 194
154 170 175
162 178 188
159 176 186
153 169 177
105 127 109
76 103 62
74 100 62
78 105 64
73 99 60
72 99 58
74 101 62
76 102 62
75 102 61
78 105 63
75 102 62
75 103 62
78 105 65
70 96 57
73 100 60
77 104 63
74 101 61
73 99 60
76 103 62
78 106 64
126 146 140
156 171 178
159 176 184
161 176 184
155 172 180
156 173 178
167 183 194
161 179 190
139 157 161
167 183 193
162 179 193
160 177 187
161 177 185
156 172 181
158 175 184
148 164 170
150 166 173
170 187 197
157 174 182
165 182 195
102 124 106
79 107 66
75 102 62
78 105 64
81 109 67
75 102 62
75 102 60
77 104 63
74 101 61
72 99 60
76 103 63
76 103 63
76 103 63
73 100 61
73 100 61
74 101 62
74 100 61
79 106 65
75 102 61
116 136 127
163 180 192
167 185 199
169 187 199
170 187 199
158 176 182
164 180 190
167 182 191
157 174 183
169 186 200
163 179 189
166 183 192
165 180 190
153 171 178
166 182 192
168 184 194
158 175 186
160 178 187
165 182 194
94 116 94
77 105 64
78 105 65
79 106 64
74 100 60
79 106 66
79 106 64
74 100 59
76 103 63
81 108 66
75 102 62
79 107 66
78 106 65
77 104 63
77 105 64
73 100 60
74 100 60
88 113 80
161 177 188
163 180 191
164 180 193
167 184 196
151 168 173
159 177 187
154 171 177
164 180 190
162 178 187
170 188 201
161 178 188
161 179 190
162 178 187
171 188 203
156 174 179
163 180 190
159 175 183
86 110 82
76 103 63
76 104 63
76 103 63
77 105 64
78 105 65
77 105 64
77 105 63
77 105 64
78 105 64
74 101 61
78 105 64
80 108 67
79 106 65
80 107 66
87 115 82
148 167 174
168 185 197
168 185 197
165 182 191
169 185 199
168 185 198
166 184 199
164 180 191
170 187 199
168 186 198
162 180 192
162 180 191
160 176 186
162 180 190
168 186 200
106 127 110
101 124 104
122 143 135
147 166 167
156 175 181
172 189 203
166 183 191
167 185 195
165 183 194
169 187 202
163 182 194
169 185 196
156 174 183
104 127 106
137 156 154
169 186 199
168 187 198
173 190 202
167 184 194
166 185 197
170 187 202
162 181 195
171 189 204
163 179 188
169 186 197
170 188 204
140 159 161
99 123 98
82 111 68
113 135 121
167 183 196
172 188 201
171 188 200
167 185 199
156 174 182
116 137 125
83 110 74
79 107 65
79 107 67
79 107 66
73 100 60
79 106 65
74 100 60
81 109 67
80 108 66
102 124 100
141 160 162
160 177 186
107 130 110
78 107 66
77 104 63
79 107 66
81 110 69
80 108 66
77 104 63
72 99 60
81 109 67
78 106 64
77 105 65
80 108 66
81 108 67
74 102 61
79 106 65
77 104 64
79 107 66
78 106 64
80 108 67
111 131 116
170 186 200
170 186 198
149 167 171
88 113 82
79 107 65
74 101 61
80 107 65
77 104 64
78 106 65
78 105 65
78 106 65
82 110 68
76 103 64
73 99 60
79 107 66
80 109 68
74 99 59
76 104 64
77 105 64
107 128 116
171 188 199
165 182 193
163 181 191
165 182 193
167 184 199
165 181 192
156 173 183
166 182 192
169 186 198
158 176 184
160 177 188
164 181 195
135 154 155
117 137 125
87 112 84
80 108 67
79 106 65
76 103 63
76 102 62
76 103 63
139 157 155
163 180 190
156 173 180
164 180 192
162 179 189
160 176 183
164 180 192
160 178 188
159 176 182
172 189 203
166 182 191
170 187 200
157 173 181
158 175 183
168 185 196
162 178 189
159 176 185
168 184 196
168 185 198
168 185 194
161 178 188
113 134 119
80 108 67
71 96 57
74 101 60
76 103 63
78 105 63
78 105 63
78 104 63
79 106 65
75 102 61
96 120 96
117 135 126
145 164 164
158 175 183
152 169 177
163 180 191
153 170 177
154 172 181
166 182 193
168 185 198
155 173 185
144 162 163
73 99 60
76 103 61
75 101 61
73 99 60
77 103 63
80 108 67
70 96 58
74 101 60
75 102 61
73 100 62
77 105 65
73 99 60
73 99 59
77 103 62
72 97 59
78 105 65
80 107 66
77 103 63
73 99 60
75 102 62
78 105 64
155 173 181
167 183 194
159 176 185
157 173 181
154 171 177
159 176 185
159 175 186
161 177 185
158 175 185
157 173 179
163 180 190
156 172 180
158 174 183
161 175 182
162 178 188
152 169 177
161 177 187
163 178 186
156 172 180
160 176 184
160 176 181
131 150 145
82 111 68
90 113 83
102 124 107
137 155 153
143 161 162
150 168 173
168 184 195
158 175 184
160 177 188
155 173 180
160 178 189
162 179 190
170 185 196
155 172 180
163 179 189
157 175 186
154 171 177
164 180 189
154 171 177
158 174 184
145 163 169
69 94 56
77 104 63
73 99 59
71 97 58
73 99 60
74 101 61
78 105 65
78 104 63
77 102 62
78 105 63
76 103 62
71 97 58
72 99 58
73 100 60
73 99 59
78 104 63
73 99 60
71 97 57
74 100 60
78 105 64
93 116 92
158 174 182
150 167 174
155 172 182
173 190 205
159 176 184
158 175 185
159 176 184
157 174 183
161 178 188
156 173 180
170 187 200
158 174 182
163 178 188
161 178 190
160 177 185
165 182 192
165 182 194
163 179 188
155 173 179
167 182 195
139 157 155
76 103 61
77 104 64
75 102 63
76 103 62
76 103 63
74 100 60
76 103 63
75 102 62
74 101 61
73 99 60
79 106 65
76 102 62
76 103 63
77 104 63
76 103 64
74 100 60
74 101 61
73 100 60
76 102 61
83 108 75
159 177 185
164 181 194
164 180 190
166 182 192
161 179 189
164 181 193
164 182 190
153 170 178
162 180 190
157 174 183
154 172 179
162 180 190
153 170 178
159 176 185
163 179 187
157 174 181
161 177 189
161 177 187
161 179 191
149 166 170
81 108 69
75 102 62
82 110 68
73 99 60
78 105 64
73 100 60
79 107 66
69 96 57
74 100 61
78 105 64
80 108 67
70 96 58
74 101 60
76 103 63
80 108 67
77 105 64
78 105 64
70 97 57
82 108 74
149 166 169
158 174 185
168 186 199
161 177 185
161 177 185
162 180 190
166 183 196
167 183 192
156 172 177
157 176 185
165 183 197
168 184 197
175 191 204
166 183 196
163 179 187
167 183 195
164 182 193
162 180 191
146 164 165
76 103 63
76 103 62
75 102 61
76 104 63
75 102 62
77 105 64
76 104 64
76 102 62
76 104 63
75 103 63
81 109 67
72 98 59
77 104 62
77 103 62
72 98 59
80 108 67
76 103 63
121 141 134
159 176 186
159 177 184
159 176 186
162 180 191
158 174 183
166 183 194
168 185 199
178 195 210
162 180 190
164 181 192
171 189 201
163 180 190
162 179 190
166 183 194
166 183 195
167 184 197
133 152 150
80 108 67
78 105 65
80 108 67
77 104 63
78 105 65
76 103 62
76 104 64
82 110 68
72 98 58
75 103 62
81 109 68
76 104 64
75 102 62
78 104 64
73 100 61
110 133 117
168 186 200
163 180 192
157 175 185
166 182 193
161 178 188
165 181 194
165 182 193
165 182 191
173 190 203
163 179 188
162 180 190
166 185 198
163 180 192
167 184 195
157 175 179
87 113 80
80 108 66
79 106 65
79 107 65
91 117 85
109 132 115
132 151 147
150 168 175
159 176 186
153 170 172
99 123 98
79 106 65
75 102 61
82 110 70
155 173 181
169 187 202
158 176 184
157 175 185
153 171 177
167 186 197
160 179 188
161 179 188
166 183 195
128 148 141
96 121 93
82 110 68
76 103 63
75 103 63
123 144 137
173 189 200
172 189 204
165 183 193
160 177 184
158 176 182
165 182 193
165 183 193
134 153 147
88 115 84
81 109 68
81 109 67
82 110 68
82 111 67
107 130 113
149 168 172
166 184 198
169 186 199
161 178 188
100 124 98
82 110 69
76 103 63
77 105 64
76 104 63
80 108 66
76 103 62
80 109 67
81 108 66
80 107 66
78 105 64
75 102 61
79 106 65
74 101 61
76 103 63
80 108 67
81 109 67
75 103 62
78 105 64
119 140 126
112 134 118
82 109 70
74 101 60
77 104 64
81 109 67
77 105 64
77 104 63
76 104 64
81 109 67
75 103 63
78 105 64
75 102 62
84 112 69
77 105 64
79 107 65
77 104 63
76 103 64
79 106 65
74 101 62
94 118 96
167 183 194
159 176 185
162 178 187
164 180 187
168 185 197
162 179 191
165 182 193
169 186 199
165 183 194
145 162 164
121 141 131
95 118 91
77 104 63
75 101 61
74 100 61
78 105 64
75 102 62
78 106 65
77 105 64
76 103 63
132 152 145
159 176 186
168 184 196
166 182 194
164 181 192
164 182 193
161 177 186
170 187 198
166 181 191
165 183 196
164 181 191
167 184 196
156 174 184
169 184 195
168 186 198
168 185 196
154 172 181
163 181 190
156 173 183
170 187 201
152 169 176
133 153 150
75 102 62
74 100 60
81 108 66
74 100 60
78 105 64
81 108 69
99 122 102
129 148 145
149 166 172
157 174 182
168 184 194
164 180 192
173 189 201
162 179 189
153 171 177
163 179 188
159 175 183
161 178 189
151 169 177
154 171 177
149 166 171
77 104 63
74 100 59
76 103 63
72 99 59
76 103 62
76 102 61
79 105 63
77 104 64
77 104 63
76 103 63
76 104 64
73 98 59
78 105 65
73 99 59
75 102 63
72 97 57
79 107 65
75 102 61
76 103 64
78 106 64
80 108 66
149 167 173
162 178 185
167 183 191
160 177 185
161 178 188
160 177 187
159 176 187
170 188 201
165 182 194
164 181 190
166 182 193
160 177 186
155 172 180
158 175 183
158 175 183
158 176 184
150 168 174
160 176 185
157 173 183
140 158 157
115 135 124
113 135 120
150 169 173
171 189 202
155 172 181
164 180 188
153 171 178
164 181 192
157 173 183
162 180 190
159 176 184
161 177 187
167 183 196
162 178 189
165 181 193
159 176 183
159 176 184
156 172 181
158 173 182
166 182 192
149 166 172
161 177 185
157 175 184
82 108 79
72 98 59
74 100 61
78 106 65
72 97 57
76 104 63
74 101 61
80 107 66
74 100 60
73 99 59
75 102 63
77 104 63
73 99 60
77 104 64
74 101 61
80 107 66
75 101 61
75 101 62
76 103 63
78 105 63
75 101 61
142 160 160
166 185 199
158 175 183
166 182 193
163 181 192
165 182 193
159 175 186
161 179 189
154 170 178
167 185 196
160 174 181
172 189 203
154 170 177
160 177 186
159 176 185
166 184 196
167 183 195
163 180 190
157 174 185
168 184 195
162 179 187
92 115 87
77 105 63
76 103 62
80 108 65
79 106 63
74 101 61
74 100 61
75 101 61
76 103 63
75 102 62
76 103 63
72 98 59
79 106 65
73 99 60
76 103 62
78 106 65
73 99 60
70 96 57
71 98 59
79 106 65
131 150 147
158 176 184
156 174 186
159 176 186
155 172 180
160 177 186
151 168 175
163 179 187
162 179 190
175 191 205
165 181 191
163 181 193
162 179 191
164 181 192
159 177 184
161 178 189
164 181 190
154 171 179
158 175 181
163 181 193
119 140 126
71 98 60
71 96 57
76 103 63
77 105 64
76 103 63
75 101 61
75 103 63
72 98 60
72 98 59
76 103 63
75 102 62
75 101 61
76 102 62
75 103 63
78 105 64
77 103 63
73 100 60
85 113 70
114 135 122
166 184 194
161 177 188
158 174 184
161 179 186
156 173 179
164 181 195
171 188 201
157 174 181
169 185 197
161 177 186
153 170 179
168 184 193
162 178 189
161 177 186
157 174 181
164 181 191
161 178 187
168 184 195
107 128 112
74 101 60
78 106 65
75 102 63
77 104 63
72 99 59
79 107 65
75 102 61
75 102 62
78 106 64
78 105 64
79 107 66
78 105 64
72 98 59
78 106 65
74 101 61
74 101 62
79 106 67
146 164 166
164 181 194
174 191 205
156 174 184
167 183 193
162 179 187
171 188 200
156 173 182
172 188 199
165 183 197
156 173 179
161 179 189
156 173 180
167 183 195
166 184 196
158 177 188
164 181 192
107 129 112
78 106 65
76 103 63
79 107 66
79 107 66
77 105 64
75 103 63
77 104 64
76 104 63
76 103 62
79 106 65
77 106 64
79 107 66
81 108 67
78 106 65
80 108 67
132 152 146
165 182 195
165 182 195
164 182 194
165 182 192
160 177 186
173 190 202
164 180 190
170 187 198
170 187 198
171 187 199
170 187 199
172 189 203
167 185 197
158 176 184
148 166 168
82 110 68
79 107 66
81 110 68
76 103 62
79 106 65
93 119 88
133 154 147
152 170 176
152 170 175
132 150 151
124 144 137
94 118 91
82 111 68
94 118 89
154 171 179
169 186 198
176 194 211
163 181 189
171 189 202
169 187 199
179 195 210
94 121 91
81 109 67
76 103 63
79 107 66
76 104 63
83 112 70
140 159 160
172 190 204
168 185 198
172 189 199
169 185 196
182 199 215
171 190 203
169 186 198
166 184 197
164 182 194
151 169 172
105 128 108
106 128 110
154 172 179
176 192 206
169 186 201
163 181 193
165 181 191
168 186 197
93 116 92
81 109 67
77 105 65
79 106 65
81 110 69
78 106 65
82 111 69
79 107 65
78 105 64
80 108 66
78 106 64
76 104 64
79 108 67
83 111 68
79 107 67
77 105 64
83 109 77
135 153 152
164 180 190
145 165 168
79 106 65
82 110 69
77 105 64
82 110 68
77 105 65
76 103 62
76 104 64
77 106 65
80 108 67
80 108 67
80 108 67
73 99 58
82 110 69
74 100 61
82 110 68
77 104 62
73 99 59
80 108 67
78 105 63
93 117 90
164 180 191
166 184 194
162 180 190
159 176 185
172 188 201
152 169 175
152 170 179
117 138 127
90 115 82
78 105 64
77 105 64
78 105 64
78 105 64
76 103 62
76 104 65
76 103 62
79 106 64
76 103 62
79 106 65
79 106 65
111 133 117
174 191 205
164 182 193
159 177 187
165 181 191
161 179 190
165 182 194
167 184 194
165 183 197
163 180 192
155 172 178
169 185 196
160 176 183
163 178 188
170 187 200
163 180 191
154 171 178
172 187 200
158 175 184
163 181 192
164 181 191
142 160 163
72 99 60
79 107 65
84 108 84
104 125 110
138 155 155
154 171 180
163 181 191
159 175 184
156 174 183
174 190 202
162 180 189
167 185 197
152 169 175
167 183 195
166 183 194
157 175 186
160 178 188
161 177 185
164 180 191
152 170 175
165 181 190
84 109 77
73 100 61
78 106 65
79 106 65
77 104 63
80 107 66
77 104 64
74 101 61
77 104 62
75 102 62
78 105 64
76 103 63
76 102 62
82 110 67
75 101 62
77 103 63
75 101 62
76 104 64
81 109 67
80 108 66
70 96 57
97 119 102
164 182 191
161 178 190
163 180 192
152 168 175
165 181 190
162 178 189
158 174 182
163 179 188
165 182 191
167 184 196
162 179 192
154 171 176
153 172 179
147 165 167
130 148 145
101 123 102
78 104 66
74 101 62
79 106 65
74 101 61
76 101 67
152 167 174
170 186 199
158 175 181
153 170 177
162 180 193
167 184 194
157 174 185
164 181 192
163 181 193
155 172 178
152 170 180
158 176 184
157 174 183
150 168 176
154 171 177
156 173 181
155 172 183
150 167 170
167 184 195
162 178 184
157 175 187
120 140 130
77 105 65
73 100 60
78 106 64
72 98 58
77 104 63
77 104 64
78 105 64
73 99 60
71 98 58
78 105 65
68 93 56
71 98 59
75 102 61
78 104 64
75 102 62
73 99 59
75 101 62
77 104 63
75 101 61
76 103 64
110 131 120
161 178 188
165 181 191
153 171 178
167 183 196
151 168 174
162 179 190
167 183 195
159 176 185
157 174 183
172 188 202
162 177 185
160 177 187
158 175 183
163 180 192
153 171 177
155 170 175
160 176 184
163 180 193
164 180 189
174 190 204
137 155 154
76 103 63
77 105 64
77 104 63
76 104 63
78 105 64
76 103 63
79 107 66
77 104 64
74 101 61
75 102 62
76 104 63
73 99 61
78 106 65
77 104 63
77 104 63
71 97 57
76 103 63
77 104 63
78 106 64
88 111 85
169 185 194
165 183 193
160 177 188
157 173 177
171 187 200
174 191 205
154 171 177
153 170 176
160 177 188
159 177 186
162 179 190
171 188 200
161 178 187
159 175 184
160 177 185
168 185 198
160 178 187
155 172 180
166 182 190
156 173 178
85 111 71
76 102 62
71 97 57
76 104 63
75 101 62
70 96 58
75 102 62
78 104 69
90 115 88
90 116 84
85 110 82
91 116 86
82 105 76
92 118 87
93 115 92
83 107 76
87 111 85
91 114 90
88 113 84
136 156 157
152 168 173
152 170 178
160 177 187
162 178 188
169 185 197
162 181 193
163 180 191
161 178 189
161 178 187
166 184 195
169 186 196
165 181 191
161 177 187
163 181 193
156 173 182
164 180 190
167 183 195
148 166 170
76 104 63
70 96 58
77 104 63
76 103 63
79 107 66
72 99 59
79 107 65
80 108 66
80 107 66
77 105 64
78 105 65
79 106 65
78 106 64
75 101 61
79 106 65
80 108 66
77 104 63
104 126 109
160 178 186
168 186 200
164 182 193
156 173 181
163 181 191
161 179 188
167 184 194
167 184 195
162 179 189
170 188 203
170 187 200
167 183 193
166 184 194
168 185 196
162 179 190
162 180 191
157 173 179
81 108 72
77 104 63
78 105 64
77 105 63
79 107 66
79 107 65
83 111 69
76 103 63
81 109 67
76 103 62
76 104 63
83 111 68
80 108 67
78 105 64
77 105 65
80 106 70
148 167 172
170 187 199
165 182 194
157 175 184
166 184 195
171 187 199
170 188 201
164 182 195
165 183 193
168 187 200
169 185 199
160 178 189
170 188 200
169 187 199
159 177 185
125 146 138
82 111 69
76 104 63
106 130 113
126 146 137
169 186 198
166 183 192
170 187 201
175 193 210
167 184 196
173 190 204
174 191 205
161 179 191
150 169 175
148 167 168
150 169 172
159 177 186
165 183 194
166 184 196
161 179 189
171 188 201
79 107 66
78 106 64
80 108 67
73 99 60
79 108 66
79 107 67
150 168 171
169 186 197
173 191 205
183 199 214
170 186 198
171 189 203
169 186 198
169 187 203
176 194 210
156 173 179
135 155 154
102 127 103
108 131 113
133 153 152
162 180 191
176 193 207
164 182 194
161 178 186
161 179 189
79 106 68
78 106 66
80 108 66
78 106 65
78 106 66
80 108 66
75 102 61
79 107 66
78 105 63
80 107 65
76 104 62
83 112 70
81 110 68
73 101 61
108 131 111
144 163 167
162 178 185
177 194 210
167 184 196
145 165 169
80 108 67
80 107 66
81 110 67
76 103 63
79 106 66
75 102 62
80 108 66
75 102 62
77 105 64
78 104 64
80 108 66
75 102 62
82 110 67
76 104 63
79 107 67
74 101 61
75 103 63
79 107 65
79 106 65
90 117 82
164 181 192
176 192 205
158 175 185
160 177 188
132 152 148
94 118 93
76 102 62
75 103 62
78 106 65
71 98 59
78 105 64
77 104 63
77 104 64
80 108 66
77 105 64
80 106 65
77 104 63
81 109 67
75 102 62
77 104 63
119 139 130
172 188 202
169 187 197
166 183 195
171 188 201
170 186 198
169 186 201
166 184 199
162 179 189
163 182 195
154 171 178
157 174 180
161 176 184
166 182 192
163 180 191
175 192 206
168 185 197
168 186 198
164 180 190
171 188 200
167 184 196
139 157 158
130 148 144
151 169 175
165 183 197
161 177 188
165 181 191
168 185 197
157 175 185
162 179 189
166 183 195
162 178 188
170 185 198
159 176 183
169 186 197
167 185 198
164 181 192
153 170 178
168 185 199
154 171 178
165 182 193
169 186 198
156 174 182
101 124 107
77 104 63
74 101 61
75 102 63
75 102 62
71 97 57
80 108 66
79 107 65
79 106 65
79 106 65
75 101 61
81 109 67
75 103 63
79 107 66
73 99 59
76 103 63
77 105 64
76 103 63
76 103 63
76 104 62
76 103 63
106 127 110
152 170 179
166 182 194
159 176 186
162 179 190
152 169 175
164 180 188
168 185 199
162 179 190
143 161 164
140 159 157
110 132 120
86 110 80
72 99 60
74 101 61
76 102 62
83 111 69
76 102 62
80 107 65
76 102 62
76 104 64
78 105 65
136 153 154
156 172 181
165 182 193
162 178 188
161 178 188
162 179 190
161 177 186
163 179 189
167 184 195
163 180 190
164 180 189
162 179 189
166 183 196
162 180 190
159 176 188
151 168 175
158 174 182
163 181 191
156 173 181
158 175 184
166 183 192
132 152 153
73 98 58
74 99 60
72 97 58
78 105 63
76 103 62
73 99 60
74 101 61
73 100 60
75 101 60
78 105 64
78 104 62
74 100 60
75 101 61
77 105 64
75 101 62
76 103 63
80 108 67
77 105 64
79 106 65
74 102 61
85 110 78
163 180 192
160 178 189
158 174 177
166 184 195
163 179 187
160 176 186
151 168 176
170 186 198
172 189 203
164 182 196
163 180 191
159 176 186
161 177 186
159 176 184
166 183 195
157 173 183
160 175 182
157 174 182
155 171 179
157 175 187
158 175 183
78 104 64
72 98 59
75 102 62
75 103 62
75 102 61
74 102 62
78 105 65
76 101 61
77 104 63
77 105 64
76 103 63
77 103 63
74 101 61
77 104 63
79 107 66
78 105 64
77 104 64
73 100 60
78 106 65
74 100 61
141 159 161
151 168 175
161 178 185
155 172 179
150 167 172
146 163 167
146 164 170
137 156 151
139 158 158
129 151 144
133 152 149
129 148 144
121 140 131
120 141 131
112 132 120
115 137 123
108 131 114
96 119 98
95 119 92
93 119 85
132 152 150
163 179 188
166 183 195
159 177 187
164 179 189
168 185 196
155 173 182
172 188 198
167 183 193
160 176 187
161 179 190
157 174 179
166 182 192
167 184 198
169 186 197
162 180 193
166 183 195
163 180 191
168 184 194
151 170 175
76 103 63
78 105 64
75 102 61
79 107 67
75 102 62
73 99 59
75 101 61
76 103 62
82 110 71
88 114 80
84 108 76
93 116 91
89 114 88
94 118 89
107 129 113
99 122 100
94 119 97
110 132 116
117 138 128
144 161 164
128 147 143
125 145 141
130 148 147
118 138 133
122 143 136
112 133 120
112 134 121
108 130 114
91 117 90
91 115 88
80 108 66
70 95 56
77 105 64
76 103 63
77 104 64
79 107 64
134 155 150
162 178 186
162 178 189
161 179 188
162 178 185
172 189 202
175 191 205
168 186 197
172 190 204
172 188 199
170 188 201
160 179 189
163 180 190
165 182 193
164 182 193
161 179 191
170 186 200
134 152 150
79 107 66
79 107 66
76 104 63
82 110 68
77 104 63
78 106 65
82 111 69
81 108 67
76 103 64
80 109 67
77 105 64
78 106 66
78 106 65
79 106 65
77 105 63
111 133 117
167 184 196
162 179 188
163 182 193
166 183 196
168 185 196
167 184 195
174 191 206
161 177 189
165 183 195
167 185 201
176 194 209
170 187 199
169 187 199
169 186 197
161 179 189
128 149 146
157 176 186
166 183 196
182 199 215
173 191 209
173 190 203
172 189 202
168 185 197
157 176 188
173 190 204
168 185 194
168 186 198
173 190 202
167 185 196
125 146 141
83 109 74
93 118 90
124 143 133
154 172 175
173 191 206
81 110 69
78 106 65
78 107 66
82 110 68
80 108 66
81 110 68
159 177 185
175 193 207
174 192 205
165 181 192
175 192 205
174 192 207
169 186 197
167 184 194
125 146 140
81 109 72
78 105 64
84 112 69
82 111 69
83 111 69
83 111 71
119 139 126
146 165 171
160 177 186
171 189 203
77 105 64
83 112 70
79 107 65
81 109 68
75 102 62
79 106 65
80 109 67
77 105 64
79 106 65
75 102 62
81 109 67
87 112 82
127 148 143
155 174 182
176 191 206
172 189 202
160 178 187
164 183 194
175 191 204
154 171 177
75 102 61
80 108 67
77 105 64
79 106 64
77 104 64
77 106 65
78 105 64
82 110 68
78 106 64
77 105 64
79 107 66
82 111 69
78 105 64
80 108 66
77 105 64
82 110 68
77 104 64
81 109 67
75 102 62
82 109 70
163 178 189
143 161 163
104 126 110
80 107 68
81 109 67
76 104 63
81 109 67
78 107 66
76 104 63
78 106 64
77 104 64
79 106 65
79 107 66
79 107 66
78 106 65
76 103 63
77 105 63
77 104 63
78 106 65
76 104 63
91 115 90
166 183 195
165 183 196
167 185 198
164 180 189
164 182 193
170 186 199
166 184 196
168 185 196
168 185 197
167 183 195
174 190 205
170 186 196
169 186 198
172 189 203
173 189 202
164 180 192
163 181 193
153 171 175
123 144 135
86 110 81
78 106 64
159 176 183
160 176 184
165 181 192
160 177 184
170 187 198
160 176 183
167 184 195
162 179 192
166 183 193
163 180 190
161 177 189
160 176 183
162 180 191
159 178 186
162 179 192
151 167 173
161 179 190
168 185 194
163 180 190
169 187 202
170 186 199
123 144 134
76 102 61
74 101 61
76 103 63
76 103 63
79 107 66
75 101 61
79 105 65
79 106 64
83 112 69
79 106 66
75 101 62
76 102 62
77 104 63
79 107 66
75 101 61
76 102 62
80 108 67
77 104 63
73 99 60
72 98 59
77 105 64
159 177 185
178 194 206
162 179 189
157 174 181
145 162 165
122 140 137
107 129 109
85 110 80
75 101 62
79 106 65
73 100 60
75 102 62
72 99 59
75 102 63
75 103 63
76 103 63
76 103 63
75 102 62
80 107 66
74 100 61
74 101 61
131 151 143
158 176 184
161 178 185
163 179 188
151 168 173
154 171 180
166 182 193
153 169 176
158 175 184
164 181 195
160 178 190
159 176 187
167 184 195
152 170 176
153 170 180
164 181 193
159 177 187
160 177 187
166 181 190
163 180 191
166 183 194
161 177 186
79 106 70
80 108 67
75 102 61
78 105 65
71 97 57
74 100 60
77 104 63
73 99 59
79 106 64
77 104 64
72 99 59
75 102 63
77 104 63
75 102 62
74 101 62
81 109 67
75 101 61
76 103 62
70 96 57
76 103 63
78 105 64
139 158 156
161 178 187
162 178 188
156 174 182
156 172 180
157 174 183
161 178 188
162 178 185
159 177 187
165 182 194
160 177 188
166 183 196
154 170 178
162 180 191
166 183 196
164 180 191
163 181 191
159 176 184
154 172 180
155 172 177
160 177 188
121 139 133
74 101 61
79 107 65
76 102 62
72 98 59
74 100 60
77 104 64
73 99 59
77 103 63
81 106 70
103 125 105
109 131 114
110 130 118
111 131 121
132 151 150
133 152 148
132 150 149
145 163 165
153 170 174
143 161 165
143 162 164
76 102 64
75 102 62
77 104 64
70 95 57
80 108 67
76 103 63
77 104 64
76 102 62
80 108 66
74 101 61
81 109 67
74 100 60
77 104 64
76 103 62
78 105 64
75 102 62
76 102 62
77 104 64
80 109 67
106 128 112
163 181 191
156 173 181
156 174 182
164 179 190
161 178 185
165 181 191
167 184 198
164 181 191
158 176 186
163 179 189
165 181 189
154 171 178
165 182 194
164 181 192
162 178 187
158 175 184
155 173 181
165 182 193
163 179 190
111 131 116
75 102 62
77 103 62
77 104 64
76 103 63
73 99 60
77 105 65
70 96 57
75 102 62
81 109 67
77 105 65
74 100 60
71 97 59
77 105 63
77 105 64
80 108 66
77 104 63
79 107 65
88 115 83
160 177 185
157 174 184
151 167 171
153 171 179
165 183 192
165 182 192
166 182 191
158 176 185
167 183 195
158 175 182
154 171 179
163 179 187
161 179 190
156 174 184
151 169 172
149 168 172
150 168 173
155 173 178
137 156 155
128 148 145
131 152 153
140 159 159
148 166 172
158 176 181
172 190 204
165 182 193
178 195 209
172 189 202
158 175 185
165 181 191
155 171 177
168 185 197
157 175 181
169 186 199
169 187 201
106 128 110
79 107 65
78 106 65
79 106 64
75 102 62
77 105 63
80 108 67
75 102 62
76 103 62
77 105 64
82 110 68
77 105 64
82 111 69
80 108 67
78 105 64
78 107 66
126 148 142
162 178 189
165 181 191
160 178 187
171 189 202
166 185 194
165 182 190
171 189 202
171 188 201
166 183 192
163 180 187
171 189 201
139 157 158
109 131 118
85 112 74
89 114 82
170 187 199
169 187 202
163 182 193
168 186 200
168 185 196
171 189 204
165 183 196
169 186 198
175 192 207
168 185 198
170 187 197
175 192 205
170 188 202
169 187 200
115 137 122
78 105 65
78 106 65
79 107 66
88 116 80
79 107 66
76 104 63
81 109 67
80 108 67
85 113 71
79 108 66
154 173 180
173 191 207
176 193 209
164 182 193
170 188 201
152 172 180
117 139 127
80 108 70
81 110 68
80 108 67
79 107 66
83 112 70
81 110 68
77 105 65
80 108 67
81 110 67
80 109 66
81 108 72
111 132 118
111 132 117
77 104 64
77 105 65
78 105 64
72 99 60
76 103 63
81 109 67
79 107 65
82 111 69
82 108 75
144 164 166
169 186 197
167 183 194
172 190 202
160 177 185
163 180 189
174 191 204
165 182 192
169 188 203
146 164 166
83 111 68
81 109 67
80 108 67
76 104 64
79 107 66
81 109 67
77 104 64
78 105 65
80 108 67
76 103 62
81 109 67
76 103 63
76 103 62
76 103 63
77 105 65
83 111 68
78 105 64
78 106 64
121 142 134
140 159 162
78 105 66
81 109 67
78 105 63
79 107 65
78 106 65
78 106 65
78 105 65
77 103 63
77 105 63
76 103 62
80 107 66
77 105 64
78 106 65
77 104 63
75 102 62
76 104 64
79 107 66
78 106 66
76 104 63
78 105 65
82 109 72
160 177 188
163 179 191
175 193 209
171 189 206
165 183 194
170 187 200
164 181 191
177 194 208
171 187 198
169 187 201
172 189 203
164 181 193
174 191 206
157 175 185
129 148 143
104 127 107
81 108 72
78 105 64
76 103 63
75 102 62
77 105 65
154 171 180
168 185 197
160 177 187
161 178 187
166 183 195
165 182 195
162 179 191
166 183 195
173 190 204
158 176 185
160 178 188
158 174 180
156 174 181
160 178 189
161 179 190
166 182 195
170 186 201
163 178 187
159 176 185
161 178 188
155 173 182
153 170 177
76 103 62
75 102 62
81 109 67
75 101 60
73 98 59
77 104 63
73 99 59
78 105 64
73 99 58
78 106 65
79 107 65
73 99 59
74 100 61
79 107 65
74 100 60
73 99 59
76 103 62
82 110 67
77 104 64
73 100 61
89 114 84
122 141 132
113 134 121
94 116 94
76 103 62
74 100 60
75 102 62
77 105 64
73 100 60
71 98 59
78 105 64
74 101 61
75 102 61
78 105 65
75 102 62
70 96 57
79 107 65
76 102 62
73 100 61
76 102 63
77 103 63
79 106 65
90 116 83
160 177 184
158 175 182
161 179 190
163 180 192
162 178 189
169 185 195
167 185 196
163 180 192
154 171 176
170 187 197
167 186 199
159 176 183
165 182 195
144 162 166
154 172 179
162 179 187
165 183 196
170 186 196
155 172 179
166 184 196
172 189 202
120 141 133
75 102 62
78 106 65
79 106 65
81 109 67
77 104 64
73 100 61
79 106 64
76 103 63
77 104 63
70 95 56
76 103 62
71 97 58
72 98 59
76 103 63
74 100 61
75 101 61
75 102 62
79 107 66
71 98 59
78 105 64
102 124 106
163 179 189
156 174 182
158 174 184
160 177 186
154 170 177
164 180 190
167 183 192
160 178 189
168 185 198
156 173 179
163 180 191
153 170 177
160 178 188
157 174 184
161 177 186
167 184 196
162 179 189
166 182 194
164 180 190
156 174 184
129 148 147
108 129 116
123 144 132
124 145 140
142 161 163
139 158 157
153 171 178
147 166 172
167 184 196
160 177 185
164 180 192
162 179 191
160 177 186
165 181 191
167 183 195
167 184 195
161 178 190
172 189 203
155 172 180
152 170 179
162 179 187
103 125 106
76 103 63
75 101 61
78 104 64
82 110 68
77 104 64
78 105 64
72 98 59
79 106 66
81 108 66
80 108 66
76 104 64
74 101 60
73 98 59
77 105 64
71 98 58
75 101 61
83 111 68
76 103 63
74 100 59
140 158 161
153 171 178
172 188 201
168 184 197
160 175 183
153 171 177
167 183 193
162 180 189
161 177 187
162 177 185
160 177 187
158 176 186
155 172 176
166 184 195
174 192 208
158 176 184
163 179 191
167 183 194
170 186 198
147 165 169
73 100 62
77 105 63
76 103 63
79 106 65
77 104 64
78 106 64
74 101 61
74 101 61
77 105 63
79 106 64
77 104 64
76 103 63
78 104 63
78 105 64
78 105 64
76 104 63
77 105 65
82 111 69
130 149 146
159 175 183
164 182 194
162 181 189
163 179 187
167 185 196
161 179 189
160 179 189
167 183 195
158 174 180
163 180 189
163 180 192
160 179 189
164 180 189
168 183 195
166 184 195
160 177 184
170 187 199
138 157 161
78 105 64
79 107 65
74 100 61
80 108 67
76 103 62
75 101 64
95 119 94
108 130 116
121 142 131
109 130 116
128 148 142
142 161 162
143 162 161
151 167 173
157 176 184
166 183 196
155 174 181
80 108 67
80 109 67
77 104 63
74 101 60
79 106 65
80 107 66
78 105 64
83 113 70
78 106 66
78 106 65
77 105 64
78 106 64
77 104 63
78 107 66
71 98 58
75 101 61
149 167 172
163 181 194
168 186 196
169 186 199
169 187 199
170 187 203
167 185 198
163 181 191
151 168 177
129 149 144
85 111 76
80 108 66
79 107 66
81 109 67
81 110 68
123 143 135
171 189 203
168 185 198
167 186 199
161 178 191
173 191 205
174 191 205
171 188 200
173 191 205
166 184 197
169 187 202
176 195 211
172 190 206
173 190 201
165 182 192
99 123 101
84 112 69
76 103 63
80 108 67
79 107 66
82 110 67
79 107 66
81 110 69
83 112 70
91 118 82
171 189 204
162 180 192
162 181 193
144 164 165
110 131 116
75 102 62
83 111 69
78 106 65
78 106 66
77 104 64
79 107 66
75 101 62
80 109 67
82 110 68
81 109 67
80 108 66
82 110 67
77 105 64
103 127 106
174 191 205
167 184 198
138 158 156
103 126 109
88 115 79
79 108 67
83 110 76
120 140 134
150 168 175
167 185 195
166 185 198
168 186 197
168 185 196
172 189 203
165 183 194
162 179 188
170 187 200
174 191 206
167 185 198
144 162 160
81 109 67
80 108 66
80 108 65
81 109 68
77 104 63
81 109 67
79 106 64
79 107 65
77 104 64
75 102 62
79 107 67
80 108 67
81 110 68
79 108 66
76 103 64
94 118 91
141 160 162
161 179 188
175 191 206
174 191 207
86 113 75
75 102 62
80 108 66
79 106 65
79 107 65
78 107 66
81 110 69
77 105 64
82 110 69
80 108 66
81 109 67
84 111 69
77 104 63
80 108 66
77 104 63
79 107 65
77 105 64
77 105 64
79 107 65
78 106 65
78 105 64
165 182 193
172 188 199
168 187 199
166 184 197
164 183 195
164 181 191
170 187 202
165 181 191
166 183 193
166 182 192
155 172 181
133 152 148
106 128 113
81 109 70
79 106 64
79 107 66
74 102 62
76 103 63
77 104 63
76 103 63
81 109 67
131 149 145
154 171 180
166 183 195
169 187 200
158 174 182
157 175 186
163 180 190
164 180 189
170 186 199
168 185 195
167 184 197
169 186 199
174 191 206
178 196 211
171 189 205
169 186 199
175 192 205
160 178 189
154 171 176
167 184 196
171 187 200
158 174 183
76 104 63
74 99 59
79 107 66
77 105 64
76 104 64
74 100 61
75 102 62
76 102 62
78 105 64
80 107 66
80 108 66
75 101 61
77 104 64
73 99 59
75 102 62
80 108 69
94 117 94
122 142 135
127 145 140
154 172 179
161 178 189
133 152 150
76 103 64
77 104 63
77 104 63
74 101 61
74 101 62
80 107 66
74 100 61
76 104 64
76 102 62
78 105 65
72 98 59
76 103 62
74 101 61
81 109 67
79 107 66
77 105 64
73 100 60
79 107 67
75 101 62
76 102 61
77 103 61
150 169 173
160 178 187
163 180 189
161 178 188
160 176 187
153 171 180
168 184 195
163 181 190
161 177 188
162 179 191
161 180 188
161 178 189
159 177 187
160 177 185
168 184 194
156 172 181
165 182 192
161 178 189
151 168 175
168 186 199
158 175 183
151 169 173
74 100 61
74 100 61
75 101 61
78 106 65
77 105 63
79 106 65
74 101 61
74 101 61
78 106 65
73 100 60
78 105 64
74 100 60
79 106 65
77 105 64
76 103 63
79 106 64
76 103 62
76 104 63
77 104 64
74 101 61
73 100 61
166 184 198
158 175 185
164 181 191
157 174 180
165 181 192
164 181 192
163 181 190
169 186 199
159 177 186
155 172 182
156 174 180
144 161 163
147 165 170
135 156 153
128 147 140
103 124 107
98 120 102
84 111 77
72 98 60
77 104 64
80 106 70
144 162 167
161 177 185
159 176 187
162 180 190
174 191 206
161 178 188
161 177 187
159 177 188
161 177 186
156 174 182
168 186 200
163 180 190
163 180 191
161 179 191
165 182 193
166 183 195
166 184 196
162 179 190
157 174 182
161 178 188
148 166 171
78 106 65
81 109 67
74 101 61
73 99 60
75 101 61
78 105 64
79 106 65
72 99 59
75 102 62
73 99 59
74 101 60
76 102 62
75 101 61
77 104 63
76 103 63
73 99 60
81 109 68
77 104 64
78 106 65
98 120 101
166 183 193
164 181 192
163 180 192
154 171 181
166 183 194
160 178 188
159 176 185
160 178 189
162 179 189
166 183 196
163 181 192
171 187 199
161 178 185
157 174 183
163 181 191
173 189 203
167 184 195
164 181 191
165 182 193
102 124 104
79 107 66
79 107 66
81 108 67
78 105 64
77 104 64
73 100 60
78 105 64
78 105 64
75 102 62
73 99 60
77 104 64
77 104 63
76 102 62
77 104 64
77 103 63
78 105 63
77 104 64
79 105 70
153 171 179
162 180 190
159 176 183
168 184 197
159 176 182
150 168 177
158 173 179
164 181 193
162 179 191
161 179 189
167 184 195
164 181 192
165 182 193
169 186 198
174 190 204
156 175 184
171 187 198
166 183 196
109 132 118
73 100 59
79 107 66
76 103 63
77 104 63
77 104 63
74 102 62
77 104 64
80 108 66
78 106 65
79 107 66
78 106 66
79 107 66
78 105 64
77 106 66
88 114 83
96 120 98
115 136 122
134 155 152
128 149 143
120 140 133
109 132 113
81 107 71
79 106 67
79 108 67
76 103 63
81 109 67
76 103 62
79 107 66
80 108 67
77 104 64
72 99 59
75 103 63
102 124 102
161 178 189
164 182 190
168 187 200
167 185 196
144 163 163
123 143 134
88 112 81
78 105 64
82 110 68
81 109 67
82 111 68
80 109 67
74 101 61
80 108 66
82 111 69
150 169 172
177 195 209
165 183 195
171 189 201
175 192 205
174 191 208
177 193 206
167 185 197
168 187 201
172 190 203
168 186 200
167 185 196
167 186 199
160 178 187
155 174 183
82 110 71
82 110 67
81 109 66
78 106 65
76 104 63
79 108 66
79 107 66
85 113 71
105 128 109
165 183 194
142 162 164
108 130 113
86 115 72
77 105 65
80 108 66
81 110 69
79 107 66
81 109 67
77 105 64
82 111 69
79 108 66
79 108 67
81 110 67
79 107 66
80 109 67
75 103 62
79 107 66
106 130 112
167 185 196
160 178 185
165 183 195
163 182 193
151 170 175
109 131 111
132 154 150
165 183 193
174 191 204
170 188 203
162 179 185
164 181 193
171 188 202
170 187 200
167 185 197
169 186 199
167 184 197
151 169 175
174 192 207
146 164 167
78 106 65
77 105 63
80 108 66
76 104 63
78 105 64
77 104 63
77 104 63
77 105 65
79 107 65
76 103 62
83 111 68
77 105 64
92 118 89
126 147 139
155 173 179
176 192 207
164 182 195
162 180 189
157 175 185
169 187 200
106 130 113
79 107 65
79 108 66
77 104 64
78 106 64
83 111 69
79 107 65
75 102 62
76 103 63
76 103 61
76 103 63
79 106 65
75 101 61
77 104 63
78 106 65
78 106 65
80 107 66
79 106 65
75 102 61
77 105 64
77 105 64
158 175 183
167 184 196
161 179 190
171 188 201
167 184 196
156 174 181
168 186 198
150 168 173
122 141 135
100 124 100
73 99 60
79 107 66
79 106 64
75 103 62
80 108 66
79 106 64
74 100 61
78 106 64
77 105 64
79 106 65
77 105 64
133 150 149
163 179 189
168 186 199
164 181 194
160 177 188
157 174 180
170 185 197
165 182 194
161 179 189
166 182 193
170 186 198
168 184 195
162 179 188
164 181 189
162 180 191
161 178 189
168 185 196
160 176 188
159 177 188
176 193 208
163 179 189
158 176 186
93 117 92
82 110 68
78 106 66
78 105 64
73 100 60
77 105 64
76 101 61
72 98 59
76 103 63
79 107 66
76 104 63
80 107 71
91 114 91
120 139 128
145 164 166
155 172 179
160 176 187
169 187 201
165 182 190
156 173 182
161 178 186
144 162 164
76 103 63
73 100 61
80 108 66
76 103 63
74 101 62
76 102 61
79 107 66
75 102 63
75 101 62
75 102 62
74 101 61
79 107 66
80 107 66
81 110 67
76 102 62
75 102 62
72 100 61
79 107 65
76 103 62
74 101 61
77 104 63
127 148 143
159 177 187
169 187 201
152 169 175
159 177 185
160 178 188
166 184 195
155 172 179
166 183 195
153 170 179
159 177 185
162 179 189
161 178 186
161 179 189
168 185 196
159 177 186
154 171 177
159 175 183
160 176 186
161 178 191
169 186 199
153 170 179
87 112 81
72 98 59
77 105 65
76 103 63
79 106 64
75 102 61
75 102 61
76 103 62
76 103 62
77 104 64
80 107 65
72 98 59
75 102 61
77 104 63
77 104 63
73 100 60
76 104 63
79 107 66
77 104 63
80 107 65
71 98 59
126 145 142
168 186 198
148 166 173
147 166 170
143 162 163
118 139 129
110 132 118
105 127 111
87 111 80
77 104 63
77 104 63
77 104 63
77 104 64
74 101 61
78 105 63
77 104 63
78 105 63
79 107 66
76 103 62
77 105 64
77 103 63
121 141 134
163 180 187
162 179 189
153 172 179
164 180 191
164 181 193
156 173 181
164 182 194
167 184 198
164 181 193
170 187 201
157 174 184
164 180 190
162 180 190
160 176 184
153 172 180
156 174 182
164 181 192
164 180 192
160 178 190
163 181 190
99 121 103
77 104 63
77 104 63
77 105 64
77 104 63
71 97 58
74 101 62
78 106 64
78 105 64
75 102 63
79 107 65
78 105 64
78 106 64
72 99 60
74 102 62
77 104 63
76 103 63
72 99 59
84 113 70
81 109 66
153 171 178
169 186 200
162 180 192
162 179 189
159 175 183
174 191 206
164 181 192
166 183 194
157 174 183
169 186 199
165 182 194
160 177 187
159 175 182
167 184 196
161 178 188
172 190 203
164 181 191
159 176 185
172 188 201
159 176 186
82 110 70
77 105 64
80 109 68
73 100 61
82 109 67
78 105 65
73 100 61
79 106 65
75 101 62
77 104 63
76 103 62
76 104 63
75 102 62
82 110 68
82 111 70
81 110 68
78 105 64
79 107 66
115 138 123
167 184 195
162 178 189
170 187 199
155 173 183
168 186 199
163 180 191
163 180 192
169 186 199
169 187 200
163 179 189
171 187 199
166 183 196
163 182 195
166 184 197
167 183 195
171 188 202
169 186 197
153 172 176
86 112 77
77 104 64
72 98 59
77 104 64
76 104 63
80 107 65
81 109 67
81 109 67
77 104 63
82 111 69
80 108 66
80 108 66
82 111 69
75 102 61
78 106 65
79 106 65
81 108 69
158 177 187
169 187 200
168 185 197
168 185 198
173 190 205
155 173 179
152 170 176
141 159 159
138 155 157
125 143 135
113 135 122
96 119 99
85 112 77
82 111 69
79 107 66
80 109 68
130 150 145
142 162 164
113 135 123
86 115 77
80 108 66
80 109 67
77 105 64
79 106 64
77 106 65
77 105 64
80 107 66
80 108 66
76 103 62
79 107 65
80 108 66
91 117 86
161 179 189
170 188 201
162 180 191
166 183 195
172 190 203
176 193 208
172 188 199
167 184 194
167 185 196
176 192 206
157 175 185
166 184 196
172 188 201
172 190 203
132 151 146
79 107 65
75 102 62
85 114 71
83 112 69
81 109 68
81 110 68
88 114 80
120 142 132
95 121 93
82 110 68
77 104 63
78 106 65
82 110 67
81 109 67
78 105 65
79 107 66
77 106 65
79 107 65
81 109 67
78 106 64
81 110 68
82 110 68
78 106 64
76 102 63
78 106 64
76 104 64
101 124 105
172 189 203
166 184 196
148 167 168
120 141 129
81 109 69
81 109 68
79 107 66
82 110 71
110 130 119
133 152 149
152 170 174
167 185 198
162 180 190
175 192 207
168 185 197
157 174 184
172 189 202
162 179 185
170 187 199
145 163 167
76 103 63
76 104 63
81 109 67
83 111 68
77 105 64
77 104 63
81 109 67
81 109 67
75 102 62
82 109 70
115 136 125
149 167 170
162 179 187
173 189 201
162 180 191
162 180 189
173 190 201
168 184 196
163 180 192
164 181 193
101 124 99
77 105 64
77 105 64
82 109 67
78 106 64
82 110 69
82 111 69
77 104 63
81 109 67
80 107 65
77 105 65
77 105 65
81 110 69
80 108 66
76 104 63
77 104 63
80 108 66
76 103 63
83 112 69
80 108 67
76 102 62
154 171 177
168 185 197
171 187 200
160 177 185
152 171 176
118 139 127
96 120 94
81 109 68
76 104 63
77 103 62
77 105 65
78 106 65
76 104 63
79 106 64
76 103 63
76 103 62
82 110 68
76 104 63
76 103 63
74 101 61
78 105 64
106 129 113
165 181 191
164 182 194
169 187 199
171 187 198
163 179 190
166 182 191
165 182 192
164 181 192
163 180 191
169 185 198
168 185 197
165 182 194
167 184 195
172 189 203
168 186 201
160 177 187
171 188 200
168 186 198
159 177 186
160 177 187
160 177 187
106 128 109
79 106 64
79 107 66
79 106 64
81 109 66
79 106 65
73 100 61
73 100 60
93 115 91
129 148 142
147 164 169
160 178 187
167 185 199
158 175 187
164 182 194
171 188 201
163 180 191
171 188 202
164 181 191
162 179 188
166 183 194
163 180 189
82 109 71
78 104 63
77 105 65
75 103 62
76 103 62
77 104 64
75 102 62
76 103 63
78 104 64
73 100 58
75 102 61
75 102 61
74 101 61
77 104 64
74 100 60
79 106 65
74 101 60
80 107 65
79 106 65
75 101 61
77 104 64
106 128 111
167 184 193
162 181 192
161 179 188
167 183 195
167 183 196
164 181 191
171 187 201
157 175 184
161 178 190
169 185 197
164 183 195
160 177 185
158 175 183
160 176 185
163 181 192
163 180 191
166 183 194
160 177 187
158 175 185
168 186 201
155 173 181
111 132 121
78 105 65
79 107 66
80 109 66
78 105 63
74 101 62
76 103 63
77 104 64
78 105 63
78 105 64
74 101 61
78 105 64
72 97 58
79 106 64
75 102 61
76 103 62
97 122 95
117 139 126
131 150 148
126 145 141
142 161 163
155 172 180
83 110 70
75 103 63
71 98 58
75 101 61
75 102 62
73 100 60
75 103 62
75 102 62
77 104 64
74 101 60
78 105 64
74 101 62
78 105 64
76 102 61
73 100 60
74 101 62
82 110 68
73 100 60
75 101 61
75 102 62
90 115 83
156 173 179
169 186 199
163 181 190
168 184 195
173 192 208
165 183 193
155 173 180
167 184 195
166 182 193
161 178 189
160 177 186
170 188 201
164 181 191
160 176 185
169 186 198
161 180 191
163 180 190
161 179 188
166 183 193
160 178 189
134 153 148
80 108 66
77 104 63
78 106 65
74 101 61
74 101 61
77 103 63
76 104 64
76 103 63
79 106 65
75 102 61
75 102 63
77 104 63
76 103 62
76 102 62
76 104 63
75 102 61
79 107 66
76 103 63
80 107 67
100 124 100
171 188 200
166 182 193
169 185 195
170 187 198
168 185 195
169 186 201
166 182 190
159 177 189
169 185 195
164 181 192
167 185 198
168 184 198
165 180 188
162 179 189
168 183 192
170 186 199
170 188 201
169 185 194
157 175 180
117 140 129
77 104 63
76 103 62
76 104 64
75 102 62
77 103 63
78 105 64
76 104 64
77 104 64
77 104 64
75 102 61
79 106 66
73 100 60
77 105 64
79 106 65
72 98 59
80 107 65
75 102 62
75 102 63
155 173 178
161 178 188
169 186 197
164 182 194
173 190 206
164 182 195
166 181 192
174 191 204
168 186 199
164 181 190
157 174 180
174 191 206
168 185 197
170 187 200
163 179 190
169 186 197
171 187 197
165 182 191
122 144 134
79 106 66
79 106 65
80 108 66
78 105 64
78 106 66
83 111 68
76 103 63
80 108 66
78 106 64
74 101 62
84 112 70
80 107 65
75 103 63
80 108 67
75 102 62
81 110 68
98 122 99
159 178 188
167 185 200
161 178 188
167 184 197
169 186 198
168 185 198
170 186 198
169 186 199
168 184 196
170 186 199
172 190 204
160 178 189
156 173 182
120 141 127
97 121 98
133 153 150
109 132 113
98 122 98
79 107 67
81 110 68
79 107 65
76 104 62
81 109 68
76 105 64
80 108 66
80 108 67
78 105 64
79 108 67
82 111 69
78 105 64
79 107 65
98 124 99
178 195 212
173 190 204
171 189 202
167 184 195
174 193 207
172 189 202
162 180 190
173 191 206
168 185 197
174 191 206
171 188 200
168 186 198
172 191 206
170 188 203
112 135 120
80 108 67
78 106 65
81 109 68
84 111 75
125 144 138
162 179 190
139 159 158
81 109 67
81 109 67
80 108 66
81 110 68
79 107 66
80 109 67
76 103 63
82 110 69
80 109 67
82 111 69
80 108 66
79 107 65
78 106 65
77 105 65
83 111 69
80 109 68
75 103 62
78 106 65
116 139 123
144 163 167
103 128 107
76 103 63
83 110 68
81 109 67
76 103 62
77 105 65
78 105 64
80 107 66
83 112 70
80 108 67
99 123 100
119 141 129
144 161 163
163 181 190
166 183 193
170 187 198
165 182 193
172 189 202
148 168 171
82 110 68
81 109 68
84 112 69
78 105 64
71 98 59
81 109 67
77 105 64
101 123 104
133 153 152
164 181 191
158 176 186
176 193 208
167 184 199
161 179 191
161 178 190
171 188 198
174 191 205
161 178 189
169 186 200
171 188 200
96 120 98
83 112 70
82 110 69
82 111 69
77 104 64
78 105 65
78 105 64
77 105 64
81 109 67
80 108 67
80 108 67
79 107 66
77 104 64
76 103 62
77 105 64
78 107 65
78 105 63
78 105 64
78 106 65
80 107 66
82 111 68
136 155 155
149 167 171
123 143 136
88 113 85
83 112 70
78 105 64
77 105 64
77 104 63
81 109 67
76 103 63
79 106 65
79 106 65
79 107 66
78 105 64
77 104 64
77 104 64
78 105 64
83 111 69
75 102 62
72 99 59
78 106 65
106 128 110
158 176 186
165 182 194
164 180 191
164 181 192
165 182 192
164 180 192
157 174 179
173 189 201
165 180 190
165 182 194
166 183 196
171 188 202
159 176 185
165 181 195
156 173 186
166 183 196
163 180 191
162 177 186
167 183 195
160 177 186
165 182 193
131 150 145
78 105 65
72 98 59
79 106 68
94 117 94
119 140 130
136 155 152
164 182 192
165 182 192
166 183 195
178 194 209
167 183 194
174 192 206
169 186 197
166 182 191
157 176 185
166 182 192
162 179 190
161 178 189
172 189 202
166 182 191
164 182 194
109 131 114
79 105 64
76 104 63
80 108 66
75 102 61
76 103 62
76 102 62
77 103 63
76 103 62
76 103 62
85 114 71
76 102 61
76 103 63
78 106 65
80 107 66
77 104 63
75 102 61
76 104 65
80 108 66
77 104 63
76 103 63
80 107 69
151 166 171
170 187 200
164 181 191
161 178 187
157 176 185
156 173 183
161 179 189
160 177 186
161 178 188
162 179 190
162 180 191
162 178 188
158 174 182
167 184 194
164 180 188
161 177 185
162 178 189
162 177 186
172 188 201
164 180 190
160 177 185
146 164 168
74 100 61
77 105 64
73 100 60
79 106 65
75 102 61
72 99 60
72 99 59
82 110 71
94 119 92
107 127 112
117 138 128
135 155 152
136 156 156
150 167 174
167 184 195
165 183 196
161 177 186
162 178 187
154 172 181
164 181 194
164 181 192
104 127 107
78 105 64
73 99 59
76 103 61
75 102 62
80 108 65
78 106 65
74 102 62
76 103 63
78 106 65
76 103 63
78 105 63
76 104 64
75 102 61
80 107 65
81 109 67
77 104 64
72 98 59
78 106 65
77 103 62
77 105 64
144 161 162
157 173 182
156 173 181
161 178 189
163 181 191
169 186 198
161 179 188
154 172 181
169 185 197
157 174 184
163 180 191
167 185 195
159 176 184
164 181 191
163 178 186
166 183 195
165 182 193
165 182 193
166 183 195
164 181 191
164 180 190
95 120 94
78 105 64
82 111 68
78 105 64
73 101 61
72 100 59
80 107 66
80 108 67
79 106 65
73 100 61
77 104 64
76 103 62
74 101 62
77 105 64
74 101 61
79 107 65
78 106 64
79 107 66
80 107 66
76 104 63
146 165 169
169 185 196
161 178 189
172 189 201
164 181 190
159 177 187
159 177 186
166 181 190
157 174 182
161 179 188
168 186 200
167 184 196
172 188 202
164 180 192
155 172 179
168 187 200
152 169 177
163 180 191
169 186 199
152 170 181
78 106 65
73 100 60
78 106 65
76 103 63
76 102 61
73 101 61
80 108 66
82 110 68
78 105 64
77 104 63
78 106 64
78 105 65
78 105 64
78 105 65
77 104 63
74 101 62
81 110 68
80 108 66
112 134 121
172 189 204
171 188 200
161 179 191
171 188 201
165 182 193
164 182 192
166 184 198
169 188 203
165 183 195
174 191 205
164 181 190
165 183 193
170 187 200
160 179 189
161 179 189
166 183 195
167 184 195
172 190 204
91 116 87
79 106 65
79 107 65
74 101 61
79 106 65
78 106 65
79 106 65
77 105 64
80 108 67
79 107 65
76 104 63
81 109 67
74 101 61
77 105 63
80 109 67
78 106 64
78 106 65
144 164 164
159 177 188
166 184 196
168 186 200
175 191 204
167 183 195
167 184 195
172 188 201
162 179 190
138 157 156
119 139 126
94 118 91
77 105 63
83 112 69
81 110 68
78 106 65
92 117 90
171 189 204
162 180 188
161 180 188
140 159 158
126 147 143
121 143 133
98 121 98
78 106 66
81 109 68
79 107 65
77 105 64
81 109 67
81 111 69
81 110 68
84 113 70
140 159 159
177 194 209
171 187 198
169 186 198
169 187 199
160 179 189
167 186 201
169 187 203
176 193 206
155 174 181
179 196 212
163 181 192
167 186 198
174 193 207
167 185 198
92 118 88
92 118 86
141 160 157
173 191 206
170 188 201
167 184 197
123 145 136
80 109 68
81 109 68
81 109 67
82 111 69
83 113 71
79 107 65
78 106 64
77 105 64
82 111 68
79 108 66
79 107 66
77 103 63
81 110 68
79 107 66
79 106 65
84 112 70
96 120 97
128 149 142
154 173 177
77 105 64
80 108 66
79 108 67
79 107 65
80 107 65
74 101 61
78 106 65
80 108 66
72 99 60
82 110 68
81 110 69
82 110 68
77 105 64
79 106 65
78 105 63
103 126 106
127 147 138
152 170 173
168 186 201
142 161 161
79 107 66
83 111 69
83 112 70
76 102 61
89 115 86
114 136 123
163 181 192
174 190 204
169 186 198
164 183 195
169 185 197
162 180 189
164 181 192
176 192 207
172 189 202
164 179 190
168 186 198
154 171 176
164 182 196
170 186 197
111 133 119
79 107 65
77 105 64
77 105 64
82 109 67
78 106 65
80 108 67
77 104 64
84 112 69
77 104 63
80 107 65
77 106 65
79 106 66
77 104 64
79 107 66
77 105 64
78 106 65
77 105 64
77 103 66
105 129 109
138 156 153
111 133 123
76 104 64
77 105 64
75 103 62
74 100 61
75 102 62
82 111 68
78 106 65
79 106 65
74 100 61
76 104 63
80 107 66
76 104 63
82 110 68
78 106 65
76 103 63
83 111 69
76 103 63
76 103 62
75 102 61
78 106 66
88 113 82
166 183 196
169 186 197
164 181 191
162 180 192
174 192 205
170 188 200
165 181 191
161 179 189
162 178 187
168 185 197
175 190 202
168 186 198
168 185 199
173 189 202
173 190 203
160 177 186
165 182 193
164 181 191
159 176 187
169 186 200
168 184 194
146 166 168
119 138 133
139 158 156
156 173 181
162 181 197
152 171 179
167 184 198
167 186 198
161 178 189
163 180 192
171 187 198
163 181 193
164 181 193
166 183 195
157 175 184
165 182 194
153 169 176
165 184 198
160 178 188
159 177 187
173 189 205
165 182 190
129 149 144
81 109 67
77 105 65
76 103 63
76 103 63
76 104 64
76 103 63
76 102 62
77 105 64
79 106 65
81 108 67
78 105 64
77 104 63
79 107 64
69 96 57
76 104 63
77 104 63
77 104 63
76 103 62
80 108 66
76 103 62
82 109 67
148 166 170
161 180 189
163 180 192
158 175 183
163 179 189
166 183 196
169 185 199
151 168 175
160 178 189
150 168 175
147 165 172
157 176 187
174 191 207
160 178 189
148 166 170
166 182 192
159 176 187
167 182 193
155 172 177
171 189 201
173 189 203
168 185 198
92 116 87
82 110 68
93 116 92
104 125 113
123 144 138
134 154 154
153 171 175
156 175 184
172 189 201
167 184 196
160 177 186
171 187 199
159 176 185
167 184 197
163 180 191
169 185 195
167 184 195
161 178 188
164 180 190
170 186 198
163 180 193
138 157 158
71 98 59
75 102 62
80 108 66
77 104 63
76 103 62
74 101 62
79 107 65
82 109 67
80 108 66
79 106 64
72 99 60
79 107 65
76 104 64
73 100 60
70 95 57
82 110 67
79 107 65
75 101 61
80 108 67
81 108 66
103 125 108
167 183 191
172 188 202
160 177 185
167 185 198
160 177 185
167 185 197
167 184 197
165 181 193
161 178 189
162 179 191
168 184 196
155 172 180
167 184 197
177 193 207
163 180 191
157 174 182
163 181 194
165 182 194
171 187 199
167 184 197
128 148 143
78 105 64
78 106 65
82 111 68
77 105 64
79 107 66
76 103 62
79 106 65
75 101 61
76 103 62
77 104 63
79 107 66
76 103 62
77 104 64
74 102 61
77 104 64
78 106 65
74 101 60
78 105 64
76 103 63
110 132 118
166 184 198
170 186 197
164 182 195
160 178 188
163 179 191
164 181 194
164 181 190
164 182 194
168 186 198
170 188 200
169 187 199
167 184 196
169 186 196
154 172 181
164 181 194
166 183 195
168 186 201
167 185 197
171 187 201
115 135 123
81 109 68
75 102 62
75 102 62
78 105 65
80 108 67
77 105 64
79 107 66
76 103 63
75 102 61
70 97 57
79 107 66
75 102 62
80 107 65
77 104 63
84 112 70
80 106 63
78 106 65
81 109 66
142 162 166
159 176 185
167 185 195
177 194 208
167 183 195
167 184 195
168 184 197
169 186 199
168 185 196
164 180 191
172 189 202
159 176 183
156 174 182
156 172 180
166 183 195
167 185 199
169 186 198
170 187 199
154 173 180
78 106 64
78 106 65
79 107 66
82 112 69
73 100 61
80 108 67
76 104 63
83 111 69
77 104 63
80 107 65
75 102 62
81 109 67
77 105 64
78 105 64
80 108 66
77 104 64
93 118 91
157 174 183
162 180 193
169 188 202
150 168 175
145 164 167
125 146 137
103 127 104
82 110 68
78 106 65
80 108 67
76 103 63
81 109 68
78 105 64
73 100 60
77 105 65
79 106 65
122 142 135
174 191 206
166 184 194
169 186 199
160 177 186
167 185 198
164 183 196
163 181 195
142 161 164
147 166 170
122 144 135
110 132 117
83 109 79
78 107 66
77 105 64
77 105 67
148 167 172
172 189 201
176 194 209
166 184 197
173 191 204
171 188 202
170 186 201
177 193 208
177 194 209
171 188 204
172 189 205
166 183 193
178 196 212
171 189 201
137 155 157
172 189 203
178 195 211
175 192 205
169 187 199
175 192 203
114 137 123
77 105 64
79 106 65
80 108 67
77 104 63
83 111 69
80 108 67
79 108 67
76 104 63
82 112 70
78 106 65
78 105 64
81 109 67
75 102 62
79 107 66
111 133 117
149 167 169
158 176 185
171 191 207
148 167 170
84 113 70
78 105 64
83 111 69
81 109 67
75 102 62
81 109 67
80 109 67
79 106 65
80 108 67
82 111 68
74 101 61
82 111 68
77 104 64
79 107 66
81 109 68
79 106 65
78 106 65
77 104 63
78 106 65
124 146 138
139 159 160
99 122 101
97 121 100
139 158 157
158 176 184
172 188 200
158 176 187
155 173 180
164 181 192
168 185 197
173 191 206
166 182 193
164 181 192
168 186 198
164 182 196
162 181 192
170 187 201
156 174 184
167 185 198
175 191 204
116 137 126
78 106 65
82 110 69
77 105 64
81 109 68
80 108 67
82 111 69
79 107 66
83 112 69
82 110 68
76 103 63
79 108 66
81 109 68
80 108 66
76 104 64
79 107 65
105 128 108
136 157 154
153 170 179
173 190 202
160 179 189
132 151 147
79 107 65
77 105 65
75 103 63
77 104 64
75 103 62
76 103 62
82 110 69
77 104 63
76 103 63
77 105 64
78 105 64
81 109 67
79 107 65
79 106 64
78 106 66
73 100 60
77 104 64
75 102 61
83 112 69
79 106 65
79 106 65
163 180 189
161 178 187
168 186 200
161 177 186
166 183 192
163 181 192
161 178 189
161 177 189
168 185 197
171 189 202
166 183 196
158 175 186
163 180 190
169 186 198
172 189 203
162 178 188
162 179 189
173 189 204
151 170 173
123 143 136
94 119 94
107 129 112
158 176 186
162 178 189
166 183 195
166 184 196
158 174 182
172 189 203
166 183 193
165 183 195
163 180 186
170 187 201
162 177 187
169 185 196
163 181 193
169 186 198
160 179 187
168 185 198
169 186 198
170 187 200
164 180 192
156 173 183
161 178 188
153 171 176
78 105 65
81 109 67
78 105 63
79 107 66
80 107 65
80 107 66
73 100 60
77 104 63
74 100 60
77 104 64
80 107 66
77 104 64
75 103 62
75 102 62
75 102 62
80 108 66
78 106 65
76 103 62
78 106 65
79 107 66
80 108 66
119 140 129
174 191 207
151 170 178
165 182 194
155 172 178
161 178 189
169 184 196
162 179 190
160 176 185
154 172 180
155 173 185
165 182 194
159 178 189
156 173 180
172 188 202
156 174 184
160 177 187
156 174 184
151 167 174
137 156 156
133 153 150
105 126 110
143 162 164
169 187 199
162 181 192
166 183 191
156 173 179
162 179 190
162 180 189
159 177 187
167 183 193
156 174 186
168 185 199
171 187 201
165 183 197
169 186 197
165 182 193
173 190 204
158 176 184
160 177 187
166 183 195
163 180 192
158 175 184
151 170 175
80 107 65
74 101 60
73 100 60
77 104 63
77 104 64
72 99 59
79 107 65
77 104 64
77 105 65
78 106 65
76 104 64
77 105 64
73 100 60
78 106 64
78 105 64
73 99 60
79 107 65
78 106 65
78 105 64
80 107 65
80 107 66
158 176 186
163 179 189
158 175 186
171 188 201
168 185 196
169 185 196
164 181 190
170 187 201
171 188 202
167 183 195
162 180 190
158 175 183
168 184 196
161 177 187
160 177 187
172 189 202
164 182 194
167 185 198
164 182 193
170 188 202
162 180 189
79 105 66
76 103 62
76 103 63
78 104 64
80 108 66
81 109 67
75 102 61
77 105 65
79 106 64
75 103 63
82 111 69
78 106 65
77 103 63
78 107 65
77 105 64
73 99 60
76 104 63
78 105 64
76 103 62
76 103 62
156 173 178
163 180 189
167 183 194
163 181 194
166 182 195
162 179 188
162 179 186
169 186 199
157 175 182
168 185 194
162 180 193
163 180 190
168 185 196
167 185 197
171 187 199
165 180 190
166 183 196
161 178 188
161 179 190
158 175 185
80 107 69
81 109 67
77 103 63
77 103 62
78 106 65
80 108 66
75 101 62
77 104 64
77 104 63
77 105 63
75 103 62
75 103 62
78 106 65
80 108 67
78 105 64
80 108 66
77 105 64
77 105 64
93 117 92
167 185 196
167 183 194
170 187 200
168 184 195
168 186 200
175 192 205
167 185 196
165 183 196
172 189 204
169 186 197
169 186 198
171 189 202
167 185 197
174 190 204
173 191 205
158 175 182
170 188 200
165 182 194
99 123 100
79 107 67
79 107 66
79 107 66
79 107 65
75 102 61
87 117 74
79 107 67
78 106 65
75 102 61
77 104 63
76 104 64
73 100 61
72 100 60
77 104 64
79 106 65
85 110 81
138 156 154
136 155 151
100 124 99
87 114 79
78 106 64
75 103 62
79 107 66
80 107 66
81 110 68
82 110 68
78 106 66
84 112 70
76 104 63
76 103 63
79 107 65
78 105 64
82 109 71
146 165 167
167 185 200
168 187 200
171 189 202
169 187 201
170 187 201
173 191 205
166 183 193
166 184 194
171 188 201
170 189 204
163 181 194
154 174 182
147 166 170
135 156 156
122 143 136
150 169 176
172 190 202
172 189 201
173 190 205
171 188 202
178 194 210
178 195 210
171 188 200
163 182 195
168 185 199
174 192 207
166 184 196
167 184 195
170 188 199
171 190 205
168 186 197
171 188 199
172 189 203
177 194 209
115 138 119
76 103 63
78 106 65
81 110 68
80 109 67
78 106 65
81 110 68
84 113 71
77 104 63
83 112 69
80 108 67
83 112 70
81 109 67
116 138 126
155 174 178
171 189 203
169 187 200
169 187 200
175 192 207
147 164 165
83 112 69
79 108 67
82 111 68
82 110 67
81 110 67
78 107 66
80 108 67
78 106 65
81 109 68
79 107 66
79 107 65
75 101 62
79 107 65
83 111 68
86 115 71
74 101 61
79 107 67
77 105 64
80 108 67
113 135 123
141 159 161
99 122 95
82 110 70
97 122 100
123 145 134
144 164 166
161 179 187
173 190 204
168 186 200
178 194 207
165 182 192
170 188 202
169 186 197
173 190 202
180 197 216
163 180 191
164 181 192
171 187 200
165 180 189
161 179 191
130 149 141
79 107 65
79 106 65
79 106 65
77 105 65
78 106 65
79 107 65
75 103 62
76 104 64
80 108 67
79 107 65
80 108 66
78 105 64
102 125 106
126 145 142
153 171 178
170 187 201
162 179 191
160 177 187
166 183 194
168 185 195
141 160 161
76 103 62
81 110 68
78 105 64
80 108 67
82 110 68
80 108 66
76 103 63
80 108 67
75 102 62
82 110 68
78 105 64
79 107 66
81 109 66
73 99 60
73 100 60
78 106 65
78 106 65
75 102 61
79 106 65
79 105 64
77 104 63
147 166 170
169 186 197
170 187 200
168 186 199
166 184 195
169 187 199
165 181 192
167 184 196
162 180 192
167 184 195
170 185 197
158 177 185
166 184 196
171 188 204
155 172 179
130 150 145
97 121 97
75 102 63
80 108 66
77 104 63
76 103 63
73 100 61
165 183 194
165 181 191
167 184 195
162 179 187
162 179 189
164 181 193
162 179 190
157 175 183
168 185 196
160 177 186
167 184 197
158 176 184
162 178 186
164 180 190
159 177 185
160 177 188
163 180 190
165 182 193
167 183 193
165 182 193
156 173 181
166 184 196
76 102 62
73 99 59
75 103 63
79 107 66
77 104 63
78 106 65
76 104 63
75 101 61
82 110 68
73 99 60
78 105 64
78 105 64
78 105 64
80 107 67
79 106 65
81 109 67
78 106 65
74 101 61
72 100 60
76 103 63
78 105 64
103 125 107
162 180 189
166 183 193
168 184 196
164 180 192
169 186 200
160 177 189
167 184 195
164 181 194
167 184 198
155 173 179
166 182 192
165 180 190
154 170 175
143 161 163
125 146 138
95 118 95
82 106 74
81 108 66
78 106 64
80 108 66
78 105 64
118 139 127
164 180 189
163 180 192
165 183 196
157 173 181
160 177 189
154 170 176
165 183 192
170 185 196
165 182 192
171 190 203
169 186 198
171 188 201
161 180 191
166 184 198
164 180 189
156 175 183
164 182 193
161 177 185
160 178 189
161 178 187
166 182 194
106 127 107
73 100 61
75 101 61
76 104 64
79 107 65
79 106 65
74 101 61
77 104 63
76 103 62
76 103 62
77 105 63
75 101 61
76 102 62
79 107 67
77 105 64
77 104 64
79 106 64
77 104 64
74 101 61
76 104 63
77 104 64
132 151 148
164 181 190
167 184 196
158 175 185
161 177 187
166 185 195
170 188 200
163 179 190
162 180 192
167 183 195
154 172 180
166 185 197
174 190 203
165 182 192
159 176 185
154 173 180
160 176 188
168 184 195
161 178 186
171 188 199
161 178 187
106 128 115
76 104 63
79 106 65
78 106 65
78 105 64
81 108 66
77 103 64
71 97 57
76 103 62
72 98 58
78 105 65
79 107 65
79 107 66
77 104 64
80 108 67
74 101 61
77 104 64
79 107 66
79 107 66
80 108 67
122 143 132
171 187 198
159 175 183
167 184 195
156 173 181
164 181 194
167 185 198
157 174 183
160 178 187
169 186 198
162 178 188
155 172 180
181 198 215
156 175 185
162 179 190
159 177 186
159 177 186
174 191 204
171 189 202
160 178 186
124 146 139
76 104 63
77 105 65
77 105 64
77 105 64
81 108 67
80 109 67
78 105 65
77 106 65
78 106 65
82 110 67
78 105 64
82 110 68
78 106 65
74 101 61
78 105 65
77 106 65
78 106 64
80 107 66
131 151 150
167 186 200
160 178 188
167 186 196
167 185 197
166 183 193
157 175 184
162 179 192
165 184 197
160 178 187
165 184 195
171 189 201
166 182 193
176 192 207
162 180 189
164 181 190
172 189 202
171 187 199
150 168 173
82 109 70
81 109 67
78 106 65
81 108 66
78 106 65
80 107 66
78 106 66
83 112 69
76 103 62
73 100 61
79 107 66
99 124 97
117 139 125
137 156 156
168 185 196
168 185 198
158 176 188
123 143 135
78 106 65
77 105 64
78 105 64
77 104 63
80 110 68
80 109 67
76 103 62
79 107 65
79 107 66
76 104 63
82 110 68
78 106 64
77 104 63
80 109 68
78 105 63
96 119 94
172 190 204
168 186 199
179 196 213
175 191 204
166 183 192
170 186 200
169 186 198
166 185 196
171 188 202
165 182 193
171 189 206
174 192 208
169 187 200
169 186 199
172 190 204
147 168 168
88 115 79
121 142 134
131 152 148
151 170 175
164 181 191
172 190 204
167 185 199
170 188 202
177 193 206
170 188 203
174 192 207
170 188 200
182 199 219
177 193 209
174 192 207
170 188 199
170 187 197
172 189 202
108 130 115
80 108 66
80 108 67
84 112 69
78 107 66
78 106 65
78 106 65
84 112 69
78 106 66
83 112 69
86 111 80
134 154 151
166 185 196
174 192 208
166 184 195
165 183 192
166 183 194
167 185 198
177 194 209
140 159 159
78 106 65
80 108 66
77 106 64
82 111 68
81 110 67
78 105 64
76 104 64
80 108 67
81 109 66
74 102 62
80 108 67
82 110 68
77 104 64
78 106 65
80 108 67
80 108 67
77 104 64
105 128 107
145 164 167
139 159 159
77 105 64
77 105 64
82 110 67
80 107 65
83 112 69
81 108 66
78 106 65
95 120 94
119 140 131
130 149 147
158 176 186
157 174 183
165 182 194
173 190 204
176 194 210
166 183 195
175 193 210
168 185 196
166 184 193
172 188 202
127 148 143
80 109 67
83 111 69
79 107 66
82 111 69
77 105 64
78 105 64
75 103 63
75 102 61
80 108 67
85 110 80
127 148 144
159 176 182
172 190 204
170 187 200
172 188 201
170 187 199
177 194 210
160 177 187
168 184 196
166 183 194
151 169 175
80 107 66
79 107 66
80 108 66
75 102 62
79 106 65
78 105 64
78 106 64
78 107 66
75 102 61
77 105 64
84 113 69
78 106 64
75 102 63
72 99 58
75 103 62
77 104 64
77 105 64
78 106 65
78 104 65
80 109 67
78 105 64
145 163 165
164 181 192
166 183 196
153 172 180
175 191 206
156 174 177
163 181 192
168 185 198
171 189 203
167 184 195
168 185 197
143 162 164
111 132 120
81 108 69
74 101 61
78 105 64
77 105 64
75 102 63
74 100 61
77 105 64
77 104 63
79 107 66
148 165 170
173 189 204
163 180 190
172 189 203
180 195 209
161 178 187
166 183 193
171 187 199
165 183 196
166 182 194
174 190 204
169 186 200
174 191 206
161 179 192
173 189 201
167 184 198
160 176 186
160 178 187
165 182 195
170 188 202
168 184 195
155 172 182
97 122 98
83 112 69
80 108 66
80 108 66
80 107 66
76 103 63
80 108 67
77 104 63
79 106 65
76 103 63
78 105 64
79 107 66
81 108 66
82 111 68
76 104 64
75 102 61
78 105 64
79 107 66
80 107 66
79 106 64
81 110 68
80 108 66
163 180 189
168 184 194
166 182 193
173 191 206
158 176 184
160 178 190
163 181 192
149 167 171
142 161 162
118 138 129
99 121 101
78 103 67
82 112 70
73 99 60
80 108 66
79 106 63
82 110 68
72 99 59
77 104 64
74 101 60
79 107 66
79 105 68
163 180 191
163 179 188
166 183 193
168 185 197
164 180 190
164 181 192
158 174 181
159 177 188
169 186 200
165 183 193
160 177 189
171 187 199
162 179 190
165 183 195
158 175 183
166 183 194
163 181 192
164 181 194
173 189 203
160 178 189
174 190 205
134 153 151
79 107 66
78 105 64
81 109 67
79 107 66
76 104 63
75 101 61
84 112 69
78 106 65
82 110 68
76 103 63
82 111 69
78 105 65
78 106 65
78 105 64
80 107 66
78 105 64
73 100 60
78 106 65
78 106 65
74 102 62
95 119 95
160 178 190
153 170 176
163 179 189
165 183 195
170 187 200
162 180 191
163 180 190
168 185 197
152 171 180
162 179 190
156 174 180
161 180 191
172 189 201
161 178 188
165 182 191
166 183 195
165 182 193
160 178 189
166 183 192
165 183 195
147 165 169
78 105 64
72 99 60
83 112 69
75 102 61
79 106 65
74 101 61
80 108 67
77 104 63
81 109 67
76 102 61
79 107 66
77 104 62
80 107 66
78 104 64
75 103 62
73 100 61
78 106 66
76 103 63
80 108 66
80 106 67
148 165 169
168 185 196
169 186 199
163 180 192
166 183 196
165 182 192
163 182 194
167 184 197
166 184 195
178 195 212
167 185 197
155 173 183
180 196 212
158 175 183
160 177 186
170 187 200
164 182 192
161 179 189
161 178 189
154 171 177
75 101 64
77 105 64
81 109 68
79 106 65
77 106 64
81 109 67
74 102 61
83 112 70
78 106 65
74 101 60
80 109 67
81 109 67
78 106 65
80 109 67
81 109 67
77 104 64
76 103 63
80 109 67
88 114 85
164 183 194
166 182 190
167 185 196
176 193 207
171 188 203
165 183 196
172 188 198
158 176 186
167 183 193
163 180 190
173 190 204
168 186 201
175 192 207
158 176 187
165 183 194
175 192 206
157 174 180
166 184 194
117 139 128
78 106 65
74 101 62
80 109 68
81 109 67
81 110 68
86 113 80
99 124 101
122 143 136
144 164 166
153 172 177
159 176 183
170 188 201
172 188 202
166 184 197
173 189 203
177 195 211
162 181 189
81 108 70
72 99 59
77 104 64
78 106 65
82 110 67
82 110 69
79 106 64
80 108 66
78 106 65
77 105 64
81 109 67
78 106 65
77 105 64
77 105 65
84 113 70
79 107 66
122 143 137
170 189 202
171 188 200
162 181 192
170 188 202
177 195 213
172 191 205
168 186 199
175 191 206
169 186 196
174 191 204
172 189 200
164 182 192
167 184 193
170 187 201
172 189 202
109 132 113
79 108 67
80 108 67
78 106 64
79 107 66
102 128 106
114 135 121
138 159 156
160 178 187
170 188 200
162 180 191
170 189 201
170 187 200
178 195 211
172 190 204
174 191 205
172 188 200
170 188 202
91 116 84
82 110 69
83 112 70
78 107 67
80 108 67
80 109 67
80 108 66
80 108 67
97 122 93
132 153 151
166 183 191
173 189 203
176 193 206
173 190 202
173 190 203
174 191 203
170 188 201
174 191 204
174 193 207
128 149 136
81 109 67
80 108 66
77 105 64
80 108 67
80 109 67
80 109 67
78 106 65
79 107 65
79 107 66
81 109 67
78 106 65
79 107 66
80 108 66
77 105 64
80 108 69
117 139 128
160 177 182
172 189 202
163 182 193
148 166 172
80 108 67
78 106 65
74 101 61
80 108 67
83 111 69
81 109 68
76 104 63
78 106 65
82 110 68
82 111 69
77 105 65
86 112 80
103 125 107
123 144 139
149 168 170
162 179 189
169 186 199
175 190 204
172 189 204
164 182 192
137 156 156
79 107 66
83 112 69
81 110 68
77 104 64
78 106 65
77 105 64
85 111 79
112 134 121
154 173 178
169 186 196
161 180 190
162 180 192
166 184 195
168 185 197
169 187 199
172 190 203
166 185 196
169 186 198
165 183 195
162 180 193
158 176 185
80 107 66
78 105 65
73 100 59
77 105 65
81 109 67
82 110 68
80 107 65
80 109 67
76 104 63
83 112 69
79 107 66
77 106 66
81 109 67
79 106 65
81 108 66
80 107 66
79 106 65
75 102 61
77 103 62
77 104 63
76 104 64
131 152 145
165 182 191
153 170 177
172 189 200
166 184 195
171 187 198
169 187 201
155 172 179
130 150 144
109 132 115
77 104 64
75 103 62
80 108 67
77 105 65
71 98 58
76 103 63
78 106 65
75 102 62
76 104 64
76 104 63
77 104 63
77 105 64
132 151 147
166 183 195
165 182 193
166 183 194
165 183 193
156 175 184
170 187 199
168 186 200
171 187 198
163 181 191
165 182 192
171 188 200
165 183 197
164 180 192
164 181 193
167 185 198
173 191 207
162 180 192
166 184 196
166 184 196
168 184 196
158 175 183
117 138 125
77 104 64
76 103 63
77 104 64
75 102 62
80 108 67
80 109 67
80 108 66
79 107 67
77 104 63
76 102 62
76 103 62
76 102 62
76 104 64
74 101 62
77 104 63
75 102 61
80 108 67
79 106 65
83 111 68
79 106 64
76 103 63
137 158 155
154 172 178
148 167 170
135 153 149
117 139 126
100 125 103
76 103 62
76 103 62
78 106 65
77 105 65
77 105 64
76 103 63
76 103 62
79 107 65
76 103 63
77 105 64
76 103 62
80 108 66
81 109 67
79 106 66
76 103 62
76 103 63
144 162 161
167 184 198
164 182 192
173 190 203
163 180 192
168 185 196
164 182 191
165 182 193
170 186 198
160 175 184
165 183 195
165 182 191
162 179 189
165 182 193
160 177 189
159 175 183
167 183 194
164 182 196
161 178 188
169 186 199
166 182 192
159 175 184
79 107 66
81 109 67
77 104 63
75 101 62
77 104 63
78 106 65
77 105 65
78 106 65
80 108 66
75 102 62
81 108 66
75 102 62
78 104 63
82 110 68
84 112 70
81 109 67
77 105 65
75 102 62
80 108 67
77 104 64
80 108 66
155 172 176
166 184 197
164 182 192
166 184 196
164 181 191
168 185 198
159 176 184
169 186 201
169 186 199
163 179 187
165 183 195
173 190 203
166 184 196
164 182 195
170 187 199
154 172 180
173 189 202
168 185 198
169 185 196
169 187 201
160 178 188
107 128 112
79 106 65
78 105 63
79 107 65
82 110 67
77 104 63
80 108 67
81 110 68
79 107 66
80 108 66
76 103 63
78 105 63
82 111 68
78 105 65
81 109 68
80 108 66
78 106 64
78 105 65
74 101 60
72 99 59
137 155 153
166 182 193
168 185 198
163 181 194
171 188 200
168 184 195
166 184 194
168 184 195
165 182 193
165 182 193
174 192 207
171 188 202
158 176 186
159 177 187
162 179 189
173 190 203
171 186 198
167 183 194
168 187 202
167 183 194
118 140 130
78 106 65
78 106 64
82 110 68
79 107 65
76 104 63
78 106 65
77 104 63
80 108 67
77 104 64
72 99 59
80 108 66
80 108 66
81 109 67
76 104 64
77 104 63
77 104 64
80 108 66
77 105 64
120 143 136
166 184 198
160 178 191
165 182 190
153 171 177
154 172 181
174 192 208
173 190 204
159 176 183
166 184 198
157 176 186
169 186 199
173 191 206
168 185 195
170 188 203
167 184 197
162 179 191
170 187 201
172 189 201
89 116 84
99 123 100
116 138 128
131 152 147
148 167 172
175 192 207
174 192 207
172 190 205
167 184 195
171 189 201
174 191 208
169 186 202
158 176 187
169 187 202
173 190 204
165 182 194
162 179 188
142 161 162
77 105 64
79 107 66
79 106 65
75 102 62
76 103 62
81 109 68
80 108 66
83 111 69
81 109 68
81 110 68
80 108 66
81 110 67
82 111 68
77 104 63
83 112 70
79 106 68
154 172 175
171 188 198
165 181 192
160 178 191
172 189 201
169 186 200
163 182 193
161 180 192
162 181 192
166 184 197
177 196 212
175 191 206
162 180 190
161 179 189
173 190 202
167 184 196
90 116 84
83 112 69
86 115 72
78 106 65
79 107 66
83 112 70
80 108 66
79 107 66
81 109 71
109 134 117
135 157 156
150 170 174
175 193 207
173 190 204
174 193 209
167 185 196
165 183 195
82 109 67
79 108 66
80 109 68
80 109 68
80 109 68
79 106 65
104 128 104
137 158 157
170 186 196
174 191 205
169 187 200
161 178 187
166 183 197
172 190 203
170 188 201
177 194 208
176 192 202
176 192 205
170 187 198
133 153 147
82 110 68
79 107 66
81 110 69
78 105 64
75 102 62
75 102 62
80 109 67
77 104 63
79 107 66
76 104 65
82 111 68
80 108 66
93 118 89
146 165 169
159 177 186
161 179 191
163 181 194
171 188 200
172 190 204
144 163 168
80 108 66
79 107 66
80 108 67
78 106 65
80 108 67
79 108 66
81 110 68
80 108 66
83 111 69
78 107 66
81 109 67
78 106 65
83 111 70
80 109 67
79 107 66
80 107 66
85 113 75
103 126 105
120 141 129
144 164 168
129 149 143
81 108 69
76 104 64
75 102 62
87 114 78
125 146 141
145 164 165
165 183 194
173 190 202
164 182 195
166 183 195
168 184 195
161 178 189
162 180 189
166 183 192
167 185 200
160 178 188
169 187 199
168 185 196
163 181 191
171 189 205
162 180 188
78 105 63
78 106 65
77 105 64
83 112 70
78 106 64
81 109 67
79 108 66
79 107 66
76 103 63
75 102 62
76 104 64
82 111 69
78 106 65
79 108 66
79 107 65
75 102 63
73 99 59
78 106 64
84 113 70
79 107 65
75 102 62
128 148 140
173 188 199
170 187 203
160 179 191
150 169 173
138 158 156
89 114 89
80 108 66
81 108 66
79 107 66
80 108 67
79 107 66
78 106 64
74 101 60
74 102 62
75 103 63
74 100 61
74 101 61
79 107 67
77 104 63
81 109 68
76 103 63
123 142 135
161 179 189
168 186 196
165 182 194
171 188 201
170 186 198
178 195 209
165 182 194
158 175 186
168 184 194
170 186 196
170 187 198
164 182 195
163 180 192
169 188 201
162 179 191
162 179 189
165 180 192
170 187 199
153 170 178
164 181 191
154 170 177
135 155 153
75 101 61
77 105 64
78 105 64
79 106 65
76 103 63
78 105 65
75 102 61
77 104 64
79 106 65
76 103 62
81 108 66
75 102 61
78 105 65
76 103 63
79 107 65
81 109 67
77 104 64
80 107 71
99 122 104
125 146 139
149 168 173
137 156 156
82 110 68
77 104 64
75 103 62
79 107 66
78 105 64
80 107 66
77 104 63
76 103 64
80 108 67
72 97 58
80 108 66
77 104 64
76 103 62
75 102 62
78 105 65
82 110 67
79 107 66
80 108 67
78 105 64
78 106 66
77 104 63
121 142 133
165 182 190
165 182 194
155 174 184
162 180 192
171 186 197
162 180 189
162 179 191
149 167 174
166 182 193
163 180 188
170 187 198
174 190 204
154 172 181
168 185 197
164 183 196
159 176 186
165 182 196
160 178 187
165 183 194
160 179 190
172 188 200
108 131 115
77 105 64
76 103 62
77 105 64
75 102 62
76 103 63
79 106 65
78 106 65
77 104 64
78 105 65
80 108 66
80 108 66
79 106 65
76 103 63
78 105 65
80 107 66
79 106 65
81 109 66
78 106 65
75 102 61
76 103 63
110 133 116
164 182 194
161 178 188
172 188 200
163 182 193
170 188 200
167 185 199
161 179 188
164 181 191
161 179 189
159 176 187
154 170 175
162 179 188
163 180 188
168 186 199
165 181 189
166 183 195
162 180 192
172 188 197
174 190 204
164 182 194
135 154 154
78 106 64
82 111 68
78 106 65
73 100 60
79 107 65
77 104 64
79 107 66
76 104 64
76 104 63
78 106 65
74 100 61
76 103 63
77 104 63
81 109 67
83 111 69
79 107 65
75 102 62
77 105 64
76 104 63
78 106 64
163 181 195
159 176 184
171 187 199
158 174 183
174 192 208
167 185 195
161 177 187
166 183 195
162 180 189
167 184 196
175 192 208
165 181 191
167 185 198
165 182 194
161 178 190
161 178 187
164 182 194
171 188 202
168 185 197
155 173 183
85 112 74
78 105 64
78 106 65
75 102 62
78 106 65
78 106 65
80 107 66
77 105 64
78 105 63
72 99 60
79 107 66
78 105 65
78 105 64
77 105 64
78 105 64
82 110 68
81 109 67
76 104 63
77 103 64
163 182 191
161 177 187
167 185 199
156 173 180
167 183 194
162 180 192
174 190 203
179 195 207
162 180 189
173 190 204
168 185 198
172 189 200
171 190 207
163 181 192
162 180 191
127 147 141
129 150 145
107 130 116
126 146 140
176 193 208
165 182 193
167 185 198
167 184 196
164 181 192
160 179 190
162 179 189
166 183 194
172 190 204
171 188 204
168 185 197
174 190 203
165 183 194
175 192 208
168 184 194
174 191 206
159 177 186
98 120 100
81 110 68
81 109 68
82 110 68
81 109 68
79 107 66
79 108 67
79 107 66
80 107 65
79 107 66
78 106 65
80 109 68
80 108 66
80 109 68
81 110 68
79 107 66
109 132 114
169 186 199
172 190 204
163 182 192
171 188 199
177 195 211
175 193 209
172 189 202
175 192 205
173 189 203
173 192 208
180 197 215
176 194 210
166 185 200
172 191 208
169 187 202
142 162 161
79 107 65
79 108 66
79 107 66
77 104 64
76 104 64
83 112 70
80 108 67
78 105 64
84 113 70
82 110 68
83 112 70
172 190 207
165 184 199
178 195 211
177 193 207
158 176 185
80 109 67
79 108 67
81 109 67
83 113 70
112 135 117
152 170 178
165 183 192
167 185 199
170 188 201
164 182 195
170 187 200
167 185 197
182 199 216
167 185 196
175 193 208
174 192 207
168 187 201
169 186 199
168 185 197
113 135 124
82 111 70
80 108 67
80 108 67
81 109 67
80 110 69
81 110 68
80 108 67
80 107 66
81 109 68
87 113 78
106 130 112
154 172 179
174 193 207
171 188 200
166 184 195
159 177 185
177 194 209
180 198 216
167 186 199
159 176 185
81 110 68
80 108 66
81 109 66
80 108 66
81 109 67
78 106 65
77 105 64
83 112 70
80 108 66
80 108 66
76 103 62
78 105 64
80 107 65
79 106 66
80 108 67
77 104 64
80 109 67
80 108 67
79 107 66
81 109 68
118 140 124
161 178 189
149 169 173
95 121 91
128 147 143
149 168 170
167 184 194
160 179 189
164 181 193
162 178 189
165 182 194
170 186 198
162 180 191
175 192 207
175 190 203
166 183 194
165 182 196
167 185 198
163 181 190
173 190 202
168 184 194
166 183 193
82 109 71
73 100 59
81 108 66
77 105 64
77 104 64
79 106 65
81 109 66
78 106 65
82 111 68
80 108 67
80 108 66
80 108 66
81 109 68
75 102 61
77 104 62
80 109 67
77 104 64
78 105 64
74 101 61
79 106 65
82 110 68
106 129 111
136 154 154
115 138 126
82 109 73
78 106 64
80 108 65
79 106 65
79 106 65
74 102 62
79 106 64
82 110 67
78 107 65
82 110 68
77 105 63
81 110 68
79 107 66
77 104 63
81 109 68
81 110 69
80 108 66
79 106 65
78 106 66
95 118 95
164 181 191
168 185 198
168 185 196
161 179 191
171 188 201
172 190 204
166 184 196
161 179 189
168 185 197
168 186 200
172 189 201
164 181 191
163 181 194
163 180 190
170 187 200
166 184 196
158 176 183
171 188 199
173 190 204
163 182 194
170 188 202
163 180 190
80 109 67
77 105 64
78 107 66
75 102 62
78 106 65
81 109 68
78 106 66
78 105 64
80 108 67
74 100 60
81 109 68
78 107 65
79 106 68
98 121 99
118 137 129
141 158 159
158 177 184
172 187 200
167 185 198
159 177 186
169 185 193
160 177 186
80 108 67
76 104 64
80 107 65
78 106 64
75 102 62
80 109 67
80 107 66
79 107 66
79 106 65
80 107 66
78 105 64
77 104 63
82 110 69
78 106 66
81 110 67
79 107 66
79 106 65
77 105 65
73 100 60
77 104 62
81 109 67
85 111 77
171 188 202
166 184 195
157 176 186
159 176 183
166 183 195
154 172 182
164 182 193
156 173 179
167 184 194
154 172 179
174 191 206
162 179 188
160 176 186
164 181 192
162 180 190
158 174 184
164 182 192
164 181 190
166 184 197
167 184 197
170 185 195
136 154 152
78 106 65
76 103 64
80 107 65
80 108 66
78 106 65
79 107 65
81 109 67
75 102 62
76 104 63
77 105 64
79 107 65
80 108 66
77 104 63
77 104 63
80 109 67
84 112 69
76 103 62
79 107 65
80 109 67
81 109 67
81 108 69
161 179 187
162 179 191
157 176 188
163 181 194
171 188 201
170 187 200
170 187 200
153 171 179
166 183 194
173 191 203
159 176 183
163 180 190
165 183 194
170 188 202
172 190 202
167 185 196
162 179 191
159 177 183
165 182 193
163 180 191
161 178 188
87 111 83
76 104 63
75 101 61
78 107 65
79 106 65
79 106 63
81 109 68
81 108 67
73 100 60
76 103 62
80 108 67
78 104 63
76 104 64
83 111 69
80 108 67
75 103 62
78 105 65
75 103 63
77 105 64
80 109 67
128 147 142
168 185 196
167 185 200
167 185 198
166 183 193
164 182 193
170 187 200
167 184 196
168 184 193
168 185 198
162 179 190
165 181 195
167 184 196
164 182 194
163 179 189
173 188 201
161 178 186
169 186 199
170 187 199
160 177 187
124 146 137
84 113 71
81 109 66
84 112 70
84 113 71
80 108 66
77 105 63
76 104 63
79 106 65
75 102 63
75 103 62
76 103 63
79 106 65
76 103 63
78 105 64
79 107 65
79 107 66
77 104 64
79 107 66
113 135 119
168 186 200
169 187 197
163 180 191
162 179 189
169 186 199
171 188 204
171 189 202
167 183 194
138 157 154
133 151 151
113 136 119
107 128 113
86 114 76
79 107 66
84 114 72
80 109 67
79 107 66
84 112 75
149 168 173
173 190 203
162 181 191
170 188 199
162 180 189
167 183 195
169 185 196
166 185 197
164 183 194
174 191 205
175 192 206
167 184 196
173 190 203
162 179 190
166 184 196
177 194 210
169 188 202
149 169 175
80 109 67
81 109 68
84 113 71
80 109 68
83 111 69
81 110 67
80 109 67
83 110 67
78 106 66
83 112 69
80 107 66
75 102 62
75 103 63
78 107 66
84 113 70
81 109 66
126 147 140
170 187 199
176 193 209
160 178 186
165 184 198
176 194 210
171 189 206
177 194 207
172 190 205
164 183 194
180 197 213
177 194 210
174 193 210
173 189 203
172 191 207
171 189 203
109 132 115
79 107 66
80 109 67
80 108 66
81 109 68
83 112 70
80 108 65
80 109 67
80 108 67
82 110 67
80 108 66
173 190 203
180 197 213
168 186 201
175 191 204
152 171 176
83 112 70
79 108 67
121 143 130
151 171 175
166 185 198
167 184 194
169 189 202
179 197 215
162 180 190
178 196 210
169 186 200
171 188 202
170 187 199
176 192 205
171 188 201
164 181 192
178 195 210
177 194 209
166 184 197
123 144 133
81 109 68
81 109 67
82 111 68
79 107 65
79 107 66
80 108 66
75 102 62
93 120 92
122 143 133
163 182 192
179 197 216
176 194 209
166 185 197
170 187 201
177 195 212
176 193 206
165 181 190
174 191 204
173 189 200
151 170 176
83 112 69
81 110 68
77 106 65
83 111 68
82 110 67
82 110 67
78 106 64
76 105 65
79 107 66
79 107 65
81 109 68
80 108 66
78 105 64
85 115 72
80 108 66
80 108 66
78 105 64
83 113 70
76 103 62
91 118 86
126 147 139
98 124 95
81 109 67
82 110 69
81 109 67
80 107 66
80 108 66
87 113 82
105 128 106
117 138 126
137 156 157
157 175 181
168 186 197
164 182 192
159 176 186
166 182 194
174 192 206
166 184 196
163 181 193
170 187 200
168 185 195
169 185 198
88 114 84
80 108 66
74 100 60
76 102 62
78 106 66
81 109 68
79 108 66
85 113 70
78 107 65
76 104 64
80 108 66
76 103 63
75 102 61
78 105 64
81 109 67
75 102 62
81 109 66
78 105 65
105 128 109
122 143 137
141 160 163
177 195 209
79 106 65
74 101 61
78 105 64
80 108 66
80 108 67
81 109 67
82 110 68
80 107 66
78 105 64
79 107 66
76 103 63
78 106 64
77 105 64
78 106 65
81 109 68
78 105 65
78 107 66
78 105 64
80 108 67
79 106 66
77 104 64
82 110 70
167 183 195
157 174 183
172 189 203
169 186 199
165 181 192
162 180 189
161 178 187
161 179 190
167 185 199
170 188 199
174 191 206
167 182 192
154 172 179
166 183 195
165 183 196
173 190 206
162 180 189
165 182 192
166 182 193
166 183 195
168 186 198
164 182 194
93 118 90
77 104 64
78 105 63
79 107 66
76 103 63
79 106 65
77 105 64
77 104 64
81 109 70
106 128 112
133 154 150
156 173 180
159 176 185
165 180 190
166 183 196
172 188 201
177 193 206
155 172 181
159 177 189
167 183 194
168 185 195
167 183 193
96 119 96
75 102 62
77 103 63
76 103 63
76 103 63
83 111 68
79 107 65
79 107 66
79 107 66
78 106 65
71 97 59
79 107 65
79 106 65
76 103 63
73 99 59
78 105 64
76 103 63
78 106 65
74 101 60
73 100 60
82 110 68
78 106 66
147 165 170
163 180 191
176 191 204
164 182 196
162 179 189
172 189 202
170 187 201
160 177 187
167 184 194
162 181 194
164 181 193
164 181 190
166 184 195
170 187 196
165 182 192
167 185 198
161 179 190
166 183 195
161 179 190
170 187 200
175 192 206
162 179 187
82 108 74
77 104 64
76 104 63
77 105 65
73 99 60
77 105 64
79 108 67
77 105 65
77 105 65
82 111 68
79 106 64
79 107 65
79 107 65
72 99 59
79 107 66
80 108 67
79 107 66
79 107 65
78 105 64
80 108 66
75 102 62
134 153 150
170 187 200
161 178 190
170 187 200
164 182 192
168 186 200
159 176 186
168 185 196
160 177 184
168 185 197
175 191 205
172 187 196
162 178 190
168 185 200
172 189 201
162 181 192
169 186 200
167 185 199
166 182 192
165 181 192
159 178 188
128 147 146
80 108 66
74 102 63
78 106 65
84 112 70
80 108 66
80 107 66
81 109 67
79 106 65
81 110 68
77 105 64
75 101 61
80 108 67
79 106 65
77 105 64
77 103 66
86 113 77
89 115 83
97 122 96
95 120 95
109 132 116
158 175 182
146 165 169
144 162 166
144 162 162
145 164 165
135 153 151
150 169 173
131 150 148
133 152 152
117 138 128
128 147 140
131 152 150
114 134 123
134 154 152
115 136 124
129 149 143
132 152 148
127 148 141
114 135 122
118 139 130
132 152 150
137 156 154
137 155 158
133 153 151
134 154 154
135 154 151
136 157 155
135 154 152
128 148 144
132 152 151
139 158 157
120 142 132
114 136 123
125 146 140
117 137 127
120 142 132
109 129 112
103 126 107
101 124 101
152 170 174
169 188 200
165 183 193
148 167 171
127 147 141
106 129 109
89 114 82
79 107 66
78 105 64
79 107 66
76 103 64
80 108 67
81 110 67
80 108 65
83 111 69
78 106 65
85 114 71
79 107 66
134 152 146
164 182 194
170 188 201
173 190 205
167 184 197
168 185 197
173 191 204
165 183 197
174 192 207
174 191 204
170 187 200
166 184 196
173 189 200
164 182 192
168 186 198
171 189 204
167 185 196
164 181 193
124 145 137
81 110 68
77 105 64
80 109 67
82 110 69
80 109 68
80 109 67
81 110 68
78 106 65
83 112 69
80 108 66
78 106 65
77 105 64
80 108 66
77 106 66
80 108 67
81 108 69
157 176 184
171 188 201
168 186 199
171 190 204
164 182 193
163 181 193
165 183 195
161 178 187
173 190 204
172 190 203
182 200 220
171 189 203
169 188 202
161 179 188
169 186 198
176 195 209
98 123 97
82 110 68
78 107 66
80 108 67
76 104 64
83 112 70
84 113 70
80 109 68
78 106 64
79 107 66
172 190 206
175 192 207
174 191 204
170 188 200
147 167 174
113 134 122
159 178 185
164 183 195
167 184 196
173 191 204
171 188 200
177 194 210
171 189 201
174 192 207
172 189 201
166 184 198
180 198 213
176 193 208
179 197 213
168 187 199
170 188 205
164 182 192
178 195 210
175 193 206
117 139 125
79 108 67
82 110 68
77 105 64
79 107 65
83 111 69
105 129 110
145 165 166
168 185 196
179 196 212
175 192 207
163 182 193
171 189 202
176 194 209
169 186 196
170 188 203
170 188 200
174 192 207
170 189 204
174 192 207
164 183 192
80 108 66
80 109 67
78 106 64
79 107 66
79 108 66
82 110 68
81 109 67
78 105 65
81 109 68
78 106 64
80 108 66
77 105 65
74 102 62
80 108 66
82 110 67
82 111 68
91 118 88
112 134 121
154 174 180
173 190 205
149 167 169
80 107 65
79 107 66
79 107 65
80 108 66
81 109 67
83 110 68
77 105 65
78 105 63
83 112 70
81 108 66
80 108 66
78 106 65
93 119 86
107 128 111
121 142 133
128 149 144
141 160 163
155 174 179
161 179 189
165 183 196
173 190 200
108 131 117
82 111 68
79 107 66
78 106 65
80 107 65
80 108 66
80 108 67
79 107 66
82 110 68
78 106 64
78 106 65
78 106 65
79 107 66
80 108 68
80 108 66
101 125 102
134 154 153
158 176 186
165 182 193
174 191 205
161 180 191
171 189 202
95 119 92
79 107 65
79 107 66
79 107 66
80 107 66
74 101 60
80 108 66
81 110 68
82 111 69
77 105 65
81 109 67
78 106 65
81 109 68
73 100 61
76 103 63
82 111 69
75 102 62
78 105 65
82 110 68
77 105 64
77 105 64
76 103 63
156 174 181
160 178 190
164 181 191
166 183 195
159 177 187
173 190 204
174 191 207
161 178 189
170 187 199
166 182 191
165 182 193
170 187 200
169 186 197
167 184 196
161 178 188
172 190 204
169 185 197
164 180 189
170 187 199
161 178 188
154 172 181
160 179 190
116 139 126
79 106 65
79 107 66
75 101 62
94 119 92
125 144 141
139 159 160
161 178 185
158 175 185
161 179 190
167 184 194
168 184 195
168 185 199
167 183 194
159 177 189
162 180 191
166 183 195
161 179 189
169 185 199
172 190 206
167 182 192
169 186 199
133 155 152
76 104 63
78 106 65
74 100 61
76 102 62
81 110 68
79 106 65
81 110 68
82 110 68
79 107 65
76 103 64
79 107 66
76 103 62
79 107 66
79 107 66
78 105 64
80 108 66
78 106 65
78 105 64
79 107 66
74 101 60
79 107 65
116 136 125
168 185 199
171 187 198
176 192 207
169 185 197
164 182 193
172 189 203
164 181 191
162 178 188
169 187 200
164 180 190
161 179 191
166 183 192
164 182 193
169 186 199
158 175 187
162 180 190
167 184 197
169 186 196
167 185 197
162 180 191
163 180 191
110 132 120
79 107 66
80 107 66
79 107 65
77 104 63
79 107 67
77 105 64
76 102 62
78 105 65
73 100 61
77 105 64
81 109 66
75 102 63
79 106 65
80 109 67
77 105 64
80 108 67
77 104 64
81 109 68
77 104 64
79 106 64
101 125 103
166 184 199
161 180 190
163 181 191
165 182 192
171 187 200
170 186 199
167 183 195
163 182 195
156 173 181
164 181 191
170 186 199
163 180 191
159 177 187
164 182 192
155 173 179
172 188 199
169 185 198
168 185 194
164 180 190
162 179 187
158 177 187
100 124 103
108 131 115
117 138 128
120 142 133
124 144 135
137 156 155
139 158 156
147 165 168
148 166 169
153 172 179
153 171 178
148 166 170
169 187 201
163 181 193
160 178 188
172 190 204
173 189 201
163 181 192
167 185 198
162 180 190
120 141 134
81 109 67
82 111 69
78 105 64
79 107 65
77 104 64
76 102 62
72 98 58
80 109 68
83 112 70
72 99 60
78 107 65
77 105 64
80 107 66
77 104 63
77 104 63
78 106 65
77 105 64
76 104 63
84 113 70
139 158 160
165 182 193
161 179 189
164 181 193
171 189 203
163 180 188
167 185 197
168 184 195
177 194 209
165 183 198
168 185 196
173 189 202
167 185 199
167 185 199
153 172 181
141 160 162
141 158 158
128 148 142
118 140 127
125 147 139
171 188 204
169 186 201
171 188 199
167 186 199
168 185 197
165 182 192
164 181 192
155 174 182
155 173 182
147 167 169
156 173 178
138 157 154
133 153 148
120 141 129
121 142 132
112 135 116
109 131 113
109 132 115
143 163 166
168 186 197
162 179 188
166 184 194
169 188 202
166 184 197
169 187 200
172 191 205
168 185 197
165 184 198
179 196 212
174 191 206
171 188 202
177 196 215
166 185 196
173 190 203
174 191 206
168 185 197
85 113 72
80 107 65
79 108 67
82 110 67
80 108 65
80 108 67
81 109 67
81 109 67
81 109 67
80 108 66
80 109 68
84 112 70
81 110 68
76 103 62
78 106 64
81 110 68
106 128 106
176 194 209
167 185 197
176 192 206
169 188 201
161 180 193
163 180 191
175 191 205
171 190 205
172 189 203
168 186 200
171 188 201
162 181 192
176 192 206
169 187 201
170 187 198
155 174 180
78 106 66
80 108 67
86 116 72
75 103 63
80 108 66
79 108 67
78 105 64
82 111 69
79 106 65
164 183 196
171 189 202
176 193 207
131 153 148
152 171 171
175 192 205
174 192 206
176 193 208
170 188 198
178 196 213
173 191 205
177 195 210
168 186 198
166 184 195
169 185 197
166 184 195
166 186 200
173 191 206
159 178 188
165 183 193
172 189 203
166 184 196
167 184 195
166 184 196
110 134 116
80 108 66
80 109 67
86 114 74
124 147 137
159 177 186
172 190 204
179 196 212
166 184 195
172 191 204
182 199 217
175 193 208
166 183 195
162 180 190
164 182 193
170 190 205
161 179 192
175 192 207
176 193 206
165 181 190
148 166 168
82 110 68
77 105 64
78 106 66
81 110 68
79 107 66
76 104 64
79 107 66
81 110 68
79 106 65
80 108 65
79 107 65
82 110 69
77 105 64
82 111 68
110 132 116
143 162 165
166 183 197
173 192 207
174 191 205
170 187 199
157 176 180
80 108 66
81 110 67
78 107 66
81 110 68
78 105 64
79 108 66
79 107 66
80 108 67
81 109 67
80 108 66
77 104 63
78 106 65
79 108 67
78 106 65
84 113 70
81 109 68
80 109 67
81 109 67
83 108 75
87 114 81
109 132 116
132 151 145
120 141 129
112 133 119
90 115 89
79 107 65
77 105 64
80 108 66
74 101 62
76 104 63
80 107 66
78 106 64
82 110 68
110 132 117
142 161 162
166 183 194
164 180 188
169 187 199
174 190 205
168 185 196
160 178 191
174 191 205
171 188 201
100 124 96
73 100 61
79 108 67
73 100 60
81 109 67
79 106 64
78 105 65
81 110 67
76 103 63
81 110 68
81 109 67
76 105 64
79 108 65
80 108 67
79 107 66
80 109 67
75 101 61
78 106 65
83 111 69
77 104 63
78 105 65
81 109 67
144 163 161
170 186 198
165 182 192
161 179 191
162 181 188
178 194 207
161 178 189
170 187 202
175 192 205
172 190 206
166 183 195
164 182 191
168 185 198
164 182 189
165 183 196
173 190 203
168 185 197
166 183 193
166 183 194
156 172 180
176 192 205
170 189 203
137 155 153
111 132 122
145 164 164
151 170 177
164 181 192
169 187 203
172 188 203
174 191 205
167 185 200
163 180 189
169 187 199
163 180 192
167 184 196
162 180 190
170 187 199
164 181 191
164 181 193
166 183 193
161 178 185
177 193 208
155 173 179
165 183 195
148 166 170
77 104 63
80 109 67
81 109 67
82 110 68
81 109 67
78 106 65
80 107 66
80 108 65
81 109 67
82 110 68
77 105 64
78 106 64
78 106 65
76 104 64
79 107 65
75 101 60
78 106 65
80 108 68
79 106 65
77 104 64
76 103 63
82 108 74
165 183 194
172 190 206
167 185 199
171 188 203
167 185 197
162 178 186
169 186 200
170 185 196
173 190 203
162 180 192
163 181 193
161 177 186
170 188 204
165 183 192
166 182 192
165 184 197
165 182 193
172 188 199
162 180 191
172 189 202
166 183 193
146 164 170
78 105 64
78 106 65
80 109 67
77 104 63
79 107 66
79 107 65
79 106 64
82 111 70
78 105 64
77 105 64
77 105 65
78 105 63
79 107 66
76 102 61
76 103 62
75 101 61
77 105 65
77 104 63
78 106 65
79 106 65
73 99 60
146 165 168
168 185 198
160 177 186
160 178 187
164 182 192
157 174 183
167 183 194
164 182 194
153 171 179
158 176 183
146 163 164
140 161 162
129 149 144
119 140 131
111 133 117
108 129 118
102 125 105
82 106 75
80 106 70
77 105 65
77 105 64
146 164 163
163 181 192
162 179 188
171 188 200
162 181 192
174 191 205
175 192 206
171 187 200
168 186 197
167 183 194
165 182 193
169 186 199
172 189 201
161 179 189
171 190 203
171 188 203
162 180 188
164 181 193
171 189 202
163 179 189
160 177 186
80 108 66
81 109 67
77 105 64
76 103 63
82 110 68
76 104 64
78 106 65
79 107 66
75 102 63
82 110 68
76 104 63
76 103 63
82 110 67
77 105 64
79 107 66
80 108 66
78 106 66
75 102 61
80 109 67
95 118 95
159 177 187
170 187 198
170 189 202
168 187 200
167 184 195
162 179 189
166 185 197
159 178 185
144 162 162
129 149 144
121 142 135
102 125 107
82 110 74
81 108 66
78 106 65
83 112 70
82 109 67
73 100 61
76 103 63
158 177 186
165 183 192
168 185 199
170 186 197
160 178 186
167 186 200
160 178 190
170 188 203
172 191 205
169 187 200
175 193 207
181 197 214
167 183 193
174 192 205
167 185 199
167 183 195
169 186 200
164 182 195
141 159 161
85 113 72
82 109 72
88 112 86
109 131 114
112 134 119
124 144 136
119 140 130
125 146 142
135 156 154
143 162 167
163 181 190
160 178 186
169 187 200
175 193 209
170 188 203
175 193 212
170 187 197
142 162 162
78 106 64
79 107 65
78 106 64
77 104 63
82 111 69
79 107 66
80 108 66
80 108 68
83 113 71
81 110 69
81 109 68
82 110 69
85 114 71
82 110 68
79 108 67
80 109 67
137 157 154
180 198 213
167 185 196
174 192 208
170 188 200
174 192 207
165 183 195
178 196 213
168 186 200
175 193 210
179 197 214
173 190 204
174 192 208
176 194 210
167 185 198
182 199 215
121 143 132
80 109 67
81 110 68
79 107 66
80 109 68
78 106 65
82 111 69
83 112 70
79 106 65
171 188 203
146 166 169
96 123 93
83 113 71
142 162 162
185 202 220
176 194 208
172 189 203
170 188 202
175 191 206
179 197 214
179 196 211
171 189 202
180 197 211
168 187 201
176 194 210
173 192 207
168 186 199
168 186 198
172 190 204
168 186 199
175 192 207
170 187 199
170 187 199
100 125 98
94 121 92
126 148 140
161 178 189
170 187 202
175 191 206
170 188 202
171 188 200
170 188 202
170 188 203
171 189 204
171 190 207
172 190 203
168 186 198
159 177 185
167 185 199
171 188 200
174 191 206
162 179 189
164 183 194
150 167 170
80 107 66
80 108 66
84 113 71
81 110 68
80 108 66
77 105 64
77 104 63
80 108 66
78 106 65
83 111 69
82 111 68
93 118 93
135 156 153
156 173 182
175 193 207
168 185 198
173 191 206
166 184 197
163 182 194
165 183 195
158 175 183
82 110 68
82 111 69
80 108 67
80 107 66
79 107 66
80 108 66
83 111 69
78 107 66
80 108 67
82 111 68
78 104 64
78 106 65
75 102 62
78 106 66
83 111 69
79 107 65
80 108 67
80 107 66
80 108 67
78 105 65
84 112 70
153 172 179
172 190 205
164 180 189
165 182 195
167 185 196
156 174 182
151 170 175
135 155 154
125 144 137
91 117 88
128 150 143
153 170 177
163 181 192
165 182 194
176 194 211
154 172 180
172 188 201
179 197 214
162 180 188
162 180 189
172 189 203
170 186 198
122 143 131
78 105 64
80 108 67
78 107 66
77 105 64
80 107 65
78 106 65
77 105 65
77 104 63
78 106 65
77 104 63
81 108 67
78 106 65
76 103 62
78 106 63
80 108 66
81 109 67
77 105 65
72 98 59
77 104 64
74 101 61
77 105 64
135 154 153
166 182 192
164 184 196
161 178 187
169 186 198
168 184 195
159 176 185
165 182 190
172 189 201
164 181 190
169 186 198
161 178 185
166 184 198
167 185 198
169 186 197
166 183 191
161 178 188
161 179 189
161 177 183
133 151 150
122 144 132
82 106 76
105 128 108
172 189 203
152 167 174
166 184 198
166 183 193
164 180 191
159 176 183
169 187 201
165 182 191
169 186 198
164 181 192
176 192 206
169 187 200
163 181 191
161 178 186
164 181 191
167 185 196
173 190 203
167 185 197
154 171 181
174 192 209
178 195 210
160 178 187
86 112 80
75 102 61
81 108 66
81 109 67
79 107 66
77 104 63
84 113 70
76 103 61
83 112 70
82 110 67
77 104 64
82 110 68
78 105 64
78 105 64
75 102 61
77 105 65
74 102 62
77 104 64
82 111 69
80 108 67
79 107 66
80 108 66
157 176 185
160 176 184
173 190 205
163 180 190
173 190 205
174 192 207
168 186 200
166 182 196
162 180 190
156 175 181
164 180 191
171 189 203
161 179 188
167 185 196
164 181 193
162 179 191
170 187 198
167 183 194
173 190 203
166 184 196
166 184 197
161 178 188
86 112 79
75 101 61
79 106 66
75 103 64
75 102 62
78 106 64
80 108 66
80 108 67
79 107 65
79 106 65
81 109 66
77 104 63
77 104 63
82 111 68
77 104 64
80 107 66
75 102 63
80 108 66
78 105 66
84 110 77
106 129 112
141 159 161
142 162 164
129 150 145
128 148 139
104 126 106
102 126 103
92 118 88
78 105 65
79 107 65
74 100 59
73 100 60
80 108 66
77 105 64
75 103 62
84 113 70
74 101 61
79 106 65
79 106 64
77 104 63
77 105 64
77 105 64
102 125 102
168 186 199
166 183 192
171 188 200
161 179 188
161 180 189
163 180 189
160 178 189
173 191 206
167 185 196
159 177 187
168 187 202
169 186 201
167 185 197
171 189 202
169 186 200
162 180 193
173 191 207
170 186 197
175 192 206
166 183 193
114 137 125
77 105 65
77 104 63
77 104 63
83 111 69
79 106 65
80 108 67
80 108 67
78 105 64
77 106 65
81 109 67
77 103 62
81 109 68
80 108 67
78 106 65
83 111 69
81 109 67
83 112 70
92 118 86
98 122 97
141 161 160
134 154 152
121 142 133
114 135 121
88 112 84
84 111 77
80 108 66
79 106 65
77 105 64
78 106 65
75 102 62
79 107 66
76 104 63
80 108 66
82 109 66
81 110 69
76 104 63
81 110 69
80 108 67
113 136 124
165 182 192
166 183 195
171 188 200
162 180 191
167 184 195
174 192 208
166 183 195
168 185 198
165 183 195
166 185 198
171 189 203
171 189 201
175 192 206
172 189 202
172 188 201
170 188 202
173 190 202
159 177 188
114 136 124
78 106 65
81 109 67
78 106 65
83 112 69
80 107 66
78 105 64
79 106 66
84 113 71
77 105 64
79 108 66
79 107 66
84 112 72
88 114 82
109 132 113
120 141 131
130 152 148
137 157 158
112 135 122
111 134 118
87 114 81
81 109 67
83 112 70
81 110 68
78 106 65
79 107 65
79 108 67
80 109 67
80 108 66
84 113 70
80 109 67
82 111 68
79 107 66
85 115 72
91 118 85
166 185 195
167 185 199
173 190 203
173 191 208
171 189 204
167 184 194
170 188 204
167 185 197
172 190 204
171 189 205
168 187 200
171 189 203
177 194 207
171 187 200
171 189 200
172 189 200
98 125 97
82 111 68
79 107 67
81 109 68
82 110 67
79 108 66
80 109 67
82 111 69
101 128 100
80 109 68
81 110 69
78 105 65
141 160 160
166 185 195
174 193 208
169 186 198
175 193 209
174 191 206
166 185 199
173 191 207
163 181 192
175 193 208
167 185 197
181 197 213
169 187 200
175 193 209
182 199 215
180 196 212
165 183 193
169 187 198
166 185 196
160 178 186
141 161 163
166 183 194
176 195 212
172 189 203
162 181 189
174 191 205
169 186 199
173 191 207
168 186 200
174 192 207
171 189 202
174 191 206
173 191 204
172 190 203
175 193 209
175 192 208
166 184 199
178 195 211
175 193 208
166 183 195
144 164 168
82 111 69
79 107 65
81 108 66
80 108 67
78 106 65
76 103 62
79 107 65
74 101 62
83 111 73
110 133 113
160 180 189
172 189 202
169 187 201
170 188 200
175 192 207
174 191 204
174 191 206
172 188 202
173 190 202
171 188 202
167 185 198
84 112 70
83 112 69
74 101 61
77 105 63
82 109 68
80 108 67
79 108 67
80 108 67
78 106 65
79 107 65
82 111 68
80 109 66
79 107 65
77 105 65
79 107 65
79 108 67
81 110 67
80 108 67
81 110 69
78 105 64
80 107 66
126 146 138
175 193 208
170 187 198
169 186 198
172 191 207
163 180 188
151 170 174
124 146 135
91 116 84
77 105 64
86 114 71
80 109 67
92 117 86
95 121 98
110 133 118
126 147 142
145 164 165
139 160 161
148 166 169
152 170 177
173 191 204
166 183 193
139 157 160
81 110 68
78 105 65
78 107 66
78 106 65
82 111 68
76 104 64
79 106 64
80 109 68
81 109 67
76 104 63
81 109 67
81 109 68
80 108 66
80 108 67
81 109 67
78 106 65
78 106 64
78 106 66
81 109 67
84 112 69
74 101 62
97 121 96
171 188 201
172 188 201
171 189 201
162 180 194
173 191 207
162 180 188
166 183 195
165 182 192
170 186 199
167 184 197
164 182 195
165 181 191
170 188 202
154 173 181
129 148 142
120 142 130
89 113 84
78 106 65
79 106 65
82 110 68
77 105 65
83 110 72
163 181 192
175 192 207
168 186 200
169 186 196
170 187 199
159 177 184
167 185 200
171 189 204
172 189 201
168 185 197
157 176 186
168 184 195
170 188 202
175 191 206
162 179 188
166 183 195
171 188 201
173 190 205
161 178 191
162 180 189
165 181 190
164 181 193
104 128 106
79 107 66
81 109 66
76 102 62
79 106 65
78 106 66
81 109 67
78 106 65
81 108 66
75 102 62
78 106 66
81 109 67
79 106 65
82 110 67
84 112 70
80 107 66
79 107 65
76 104 63
81 109 67
78 105 65
76 103 63
75 102 61
127 147 140
170 187 200
158 176 187
159 176 184
170 189 204
166 183 192
171 189 202
160 177 186
170 187 201
158 176 184
163 180 191
167 184 196
161 178 186
159 178 186
169 185 195
164 181 191
163 181 189
162 180 191
170 187 200
164 182 193
168 185 195
160 178 188
125 145 137
78 106 66
76 104 63
82 110 69
77 105 64
72 99 59
77 104 63
83 111 69
75 102 63
80 109 68
84 110 78
104 128 108
115 136 126
113 135 124
142 160 160
142 160 160
146 166 169
154 172 178
165 182 192
168 184 195
164 182 192
163 180 193
86 113 79
79 107 66
80 108 67
78 105 64
76 104 63
80 107 66
77 105 64
78 105 65
81 109 67
77 104 63
79 107 66
80 109 67
75 102 61
78 106 66
79 107 66
76 103 63
80 108 67
80 108 67
74 101 60
75 104 64
79 107 66
159 177 184
168 185 196
162 179 191
167 183 194
174 192 206
177 194 209
177 192 208
164 180 186
167 184 195
171 189 201
161 179 189
173 191 206
174 191 206
173 190 202
177 194 209
173 189 202
174 192 208
169 187 200
171 189 201
172 189 203
160 179 190
78 105 64
83 112 69
78 106 65
80 108 66
79 106 65
80 107 66
80 108 67
77 104 64
80 107 68
93 118 87
101 126 104
113 136 123
118 139 129
144 162 161
137 155 156
154 173 178
165 182 191
173 189 203
162 180 191
162 180 193
83 110 71
80 108 66
80 108 67
77 104 63
80 109 68
81 109 67
78 105 64
80 107 66
78 106 64
80 107 65
83 112 70
82 110 68
79 107 65
79 107 67
82 111 69
80 108 66
78 106 65
79 107 66
80 108 67
155 174 178
166 183 195
167 184 195
171 188 201
155 173 179
170 188 202
160 178 188
168 185 198
169 186 200
168 186 198
170 188 200
156 175 185
170 188 201
172 189 203
167 184 196
164 182 191
163 181 192
168 185 197
166 184 195
77 105 63
79 107 65
82 110 69
79 107 66
81 110 68
83 111 68
81 109 67
77 104 63
81 109 68
83 112 69
77 105 64
80 108 67
77 105 65
79 107 66
80 109 67
80 108 67
82 111 68
102 127 104
172 189 204
166 184 196
165 183 194
168 186 198
151 169 176
140 159 160
132 150 145
122 143 134
102 124 107
91 117 89
81 109 67
78 106 65
83 112 70
83 112 70
77 105 65
80 108 66
121 143 132
176 194 211
174 192 205
174 193 208
174 192 207
172 191 205
177 193 207
174 190 203
169 187 202
169 188 201
175 192 209
170 188 202
173 191 207
166 184 196
175 193 207
174 192 204
153 172 179
85 113 73
81 110 68
80 109 68
81 111 69
81 110 68
83 111 70
82 110 68
81 110 68
80 109 68
83 112 69
81 109 67
152 172 176
172 189 201
173 190 206
170 188 200
166 185 197
175 193 207
170 189 205
167 185 198
175 192 207
176 194 209
171 189 202
166 185 197
174 190 204
180 198 217
171 189 205
170 187 200
176 194 211
157 176 185
131 153 148
87 116 77
165 183 193
165 184 197
169 187 199
176 194 208
177 194 208
174 192 207
171 188 203
170 188 203
168 185 196
172 189 203
180 198 214
178 195 211
170 188 201
161 178 185
176 195 214
163 181 192
172 189 203
174 191 205
173 190 203
166 184 196
153 172 179
82 111 69
80 109 68
82 110 68
79 107 67
83 111 69
83 112 68
98 124 97
131 152 150
159 177 186
166 183 194
171 188 202
170 187 202
163 180 192
165 183 197
169 188 202
167 185 200
157 174 181
166 185 196
177 193 207
166 183 193
169 186 199
77 105 65
80 107 66
81 109 67
81 109 67
82 110 69
79 107 65
78 106 65
83 111 69
78 106 64
80 108 66
80 107 66
80 109 67
82 111 69
81 110 68
79 106 65
79 107 66
76 103 63
81 109 67
77 104 65
81 110 69
77 105 64
116 137 125
170 189 203
172 189 202
153 169 173
126 148 138
85 110 75
80 108 66
77 105 64
79 107 66
79 108 66
80 108 67
79 107 67
79 106 65
81 109 68
79 107 66
77 105 65
80 109 67
77 105 65
81 109 68
80 108 66
86 112 77
102 125 105
117 138 126
149 168 173
141 160 161
129 149 148
116 136 122
104 128 108
92 118 86
78 105 64
80 109 68
80 108 66
79 107 66
83 111 69
82 110 67
81 110 68
83 111 69
79 107 65
78 106 65
81 108 66
81 109 67
77 105 64
74 101 61
80 108 66
98 122 95
173 190 204
161 179 188
172 191 209
162 180 191
166 183 192
167 185 197
165 182 192
171 189 203
171 188 200
159 177 184
130 149 147
113 136 123
89 115 83
81 109 67
80 107 66
75 102 62
79 107 67
79 108 67
78 105 64
79 107 66
74 101 61
79 107 66
162 179 187
168 185 197
171 187 199
168 186 201
167 183 191
168 185 197
176 193 208
167 184 199
159 177 186
168 185 198
163 180 190
163 181 192
171 189 201
171 188 201
163 181 192
170 187 195
164 182 192
172 189 203
176 192 207
164 181 191
169 187 200
172 190 203
140 159 159
77 105 64
81 108 66
78 106 65
78 106 65
75 102 62
80 107 65
78 106 65
82 111 69
78 105 64
77 105 64
79 106 65
77 105 64
78 105 64
79 107 66
77 104 64
78 105 65
78 106 65
83 111 68
79 107 66
79 106 64
81 109 67
109 132 117
162 179 190
166 184 194
159 176 185
167 183 195
168 187 201
162 179 188
169 186 198
175 192 206
170 188 200
169 187 201
170 189 203
169 185 196
172 188 202
165 182 194
161 178 188
166 184 198
168 186 200
166 184 195
169 186 197
167 185 197
170 188 203
160 177 183
77 105 64
79 106 65
102 126 106
105 127 110
111 132 116
127 148 143
148 167 168
156 174 180
160 178 186
166 184 196
164 183 196
164 180 191
173 190 203
168 185 198
170 187 200
169 186 197
160 178 189
170 185 195
173 191 206
170 187 201
170 187 200
132 152 146
79 107 66
79 107 66
79 107 66
76 103 63
79 107 66
79 106 65
77 105 64
76 104 63
81 109 68
79 107 65
76 103 63
73 99 59
75 103 62
77 105 63
76 103 63
82 110 68
79 107 65
77 104 63
74 100 61
81 109 67
118 139 128
175 192 205
170 187 202
169 187 198
165 182 195
165 181 188
171 189 203
164 182 196
169 186 199
168 185 198
169 187 200
169 187 199
164 181 193
166 184 194
159 177 188
176 193 206
173 190 205
171 188 203
167 184 196
162 178 185
161 180 189
111 132 119
104 126 105
112 135 122
134 155 152
139 159 159
150 168 172
150 167 173
151 168 174
166 183 195
167 185 197
168 185 196
170 188 203
162 180 193
162 181 191
178 195 209
162 180 189
167 185 196
160 177 185
166 184 197
175 192 209
122 144 133
76 104 63
80 108 67
81 109 67
83 111 69
76 103 63
78 105 64
79 107 65
78 105 64
84 113 70
79 107 65
79 107 66
77 106 64
80 108 68
82 110 68
81 109 68
75 103 63
80 107 66
81 109 67
89 116 84
173 192 207
171 187 201
169 186 197
165 182 194
167 185 196
166 184 196
169 187 201
167 184 196
167 185 198
166 182 193
170 188 203
170 188 200
168 185 196
166 184 195
169 187 201
169 186 197
171 188 202
170 186 198
130 152 147
82 111 69
82 110 68
77 104 64
75 102 61
80 108 67
80 108 67
81 109 68
79 107 66
80 109 67
79 107 65
80 109 68
79 107 65
81 109 68
81 110 68
79 106 64
79 108 66
80 108 66
145 165 168
167 186 198
170 189 201
172 189 203
169 188 202
168 185 196
168 186 199
178 195 211
175 192 206
169 187 200
178 195 209
142 162 164
153 171 177
130 152 145
123 145 136
108 132 117
101 128 98
144 163 166
165 185 200
177 194 208
167 186 201
168 186 199
173 190 204
176 193 208
172 189 203
176 194 208
175 193 206
168 186 201
178 196 213
166 185 198
171 189 203
162 180 191
174 193 210
121 144 131
83 111 69
80 107 66
84 112 70
84 113 71
84 114 71
81 110 68
83 113 70
81 110 69
81 110 68
82 112 70
155 173 176
172 190 204
171 189 206
169 185 193
169 186 198
178 195 212
180 197 213
166 185 199
178 195 211
168 186 200
172 190 206
172 190 205
181 198 214
167 185 197
175 192 205
149 168 170
111 133 120
79 107 65
85 114 71
82 111 68
169 186 199
170 188 201
172 189 202
175 192 207
168 186 199
164 182 194
169 188 203
177 194 209
166 185 198
175 192 206
172 190 204
172 190 205
178 196 212
177 196 214
177 194 211
173 191 206
178 196 211
180 197 214
171 188 199
176 192 206
155 174 181
82 110 68
80 110 68
84 113 70
83 111 72
113 136 124
148 167 168
169 187 200
166 183 195
176 194 209
183 200 218
171 188 199
166 182 192
174 191 205
167 184 197
173 191 206
167 184 199
164 181 191
165 183 193
168 184 195
165 184 195
169 188 201
81 109 68
77 105 64
80 108 67
78 106 65
77 105 64
83 112 70
79 107 66
83 112 70
82 110 68
81 109 67
83 112 69
81 110 68
80 108 66
77 105 64
79 107 65
79 107 66
79 107 65
82 111 69
82 110 68
80 108 67
81 109 68
121 142 132
125 145 136
86 111 81
80 108 66
82 111 68
82 110 68
80 107 66
84 112 69
80 108 67
78 105 63
80 108 67
81 109 68
77 105 63
79 106 65
75 102 62
74 101 61
80 109 67
80 108 66
82 111 68
76 103 62
78 106 65
75 101 61
110 133 114
163 182 196
166 183 195
177 194 208
166 184 195
174 191 202
160 178 189
172 188 201
165 183 194
149 167 170
154 172 179
143 163 168
140 159 160
130 150 144
128 148 145
113 136 124
96 121 94
96 118 96
81 108 70
71 98 58
80 108 66
76 104 63
79 107 65
155 174 183
163 181 192
171 188 201
175 192 206
168 186 198
161 180 191
141 159 158
127 148 140
89 114 85
78 105 64
83 112 70
81 110 68
76 103 63
81 109 68
78 105 64
79 107 66
78 106 65
78 106 65
79 107 66
77 105 64
76 104 63
77 104 64
146 165 167
161 180 192
169 186 200
172 190 203
169 186 197
169 185 199
169 186 200
165 183 192
168 186 199
168 185 196
166 184 195
165 182 194
176 193 209
178 195 210
169 187 199
167 185 196
172 189 203
176 193 208
162 180 192
161 178 188
167 184 197
170 186 200
153 171 177
79 106 65
76 103 63
78 105 64
74 101 61
79 107 65
75 102 62
78 106 64
80 108 67
80 108 66
74 101 61
76 103 63
80 108 66
79 107 66
81 109 68
82 111 68
78 106 65
79 107 67
78 106 65
78 106 65
77 105 64
77 105 64
82 110 71
163 180 189
178 195 211
170 188 202
162 179 188
165 183 193
170 188 201
158 176 183
168 184 196
170 187 200
176 194 208
170 187 198
173 191 206
172 189 200
173 189 201
173 188 201
171 187 199
173 190 203
160 178 188
149 168 172
135 156 153
136 157 158
121 142 132
150 168 169
164 182 196
163 181 191
169 185 196
159 177 187
160 178 187
167 184 197
159 177 186
157 175 184
175 193 208
170 188 199
163 181 194
167 183 193
174 191 205
166 185 197
172 190 205
169 186 198
162 179 189
167 184 197
176 193 208
168 186 197
154 172 179
79 106 64
76 103 63
81 109 67
78 105 65
80 109 67
84 112 69
82 111 69
82 110 68
80 109 67
76 103 63
79 107 65
82 110 68
76 103 63
77 105 64
77 104 64
79 108 66
79 107 66
79 107 66
79 107 64
77 104 63
81 108 69
166 183 197
173 190 203
171 189 201
169 186 196
169 186 198
168 186 199
166 184 196
161 178 187
165 182 193
160 177 183
149 167 171
142 161 162
128 148 145
140 160 161
122 144 135
113 137 124
110 132 115
113 135 117
88 115 82
84 113 70
121 142 129
165 182 191
164 182 195
169 186 198
169 186 197
166 184 197
178 193 207
170 188 201
166 183 195
171 187 201
163 180 193
168 186 198
166 183 194
172 190 204
166 183 197
169 187 198
170 187 199
162 180 190
162 178 186
175 192 209
167 185 199
82 110 67
79 107 65
87 115 72
84 112 70
81 109 68
75 102 62
78 107 65
80 108 67
77 105 65
81 109 68
80 109 67
80 109 67
81 109 67
81 109 67
81 110 68
77 104 64
76 103 63
85 115 72
81 110 69
143 161 160
173 190 205
170 187 200
168 186 199
173 189 202
174 192 205
168 185 197
179 197 215
172 190 205
168 184 195
159 177 186
177 194 208
167 185 196
174 191 207
169 188 203
166 182 194
172 188 201
172 190 205
157 174 180
100 124 103
78 105 65
78 105 65
81 110 68
77 104 64
81 109 67
82 111 69
85 114 71
77 105 64
80 109 67
78 106 65
77 105 64
83 111 68
77 104 63
82 111 69
80 109 67
77 105 65
95 121 92
167 186 199
170 186 200
156 174 181
169 187 202
166 184 198
167 185 197
171 189 204
182 200 217
170 188 199
164 182 192
180 197 213
168 186 199
172 189 203
168 186 197
167 184 197
183 200 219
164 182 196
120 141 132
118 140 125
135 156 152
142 161 161
167 185 197
172 190 202
174 193 209
168 186 196
174 192 206
164 182 192
162 180 193
167 185 196
174 192 208
173 191 207
172 190 203
167 186 199
95 121 91
80 107 66
82 110 68
82 111 70
80 108 67
82 110 67
79 107 66
81 110 68
80 108 66
85 114 72
171 189 204
178 196 211
164 183 194
172 190 205
178 196 212
169 187 198
169 187 202
173 190 203
170 189 202
168 186 196
171 188 199
175 192 208
170 188 204
141 161 159
99 124 98
79 108 66
76 104 64
81 109 67
85 114 71
83 112 70
172 189 201
176 194 211
179 197 214
174 192 207
170 189 203
170 187 199
171 190 205
172 190 205
176 194 213
174 192 206
172 189 202
172 189 201
165 184 196
177 195 209
169 186 197
171 188 203
175 192 206
173 190 205
173 190 205
166 184 196
154 174 180
84 112 69
99 125 93
140 160 158
166 184 196
169 187 202
166 184 197
178 195 209
166 185 196
165 183 194
176 193 209
175 193 208
171 189 204
171 188 199
173 192 209
169 187 200
162 179 189
167 185 199
168 187 200
171 189 203
169 186 199
170 187 201
83 110 76
77 105 64
80 109 66
80 109 68
81 108 66
81 110 68
80 108 66
80 107 65
79 107 65
81 109 67
84 112 69
79 107 66
82 111 69
81 110 68
74 102 62
75 103 62
81 109 67
76 103 65
101 124 102
142 161 162
167 185 198
155 174 181
80 109 67
81 109 67
79 107 66
82 111 69
77 104 63
74 101 62
78 106 66
76 102 62
82 111 69
76 104 64
75 102 61
80 109 68
80 108 67
78 105 64
80 108 67
77 104 63
83 112 70
76 103 64
77 105 64
80 108 66
78 107 66
94 121 90
177 193 207
162 179 189
169 187 202
169 185 198
168 185 198
174 191 206
163 182 193
167 183 195
164 182 192
172 189 202
155 173 179
164 182 193
172 190 204
160 178 187
169 186 198
169 187 201
168 186 199
170 187 201
161 178 190
157 176 184
150 168 174
154 173 179
134 154 153
133 153 149
151 170 176
160 177 186
144 163 164
115 137 123
99 123 100
99 124 99
83 110 76
78 105 64
84 112 69
80 108 67
80 108 66
80 108 66
79 106 65
77 104 64
82 110 67
78 107 66
80 109 67
79 107 65
80 109 67
81 110 68
111 131 119
163 181 191
172 189 203
162 181 191
170 187 198
171 188 199
172 190 205
167 184 197
174 191 206
173 190 206
166 184 198
173 191 206
164 182 195
168 186 200
165 183 195
162 180 189
171 189 204
178 195 210
163 182 194
174 191 206
166 184 198
153 171 177
163 181 192
94 120 93
78 106 64
81 109 68
78 106 65
81 109 67
77 104 64
78 106 65
77 104 63
81 110 67
79 106 65
81 109 67
79 108 67
76 104 64
75 103 63
81 110 68
83 111 69
83 111 68
79 107 66
77 104 64
83 112 70
80 109 67
82 110 68
142 161 165
166 183 194
176 194 209
165 184 196
171 188 200
167 185 198
163 181 193
166 183 192
167 185 195
161 179 190
163 180 188
155 174 182
145 165 167
129 149 143
110 133 117
100 123 102
86 112 76
82 110 67
79 107 66
80 108 66
78 105 64
79 107 66
131 151 147
166 183 195
170 189 203
169 186 199
175 190 204
169 186 198
165 182 194
169 186 196
167 185 197
168 185 198
164 181 192
164 182 192
162 179 191
173 190 204
164 183 195
164 183 194
167 184 197
164 182 194
159 178 189
169 187 199
166 183 196
167 184 195
97 122 94
80 108 67
79 108 66
81 110 68
79 107 65
80 109 67
81 110 68
79 108 67
78 105 64
76 104 63
81 108 66
81 109 67
78 105 63
80 107 65
77 105 64
82 111 69
89 115 82
89 114 79
102 126 104
103 127 105
110 133 117
135 155 152
132 150 147
129 151 147
124 147 141
112 135 121
100 124 103
91 116 88
85 112 79
80 108 66
80 108 66
79 107 66
80 108 67
80 109 66
79 107 66
82 110 68
81 108 66
79 106 64
79 107 66
79 107 64
76 103 63
79 107 66
161 178 188
175 191 206
162 180 191
172 190 204
167 185 196
168 187 200
172 190 205
173 192 208
168 187 199
172 188 201
163 181 191
169 186 200
164 182 190
167 186 199
164 182 193
170 187 202
171 188 204
164 182 193
169 187 200
169 187 202
123 145 136
80 108 66
79 106 65
80 107 66
80 109 67
80 108 66
79 106 66
80 109 67
79 107 65
79 106 66
83 112 69
79 107 65
78 106 64
78 105 64
82 111 68
81 110 68
78 107 66
80 108 67
77 104 64
101 126 98
174 191 202
176 193 206
168 187 200
174 192 207
169 186 200
169 187 198
173 191 205
175 192 207
170 187 201
166 184 196
160 177 186
169 186 197
164 182 193
166 184 196
171 188 202
172 190 203
168 184 196
177 195 211
146 165 167
82 111 69
77 104 62
78 106 65
78 105 65
82 110 68
80 108 66
81 110 68
80 107 66
81 109 68
80 108 67
78 106 65
81 109 67
79 107 66
82 111 69
84 112 70
80 108 66
79 106 65
127 148 140
173 190 203
166 183 195
169 188 202
179 196 212
167 185 196
177 195 212
163 181 190
168 186 200
172 190 205
170 188 200
173 191 206
170 188 201
176 194 207
169 187 200
174 191 204
169 187 201
145 165 166
81 110 68
78 106 65
81 110 67
85 114 71
83 111 68
106 130 109
124 146 139
149 168 168
148 167 171
164 182 195
172 189 202
172 190 204
172 189 201
165 184 197
177 192 205
150 169 175
85 113 70
82 111 69
81 109 67
78 107 66
80 109 68
84 114 72
83 112 68
80 109 68
80 107 67
172 189 201
163 181 192
165 183 194
178 194 210
177 195 210
172 190 206
173 190 205
168 186 200
179 197 213
179 196 210
163 181 190
124 146 137
101 125 101
86 115 72
82 112 70
82 110 68
77 105 65
81 109 68
81 110 69
83 112 70
175 193 209
178 195 213
168 187 199
180 196 212
169 188 200
177 194 208
173 190 205
171 190 204
175 193 205
168 186 199
175 192 205
167 186 197
164 181 191
176 193 210
179 197 214
175 193 208
171 188 202
171 189 203
172 189 202
178 195 212
154 172 178
142 161 166
172 189 201
173 190 205
166 184 194
176 192 207
162 180 192
173 190 203
177 195 213
170 187 200
169 187 202
174 191 205
170 186 199
163 182 196
176 193 207
175 193 210
173 191 204
174 191 205
164 182 193
175 192 208
182 198 214
183 200 216
94 120 88
83 113 70
78 105 65
79 108 66
84 112 70
83 112 70
83 113 70
80 108 67
81 109 68
81 109 67
77 105 65
81 109 67
79 108 66
80 108 66
83 111 68
108 132 112
144 164 165
162 180 190
163 180 192
173 191 205
161 179 189
172 190 204
79 108 66
82 110 68
78 105 64
81 109 67
82 111 69
80 107 66
80 108 67
83 111 68
81 109 67
78 106 64
79 107 66
78 106 65
78 106 65
81 109 68
79 107 65
79 107 66
79 107 66
83 111 69
77 104 63
81 110 68
77 105 65
79 108 67
168 185 198
169 186 200
169 185 194
164 182 193
175 192 205
152 169 176
170 187 200
170 187 198
159 176 184
175 193 209
173 190 204
171 189 204
167 185 195
169 186 201
171 189 202
170 188 203
169 186 197
170 187 199
172 189 201
172 190 205
150 168 176
131 151 145
136 155 155
168 186 199
168 186 200
162 179 186
169 186 199
171 189 205
172 190 203
172 189 201
170 188 200
170 187 199
170 188 203
161 179 186
153 172 178
137 157 158
144 164 167
137 155 155
132 153 151
135 154 155
123 145 137
132 151 149
119 140 130
116 138 123
116 138 125
158 176 184
159 176 183
159 177 186
161 180 192
170 187 198
170 188 202
167 185 197
166 183 193
165 183 196
172 189 204
160 177 184
162 179 188
168 186 200
165 182 195
170 188 202
173 190 205
174 191 207
163 180 192
167 183 195
174 192 207
166 184 194
171 187 198
128 148 141
76 103 63
79 107 66
77 105 64
77 105 64
82 110 68
81 108 66
78 106 65
84 112 69
74 101 61
74 100 60
79 106 65
81 109 67
78 107 66
76 103 63
80 107 66
76 103 63
77 104 63
82 110 68
78 106 64
76 103 63
80 108 67
115 136 123
158 176 186
159 177 185
168 185 196
161 178 187
147 166 169
137 157 157
126 146 139
117 140 127
101 124 102
78 106 65
80 108 66
77 104 63
82 111 69
76 104 64
76 104 62
78 106 65
79 106 65
77 104 63
81 109 68
77 104 64
84 112 69
102 126 103
170 186 200
168 185 198
173 190 204
178 195 208
164 182 194
164 181 194
173 190 205
166 183 194
165 182 192
170 189 202
169 187 201
162 180 190
165 182 192
172 189 204
168 185 198
179 197 213
169 186 199
175 192 206
172 191 206
163 181 190
151 169 176
138 158 157
97 122 102
103 126 108
105 128 112
106 129 112
129 149 146
124 146 135
131 151 150
137 156 154
136 155 153
146 165 170
151 169 173
151 168 173
160 179 190
160 178 187
166 184 199
173 191 204
164 182 195
173 190 204
170 186 200
169 186 200
150 168 172
82 111 68
79 107 66
79 108 66
81 108 66
76 104 63
81 110 67
81 110 68
82 111 68
76 103 63
77 105 64
82 110 68
77 104 64
78 105 65
79 108 67
79 106 65
80 108 66
83 112 70
79 107 66
72 99 60
80 107 66
107 130 114
164 181 188
168 186 200
172 190 205
169 186 200
162 180 192
167 184 196
169 187 200
173 189 204
175 192 206
172 189 202
172 190 205
162 181 192
168 186 198
172 189 202
166 184 199
163 179 187
170 189 204
163 180 190
173 190 203
167 185 198
85 112 74
78 105 64
81 109 68
75 102 62
79 107 66
78 107 66
79 107 66
79 108 66
80 108 66
79 107 65
82 111 68
83 112 69
77 105 64
79 107 66
76 103 62
79 108 66
78 106 65
80 109 67
76 103 63
144 162 166
168 185 197
174 192 206
160 178 190
172 190 202
161 179 188
164 182 193
167 185 199
163 181 192
171 189 204
169 188 201
170 188 201
176 191 203
165 183 193
165 182 193
171 189 202
171 189 203
175 192 206
168 186 200
94 120 93
83 111 69
80 108 66
82 110 68
78 106 65
79 107 66
82 110 68
81 110 68
77 105 64
81 110 68
78 106 65
78 105 63
80 108 67
81 109 68
79 107 66
79 107 66
84 113 70
83 111 71
161 179 187
169 187 201
167 185 197
173 191 206
177 194 209
168 185 196
168 186 197
174 191 206
176 194 209
159 178 186
176 194 209
167 185 197
165 183 194
176 194 209
175 193 206
183 199 214
172 189 203
107 131 113
77 105 64
82 111 69
83 112 69
82 111 68
79 108 66
82 111 69
82 111 68
81 111 69
82 111 68
94 119 88
114 138 122
134 153 149
147 166 170
171 189 204
175 192 206
115 136 123
80 109 68
79 107 66
75 102 62
83 112 70
81 110 69
82 110 68
85 113 71
94 120 89
178 196 214
173 191 204
172 190 205
174 192 208
171 189 204
170 188 200
172 191 208
173 191 209
160 179 189
131 152 147
83 112 70
76 104 64
79 106 64
81 110 68
79 107 66
79 107 66
81 110 68
81 110 68
79 106 65
85 112 77
175 193 209
176 194 211
176 194 209
168 185 197
178 194 209
167 185 197
171 188 204
175 192 208
176 193 210
171 189 203
175 193 208
179 196 214
172 190 205
170 187 200
182 199 216
174 192 206
172 188 199
165 183 192
136 156 155
103 127 104
112 136 122
171 188 201
175 192 206
163 181 191
168 185 196
173 191 206
166 184 196
172 190 204
173 190 203
168 185 196
174 192 206
171 189 204
172 189 201
167 184 195
166 184 196
167 184 195
166 185 195
172 189 202
179 197 213
175 193 207
170 188 202
173 190 204
94 119 92
81 109 67
80 108 66
81 110 68
78 106 65
80 108 67
80 108 67
82 111 68
81 109 66
83 112 69
81 110 68
79 107 65
98 123 99
129 151 145
159 177 185
173 191 208
161 178 189
181 199 216
161 179 191
174 192 208
173 191 204
169 187 202
85 112 75
82 111 69
85 115 72
83 112 69
81 110 68
79 106 64
77 106 64
80 108 67
82 111 68
80 109 69
82 110 68
79 107 65
79 108 67
84 113 70
80 109 68
80 108 66
79 107 65
81 109 67
74 101 62
85 113 71
80 108 67
81 109 67
149 166 172
176 192 208
179 195 210
167 186 201
168 185 199
171 187 201
173 191 205
171 190 205
178 195 209
171 190 204
165 182 192
172 189 202
173 191 205
166 183 194
173 190 202
180 197 213
166 183 192
141 159 163
126 146 140
90 117 85
82 111 69
81 110 68
122 144 136
170 188 202
174 190 204
172 189 202
169 187 200
169 186 199
171 188 200
168 186 198
174 191 205
166 184 194
166 184 196
174 190 203
160 178 186
175 193 208
168 185 194
167 183 192
174 191 203
168 186 200
169 186 196
168 184 195
166 183 194
173 190 203
166 183 196
97 122 94
80 108 67
78 106 64
76 103 62
76 105 65
84 111 80
93 118 87
94 119 93
101 125 104
100 124 105
101 125 101
108 130 113
116 138 125
122 143 132
126 146 141
133 153 151
128 147 140
139 158 155
124 144 136
142 162 164
142 161 159
144 163 166
124 144 138
118 139 129
120 141 133
111 132 118
113 136 124
102 127 106
119 141 125
113 135 119
107 130 108
112 134 118
113 135 120
98 122 94
106 129 108
99 124 103
90 116 86
98 122 98
92 119 84
95 119 92
93 118 88
85 107 82
98 124 95
91 118 84
106 130 111
132 153 149
132 152 148
97 120 98
96 121 93
103 126 107
97 121 94
96 122 94
109 133 114
85 112 77
101 124 102
93 117 95
99 123 99
104 128 106
97 122 96
96 120 96
101 123 102
97 122 100
115 135 123
100 123 101
102 123 107
120 141 128
122 141 135
135 155 154
143 162 163
147 167 170
140 160 158
132 153 149
128 149 141
126 147 143
120 141 135
112 134 118
117 139 126
128 149 139
130 151 145
111 133 115
104 129 109
107 129 110
94 119 93
94 119 90
92 119 83
80 108 67
80 109 68
82 110 68
96 120 96
171 188 203
167 185 199
172 190 203
171 187 199
174 191 202
169 186 199
167 183 196
167 185 196
169 186 199
175 192 208
173 191 207
166 183 194
160 179 192
173 191 205
162 179 189
163 181 195
166 182 192
167 186 198
168 186 199
168 187 200
165 182 191
114 137 121
79 107 66
77 104 64
82 111 69
79 108 67
79 107 65
78 106 65
81 109 67
80 109 66
79 107 66
77 105 64
79 107 66
80 110 68
80 108 66
79 108 66
80 108 66
82 111 69
78 105 64
78 105 64
80 108 66
79 106 68
172 188 198
165 184 197
171 188 201
177 194 210
173 191 206
168 185 194
169 187 202
171 189 204
172 189 204
177 194 208
170 188 203
165 182 194
167 185 200
168 184 194
172 190 204
173 190 205
170 188 202
172 189 202
170 187 200
166 183 194
129 149 145
79 107 66
76 105 64
83 111 69
82 111 69
79 107 66
81 109 66
78 107 66
82 111 69
82 110 69
79 107 65
83 112 69
82 110 69
80 108 67
83 111 68
77 104 63
78 106 66
81 109 68
80 108 67
97 123 97
174 191 208
166 183 194
166 185 197
167 184 197
179 197 212
159 177 187
162 179 191
163 180 191
166 184 195
171 190 204
175 192 204
163 182 195
171 190 207
173 190 206
166 184 196
172 189 200
175 192 206
174 191 207
149 167 171
81 109 68
79 107 65
81 110 68
79 107 64
75 103 63
82 110 68
79 107 65
79 108 66
79 108 66
80 109 67
81 110 67
81 110 68
78 107 65
80 108 65
80 109 68
82 111 69
81 110 68
105 128 106
171 189 205
173 191 207
169 186 197
176 195 212
171 188 200
170 187 199
170 188 202
168 187 202
182 199 214
178 196 211
175 191 207
171 190 205
179 197 214
172 191 206
177 195 210
169 187 199
153 171 177
84 111 77
78 105 65
82 110 68
82 110 68
81 109 67
82 110 68
83 111 69
80 109 67
82 110 68
81 110 68
82 111 69
79 107 66
81 110 68
82 110 68
85 114 74
99 125 97
128 147 143
130 151 146
103 127 110
90 118 81
79 107 66
79 107 66
83 112 70
121 143 129
172 191 207
178 194 206
174 192 207
175 193 208
171 189 204
170 189 203
166 184 195
126 149 137
82 110 70
84 114 71
83 113 71
82 111 69
83 111 68
82 111 69
81 110 68
83 112 69
81 109 67
80 108 67
80 109 67
88 116 82
181 198 214
175 192 207
170 188 201
173 191 207
167 184 195
166 184 197
168 186 199
175 192 205
171 190 206
166 184 194
182 199 215
170 188 202
169 187 200
174 191 205
177 193 208
151 171 179
134 155 151
80 107 71
83 112 70
80 109 67
116 140 126
168 188 201
173 188 200
171 189 202
180 198 214
167 184 196
171 189 204
172 190 204
161 180 191
169 186 197
178 196 212
166 184 195
170 188 203
180 198 216
173 190 205
160 180 191
172 189 204
176 193 207
175 193 207
165 183 195
177 194 208
169 188 203
102 127 105
79 106 65
78 106 66
78 106 65
84 113 70
81 110 69
80 108 66
82 111 69
81 109 68
88 115 82
136 156 154
155 174 181
173 189 201
172 190 203
168 185 198
171 189 203
181 198 215
175 192 204
173 191 203
160 177 188
178 195 209
168 185 197
98 123 94
79 107 66
77 105 64
77 104 63
78 104 64
79 107 67
79 107 66
76 103 63
79 107 66
81 110 68
80 108 66
76 103 63
81 110 68
79 107 66
82 111 68
78 105 64
78 106 66
78 105 65
79 107 67
83 112 70
81 109 67
79 107 66
151 169 175
174 190 205
165 183 193
175 193 208
169 187 199
170 187 200
160 178 188
172 189 202
175 193 207
165 183 195
176 194 209
164 183 196
165 183 194
148 166 171
134 154 151
104 126 109
80 108 69
78 105 65
78 105 64
80 108 66
80 108 66
79 107 66
111 134 118
174 191 205
167 186 199
164 183 194
179 196 210
174 192 206
164 180 190
162 179 190
163 180 191
169 186 197
174 192 208
170 186 197
164 183 197
160 179 189
164 182 195
166 183 193
178 195 211
169 186 197
169 187 200
163 181 190
172 190 205
173 191 205
169 187 200
120 140 131
79 107 66
80 108 66
81 109 67
80 108 66
77 105 64
81 109 68
74 101 61
82 110 68
79 106 65
83 112 68
75 103 63
82 111 69
80 107 65
81 109 67
79 106 65
80 108 67
74 102 63
79 107 65
77 104 63
76 104 63
79 106 65
95 120 91
173 191 205
167 186 199
170 187 198
172 190 204
162 179 187
164 183 192
161 178 190
170 188 202
164 182 192
168 187 200
167 185 198
168 184 196
170 186 197
172 190 203
162 179 190
153 171 176
139 159 158
130 151 145
95 120 94
88 115 82
78 105 63
79 106 65
146 166 168
169 187 200
165 182 193
163 181 192
163 180 189
174 191 204
177 194 208
166 184 200
165 183 196
161 179 188
164 181 192
167 184 196
167 184 196
160 177 186
165 182 194
176 192 205
171 189 202
172 189 202
166 184 194
165 182 195
171 188 199
167 184 197
117 138 131
79 106 64
77 104 63
79 107 66
82 110 69
78 105 65
78 107 66
80 108 67
81 110 68
82 111 69
77 104 62
79 107 66
80 109 67
82 110 69
81 110 68
84 113 71
77 105 64
79 108 66
79 108 67
82 110 68
75 101 61
79 108 67
149 168 172
180 197 213
175 192 206
160 178 191
167 185 199
169 185 195
165 182 193
169 186 197
167 183 193
167 184 196
170 187 200
177 194 208
167 184 195
171 189 202
169 186 197
156 175 186
176 193 208
168 185 198
170 187 200
169 186 195
171 187 201
155 173 179
77 105 64
80 108 67
77 106 66
80 108 67
83 112 70
81 110 68
78 106 65
77 105 65
80 108 67
78 107 66
81 110 67
79 107 66
83 112 70
80 109 67
80 107 65
80 108 67
82 110 68
78 106 64
77 104 64
80 108 66
131 151 146
172 189 200
172 189 202
171 188 200
169 186 199
165 182 192
164 182 194
171 189 202
160 178 187
170 188 202
175 194 210
174 193 209
170 187 200
175 192 207
171 188 204
171 188 202
165 184 196
169 186 198
163 180 190
171 188 202
160 179 189
82 110 71
79 107 66
79 107 66
79 107 67
81 110 68
77 105 64
83 112 70
79 107 66
80 108 66
81 110 68
80 108 67
75 102 63
83 111 69
80 108 66
81 109 67
80 108 67
80 108 67
77 105 65
79 107 66
142 160 160
174 191 208
175 192 209
171 189 202
170 187 201
175 193 208
177 197 215
166 184 194
172 189 204
169 187 199
163 182 193
176 193 209
169 187 200
164 181 192
163 182 193
163 182 194
169 187 201
170 188 200
175 192 207
121 143 134
83 111 69
82 110 68
78 107 67
80 108 67
78 106 65
82 111 68
86 115 71
78 105 65
80 108 66
79 107 66
77 105 64
78 107 66
84 112 70
83 111 69
82 110 68
80 107 66
80 108 66
146 164 165
176 194 210
174 192 207
170 187 201
174 192 206
170 187 200
173 190 203
176 194 209
173 191 205
173 190 203
171 189 206
173 191 204
174 191 205
169 187 201
170 188 201
168 187 201
174 192 208
132 154 151
81 109 68
83 113 71
79 107 66
83 112 70
81 109 67
81 109 66
82 110 68
82 110 68
80 108 67
83 111 69
77 106 65
79 108 66
80 109 67
81 110 68
78 106 66
118 142 130
174 192 207
175 191 203
170 187 201
81 110 68
78 106 66
81 110 69
106 130 110
173 190 205
168 187 202
177 195 211
172 191 206
155 174 181
119 142 130
84 113 70
79 108 67
81 110 68
83 113 70
84 113 71
82 111 69
82 111 71
80 108 66
78 107 66
79 108 66
79 107 66
83 112 70
82 110 68
112 136 120
174 192 207
175 191 206
170 188 200
174 192 207
179 196 213
172 190 204
167 185 196
172 190 205
177 195 212
174 192 206
170 188 200
173 190 201
168 186 198
147 167 171
107 132 110
81 109 67
81 109 68
80 109 68
80 109 67
82 111 69
108 132 112
170 188 202
172 190 204
171 188 204
169 186 197
166 184 196
174 191 206
175 193 206
163 181 193
167 184 196
176 193 206
165 183 196
173 190 204
171 188 199
181 199 216
176 194 209
175 193 205
171 189 203
173 191 204
167 185 199
177 194 210
169 187 200
103 127 105
82 111 69
75 103 62
77 105 65
80 107 65
78 107 66
87 116 80
111 134 118
144 163 163
175 194 208
175 193 209
166 184 195
170 189 203
179 196 211
169 186 198
167 185 197
176 192 204
163 180 189
177 194 208
165 182 191
176 193 207
170 187 199
114 135 125
81 109 67
80 107 66
81 109 68
77 104 64
78 106 64
84 113 69
76 103 62
81 110 68
83 113 71
81 109 67
84 112 69
83 111 69
78 107 66
80 108 66
79 107 65
76 104 62
80 108 66
83 112 69
79 107 66
83 111 69
79 108 67
130 151 148
166 183 196
173 190 203
178 194 210
168 187 201
171 189 202
167 185 196
176 194 210
168 186 199
168 185 197
139 158 159
120 141 130
93 119 90
82 110 69
79 107 66
75 103 63
77 105 65
78 105 65
77 104 62
77 105 65
78 106 65
78 105 64
85 112 75
158 175 185
163 182 192
164 182 190
175 192 206
171 187 200
166 184 195
167 184 197
172 189 201
166 186 199
173 190 204
168 185 196
172 189 202
164 181 190
169 187 198
173 189 199
168 185 199
171 189 204
167 185 197
166 184 197
165 183 194
164 181 195
165 182 195
149 168 167
84 113 70
80 108 66
79 107 65
82 111 69
82 110 67
80 108 67
81 109 68
79 107 67
79 107 65
83 112 69
86 115 72
80 108 67
78 107 66
78 106 65
76 103 63
78 106 65
82 110 67
79 106 65
78 106 65
82 111 69
81 109 68
78 106 64
167 185 196
171 189 200
170 187 201
161 179 189
165 183 197
161 179 191
173 190 204
171 189 205
171 189 200
162 180 189
151 169 172
137 157 155
120 143 129
97 121 97
85 113 75
80 108 67
82 111 68
79 107 66
80 108 67
77 105 65
80 109 67
77 105 65
129 151 144
171 188 202
172 188 200
167 184 197
169 186 199
163 181 193
165 182 193
171 188 201
168 185 196
160 177 188
165 183 194
175 192 206
168 186 198
162 178 187
149 167 175
164 182 194
174 192 209
172 189 203
174 191 204
167 184 193
178 195 210
162 179 190
148 168 173
81 109 67
77 105 64
79 108 66
81 108 67
84 113 70
81 109 68
81 109 68
77 105 64
81 109 68
81 110 68
74 102 61
80 107 65
81 109 67
79 107 65
77 105 64
76 103 63
79 106 65
81 109 67
82 111 68
76 103 63
80 108 66
109 132 114
162 179 189
175 192 205
166 183 196
169 187 199
172 190 202
172 189 203
172 189 203
162 179 190
163 179 189
165 184 197
163 180 192
173 190 202
171 188 200
168 186 200
169 186 199
165 183 193
174 192 205
169 187 198
170 188 202
169 186 198
169 187 199
90 115 87
82 111 69
76 104 63
82 110 69
83 112 68
77 104 63
78 106 64
79 107 65
79 107 65
81 109 66
80 108 66
80 108 66
79 107 66
75 103 63
79 107 67
83 112 70
81 109 66
81 110 68
75 103 62
80 107 65
96 121 93
176 194 210
172 189 203
175 192 206
158 178 187
167 184 194
178 195 209
168 185 197
173 190 204
168 186 199
175 192 207
168 185 198
168 185 197
169 187 198
176 193 207
163 181 194
169 187 200
164 182 195
174 191 205
172 191 205
172 189 202
117 140 129
87 117 73
78 107 66
82 110 68
79 107 66
78 106 65
80 109 68
83 112 69
80 108 67
80 108 66
83 112 69
78 107 66
79 107 66
81 109 68
79 106 66
81 109 67
79 108 66
79 108 67
78 105 64
101 126 102
170 186 198
167 184 197
173 192 208
169 187 198
175 192 205
161 178 189
176 193 207
175 191 205
173 190 204
170 189 203
165 183 193
170 188 201
173 190 204
169 187 198
172 189 203
171 189 202
173 192 207
164 181 191
165 183 193
84 112 72
83 111 69
79 107 65
82 110 68
80 108 67
74 102 62
84 113 70
81 110 68
83 112 70
78 106 65
81 110 68
83 112 70
78 106 66
81 109 67
81 110 68
81 110 68
78 106 65
98 123 101
161 182 192
169 187 201
178 195 211
179 197 213
170 188 202
173 191 208
174 190 199
172 190 202
173 191 207
168 187 201
173 191 207
175 194 211
172 191 206
170 188 202
167 185 198
171 190 203
160 178 187
95 122 92
81 110 67
78 107 67
83 113 70
78 107 66
82 111 69
78 106 66
81 110 68
84 113 71
79 108 66
83 112 70
80 108 67
80 108 66
79 107 65
79 108 67
82 111 69
149 169 171
177 196 212
170 188 199
83 112 70
83 112 70
83 112 70
126 149 140
179 197 213
172 190 203
147 167 169
107 131 112
80 108 66
80 108 66
81 111 69
86 115 72
78 107 65
80 109 67
83 112 69
84 113 71
81 109 67
81 110 68
85 114 72
80 108 67
84 113 71
82 111 70
76 104 64
106 131 109
167 185 196
168 186 200
175 193 208
169 187 200
169 186 199
173 192 208
172 190 206
169 187 198
176 193 208
172 190 205
164 182 193
133 155 153
102 128 101
81 109 67
83 111 68
81 110 68
83 112 70
79 107 66
84 112 70
78 106 64
102 127 100
172 188 201
170 187 199
171 189 205
165 184 196
172 190 205
170 187 201
167 185 198
173 190 204
167 185 198
179 196 211
170 188 200
164 182 192
169 187 200
172 190 207
176 194 210
166 184 195
168 185 195
175 191 205
169 187 199
176 194 211
173 189 200
113 136 124
82 110 68
84 113 70
84 113 71
112 134 120
140 159 158
170 189 202
170 189 203
170 188 201
169 187 201
181 197 214
181 199 218
172 189 203
173 190 204
174 191 203
168 185 198
170 188 201
171 189 202
171 188 200
170 188 201
170 187 198
178 196 214
107 128 109
83 111 69
80 108 66
82 111 69
79 107 65
82 111 68
81 109 67
82 110 68
82 111 68
83 111 68
74 101 60
82 110 69
79 108 67
80 109 68
77 105 64
80 107 65
79 107 66
82 111 69
81 109 67
78 105 65
81 109 66
77 105 65
114 135 124
178 197 213
172 190 205
162 179 189
166 184 197
165 182 193
160 178 187
148 168 170
112 134 119
84 110 73
78 106 66
78 105 64
82 110 68
79 108 67
80 107 66
79 107 66
77 105 65
81 110 67
82 111 68
78 105 65
84 113 69
80 108 67
81 110 68
161 180 189
171 188 201
173 191 206
170 186 197
154 172 180
166 183 195
173 191 204
161 180 191
171 187 195
165 183 197
168 186 198
167 186 200
164 181 193
161 179 190
173 190 207
168 187 200
171 189 204
165 182 195
173 191 204
165 182 191
166 183 195
172 189 204
144 164 168
80 108 66
78 105 64
80 108 67
77 105 64
81 109 68
77 105 64
84 113 70
77 105 64
82 110 68
82 110 68
80 109 67
85 114 71
79 107 66
80 108 66
75 103 62
79 107 66
76 103 64
82 111 68
78 106 64
79 107 66
80 108 66
79 107 66
153 171 173
167 186 200
173 191 207
165 183 196
166 184 196
149 169 174
144 162 162
117 139 127
88 114 81
78 106 65
80 108 66
79 106 65
80 109 68
82 110 68
78 107 66
86 115 72
78 105 64
78 106 64
76 103 64
85 113 70
79 107 65
81 110 69
103 127 104
169 187 198
164 181 189
167 183 196
163 181 192
168 184 194
172 188 200
167 183 194
172 189 202
169 187 200
165 182 194
170 187 199
168 186 197
167 186 198
170 187 201
177 195 210
174 191 202
173 191 204
172 188 200
167 186 198
174 191 204
174 191 204
161 181 193
95 119 93
75 102 63
81 110 68
80 108 65
81 110 69
77 105 64
75 102 62
80 108 66
78 106 65
77 105 64
81 109 68
81 109 67
81 109 68
80 108 67
80 109 68
79 107 65
77 105 64
82 111 69
76 103 62
79 106 64
80 108 67
83 110 73
161 180 190
165 183 196
163 180 191
174 191 205
164 182 192
173 190 204
170 187 201
168 185 196
173 192 208
172 190 204
171 188 204
168 185 196
175 193 206
170 188 200
171 190 205
172 190 203
163 181 192
167 184 196
173 191 204
172 190 204
172 189 205
142 163 165
79 107 66
79 107 66
79 107 64
74 101 61
84 113 70
79 108 66
78 106 65
80 108 66
77 105 65
78 105 63
78 105 64
81 110 68
78 106 64
80 108 67
81 109 67
81 110 68
79 106 66
82 110 68
83 111 69
80 109 68
137 157 155
173 191 205
172 189 202
170 188 200
174 192 206
173 191 207
163 182 193
171 188 201
171 188 202
180 196 212
170 188 201
162 180 191
160 180 189
173 190 204
162 180 192
168 186 200
166 184 197
174 192 205
162 179 188
161 179 188
154 174 179
80 108 66
77 104 63
81 109 67
78 106 66
77 105 63
82 110 68
81 109 67
80 108 67
79 107 66
81 109 67
83 112 70
82 111 69
77 105 64
79 107 66
76 104 64
81 109 68
79 106 65
77 105 64
82 111 69
132 152 147
175 192 207
167 186 199
171 190 204
169 188 200
180 197 213
177 194 209
172 190 204
177 196 212
171 188 202
174 192 205
174 190 205
169 186 196
174 192 207
178 196 212
168 185 199
180 197 213
164 183 195
173 191 207
112 133 118
79 107 66
79 107 65
81 109 67
80 108 66
80 109 67
83 112 69
81 110 68
80 107 66
82 111 69
79 107 66
84 112 69
80 108 67
81 110 69
79 106 64
82 110 68
77 105 64
81 110 68
145 165 168
166 184 197
175 194 210
173 190 204
171 189 206
171 191 206
168 186 199
171 189 200
174 192 208
165 183 196
176 194 210
178 195 209
174 194 211
173 191 206
178 196 212
172 190 203
170 188 202
160 178 185
82 110 68
80 109 68
83 112 69
79 106 66
79 107 66
79 107 66
84 113 71
81 110 68
81 110 69
82 110 68
84 113 70
83 112 70
80 109 67
82 110 68
82 110 68
97 122 92
171 190 204
176 193 208
82 110 68
78 106 65
81 110 67
135 157 153
143 163 166
108 132 112
81 109 67
83 112 70
80 108 67
81 109 67
84 113 71
80 107 65
80 109 68
85 114 71
81 109 67
79 107 66
79 108 67
82 111 68
81 110 68
80 108 66
82 110 68
81 109 67
80 109 68
100 124 101
178 196 213
166 184 196
173 190 204
175 192 205
176 193 206
179 196 212
168 187 201
173 192 207
153 170 176
131 151 146
85 113 72
80 108 67
81 108 66
81 109 68
82 110 68
78 106 64
81 110 67
78 105 65
78 105 64
78 106 66
100 124 101
172 189 203
164 183 198
170 188 200
177 195 210
176 193 209
180 196 211
172 190 202
177 195 210
172 190 205
172 191 206
170 189 203
177 194 209
176 193 206
176 194 210
168 183 197
164 183 193
169 187 200
168 185 198
177 194 209
178 195 212
164 182 194
113 135 119
94 120 89
133 153 150
157 176 182
179 196 212
160 179 189
179 196 213
174 191 207
166 183 196
170 187 199
177 194 211
174 191 204
184 200 214
173 191 208
169 186 199
179 196 214
170 189 203
169 185 195
170 189 204
166 184 197
167 184 195
165 182 195
118 141 129
83 111 69
76 104 63
82 111 68
82 111 69
80 109 67
79 107 66
77 104 64
79 106 65
80 108 65
77 105 65
78 106 64
79 106 65
81 110 68
84 112 69
81 110 68
78 107 66
83 111 68
78 106 65
74 101 61
79 107 66
82 110 68
110 134 117
169 186 196
170 188 204
162 180 189
139 158 156
103 126 110
83 110 74
81 109 67
77 104 63
81 110 68
80 107 66
77 104 63
80 108 67
75 103 63
82 111 69
80 107 66
83 111 69
77 104 63
82 111 69
78 106 66
83 112 70
76 104 63
82 110 68
158 176 182
173 191 205
174 191 207
178 194 208
158 176 185
171 189 200
173 191 205
168 186 197
167 183 196
168 185 198
175 192 207
172 189 204
163 180 190
170 188 202
165 182 191
179 196 212
171 188 200
175 192 207
170 186 199
169 186 199
169 187 198
164 181 193
155 173 180
86 113 76
78 107 65
83 112 70
84 112 70
78 105 65
82 111 68
76 104 64
82 111 69
80 109 68
76 103 62
75 103 63
79 107 66
78 106 65
81 109 67
77 104 63
80 108 67
81 109 68
82 109 67
76 103 64
82 111 69
78 106 65
81 107 71
128 149 144
129 148 142
119 140 128
98 122 97
78 106 65
79 107 66
75 103 63
79 107 66
79 107 65
82 111 68
79 106 64
79 107 65
84 113 70
83 113 70
78 106 65
75 102 62
75 102 62
79 106 64
76 103 62
81 109 67
76 103 62
83 112 69
80 109 68
159 177 186
161 179 191
174 190 204
166 185 198
170 187 200
166 183 194
166 184 195
170 188 200
165 183 195
169 186 198
168 187 200
166 183 192
169 187 199
166 183 195
169 187 203
173 190 205
165 182 192
155 174 182
175 192 207
174 191 206
170 190 205
169 186 199
126 147 139
81 109 67
76 103 63
78 107 65
79 107 66
77 105 65
81 109 67
80 108 66
78 106 65
80 109 67
81 109 67
77 104 64
78 106 66
81 110 68
82 111 68
78 106 65
77 105 64
81 109 68
79 108 68
78 107 66
83 112 70
78 105 65
150 169 172
169 188 202
182 199 215
177 194 210
165 182 192
173 190 203
172 190 204
172 190 206
167 185 195
170 189 203
167 185 196
172 189 203
176 192 205
167 183 192
170 188 200
167 182 193
164 182 195
172 190 205
165 183 194
168 185 198
175 193 209
168 185 197
82 110 70
78 106 65
81 109 67
82 110 67
82 110 68
78 105 65
81 109 67
78 107 65
77 105 64
84 112 69
81 109 67
76 104 63
77 105 64
78 107 66
81 110 69
74 101 61
81 109 67
81 110 68
81 110 68
83 112 68
101 125 105
172 190 203
172 189 201
174 190 203
170 188 202
163 181 192
173 191 204
174 190 204
169 186 197
167 183 195
172 189 203
170 187 199
165 183 195
160 178 187
173 189 204
169 187 200
177 194 207
168 186 199
172 189 202
170 187 199
163 181 192
113 136 118
80 108 67
80 108 67
79 108 67
80 108 66
79 106 65
84 112 69
78 106 65
77 105 64
84 112 70
81 109 67
80 108 66
80 108 66
78 106 65
80 109 69
79 107 65
81 110 69
81 110 68
76 103 63
87 115 79
174 191 201
163 182 193
178 196 211
174 193 210
172 189 203
166 185 197
167 186 199
176 194 211
161 179 190
167 185 199
177 195 209
166 184 198
166 183 192
174 191 206
174 192 208
175 192 206
176 193 209
167 185 198
169 188 202
83 111 72
81 110 67
81 110 68
82 110 68
83 112 70
79 106 66
80 108 67
81 109 67
80 109 66
79 107 65
88 118 75
85 113 70
81 110 68
76 104 63
83 112 69
80 108 67
82 110 68
88 115 80
178 196 212
175 194 210
174 193 209
172 189 202
170 187 200
177 195 211
169 186 198
167 185 197
169 187 202
164 183 193
171 188 200
177 194 209
174 193 209
173 191 205
169 187 201
171 190 205
176 192 204
118 140 125
82 111 69
80 109 68
80 108 67
86 115 71
84 114 71
82 110 68
80 109 68
81 110 67
82 111 69
80 109 68
83 112 70
81 111 69
83 113 71
81 110 68
83 112 69
117 139 128
168 186 198
84 113 70
83 113 70
122 145 132
127 149 140
78 106 65
84 113 70
84 113 71
82 110 68
81 110 69
83 112 70
82 111 69
82 111 68
80 110 68
86 116 73
82 111 70
81 109 67
82 111 70
77 105 64
83 112 69
81 109 68
80 108 66
82 111 69
84 113 70
118 139 129
173 192 207
171 189 203
180 198 216
177 194 210
169 186 196
173 190 202
148 167 169
105 128 111
83 112 69
85 114 71
81 110 69
83 111 69
81 110 68
81 110 68
82 110 67
81 109 66
81 110 68
84 113 70
83 111 69
80 109 68
106 131 112
164 182 192
178 196 213
173 190 205
169 187 200
176 194 212
172 191 205
168 185 194
169 187 201
173 190 205
171 188 199
173 190 205
176 194 209
180 196 211
161 179 192
169 187 199
166 184 196
171 189 202
169 187 201
173 190 203
168 185 199
151 169 175
134 155 152
163 181 192
173 190 204
182 199 216
174 191 205
167 185 198
168 185 197
170 187 200
174 192 207
170 188 200
173 191 206
175 194 209
176 193 206
179 195 212
167 184 194
177 194 209
169 186 198
175 193 210
168 185 195
168 186 198
160 178 186
166 185 196
129 150 142
84 113 71
81 109 67
83 112 70
79 106 65
79 107 65
81 109 67
82 111 69
80 108 66
84 112 70
80 108 66
85 113 71
79 107 66
78 106 64
84 113 70
82 111 69
82 111 68
79 107 66
82 111 69
81 110 67
80 108 67
81 109 67
109 133 116
135 156 154
95 118 95
82 110 68
79 106 65
77 105 64
82 111 69
77 105 65
82 111 69
82 111 68
79 108 67
79 107 64
76 104 64
82 111 70
83 112 71
81 110 68
75 102 62
80 109 67
79 108 67
82 110 68
81 109 68
79 106 64
82 110 68
136 157 153
169 186 200
161 179 191
167 185 197
169 186 198
169 187 200
165 182 196
171 189 203
164 182 193
172 190 203
172 190 203
166 183 197
176 193 205
171 189 205
170 187 198
165 183 193
164 182 193
170 186 198
174 190 204
170 186 199
165 182 195
162 181 192
169 187 199
101 125 102
83 112 70
81 109 67
81 110 69
79 107 65
80 107 66
81 109 68
78 106 66
83 112 69
76 103 62
77 105 65
82 109 68
80 108 67
79 107 66
77 104 64
78 106 64
79 108 67
90 115 88
116 137 124
146 165 166
160 178 189
163 180 187
165 182 192
82 109 68
77 104 63
78 106 65
78 105 65
74 101 61
77 106 65
78 106 66
81 109 67
78 106 65
79 108 66
78 105 64
81 110 68
80 108 66
80 108 67
78 105 65
77 105 65
82 111 69
81 110 68
81 109 68
81 108 67
81 110 68
80 109 67
147 168 172
163 181 192
168 186 198
169 187 198
179 196 212
160 177 189
166 183 195
169 187 201
171 189 202
170 187 200
174 192 208
175 193 208
175 191 204
164 182 192
178 195 209
166 183 196
169 187 200
162 180 191
173 190 205
172 188 201
166 184 197
164 181 192
160 177 184
79 108 66
81 110 68
81 109 67
79 107 66
80 109 68
76 103 63
81 110 67
79 108 66
81 110 68
77 105 64
79 107 66
81 110 68
80 109 67
85 113 70
82 111 69
79 107 65
78 106 66
81 109 67
78 106 65
81 109 67
74 101 60
110 133 115
172 191 206
173 191 206
166 184 196
169 186 198
170 187 200
161 179 188
169 187 199
170 188 203
162 178 187
175 193 209
167 185 201
175 194 210
164 182 193
167 185 197
162 179 188
171 188 199
160 177 189
168 184 197
164 180 192
169 186 199
169 186 201
109 132 115
80 109 66
80 108 67
81 109 67
75 103 63
80 108 67
83 112 70
81 110 68
83 112 69
78 105 64
77 104 63
79 107 66
82 110 68
81 109 68
80 109 67
81 110 69
79 107 66
81 109 69
76 103 62
81 110 68
80 108 67
151 170 173
174 192 207
176 193 209
176 194 209
169 186 199
172 189 203
173 192 208
173 190 204
167 185 199
161 179 190
173 190 202
177 194 208
177 194 209
174 190 204
176 194 209
171 189 204
170 187 200
171 190 204
177 194 210
177 195 213
156 174 180
79 107 66
81 109 67
81 109 68
79 108 66
75 103 63
82 110 68
79 107 66
83 112 69
81 110 68
78 106 65
83 111 69
79 108 67
75 102 62
81 109 68
82 110 68
76 104 63
85 114 70
77 105 64
77 105 64
130 151 147
175 192 206
172 189 202
163 182 194
172 189 202
172 190 204
175 192 209
176 194 208
176 193 208
172 190 205
164 183 195
165 183 196
169 186 195
173 190 202
165 182 194
173 191 205
167 186 198
171 189 203
171 187 198
129 149 145
84 113 70
83 112 69
80 109 68
81 109 68
81 110 68
77 104 64
80 107 66
81 110 68
85 114 71
80 108 67
84 113 70
82 111 68
82 111 70
82 110 67
84 113 70
81 109 67
82 110 68
122 144 132
168 187 199
174 193 207
181 197 216
172 189 201
174 190 202
170 188 201
173 191 208
177 196 215
172 191 205
171 189 203
178 195 212
162 181 192
179 196 212
174 193 208
175 193 208
182 199 215
160 179 187
93 122 87
81 110 68
82 110 69
82 111 69
80 108 67
83 112 70
78 106 65
86 116 72
82 111 68
84 113 70
82 111 70
83 112 70
82 110 69
81 110 67
81 110 69
84 112 73
165 183 192
