P3
400 225
255
204 226 255
204 226 255
204 226 255
204 226 255
204 226 255
204 226 255
204 226 255
204 226 255
204 226 255
204 226 255
204 226 255
204 226 255
204 226 255
204 226 255
204 226 255
203 226 255
203 226 255
203 226 255
203 226 255
203 226 255
203 226 255
203 226 255
203 226 255
203 225 255
203 225 255
203 225 255
203 225 255
203 225 255
203 225 255
203 225 255
203 225 255
203 225 255
202 225 255
202 225 255
202 225 255
202 225 255
202 225 255
202 225 255
202 225 255
202 225 255
202 225 255
202 225 255
202 225 255
202 225 255
202 225 255
202 225 255
202 225 255
202 225 255
201 225 255
201 225 255
201 225 255
201 225 255
201 224 255
201 224 255
201 224 255
201 224 255
201 224 255
201 224 255
201 224 255
201 224 255
201 224 255
201 224 255
201 224 255
200 224 255
200 224 255
200 224 255
200 224 255
200 224 255
200 224 255
200 224 255
200 224 255
200 224 255
200 224 255
200 224 255
200 224 255
200 224 255
200 224 255
200 224 255
199 224 255
199 224 255
199 223 255
199 223 255
199 223 255
199 223 255
199 223 255
199 223 255
199 223 255
199 223 255
199 223 255
199 223 255
199 223 255
199 223 255
198 223 255
198 223 255
198 223 255
198 223 255
198 223 255
198 223 255
198 223 255
198 223 255
198 223 255
198 223 255
198 223 255
198 223 255
198 223 255
198 223 255
197 222 255
197 222 255
197 222 255
197 222 255
197 222 255
197 222 255
197 222 255
197 222 255
197 222 255
197 222 255
197 222 255
197 222 255
197 222 255
197 222 255
197 222 255
196 222 255
196 222 255
196 222 255
196 222 255
196 222 255
196 222 255
196 222 255
196 222 255
196 222 255
196 222 255
196 222 255
196 222 255
196 222 255
196 222 255
196 221 255
196 221 255
195 221 255
195 221 255
195 221 255
195 221 255
195 221 255
195 221 255
195 221 255
195 221 255
195 221 255
195 221 255
195 221 255
195 221 255
195 221 255
195 221 255
195 221 255
195 221 255
195 221 255
195 221 255
194 221 255
194 221 255
194 221 255
194 221 255
194 221 255
194 221 255
194 221 255
194 221 255
194 221 255
194 221 255
194 221 255
194 221 255
194 221 255
194 221 255
194 221 255
194 221 255
194 221 255
194 221 255
194 221 255
194 221 255
194 221 255
194 221 255
194 220 255
194 220 255
194 220 255
194 220 255
194 220 255
194 220 255
194 220 255
194 220 255
194 220 255
193 220 255
193 220 255
193 220 255
193 220 255
193 220 255
193 220 255
193 220 255
193 220 255
193 220 255
193 220 255
193 220 255
193 220 255
193 220 255
193 220 255
193 220 255
193 220 255
193 220 255
193 220 255
193 220 255
193 220 255
193 220 255
193 220 255
193 220 255
193 220 255
193 220 255
193 220 255
193 220 255
193 220 255
194 220 255
194 220 255
194 220 255
194 220 255
194 220 255
194 220 255
194 220 255
194 220 255
194 220 255
194 221 255
194 221 255
194 221 255
194 221 255
194 221 255
194 221 255
194 221 255
194 221 255
194 221 255
194 221 255
194 221 255
194 221 255
194 221 255
194 221 255
194 221 255
194 221 255
194 221 255
194 221 255
194 221 255
194 221 255
194 221 255
194 221 255
195 221 255
195 221 255
195 221 255
195 221 255
195 221 255
195 221 255
195 221 255
195 221 255
195 221 255
195 221 255
195 221 255
195 221 255
195 221 255
195 221 255
195 221 255
195 221 255
195 221 255
195 221 255
196 221 255
196 221 255
196 222 255
196 222 255
196 222 255
196 222 255
196 222 255
196 222 255
196 222 255
196 222 255
196 222 255
196 222 255
196 222 255
196 222 255
196 222 255
196 222 255
197 222 255
197 222 255
197 222 255
197 222 255
197 222 255
197 222 255
197 222 255
197 222 255
197 222 255
197 222 255
197 222 255
197 222 255
197 222 255
197 222 255
197 222 255
198 223 255
198 223 255
198 223 255
198 223 255
198 223 255
198 223 255
198 223 255
198 223 255
198 223 255
198 223 255
198 223 255
198 223 255
198 223 255
198 223 255
199 223 255
199 223 255
199 223 255
199 223 255
199 223 255
199 223 255
199 223 255
199 223 255
199 223 255
199 223 255
199 223 255
199 223 255
199 224 255
199 224 255
199 224 255
200 224 255
200 224 255
200 224 255
200 224 255
200 224 255
200 224 255
200 224 255
200 224 255
200 224 255
200 224 255
200 224 255
200 224 255
200 224 255
200 224 255
201 224 255
201 224 255
201 224 255
201 224 255
201 224 255
201 224 255
201 224 255
201 224 255
201 224 255
201 224 255
201 224 255
201 225 255
201 225 255
201 225 255
201 225 255
202 225 255
202 225 255
202 225 255
202 225 255
202 225 255
202 225 255
202 225 255
202 225 255
202 225 255
202 225 255
202 225 255
202 225 255
202 225 255
202 225 255
202 225 255
202 225 255
203 225 255
203 225 255
203 225 255
203 225 255
203 225 255
203 225 255
203 225 255
203 225 255
203 225 255
203 226 255
203 226 255
203 226 255
203 226 255
203 226 255
203 226 255
203 226 255
203 226 255
204 226 255
204 226 255
204 226 255
204 226 255
204 226 255
204 226 255
204 226 255
204 226 255
204 226 255
204 226 255
204 226 255
204 226 255
204 226 255
204 226 255
204 226 255
204 226 255
204 226 255
204 226 255
204 226 255
204 226 255
204 226 255
204 226 255
204 226 255
204 226 255
204 226 255
204 226 255
204 226 255
204 226 255
204 226 255
204 226 255
204 226 255
204 226 255
204 226 255
203 226 255
203 226 255
203 226 255
203 226 255
203 226 255
203 226 255
203 226 255
203 225 255
203 225 255
203 225 255
203 225 255
203 225 255
203 225 255
203 225 255
203 225 255
203 225 255
202 225 255
202 225 255
202 225 255
202 225 255
202 225 255
202 225 255
202 225 255
202 225 255
202 225 255
202 225 255
202 225 255
202 225 255
202 225 255
202 225 255
202 225 255
202 225 255
201 225 255
201 225 255
201 225 255
201 225 255
201 225 255
201 224 255
201 224 255
201 224 255
201 224 255
201 224 255
201 224 255
201 224 255
201 224 255
201 224 255
201 224 255
200 224 255
200 224 255
200 224 255
200 224 255
200 224 255
200 224 255
200 224 255
200 224 255
200 224 255
200 224 255
200 224 255
200 224 255
200 224 255
200 224 255
200 224 255
199 224 255
199 224 255
199 223 255
199 223 255
199 223 255
199 223 255
199 223 255
199 223 255
199 223 255
199 223 255
199 223 255
199 223 255
199 223 255
199 223 255
198 223 255
198 223 255
198 223 255
198 223 255
198 223 255
198 223 255
198 223 255
198 223 255
198 223 255
198 223 255
198 223 255
198 223 255
198 223 255
198 223 255
197 223 255
197 222 255
197 222 255
197 222 255
197 222 255
197 222 255
197 222 255
197 222 255
197 222 255
197 222 255
197 222 255
197 222 255
197 222 255
197 222 255
197 222 255
196 222 255
196 222 255
196 222 255
196 222 255
196 222 255
196 222 255
196 222 255
196 222 255
196 222 255
196 222 255
196 222 255
196 222 255
196 222 255
196 222 255
196 221 255
196 221 255
195 221 255
195 221 255
195 221 255
195 221 255
195 221 255
195 221 255
195 221 255
195 221 255
195 221 255
195 221 255
195 221 255
195 221 255
195 221 255
195 221 255
195 221 255
195 221 255
195 221 255
195 221 255
195 221 255
194 221 255
194 221 255
194 221 255
194 221 255
194 221 255
194 221 255
194 221 255
194 221 255
194 221 255
194 221 255
194 221 255
194 221 255
194 221 255
194 221 255
194 221 255
194 221 255
194 221 255
194 221 255
194 221 255
194 221 255
194 221 255
194 221 255
194 221 255
194 221 255
194 221 255
194 220 255
194 220 255
194 220 255
194 220 255
194 220 255
194 220 255
194 220 255
194 220 255
194 220 255
194 220 255
194 220 255
194 220 255
194 220 255
194 220 255
194 220 255
194 220 255
194 220 255
194 220 255
194 220 255
194 220 255
194 220 255
194 220 255
194 220 255
194 220 255
194 220 255
194 220 255
194 220 255
194 220 255
194 220 255
194 220 255
194 220 255
194 220 255
194 220 255
194 220 255
194 221 255
194 221 255
194 221 255
194 221 255
194 221 255
194 221 255
194 221 255
194 221 255
194 221 255
194 221 255
194 221 255
194 221 255
194 221 255
194 221 255
194 221 255
194 221 255
194 221 255
194 221 255
194 221 255
194 221 255
194 221 255
194 221 255
194 221 255
194 221 255
194 221 255
195 221 255
195 221 255
195 221 255
195 221 255
195 221 255
195 221 255
195 221 255
195 221 255
195 221 255
195 221 255
195 221 255
195 221 255
195 221 255
195 221 255
195 221 255
195 221 255
195 221 255
195 221 255
195 221 255
196 221 255
196 221 255
196 222 255
196 222 255
196 222 255
196 222 255
196 222 255
196 222 255
196 222 255
196 222 255
196 222 255
196 222 255
196 222 255
196 222 255
196 222 255
196 222 255
197 222 255
197 222 255
197 222 255
197 222 255
197 222 255
197 222 255
197 222 255
197 222 255
197 222 255
197 222 255
197 222 255
197 222 255
197 222 255
197 222 255
197 222 255
198 223 255
198 223 255
198 223 255
198 223 255
198 223 255
198 223 255
198 223 255
198 223 255
198 223 255
198 223 255
198 223 255
198 223 255
198 223 255
198 223 255
199 223 255
199 223 255
199 223 255
199 223 255
199 223 255
199 223 255
199 223 255
199 223 255
199 223 255
199 223 255
199 223 255
199 223 255
199 224 255
199 224 255
199 224 255
200 224 255
200 224 255
200 224 255
200 224 255
200 224 255
200 224 255
200 224 255
200 224 255
200 224 255
200 224 255
200 224 255
200 224 255
200 224 255
200 224 255
201 224 255
201 224 255
201 224 255
201 224 255
201 224 255
201 224 255
201 224 255
201 224 255
201 224 255
201 224 255
201 225 255
201 225 255
201 225 255
201 225 255
201 225 255
202 225 255
202 225 255
202 225 255
202 225 255
202 225 255
202 225 255
202 225 255
202 225 255
202 225 255
202 225 255
202 225 255
202 225 255
202 225 255
202 225 255
202 225 255
202 225 255
203 225 255
203 225 255
203 225 255
203 225 255
203 225 255
203 225 255
203 225 255
203 225 255
203 225 255
203 226 255
203 226 255
203 226 255
203 226 255
203 226 255
203 226 255
203 226 255
204 226 255
204 226 255
204 226 255
204 226 255
204 226 255
204 226 255
204 226 255
204 226 255
204 226 255
204 226 255
204 226 255
204 226 255
204 226 255
204 226 255
204 226 255
204 226 255
204 226 255
204 226 255
205 226 255
205 226 255
204 226 255
204 226 255
204 226 255
204 226 255
204 226 255
204 226 255
204 226 255
204 226 255
204 226 255
204 226 255
204 226 255
204 226 255
204 226 255
204 226 255
204 226 255
204 226 255
204 226 255
204 226 255
203 226 255
203 226 255
203 226 255
203 226 255
203 226 255
203 226 255
203 226 255
203 225 255
203 225 255
203 225 255
203 225 255
203 225 255
203 225 255
203 225 255
203 225 255
203 225 255
202 225 255
202 225 255
202 225 255
202 225 255
202 225 255
202 225 255
202 225 255
202 225 255
202 225 255
202 225 255
202 225 255
202 225 255
202 225 255
202 225 255
202 225 255
202 225 255
201 225 255
201 225 255
201 225 255
201 225 255
201 225 255
201 224 255
201 224 255
201 224 255
201 224 255
201 224 255
201 224 255
201 224 255
201 224 255
201 224 255
201 224 255
200 224 255
200 224 255
200 224 255
200 224 255
200 224 255
200 224 255
200 224 255
200 224 255
200 224 255
200 224 255
200 224 255
200 224 255
200 224 255
200 224 255
200 224 255
199 224 255
199 224 255
199 223 255
199 223 255
199 223 255
199 223 255
199 223 255
199 223 255
199 223 255
199 223 255
199 223 255
199 223 255
199 223 255
199 223 255
198 223 255
198 223 255
198 223 255
198 223 255
198 223 255
198 223 255
198 223 255
198 223 255
198 223 255
198 223 255
198 223 255
198 223 255
198 223 255
198 223 255
197 223 255
197 222 255
197 222 255
197 222 255
197 222 255
197 222 255
197 222 255
197 222 255
197 222 255
197 222 255
197 222 255
197 222 255
197 222 255
197 222 255
197 222 255
196 222 255
196 222 255
196 222 255
196 222 255
196 222 255
196 222 255
196 222 255
196 222 255
196 222 255
196 222 255
196 222 255
196 222 255
196 222 255
196 222 255
196 222 255
196 221 255
195 221 255
195 221 255
195 221 255
195 221 255
195 221 255
195 221 255
195 221 255
195 221 255
195 221 255
195 221 255
195 221 255
195 221 255
195 221 255
195 221 255
195 221 255
195 221 255
195 221 255
195 221 255
195 221 255
195 221 255
194 221 255
194 221 255
194 221 255
194 221 255
194 221 255
194 221 255
194 221 255
194 221 255
194 221 255
194 221 255
194 221 255
194 221 255
194 221 255
194 221 255
194 221 255
194 221 255
194 221 255
194 221 255
194 221 255
194 221 255
194 221 255
194 221 255
194 221 255
194 221 255
194 221 255
194 221 255
194 221 255
194 221 255
194 221 255
194 221 255
194 221 255
194 220 255
194 220 255
194 220 255
194 220 255
194 220 255
194 220 255
194 220 255
194 220 255
194 220 255
194 220 255
194 220 255
194 220 255
194 220 255
194 220 255
194 220 255
194 220 255
194 221 255
194 221 255
194 221 255
194 221 255
194 221 255
194 221 255
194 221 255
194 221 255
194 221 255
194 221 255
194 221 255
194 221 255
194 221 255
194 221 255
194 221 255
194 221 255
194 221 255
194 221 255
194 221 255
194 221 255
194 221 255
194 221 255
194 221 255
194 221 255
194 221 255
194 221 255
194 221 255
194 221 255
194 221 255
194 221 255
194 221 255
195 221 255
195 221 255
195 221 255
195 221 255
195 221 255
195 221 255
195 221 255
195 221 255
195 221 255
195 221 255
195 221 255
195 221 255
195 221 255
195 221 255
195 221 255
195 221 255
195 221 255
195 221 255
195 221 255
196 221 255
196 221 255
196 222 255
196 222 255
196 222 255
196 222 255
196 222 255
196 222 255
196 222 255
196 222 255
196 222 255
196 222 255
196 222 255
196 222 255
196 222 255
196 222 255
196 222 255
197 222 255
197 222 255
197 222 255
197 222 255
197 222 255
197 222 255
197 222 255
197 222 255
197 222 255
197 222 255
197 222 255
197 222 255
197 222 255
197 222 255
197 223 255
198 223 255
198 223 255
198 223 255
198 223 255
198 223 255
198 223 255
198 223 255
198 223 255
198 223 255
198 223 255
198 223 255
198 223 255
198 223 255
198 223 255
199 223 255
199 223 255
199 223 255
199 223 255
199 223 255
199 223 255
199 223 255
199 223 255
199 223 255
199 223 255
199 223 255
199 223 255
199 224 255
199 224 255
200 224 255
200 224 255
200 224 255
200 224 255
200 224 255
200 224 255
200 224 255
200 224 255
200 224 255
200 224 255
200 224 255
200 224 255
200 224 255
200 224 255
200 224 255
201 224 255
201 224 255
201 224 255
201 224 255
201 224 255
201 224 255
201 224 255
201 224 255
201 224 255
201 224 255
201 225 255
201 225 255
201 225 255
201 225 255
201 225 255
202 225 255
202 225 255
202 225 255
202 225 255
202 225 255
202 225 255
202 225 255
202 225 255
202 225 255
202 225 255
202 225 255
202 225 255
202 225 255
202 225 255
202 225 255
202 225 255
203 225 255
203 225 255
203 225 255
203 225 255
203 225 255
203 225 255
203 225 255
203 225 255
203 225 255
203 226 255
203 226 255
203 226 255
203 226 255
203 226 255
203 226 255
203 226 255
204 226 255
204 226 255
204 226 255
204 226 255
204 226 255
204 226 255
204 226 255
204 226 255
204 226 255
204 226 255
204 226 255
204 226 255
204 226 255
204 226 255
204 226 255
204 226 255
204 226 255
204 226 255
205 226 255
205 226 255
205 226 255
205 226 255
205 226 255
205 226 255
204 226 255
204 226 255
204 226 255
204 226 255
204 226 255
204 226 255
204 226 255
204 226 255
204 226 255
204 226 255
204 226 255
204 226 255
204 226 255
204 226 255
204 226 255
204 226 255
204 226 255
204 226 255
203 226 255
203 226 255
203 226 255
203 226 255
203 226 255
203 226 255
203 226 255
203 226 255
203 225 255
203 225 255
203 225 255
203 225 255
203 225 255
203 225 255
203 225 255
203 225 255
203 225 255
202 225 255
202 225 255
202 225 255
202 225 255
202 225 255
202 225 255
202 225 255
202 225 255
202 225 255
202 225 255
202 225 255
202 225 255
202 225 255
202 225 255
202 225 255
201 225 255
201 225 255
201 225 255
201 225 255
201 225 255
201 224 255
201 224 255
201 224 255
201 224 255
201 224 255
201 224 255
201 224 255
201 224 255
201 224 255
201 224 255
200 224 255
200 224 255
200 224 255
200 224 255
200 224 255
200 224 255
200 224 255
200 224 255
200 224 255
200 224 255
200 224 255
200 224 255
200 224 255
200 224 255
200 224 255
199 224 255
199 224 255
199 223 255
199 223 255
199 223 255
199 223 255
199 223 255
199 223 255
199 223 255
199 223 255
199 223 255
199 223 255
199 223 255
199 223 255
198 223 255
198 223 255
198 223 255
198 223 255
198 223 255
198 223 255
198 223 255
198 223 255
198 223 255
198 223 255
198 223 255
198 223 255
198 223 255
198 223 255
197 223 255
197 222 255
197 222 255
197 222 255
197 222 255
197 222 255
197 222 255
197 222 255
197 222 255
197 222 255
197 222 255
197 222 255
197 222 255
197 222 255
197 222 255
196 222 255
196 222 255
196 222 255
196 222 255
196 222 255
196 222 255
196 222 255
196 222 255
196 222 255
196 222 255
196 222 255
196 222 255
196 222 255
196 222 255
196 222 255
196 222 255
196 221 255
195 221 255
195 221 255
195 221 255
195 221 255
195 221 255
195 221 255
195 221 255
195 221 255
195 221 255
195 221 255
195 221 255
195 221 255
195 221 255
195 221 255
195 221 255
195 221 255
195 221 255
195 221 255
195 221 255
195 221 255
195 221 255
194 221 255
194 221 255
194 221 255
194 221 255
194 221 255
194 221 255
194 221 255
194 221 255
194 221 255
194 221 255
194 221 255
194 221 255
194 221 255
194 221 255
194 221 255
194 221 255
194 221 255
194 221 255
194 221 255
194 221 255
194 221 255
194 221 255
194 221 255
194 221 255
194 221 255
194 221 255
194 221 255
194 221 255
194 221 255
194 221 255
194 221 255
194 221 255
194 221 255
194 221 255
194 221 255
194 221 255
194 221 255
194 221 255
194 221 255
194 221 255
194 221 255
194 221 255
194 221 255
194 221 255
194 221 255
194 221 255
194 221 255
194 221 255
194 221 255
194 221 255
194 221 255
194 221 255
194 221 255
194 221 255
194 221 255
194 221 255
194 221 255
194 221 255
194 221 255
194 221 255
194 221 255
194 221 255
194 221 255
194 221 255
194 221 255
194 221 255
194 221 255
194 221 255
194 221 255
194 221 255
195 221 255
195 221 255
195 221 255
195 221 255
195 221 255
195 221 255
195 221 255
195 221 255
195 221 255
195 221 255
195 221 255
195 221 255
195 221 255
195 221 255
195 221 255
195 221 255
195 221 255
195 221 255
195 221 255
195 221 255
195 221 255
196 221 255
196 221 255
196 222 255
196 222 255
196 222 255
196 222 255
196 222 255
196 222 255
196 222 255
196 222 255
196 222 255
196 222 255
196 222 255
196 222 255
196 222 255
196 222 255
196 222 255
197 222 255
197 222 255
197 222 255
197 222 255
197 222 255
197 222 255
197 222 255
197 222 255
197 222 255
197 222 255
197 222 255
197 222 255
197 222 255
197 222 255
197 223 255
198 223 255
198 223 255
198 223 255
198 223 255
198 223 255
198 223 255
198 223 255
198 223 255
198 223 255
198 223 255
198 223 255
198 223 255
198 223 255
198 223 255
199 223 255
199 223 255
199 223 255
199 223 255
199 223 255
199 223 255
199 223 255
199 223 255
199 223 255
199 223 255
199 223 255
199 223 255
199 224 255
199 224 255
200 224 255
200 224 255
200 224 255
200 224 255
200 224 255
200 224 255
200 224 255
200 224 255
200 224 255
200 224 255
200 224 255
200 224 255
200 224 255
200 224 255
200 224 255
201 224 255
201 224 255
201 224 255
201 224 255
201 224 255
201 224 255
201 224 255
201 224 255
201 224 255
201 224 255
201 225 255
201 225 255
201 225 255
201 225 255
201 225 255
202 225 255
202 225 255
202 225 255
202 225 255
202 225 255
202 225 255
202 225 255
202 225 255
202 225 255
202 225 255
202 225 255
202 225 255
202 225 255
202 225 255
202 225 255
203 225 255
203 225 255
203 225 255
203 225 255
203 225 255
203 225 255
203 225 255
203 225 255
203 225 255
203 226 255
203 226 255
203 226 255
203 226 255
203 226 255
203 226 255
203 226 255
203 226 255
204 226 255
204 226 255
204 226 255
204 226 255
204 226 255
204 226 255
204 226 255
204 226 255
204 226 255
204 226 255
204 226 255
204 226 255
204 226 255
204 226 255
204 226 255
204 226 255
204 226 255
204 226 255
205 226 255
205 226 255
205 226 255
205 226 255
205 226 255
205 226 255
205 226 255
205 226 255
205 226 255
205 226 255
205 226 255
204 226 255
204 226 255
204 226 255
204 226 255
204 226 255
204 226 255
204 226 255
204 226 255
204 226 255
204 226 255
204 226 255
204 226 255
204 226 255
204 226 255
204 226 255
204 226 255
204 226 255
203 226 255
203 226 255
203 226 255
203 226 255
203 226 255
203 226 255
203 226 255
203 226 255
203 225 255
203 225 255
203 225 255
203 225 255
203 225 255
203 225 255
203 225 255
203 225 255
203 225 255
202 225 255
202 225 255
202 225 255
202 225 255
202 225 255
202 225 255
202 225 255
202 225 255
202 225 255
202 225 255
202 225 255
202 225 255
202 225 255
202 225 255
202 225 255
201 225 255
201 225 255
201 225 255
201 225 255
201 225 255
201 224 255
201 224 255
201 224 255
201 224 255
201 224 255
201 224 255
201 224 255
201 224 255
201 224 255
201 224 255
200 224 255
200 224 255
200 224 255
200 224 255
200 224 255
200 224 255
200 224 255
200 224 255
200 224 255
200 224 255
200 224 255
200 224 255
200 224 255
200 224 255
200 224 255
199 224 255
199 224 255
199 223 255
199 223 255
199 223 255
199 223 255
199 223 255
199 223 255
199 223 255
199 223 255
199 223 255
199 223 255
199 223 255
199 223 255
198 223 255
198 223 255
198 223 255
198 223 255
198 223 255
198 223 255
198 223 255
198 223 255
198 223 255
198 223 255
198 223 255
198 223 255
198 223 255
198 223 255
197 223 255
197 222 255
197 222 255
197 222 255
197 222 255
197 222 255
197 222 255
197 222 255
197 222 255
197 222 255
197 222 255
197 222 255
197 222 255
197 222 255
197 222 255
197 222 255
196 222 255
196 222 255
196 222 255
196 222 255
196 222 255
196 222 255
196 222 255
196 222 255
196 222 255
196 222 255
196 222 255
196 222 255
196 222 255
196 222 255
196 222 255
196 221 255
196 221 255
195 221 255
195 221 255
195 221 255
195 221 255
195 221 255
195 221 255
195 221 255
195 221 255
195 221 255
195 221 255
195 221 255
195 221 255
195 221 255
195 221 255
195 221 255
195 221 255
195 221 255
195 221 255
195 221 255
195 221 255
195 221 255
195 221 255
194 221 255
194 221 255
194 221 255
194 221 255
194 221 255
194 221 255
194 221 255
194 221 255
194 221 255
194 221 255
194 221 255
194 221 255
194 221 255
194 221 255
194 221 255
194 221 255
194 221 255
194 221 255
194 221 255
194 221 255
194 221 255
194 221 255
194 221 255
194 221 255
194 221 255
194 221 255
194 221 255
194 221 255
194 221 255
194 221 255
194 221 255
194 221 255
194 221 255
194 221 255
194 221 255
194 221 255
194 221 255
194 221 255
194 221 255
194 221 255
194 221 255
194 221 255
194 221 255
194 221 255
194 221 255
194 221 255
194 221 255
194 221 255
194 221 255
194 221 255
194 221 255
194 221 255
194 221 255
194 221 255
194 221 255
194 221 255
194 221 255
194 221 255
194 221 255
194 221 255
194 221 255
194 221 255
195 221 255
195 221 255
195 221 255
195 221 255
195 221 255
195 221 255
195 221 255
195 221 255
195 221 255
195 221 255
195 221 255
195 221 255
195 221 255
195 221 255
195 221 255
195 221 255
195 221 255
195 221 255
195 221 255
195 221 255
195 221 255
195 221 255
196 221 255
196 221 255
196 222 255
196 222 255
196 222 255
196 222 255
196 222 255
196 222 255
196 222 255
196 222 255
196 222 255
196 222 255
196 222 255
196 222 255
196 222 255
196 222 255
196 222 255
197 222 255
197 222 255
197 222 255
197 222 255
197 222 255
197 222 255
197 222 255
197 222 255
197 222 255
197 222 255
197 222 255
197 222 255
197 222 255
197 222 255
197 222 255
197 223 255
198 223 255
198 223 255
198 223 255
198 223 255
198 223 255
198 223 255
198 223 255
198 223 255
198 223 255
198 223 255
198 223 255
198 223 255
198 223 255
198 223 255
199 223 255
199 223 255
199 223 255
199 223 255
199 223 255
199 223 255
199 223 255
199 223 255
199 223 255
199 223 255
199 223 255
199 223 255
199 224 255
199 224 255
200 224 255
200 224 255
200 224 255
200 224 255
200 224 255
200 224 255
200 224 255
200 224 255
200 224 255
200 224 255
200 224 255
200 224 255
200 224 255
200 224 255
200 224 255
201 224 255
201 224 255
201 224 255
201 224 255
201 224 255
201 224 255
201 224 255
201 224 255
201 224 255
201 224 255
201 225 255
201 225 255
201 225 255
201 225 255
201 225 255
202 225 255
202 225 255
202 225 255
202 225 255
202 225 255
202 225 255
202 225 255
202 225 255
202 225 255
202 225 255
202 225 255
202 225 255
202 225 255
202 225 255
202 225 255
203 225 255
203 225 255
203 225 255
203 225 255
203 225 255
203 225 255
203 225 255
203 225 255
203 225 255
203 226 255
203 226 255
203 226 255
203 226 255
203 226 255
203 226 255
203 226 255
204 226 255
204 226 255
204 226 255
204 226 255
204 226 255
204 226 255
204 226 255
204 226 255
204 226 255
204 226 255
204 226 255
204 226 255
204 226 255
204 226 255
204 226 255
204 226 255
204 226 255
204 226 255
205 226 255
205 226 255
205 226 255
205 226 255
205 226 255
205 226 255
205 226 255
205 227 255
205 227 255
205 226 255
205 226 255
205 226 255
205 226 255
205 226 255
205 226 255
205 226 255
204 226 255
204 226 255
204 226 255
204 226 255
204 226 255
204 226 255
204 226 255
204 226 255
204 226 255
204 226 255
204 226 255
204 226 255
204 226 255
204 226 255
204 226 255
204 226 255
204 226 255
204 226 255
203 226 255
203 226 255
203 226 255
203 226 255
203 226 255
203 226 255
203 226 255
203 225 255
203 225 255
203 225 255
203 225 255
203 225 255
203 225 255
203 225 255
203 225 255
203 225 255
202 225 255
202 225 255
202 225 255
202 225 255
202 225 255
202 225 255
202 225 255
202 225 255
202 225 255
202 225 255
202 225 255
202 225 255
202 225 255
202 225 255
202 225 255
202 225 255
201 225 255
201 225 255
201 225 255
201 225 255
201 224 255
201 224 255
201 224 255
201 224 255
201 224 255
201 224 255
201 224 255
201 224 255
201 224 255
201 224 255
200 224 255
200 224 255
200 224 255
200 224 255
200 224 255
200 224 255
200 224 255
200 224 255
200 224 255
200 224 255
200 224 255
200 224 255
200 224 255
200 224 255
200 224 255
199 224 255
199 224 255
199 223 255
199 223 255
199 223 255
199 223 255
199 223 255
199 223 255
199 223 255
199 223 255
199 223 255
199 223 255
199 223 255
199 223 255
198 223 255
198 223 255
198 223 255
198 223 255
198 223 255
198 223 255
198 223 255
198 223 255
198 223 255
198 223 255
198 223 255
198 223 255
198 223 255
198 223 255
198 223 255
197 222 255
197 222 255
197 222 255
197 222 255
197 222 255
197 222 255
197 222 255
197 222 255
197 222 255
197 222 255
197 222 255
197 222 255
197 222 255
197 222 255
197 222 255
196 222 255
196 222 255
196 222 255
196 222 255
196 222 255
196 222 255
196 222 255
196 222 255
196 222 255
196 222 255
196 222 255
196 222 255
196 222 255
196 222 255
196 222 255
196 222 255
196 221 255
196 221 255
195 221 255
195 221 255
195 221 255
195 221 255
195 221 255
195 221 255
195 221 255
195 221 255
195 221 255
195 221 255
195 221 255
195 221 255
195 221 255
195 221 255
195 221 255
195 221 255
195 221 255
195 221 255
195 221 255
195 221 255
195 221 255
195 221 255
195 221 255
194 221 255
194 221 255
194 221 255
194 221 255
194 221 255
194 221 255
194 221 255
194 221 255
194 221 255
194 221 255
194 221 255
194 221 255
194 221 255
194 221 255
194 221 255
194 221 255
194 221 255
194 221 255
194 221 255
194 221 255
194 221 255
194 221 255
194 221 255
194 221 255
194 221 255
194 221 255
194 221 255
194 221 255
194 221 255
194 221 255
194 221 255
194 221 255
194 221 255
194 221 255
194 221 255
194 221 255
194 221 255
194 221 255
194 221 255
194 221 255
194 221 255
194 221 255
194 221 255
194 221 255
194 221 255
194 221 255
194 221 255
194 221 255
194 221 255
194 221 255
194 221 255
194 221 255
194 221 255
194 221 255
195 221 255
195 221 255
195 221 255
195 221 255
195 221 255
195 221 255
195 221 255
195 221 255
195 221 255
195 221 255
195 221 255
195 221 255
195 221 255
195 221 255
195 221 255
195 221 255
195 221 255
195 221 255
195 221 255
195 221 255
195 221 255
195 221 255
195 221 255
195 221 255
196 221 255
196 222 255
196 222 255
196 222 255
196 222 255
196 222 255
196 222 255
196 222 255
196 222 255
196 222 255
196 222 255
196 222 255
196 222 255
196 222 255
196 222 255
196 222 255
196 222 255
197 222 255
197 222 255
197 222 255
197 222 255
197 222 255
197 222 255
197 222 255
197 222 255
197 222 255
197 222 255
197 222 255
197 222 255
197 222 255
197 222 255
197 222 255
198 223 255
198 223 255
198 223 255
198 223 255
198 223 255
198 223 255
198 223 255
198 223 255
198 223 255
198 223 255
198 223 255
198 223 255
198 223 255
198 223 255
198 223 255
199 223 255
199 223 255
199 223 255
199 223 255
199 223 255
199 223 255
199 223 255
199 223 255
199 223 255
199 223 255
199 223 255
199 223 255
199 224 255
199 224 255
200 224 255
200 224 255
200 224 255
200 224 255
200 224 255
200 224 255
200 224 255
200 224 255
200 224 255
200 224 255
200 224 255
200 224 255
200 224 255
200 224 255
201 224 255
201 224 255
201 224 255
201 224 255
201 224 255
201 224 255
201 224 255
201 224 255
201 224 255
201 224 255
201 224 255
201 225 255
201 225 255
201 225 255
201 225 255
202 225 255
202 225 255
202 225 255
202 225 255
202 225 255
202 225 255
202 225 255
202 225 255
202 225 255
202 225 255
202 225 255
202 225 255
202 225 255
202 225 255
202 225 255
202 225 255
203 225 255
203 225 255
203 225 255
203 225 255
203 225 255
203 225 255
203 225 255
203 225 255
203 225 255
203 226 255
203 226 255
203 226 255
203 226 255
203 226 255
203 226 255
203 226 255
204 226 255
204 226 255
204 226 255
204 226 255
204 226 255
204 226 255
204 226 255
204 226 255
204 226 255
204 226 255
204 226 255
204 226 255
204 226 255
204 226 255
204 226 255
204 226 255
204 226 255
204 226 255
205 226 255
205 226 255
205 226 255
205 226 255
205 226 255
205 226 255
205 226 255
205 227 255
205 227 255
205 227 255
205 227 255
205 227 255
205 227 255
205 226 255
205 226 255
205 226 255
205 226 255
205 226 255
205 226 255
205 226 255
205 226 255
204 226 255
204 226 255
204 226 255
204 226 255
204 226 255
204 226 255
204 226 255
204 226 255
204 226 255
204 226 255
204 226 255
204 226 255
204 226 255
204 226 255
204 226 255
204 226 255
204 226 255
203 226 255
203 226 255
203 226 255
203 226 255
203 226 255
203 226 255
203 226 255
203 226 255
203 225 255
203 225 255
203 225 255
203 225 255
203 225 255
203 225 255
203 225 255
203 225 255
202 225 255
202 225 255
202 225 255
202 225 255
202 225 255
202 225 255
202 225 255
202 225 255
202 225 255
202 225 255
202 225 255
202 225 255
202 225 255
202 225 255
202 225 255
202 225 255
201 225 255
201 225 255
201 225 255
201 225 255
201 224 255
201 224 255
201 224 255
201 224 255
201 224 255
201 224 255
201 224 255
201 224 255
201 224 255
201 224 255
201 224 255
200 224 255
200 224 255
200 224 255
200 224 255
200 224 255
200 224 255
200 224 255
200 224 255
200 224 255
200 224 255
200 224 255
200 224 255
200 224 255
200 224 255
199 224 255
199 224 255
199 223 255
199 223 255
199 223 255
199 223 255
199 223 255
199 223 255
199 223 255
199 223 255
199 223 255
199 223 255
199 223 255
199 223 255
198 223 255
198 223 255
198 223 255
198 223 255
198 223 255
198 223 255
198 223 255
198 223 255
198 223 255
198 223 255
198 223 255
198 223 255
198 223 255
198 223 255
198 223 255
197 222 255
197 222 255
197 222 255
197 222 255
197 222 255
197 222 255
197 222 255
197 222 255
197 222 255
197 222 255
197 222 255
197 222 255
197 222 255
197 222 255
197 222 255
196 222 255
196 222 255
196 222 255
196 222 255
196 222 255
196 222 255
196 222 255
196 222 255
196 222 255
196 222 255
196 222 255
196 222 255
196 222 255
196 222 255
196 222 255
196 222 255
196 222 255
196 221 255
195 221 255
195 221 255
195 221 255
195 221 255
195 221 255
195 221 255
195 221 255
195 221 255
195 221 255
195 221 255
195 221 255
195 221 255
195 221 255
195 221 255
195 221 255
195 221 255
195 221 255
195 221 255
195 221 255
195 221 255
195 221 255
195 221 255
195 221 255
195 221 255
195 221 255
195 221 255
195 221 255
194 221 255
194 221 255
194 221 255
194 221 255
194 221 255
194 221 255
194 221 255
194 221 255
194 221 255
194 221 255
194 221 255
194 221 255
194 221 255
194 221 255
194 221 255
194 221 255
194 221 255
194 221 255
194 221 255
194 221 255
194 221 255
194 221 255
194 221 255
194 221 255
194 221 255
194 221 255
194 221 255
194 221 255
194 221 255
194 221 255
194 221 255
194 221 255
194 221 255
194 221 255
194 221 255
194 221 255
194 221 255
194 221 255
194 221 255
194 221 255
194 221 255
194 221 255
194 221 255
195 221 255
195 221 255
195 221 255
195 221 255
195 221 255
195 221 255
195 221 255
195 221 255
195 221 255
195 221 255
195 221 255
195 221 255
195 221 255
195 221 255
195 221 255
195 221 255
195 221 255
195 221 255
195 221 255
195 221 255
195 221 255
195 221 255
195 221 255
195 221 255
195 221 255
195 221 255
196 221 255
196 222 255
196 222 255
196 222 255
196 222 255
196 222 255
196 222 255
196 222 255
196 222 255
196 222 255
196 222 255
196 222 255
196 222 255
196 222 255
196 222 255
196 222 255
196 222 255
196 222 255
197 222 255
197 222 255
197 222 255
197 222 255
197 222 255
197 222 255
197 222 255
197 222 255
197 222 255
197 222 255
197 222 255
197 222 255
197 222 255
197 222 255
197 222 255
198 223 255
198 223 255
198 223 255
198 223 255
198 223 255
198 223 255
198 223 255
198 223 255
198 223 255
198 223 255
198 223 255
198 223 255
198 223 255
198 223 255
198 223 255
199 223 255
199 223 255
199 223 255
199 223 255
199 223 255
199 223 255
199 223 255
199 223 255
199 223 255
199 223 255
199 223 255
199 223 255
199 224 255
199 224 255
200 224 255
200 224 255
200 224 255
200 224 255
200 224 255
200 224 255
200 224 255
200 224 255
200 224 255
200 224 255
200 224 255
200 224 255
200 224 255
200 224 255
201 224 255
201 224 255
201 224 255
201 224 255
201 224 255
201 224 255
201 224 255
201 224 255
201 224 255
201 224 255
201 224 255
201 225 255
201 225 255
201 225 255
201 225 255
202 225 255
202 225 255
202 225 255
202 225 255
202 225 255
202 225 255
202 225 255
202 225 255
202 225 255
202 225 255
202 225 255
202 225 255
202 225 255
202 225 255
202 225 255
202 225 255
203 225 255
203 225 255
203 225 255
203 225 255
203 225 255
203 225 255
203 225 255
203 225 255
203 225 255
203 226 255
203 226 255
203 226 255
203 226 255
203 226 255
203 226 255
203 226 255
204 226 255
204 226 255
204 226 255
204 226 255
204 226 255
204 226 255
204 226 255
204 226 255
204 226 255
204 226 255
204 226 255
204 226 255
204 226 255
204 226 255
204 226 255
204 226 255
204 226 255
205 226 255
205 226 255
205 226 255
205 226 255
205 226 255
205 226 255
205 226 255
205 226 255
205 227 255
205 227 255
205 227 255
205 227 255
205 227 255
205 227 255
205 227 255
205 227 255
205 227 255
205 227 255
205 227 255
205 226 255
205 226 255
205 226 255
205 226 255
205 226 255
205 226 255
205 226 255
204 226 255
204 226 255
204 226 255
204 226 255
204 226 255
204 226 255
204 226 255
204 226 255
204 226 255
204 226 255
204 226 255
204 226 255
204 226 255
204 226 255
204 226 255
204 226 255
204 226 255
203 226 255
203 226 255
203 226 255
203 226 255
203 226 255
203 226 255
203 226 255
203 226 255
203 225 255
203 225 255
203 225 255
203 225 255
203 225 255
203 225 255
203 225 255
203 225 255
203 225 255
202 225 255
202 225 255
202 225 255
202 225 255
202 225 255
202 225 255
202 225 255
202 225 255
202 225 255
202 225 255
202 225 255
202 225 255
202 225 255
202 225 255
202 225 255
201 225 255
201 225 255
201 225 255
201 225 255
201 224 255
201 224 255
201 224 255
201 224 255
201 224 255
201 224 255
201 224 255
201 224 255
201 224 255
201 224 255
201 224 255
200 224 255
200 224 255
200 224 255
200 224 255
200 224 255
200 224 255
200 224 255
200 224 255
200 224 255
200 224 255
200 224 255
200 224 255
200 224 255
200 224 255
199 224 255
199 224 255
199 223 255
199 223 255
199 223 255
199 223 255
199 223 255
199 223 255
199 223 255
199 223 255
199 223 255
199 223 255
199 223 255
199 223 255
198 223 255
198 223 255
198 223 255
198 223 255
198 223 255
198 223 255
198 223 255
198 223 255
198 223 255
198 223 255
198 223 255
198 223 255
198 223 255
198 223 255
198 223 255
197 223 255
197 222 255
197 222 255
197 222 255
197 222 255
197 222 255
197 222 255
197 222 255
197 222 255
197 222 255
197 222 255
197 222 255
197 222 255
197 222 255
197 222 255
197 222 255
196 222 255
196 222 255
196 222 255
196 222 255
196 222 255
196 222 255
196 222 255
196 222 255
196 222 255
196 222 255
196 222 255
196 222 255
196 222 255
196 222 255
196 222 255
196 222 255
196 221 255
196 221 255
195 221 255
195 221 255
195 221 255
195 221 255
195 221 255
195 221 255
195 221 255
195 221 255
195 221 255
195 221 255
195 221 255
195 221 255
195 221 255
195 221 255
195 221 255
195 221 255
195 221 255
195 221 255
195 221 255
195 221 255
195 221 255
195 221 255
195 221 255
195 221 255
195 221 255
195 221 255
195 221 255
195 221 255
195 221 255
195 221 255
195 221 255
194 221 255
194 221 255
194 221 255
194 221 255
194 221 255
194 221 255
194 221 255
194 221 255
194 221 255
194 221 255
194 221 255
194 221 255
194 221 255
194 221 255
194 221 255
194 221 255
194 221 255
194 221 255
194 221 255
194 221 255
194 221 255
194 221 255
194 221 255
194 221 255
194 221 255
194 221 255
194 221 255
194 221 255
194 221 255
195 221 255
195 221 255
195 221 255
195 221 255
195 221 255
195 221 255
195 221 255
195 221 255
195 221 255
195 221 255
195 221 255
195 221 255
195 221 255
195 221 255
195 221 255
195 221 255
195 221 255
195 221 255
195 221 255
195 221 255
195 221 255
195 221 255
195 221 255
195 221 255
195 221 255
195 221 255
195 221 255
195 221 255
195 221 255
195 221 255
196 221 255
196 222 255
196 222 255
196 222 255
196 222 255
196 222 255
196 222 255
196 222 255
196 222 255
196 222 255
196 222 255
196 222 255
196 222 255
196 222 255
196 222 255
196 222 255
196 222 255
196 222 255
197 222 255
197 222 255
197 222 255
197 222 255
197 222 255
197 222 255
197 222 255
197 222 255
197 222 255
197 222 255
197 222 255
197 222 255
197 222 255
197 222 255
197 222 255
197 223 255
198 223 255
198 223 255
198 223 255
198 223 255
198 223 255
198 223 255
198 223 255
198 223 255
198 223 255
198 223 255
198 223 255
198 223 255
198 223 255
198 223 255
198 223 255
199 223 255
199 223 255
199 223 255
199 223 255
199 223 255
199 223 255
199 223 255
199 223 255
199 223 255
199 223 255
199 223 255
199 223 255
199 224 255
199 224 255
200 224 255
200 224 255
200 224 255
200 224 255
200 224 255
200 224 255
200 224 255
200 224 255
200 224 255
200 224 255
200 224 255
200 224 255
200 224 255
200 224 255
201 224 255
201 224 255
201 224 255
201 224 255
201 224 255
201 224 255
201 224 255
201 224 255
201 224 255
201 224 255
201 224 255
201 225 255
201 225 255
201 225 255
201 225 255
202 225 255
202 225 255
202 225 255
202 225 255
202 225 255
202 225 255
202 225 255
202 225 255
202 225 255
202 225 255
202 225 255
202 225 255
202 225 255
202 225 255
202 225 255
203 225 255
203 225 255
203 225 255
203 225 255
203 225 255
203 225 255
203 225 255
203 225 255
203 225 255
203 226 255
203 226 255
203 226 255
203 226 255
203 226 255
203 226 255
203 226 255
203 226 255
204 226 255
204 226 255
204 226 255
204 226 255
204 226 255
204 226 255
204 226 255
204 226 255
204 226 255
204 226 255
204 226 255
204 226 255
204 226 255
204 226 255
204 226 255
204 226 255
204 226 255
205 226 255
205 226 255
205 226 255
205 226 255
205 226 255
205 226 255
205 226 255
205 227 255
205 227 255
205 227 255
205 227 255
205 227 255
205 227 255
205 227 255
205 227 255
205 227 255
205 227 255
205 227 255
205 227 255
205 227 255
205 227 255
205 227 255
205 227 255
205 226 255
205 226 255
205 226 255
205 226 255
205 226 255
205 226 255
205 226 255
204 226 255
204 226 255
204 226 255
204 226 255
204 226 255
204 226 255
204 226 255
204 226 255
204 226 255
204 226 255
204 226 255
204 226 255
204 226 255
204 226 255
204 226 255
204 226 255
204 226 255
204 226 255
203 226 255
203 226 255
203 226 255
203 226 255
203 226 255
203 226 255
203 226 255
203 225 255
203 225 255
203 225 255
203 225 255
203 225 255
203 225 255
203 225 255
203 225 255
203 225 255
202 225 255
202 225 255
202 225 255
202 225 255
202 225 255
202 225 255
202 225 255
202 225 255
202 225 255
202 225 255
202 225 255
202 225 255
202 225 255
202 225 255
202 225 255
201 225 255
201 225 255
201 225 255
201 225 255
201 225 255
201 224 255
201 224 255
201 224 255
201 224 255
201 224 255
201 224 255
201 224 255
201 224 255
201 224 255
201 224 255
200 224 255
200 224 255
200 224 255
200 224 255
200 224 255
200 224 255
200 224 255
200 224 255
200 224 255
200 224 255
200 224 255
200 224 255
200 224 255
200 224 255
199 224 255
199 224 255
199 223 255
199 223 255
199 223 255
199 223 255
199 223 255
199 223 255
199 223 255
199 223 255
199 223 255
199 223 255
199 223 255
199 223 255
199 223 255
198 223 255
198 223 255
198 223 255
198 223 255
198 223 255
198 223 255
198 223 255
198 223 255
198 223 255
198 223 255
198 223 255
198 223 255
198 223 255
198 223 255
197 223 255
197 222 255
197 222 255
197 222 255
197 222 255
197 222 255
197 222 255
197 222 255
197 222 255
197 222 255
197 222 255
197 222 255
197 222 255
197 222 255
197 222 255
197 222 255
197 222 255
196 222 255
196 222 255
196 222 255
196 222 255
196 222 255
196 222 255
196 222 255
196 222 255
196 222 255
196 222 255
196 222 255
196 222 255
196 222 255
196 222 255
196 222 255
196 222 255
196 222 255
196 221 255
196 221 255
195 221 255
195 221 255
195 221 255
195 221 255
195 221 255
195 221 255
195 221 255
195 221 255
195 221 255
195 221 255
195 221 255
195 221 255
195 221 255
195 221 255
195 221 255
195 221 255
195 221 255
195 221 255
195 221 255
195 221 255
195 221 255
195 221 255
195 221 255
195 221 255
195 221 255
195 221 255
195 221 255
195 221 255
195 221 255
195 221 255
195 221 255
195 221 255
195 221 255
195 221 255
195 221 255
195 221 255
195 221 255
195 221 255
195 221 255
195 221 255
195 221 255
195 221 255
195 221 255
195 221 255
195 221 255
195 221 255
195 221 255
195 221 255
195 221 255
195 221 255
195 221 255
195 221 255
195 221 255
195 221 255
195 221 255
195 221 255
195 221 255
195 221 255
195 221 255
195 221 255
195 221 255
195 221 255
195 221 255
195 221 255
195 221 255
195 221 255
195 221 255
195 221 255
195 221 255
195 221 255
195 221 255
195 221 255
195 221 255
195 221 255
195 221 255
195 221 255
195 221 255
195 221 255
195 221 255
195 221 255
195 221 255
195 221 255
195 221 255
196 221 255
196 222 255
196 222 255
196 222 255
196 222 255
196 222 255
196 222 255
196 222 255
196 222 255
196 222 255
196 222 255
196 222 255
196 222 255
196 222 255
196 222 255
196 222 255
196 222 255
196 222 255
196 222 255
197 222 255
197 222 255
197 222 255
197 222 255
197 222 255
197 222 255
197 222 255
197 222 255
197 222 255
197 222 255
197 222 255
197 222 255
197 222 255
197 222 255
197 222 255
197 223 255
198 223 255
198 223 255
198 223 255
198 223 255
198 223 255
198 223 255
198 223 255
198 223 255
198 223 255
198 223 255
198 223 255
198 223 255
198 223 255
198 223 255
199 223 255
199 223 255
199 223 255
199 223 255
199 223 255
199 223 255
199 223 255
199 223 255
199 223 255
199 223 255
199 223 255
199 223 255
199 223 255
199 224 255
199 224 255
200 224 255
200 224 255
200 224 255
200 224 255
200 224 255
200 224 255
200 224 255
200 224 255
200 224 255
200 224 255
200 224 255
200 224 255
200 224 255
200 224 255
201 224 255
201 224 255
201 224 255
201 224 255
201 224 255
201 224 255
201 224 255
201 224 255
201 224 255
201 224 255
201 224 255
201 225 255
201 225 255
201 225 255
201 225 255
202 225 255
202 225 255
202 225 255
202 225 255
202 225 255
202 225 255
202 225 255
202 225 255
202 225 255
202 225 255
202 225 255
202 225 255
202 225 255
202 225 255
202 225 255
203 225 255
203 225 255
203 225 255
203 225 255
203 225 255
203 225 255
203 225 255
203 225 255
203 225 255
203 226 255
203 226 255
203 226 255
203 226 255
203 226 255
203 226 255
203 226 255
204 226 255
204 226 255
204 226 255
204 226 255
204 226 255
204 226 255
204 226 255
204 226 255
204 226 255
204 226 255
204 226 255
204 226 255
204 226 255
204 226 255
204 226 255
204 226 255
204 226 255
204 226 255
205 226 255
205 226 255
205 226 255
205 226 255
205 226 255
205 226 255
205 226 255
205 227 255
205 227 255
205 227 255
205 227 255
205 227 255
205 227 255
205 227 255
205 227 255
205 227 255
205 227 255
205 227 255
205 227 255
205 227 255
205 227 255
205 227 255
205 227 255
205 227 255
205 227 255
205 227 255
205 227 255
205 227 255
205 226 255
205 226 255
205 226 255
205 226 255
205 226 255
205 226 255
205 226 255
204 226 255
204 226 255
204 226 255
204 226 255
204 226 255
204 226 255
204 226 255
204 226 255
204 226 255
204 226 255
204 226 255
204 226 255
204 226 255
204 226 255
204 226 255
204 226 255
204 226 255
203 226 255
203 226 255
203 226 255
203 226 255
203 226 255
203 226 255
203 226 255
203 225 255
203 225 255
203 225 255
203 225 255
203 225 255
203 225 255
203 225 255
203 225 255
203 225 255
202 225 255
202 225 255
202 225 255
202 225 255
202 225 255
202 225 255
202 225 255
202 225 255
202 225 255
202 225 255
202 225 255
202 225 255
202 225 255
202 225 255
202 225 255
201 225 255
201 225 255
201 225 255
201 225 255
201 225 255
201 224 255
201 224 255
201 224 255
201 224 255
201 224 255
201 224 255
201 224 255
201 224 255
201 224 255
201 224 255
200 224 255
200 224 255
200 224 255
200 224 255
200 224 255
200 224 255
200 224 255
200 224 255
200 224 255
200 224 255
200 224 255
200 224 255
200 224 255
200 224 255
199 224 255
199 224 255
199 224 255
199 223 255
199 223 255
199 223 255
199 223 255
199 223 255
199 223 255
199 223 255
199 223 255
199 223 255
199 223 255
199 223 255
199 223 255
198 223 255
198 223 255
198 223 255
198 223 255
198 223 255
198 223 255
198 223 255
198 223 255
198 223 255
198 223 255
198 223 255
198 223 255
198 223 255
198 223 255
198 223 255
197 222 255
197 222 255
197 222 255
197 222 255
197 222 255
197 222 255
197 222 255
197 222 255
197 222 255
197 222 255
197 222 255
197 222 255
197 222 255
197 222 255
197 222 255
197 222 255
196 222 255
196 222 255
196 222 255
196 222 255
196 222 255
196 222 255
196 222 255
196 222 255
196 222 255
196 222 255
196 222 255
196 222 255
196 222 255
196 222 255
196 222 255
196 222 255
196 222 255
196 222 255
196 221 255
196 221 255
195 221 255
195 221 255
195 221 255
195 221 255
195 221 255
195 221 255
195 221 255
195 221 255
195 221 255
195 221 255
195 221 255
195 221 255
195 221 255
195 221 255
195 221 255
195 221 255
195 221 255
195 221 255
195 221 255
195 221 255
195 221 255
195 221 255
195 221 255
195 221 255
195 221 255
195 221 255
195 221 255
195 221 255
195 221 255
195 221 255
195 221 255
195 221 255
195 221 255
195 221 255
195 221 255
195 221 255
195 221 255
195 221 255
195 221 255
195 221 255
195 221 255
195 221 255
195 221 255
195 221 255
195 221 255
195 221 255
195 221 255
195 221 255
195 221 255
195 221 255
195 221 255
195 221 255
195 221 255
195 221 255
195 221 255
195 221 255
195 221 255
195 221 255
195 221 255
195 221 255
195 221 255
195 221 255
195 221 255
195 221 255
195 221 255
195 221 255
195 221 255
195 221 255
195 221 255
195 221 255
195 221 255
195 221 255
195 221 255
195 221 255
195 221 255
195 221 255
196 221 255
196 221 255
196 222 255
196 222 255
196 222 255
196 222 255
196 222 255
196 222 255
196 222 255
196 222 255
196 222 255
196 222 255
196 222 255
196 222 255
196 222 255
196 222 255
196 222 255
196 222 255
196 222 255
196 222 255
197 222 255
197 222 255
197 222 255
197 222 255
197 222 255
197 222 255
197 222 255
197 222 255
197 222 255
197 222 255
197 222 255
197 222 255
197 222 255
197 222 255
197 222 255
197 222 255
198 223 255
198 223 255
198 223 255
198 223 255
198 223 255
198 223 255
198 223 255
198 223 255
198 223 255
198 223 255
198 223 255
198 223 255
198 223 255
198 223 255
198 223 255
199 223 255
199 223 255
199 223 255
199 223 255
199 223 255
199 223 255
199 223 255
199 223 255
199 223 255
199 223 255
199 223 255
199 223 255
199 224 255
199 224 255
199 224 255
200 224 255
200 224 255
200 224 255
200 224 255
200 224 255
200 224 255
200 224 255
200 224 255
200 224 255
200 224 255
200 224 255
200 224 255
200 224 255
200 224 255
201 224 255
201 224 255
201 224 255
201 224 255
201 224 255
201 224 255
201 224 255
201 224 255
201 224 255
201 224 255
201 225 255
201 225 255
201 225 255
201 225 255
201 225 255
202 225 255
202 225 255
202 225 255
202 225 255
202 225 255
202 225 255
202 225 255
202 225 255
202 225 255
202 225 255
202 225 255
202 225 255
202 225 255
202 225 255
202 225 255
203 225 255
203 225 255
203 225 255
203 225 255
203 225 255
203 225 255
203 225 255
203 225 255
203 225 255
203 226 255
203 226 255
203 226 255
203 226 255
203 226 255
203 226 255
203 226 255
204 226 255
204 226 255
204 226 255
204 226 255
204 226 255
204 226 255
204 226 255
204 226 255
204 226 255
204 226 255
204 226 255
204 226 255
204 226 255
204 226 255
204 226 255
204 226 255
204 226 255
205 226 255
205 226 255
205 226 255
205 226 255
205 226 255
205 226 255
205 226 255
205 227 255
205 227 255
205 227 255
205 227 255
205 227 255
205 227 255
205 227 255
205 227 255
205 227 255
205 227 255
205 227 255
205 227 255
206 227 255
206 227 255
206 227 255
205 227 255
205 227 255
205 227 255
205 227 255
205 227 255
205 227 255
205 227 255
205 227 255
205 227 255
205 227 255
205 227 255
205 226 255
205 226 255
205 226 255
205 226 255
205 226 255
205 226 255
205 226 255
204 226 255
204 226 255
204 226 255
204 226 255
204 226 255
204 226 255
204 226 255
204 226 255
204 226 255
204 226 255
204 226 255
204 226 255
204 226 255
204 226 255
204 226 255
204 226 255
204 226 255
203 226 255
203 226 255
203 226 255
203 226 255
203 226 255
203 226 255
203 226 255
203 225 255
203 225 255
203 225 255
203 225 255
203 225 255
203 225 255
203 225 255
203 225 255
203 225 255
202 225 255
202 225 255
202 225 255
202 225 255
202 225 255
202 225 255
202 225 255
202 225 255
202 225 255
202 225 255
202 225 255
202 225 255
202 225 255
202 225 255
202 225 255
202 225 255
201 225 255
201 225 255
201 225 255
201 225 255
201 224 255
201 224 255
201 224 255
201 224 255
201 224 255
201 224 255
201 224 255
201 224 255
201 224 255
201 224 255
200 224 255
200 224 255
200 224 255
200 224 255
200 224 255
200 224 255
200 224 255
200 224 255
200 224 255
200 224 255
200 224 255
200 224 255
200 224 255
200 224 255
200 224 255
199 224 255
199 224 255
199 223 255
199 223 255
199 223 255
199 223 255
199 223 255
199 223 255
199 223 255
199 223 255
199 223 255
199 223 255
199 223 255
199 223 255
198 223 255
198 223 255
198 223 255
198 223 255
198 223 255
198 223 255
198 223 255
198 223 255
198 223 255
198 223 255
198 223 255
198 223 255
198 223 255
198 223 255
198 223 255
197 223 255
197 222 255
197 222 255
197 222 255
197 222 255
197 222 255
197 222 255
197 222 255
197 222 255
197 222 255
197 222 255
197 222 255
197 222 255
197 222 255
197 222 255
197 222 255
197 222 255
196 222 255
196 222 255
196 222 255
196 222 255
196 222 255
196 222 255
196 222 255
196 222 255
196 222 255
196 222 255
196 222 255
196 222 255
196 222 255
196 222 255
196 222 255
196 222 255
196 222 255
196 222 255
196 222 255
196 221 255
196 221 255
195 221 255
195 221 255
195 221 255
195 221 255
195 221 255
195 221 255
195 221 255
195 221 255
195 221 255
195 221 255
195 221 255
195 221 255
195 221 255
195 221 255
195 221 255
195 221 255
195 221 255
195 221 255
195 221 255
195 221 255
195 221 255
195 221 255
195 221 255
195 221 255
195 221 255
195 221 255
195 221 255
195 221 255
195 221 255
195 221 255
195 221 255
195 221 255
195 221 255
195 221 255
195 221 255
195 221 255
195 221 255
195 221 255
195 221 255
195 221 255
195 221 255
195 221 255
195 221 255
195 221 255
195 221 255
195 221 255
195 221 255
195 221 255
195 221 255
195 221 255
195 221 255
195 221 255
195 221 255
195 221 255
195 221 255
195 221 255
195 221 255
195 221 255
195 221 255
195 221 255
195 221 255
195 221 255
195 221 255
195 221 255
195 221 255
195 221 255
195 221 255
195 221 255
196 221 255
196 221 255
196 222 255
196 222 255
196 222 255
196 222 255
196 222 255
196 222 255
196 222 255
196 222 255
196 222 255
196 222 255
196 222 255
196 222 255
196 222 255
196 222 255
196 222 255
196 222 255
196 222 255
196 222 255
196 222 255
197 222 255
197 222 255
197 222 255
197 222 255
197 222 255
197 222 255
197 222 255
197 222 255
197 222 255
197 222 255
197 222 255
197 222 255
197 222 255
197 222 255
197 222 255
197 222 255
197 223 255
198 223 255
198 223 255
198 223 255
198 223 255
198 223 255
198 223 255
198 223 255
198 223 255
198 223 255
198 223 255
198 223 255
198 223 255
198 223 255
198 223 255
198 223 255
199 223 255
199 223 255
199 223 255
199 223 255
199 223 255
199 223 255
199 223 255
199 223 255
199 223 255
199 223 255
199 223 255
199 223 255
199 224 255
199 224 255
200 224 255
200 224 255
200 224 255
200 224 255
200 224 255
200 224 255
200 224 255
200 224 255
200 224 255
200 224 255
200 224 255
200 224 255
200 224 255
200 224 255
200 224 255
201 224 255
201 224 255
201 224 255
201 224 255
201 224 255
201 224 255
201 224 255
201 224 255
201 224 255
201 224 255
201 225 255
201 225 255
201 225 255
201 225 255
201 225 255
202 225 255
202 225 255
202 225 255
202 225 255
202 225 255
202 225 255
202 225 255
202 225 255
202 225 255
202 225 255
202 225 255
202 225 255
202 225 255
202 225 255
202 225 255
203 225 255
203 225 255
203 225 255
203 225 255
203 225 255
203 225 255
203 225 255
203 225 255
203 226 255
203 226 255
203 226 255
203 226 255
203 226 255
203 226 255
203 226 255
203 226 255
204 226 255
204 226 255
204 226 255
204 226 255
204 226 255
204 226 255
204 226 255
204 226 255
204 226 255
204 226 255
204 226 255
204 226 255
204 226 255
204 226 255
204 226 255
204 226 255
204 226 255
205 226 255
205 226 255
205 226 255
205 226 255
205 226 255
205 226 255
205 226 255
205 227 255
205 227 255
205 227 255
205 227 255
205 227 255
205 227 255
205 227 255
205 227 255
205 227 255
205 227 255
205 227 255
206 227 255
206 227 255
206 227 255
206 227 255
206 227 255
206 227 255
206 227 255
206 227 255
205 227 255
205 227 255
205 227 255
205 227 255
205 227 255
205 227 255
205 227 255
205 227 255
205 227 255
205 227 255
205 227 255
205 226 255
205 226 255
205 226 255
205 226 255
205 226 255
205 226 255
205 226 255
205 226 255
204 226 255
204 226 255
204 226 255
204 226 255
204 226 255
204 226 255
204 226 255
204 226 255
204 226 255
204 226 255
204 226 255
204 226 255
204 226 255
204 226 255
204 226 255
204 226 255
204 226 255
203 226 255
203 226 255
203 226 255
203 226 255
203 226 255
203 226 255
203 226 255
203 225 255
203 225 255
203 225 255
203 225 255
203 225 255
203 225 255
203 225 255
203 225 255
203 225 255
202 225 255
202 225 255
202 225 255
202 225 255
202 225 255
202 225 255
202 225 255
202 225 255
202 225 255
202 225 255
202 225 255
202 225 255
202 225 255
202 225 255
202 225 255
201 225 255
201 225 255
201 225 255
201 225 255
201 224 255
201 224 255
201 224 255
201 224 255
201 224 255
201 224 255
201 224 255
201 224 255
201 224 255
201 224 255
200 224 255
200 224 255
200 224 255
200 224 255
200 224 255
200 224 255
200 224 255
200 224 255
200 224 255
200 224 255
200 224 255
200 224 255
200 224 255
200 224 255
200 224 255
199 224 255
199 224 255
199 223 255
199 223 255
199 223 255
199 223 255
199 223 255
199 223 255
199 223 255
199 223 255
199 223 255
199 223 255
199 223 255
199 223 255
198 223 255
198 223 255
198 223 255
198 223 255
198 223 255
198 223 255
198 223 255
198 223 255
198 223 255
198 223 255
198 223 255
198 223 255
198 223 255
198 223 255
198 223 255
198 223 255
197 222 255
197 222 255
197 222 255
197 222 255
197 222 255
197 222 255
197 222 255
197 222 255
197 222 255
197 222 255
197 222 255
197 222 255
197 222 255
197 222 255
197 222 255
197 222 255
197 222 255
196 222 255
196 222 255
196 222 255
196 222 255
196 222 255
196 222 255
196 222 255
196 222 255
196 222 255
196 222 255
196 222 255
196 222 255
196 222 255
196 222 255
196 222 255
196 222 255
196 222 255
196 222 255
196 222 255
196 222 255
196 221 255
196 221 255
195 221 255
195 221 255
195 221 255
195 221 255
195 221 255
195 221 255
195 221 255
195 221 255
195 221 255
195 221 255
195 221 255
195 221 255
195 221 255
195 221 255
195 221 255
195 221 255
195 221 255
195 221 255
195 221 255
195 221 255
195 221 255
195 221 255
195 221 255
195 221 255
195 221 255
195 221 255
195 221 255
195 221 255
195 221 255
195 221 255
195 221 255
195 221 255
195 221 255
195 221 255
195 221 255
195 221 255
195 221 255
195 221 255
195 221 255
195 221 255
195 221 255
195 221 255
195 221 255
195 221 255
195 221 255
195 221 255
195 221 255
195 221 255
195 221 255
195 221 255
195 221 255
195 221 255
195 221 255
195 221 255
195 221 255
195 221 255
195 221 255
195 221 255
195 221 255
195 221 255
196 221 255
196 221 255
196 221 255
196 222 255
196 222 255
196 222 255
196 222 255
196 222 255
196 222 255
196 222 255
196 222 255
196 222 255
196 222 255
196 222 255
196 222 255
196 222 255
196 222 255
196 222 255
196 222 255
196 222 255
196 222 255
196 222 255
197 222 255
197 222 255
197 222 255
197 222 255
197 222 255
197 222 255
197 222 255
197 222 255
197 222 255
197 222 255
197 222 255
197 222 255
197 222 255
197 222 255
197 222 255
197 222 255
197 222 255
198 223 255
198 223 255
198 223 255
198 223 255
198 223 255
198 223 255
198 223 255
198 223 255
198 223 255
198 223 255
198 223 255
198 223 255
198 223 255
198 223 255
198 223 255
198 223 255
199 223 255
199 223 255
199 223 255
199 223 255
199 223 255
199 223 255
199 223 255
199 223 255
199 223 255
199 223 255
199 223 255
199 223 255
199 224 255
199 224 255
200 224 255
200 224 255
200 224 255
200 224 255
200 224 255
200 224 255
200 224 255
200 224 255
200 224 255
200 224 255
200 224 255
200 224 255
200 224 255
200 224 255
200 224 255
201 224 255
201 224 255
201 224 255
201 224 255
201 224 255
201 224 255
201 224 255
201 224 255
201 224 255
201 224 255
201 225 255
201 225 255
201 225 255
201 225 255
202 225 255
202 225 255
202 225 255
202 225 255
202 225 255
202 225 255
202 225 255
202 225 255
202 225 255
202 225 255
202 225 255
202 225 255
202 225 255
202 225 255
202 225 255
203 225 255
203 225 255
203 225 255
203 225 255
203 225 255
203 225 255
203 225 255
203 225 255
203 225 255
203 226 255
203 226 255
203 226 255
203 226 255
203 226 255
203 226 255
203 226 255
204 226 255
204 226 255
204 226 255
204 226 255
204 226 255
204 226 255
204 226 255
204 226 255
204 226 255
204 226 255
204 226 255
204 226 255
204 226 255
204 226 255
204 226 255
204 226 255
204 226 255
205 226 255
205 226 255
205 226 255
205 226 255
205 226 255
205 226 255
205 226 255
205 227 255
205 227 255
205 227 255
205 227 255
205 227 255
205 227 255
205 227 255
205 227 255
205 227 255
205 227 255
205 227 255
205 227 255
206 227 255
206 227 255
206 227 255
206 227 255
206 227 255
206 227 255
206 227 255
206 227 255
206 227 255
206 227 255
206 227 255
206 227 255
206 227 255
205 227 255
205 227 255
205 227 255
205 227 255
205 227 255
205 227 255
205 227 255
205 227 255
205 227 255
205 227 255
205 227 255
205 226 255
205 226 255
205 226 255
205 226 255
205 226 255
205 226 255
205 226 255
204 226 255
204 226 255
204 226 255
204 226 255
204 226 255
204 226 255
204 226 255
204 226 255
204 226 255
204 226 255
204 226 255
204 226 255
204 226 255
204 226 255
204 226 255
204 226 255
204 226 255
203 226 255
203 226 255
203 226 255
203 226 255
203 226 255
203 226 255
203 226 255
203 225 255
203 225 255
203 225 255
203 225 255
203 225 255
203 225 255
203 225 255
203 225 255
203 225 255
202 225 255
202 225 255
202 225 255
202 225 255
202 225 255
202 225 255
202 225 255
202 225 255
202 225 255
202 225 255
202 225 255
202 225 255
202 225 255
202 225 255
202 225 255
201 225 255
201 225 255
201 225 255
201 225 255
201 225 255
201 224 255
201 224 255
201 224 255
201 224 255
201 224 255
201 224 255
201 224 255
201 224 255
201 224 255
201 224 255
200 224 255
200 224 255
200 224 255
200 224 255
200 224 255
200 224 255
200 224 255
200 224 255
200 224 255
200 224 255
200 224 255
200 224 255
200 224 255
200 224 255
199 224 255
199 224 255
199 223 255
199 223 255
199 223 255
199 223 255
199 223 255
199 223 255
199 223 255
199 223 255
199 223 255
199 223 255
199 223 255
199 223 255
199 223 255
198 223 255
198 223 255
198 223 255
198 223 255
198 223 255
198 223 255
198 223 255
198 223 255
198 223 255
198 223 255
198 223 255
198 223 255
198 223 255
198 223 255
198 223 255
197 223 255
197 222 255
197 222 255
197 222 255
197 222 255
197 222 255
197 222 255
197 222 255
197 222 255
197 222 255
197 222 255
197 222 255
197 222 255
197 222 255
197 222 255
197 222 255
197 222 255
197 222 255
196 222 255
196 222 255
196 222 255
196 222 255
196 222 255
196 222 255
196 222 255
196 222 255
196 222 255
196 222 255
196 222 255
196 222 255
196 222 255
196 222 255
196 222 255
196 222 255
196 222 255
196 222 255
196 222 255
196 222 255
196 222 255
196 221 255
196 221 255
196 221 255
195 221 255
195 221 255
195 221 255
195 221 255
195 221 255
195 221 255
195 221 255
195 221 255
195 221 255
195 221 255
195 221 255
195 221 255
195 221 255
195 221 255
195 221 255
195 221 255
195 221 255
195 221 255
195 221 255
195 221 255
195 221 255
195 221 255
195 221 255
195 221 255
195 221 255
195 221 255
195 221 255
195 221 255
195 221 255
195 221 255
195 221 255
195 221 255
195 221 255
195 221 255
195 221 255
195 221 255
195 221 255
195 221 255
195 221 255
195 221 255
195 221 255
195 221 255
195 221 255
195 221 255
195 221 255
195 221 255
195 221 255
195 221 255
195 221 255
195 221 255
196 221 255
196 221 255
196 221 255
196 222 255
196 222 255
196 222 255
196 222 255
196 222 255
196 222 255
196 222 255
196 222 255
196 222 255
196 222 255
196 222 255
196 222 255
196 222 255
196 222 255
196 222 255
196 222 255
196 222 255
196 222 255
196 222 255
196 222 255
196 222 255
197 222 255
197 222 255
197 222 255
197 222 255
197 222 255
197 222 255
197 222 255
197 222 255
197 222 255
197 222 255
197 222 255
197 222 255
197 222 255
197 222 255
197 222 255
197 222 255
197 222 255
197 222 255
198 223 255
198 223 255
198 223 255
198 223 255
198 223 255
198 223 255
198 223 255
198 223 255
198 223 255
198 223 255
198 223 255
198 223 255
198 223 255
198 223 255
198 223 255
199 223 255
199 223 255
199 223 255
199 223 255
199 223 255
199 223 255
199 223 255
199 223 255
199 223 255
199 223 255
199 223 255
199 223 255
199 224 255
199 224 255
199 224 255
200 224 255
200 224 255
200 224 255
200 224 255
200 224 255
200 224 255
200 224 255
200 224 255
200 224 255
200 224 255
200 224 255
200 224 255
200 224 255
200 224 255
201 224 255
201 224 255
201 224 255
201 224 255
201 224 255
201 224 255
201 224 255
201 224 255
201 224 255
201 224 255
201 224 255
201 225 255
201 225 255
201 225 255
201 225 255
202 225 255
202 225 255
202 225 255
202 225 255
202 225 255
202 225 255
202 225 255
202 225 255
202 225 255
202 225 255
202 225 255
202 225 255
202 225 255
202 225 255
202 225 255
203 225 255
203 225 255
203 225 255
203 225 255
203 225 255
203 225 255
203 225 255
203 225 255
203 225 255
203 226 255
203 226 255
203 226 255
203 226 255
203 226 255
203 226 255
203 226 255
204 226 255
204 226 255
204 226 255
204 226 255
204 226 255
204 226 255
204 226 255
204 226 255
204 226 255
204 226 255
204 226 255
204 226 255
204 226 255
204 226 255
204 226 255
204 226 255
204 226 255
205 226 255
205 226 255
205 226 255
205 226 255
205 226 255
205 226 255
205 226 255
205 227 255
205 227 255
205 227 255
205 227 255
205 227 255
205 227 255
205 227 255
205 227 255
205 227 255
205 227 255
205 227 255
206 227 255
206 227 255
206 227 255
206 227 255
206 227 255
206 227 255
206 227 255
206 227 255
206 227 255
206 227 255
206 227 255
206 227 255
206 227 255
206 227 255
206 227 255
206 227 255
206 227 255
206 227 255
205 227 255
205 227 255
205 227 255
205 227 255
205 227 255
205 227 255
205 227 255
205 227 255
205 227 255
205 227 255
205 227 255
205 227 255
205 226 255
205 226 255
205 226 255
205 226 255
205 226 255
205 226 255
205 226 255
204 226 255
204 226 255
204 226 255
204 226 255
204 226 255
204 226 255
204 226 255
204 226 255
204 226 255
204 226 255
204 226 255
204 226 255
204 226 255
204 226 255
204 226 255
204 226 255
203 226 255
203 226 255
203 226 255
203 226 255
203 226 255
203 226 255
203 226 255
203 226 255
203 225 255
203 225 255
203 225 255
203 225 255
203 225 255
203 225 255
203 225 255
203 225 255
202 225 255
202 225 255
202 225 255
202 225 255
202 225 255
202 225 255
202 225 255
202 225 255
202 225 255
202 225 255
202 225 255
202 225 255
202 225 255
202 225 255
202 225 255
201 225 255
201 225 255
201 225 255
201 225 255
201 225 255
201 224 255
201 224 255
201 224 255
201 224 255
201 224 255
201 224 255
201 224 255
201 224 255
201 224 255
201 224 255
200 224 255
200 224 255
200 224 255
200 224 255
200 224 255
200 224 255
200 224 255
200 224 255
200 224 255
200 224 255
200 224 255
200 224 255
200 224 255
200 224 255
199 224 255
199 224 255
199 224 255
199 223 255
199 223 255
199 223 255
199 223 255
199 223 255
199 223 255
199 223 255
199 223 255
199 223 255
199 223 255
199 223 255
199 223 255
198 223 255
198 223 255
198 223 255
198 223 255
198 223 255
198 223 255
198 223 255
198 223 255
198 223 255
198 223 255
198 223 255
198 223 255
198 223 255
198 223 255
198 223 255
198 223 255
197 222 255
197 222 255
197 222 255
197 222 255
197 222 255
197 222 255
197 222 255
197 222 255
197 222 255
197 222 255
197 222 255
197 222 255
197 222 255
197 222 255
197 222 255
197 222 255
197 222 255
197 222 255
196 222 255
196 222 255
196 222 255
196 222 255
196 222 255
196 222 255
196 222 255
196 222 255
196 222 255
196 222 255
196 222 255
196 222 255
196 222 255
196 222 255
196 222 255
196 222 255
196 222 255
196 222 255
196 222 255
196 222 255
196 222 255
196 222 255
196 222 255
196 221 255
196 221 255
196 221 255
196 221 255
195 221 255
195 221 255
195 221 255
195 221 255
195 221 255
195 221 255
195 221 255
195 221 255
195 221 255
195 221 255
195 221 255
195 221 255
195 221 255
195 221 255
195 221 255
195 221 255
195 221 255
195 221 255
195 221 255
195 221 255
195 221 255
195 221 255
195 221 255
195 221 255
195 221 255
195 221 255
195 221 255
195 221 255
195 221 255
195 221 255
195 221 255
195 221 255
195 221 255
195 221 255
195 221 255
195 221 255
195 221 255
195 221 255
196 221 255
196 221 255
196 221 255
196 221 255
196 222 255
196 222 255
196 222 255
196 222 255
196 222 255
196 222 255
196 222 255
196 222 255
196 222 255
196 222 255
196 222 255
196 222 255
196 222 255
196 222 255
196 222 255
196 222 255
196 222 255
196 222 255
196 222 255
196 222 255
196 222 255
196 222 255
196 222 255
197 222 255
197 222 255
197 222 255
197 222 255
197 222 255
197 222 255
197 222 255
197 222 255
197 222 255
197 222 255
197 222 255
197 222 255
197 222 255
197 222 255
197 222 255
197 222 255
197 222 255
197 222 255
198 223 255
198 223 255
198 223 255
198 223 255
198 223 255
198 223 255
198 223 255
198 223 255
198 223 255
198 223 255
198 223 255
198 223 255
198 223 255
198 223 255
198 223 255
198 223 255
199 223 255
199 223 255
199 223 255
199 223 255
199 223 255
199 223 255
199 223 255
199 223 255
199 223 255
199 223 255
199 223 255
199 223 255
199 224 255
199 224 255
199 224 255
200 224 255
200 224 255
200 224 255
200 224 255
200 224 255
200 224 255
200 224 255
200 224 255
200 224 255
200 224 255
200 224 255
200 224 255
200 224 255
200 224 255
201 224 255
201 224 255
201 224 255
201 224 255
201 224 255
201 224 255
201 224 255
201 224 255
201 224 255
201 224 255
201 225 255
201 225 255
201 225 255
201 225 255
201 225 255
202 225 255
202 225 255
202 225 255
202 225 255
202 225 255
202 225 255
202 225 255
202 225 255
202 225 255
202 225 255
202 225 255
202 225 255
202 225 255
202 225 255
202 225 255
203 225 255
203 225 255
203 225 255
203 225 255
203 225 255
203 225 255
203 225 255
203 225 255
203 226 255
203 226 255
203 226 255
203 226 255
203 226 255
203 226 255
203 226 255
204 226 255
204 226 255
204 226 255
204 226 255
204 226 255
204 226 255
204 226 255
204 226 255
204 226 255
204 226 255
204 226 255
204 226 255
204 226 255
204 226 255
204 226 255
204 226 255
204 226 255
205 226 255
205 226 255
205 226 255
205 226 255
205 226 255
205 226 255
205 226 255
205 227 255
205 227 255
205 227 255
205 227 255
205 227 255
205 227 255
205 227 255
205 227 255
205 227 255
205 227 255
205 227 255
205 227 255
206 227 255
206 227 255
206 227 255
206 227 255
206 227 255
206 227 255
206 227 255
206 227 255
206 227 255
206 227 255
206 227 255
206 227 255
206 227 255
206 227 255
206 227 255
206 227 255
206 227 255
206 227 255
206 227 255
206 227 255
206 227 255
206 227 255
206 227 255
205 227 255
205 227 255
205 227 255
205 227 255
205 227 255
205 227 255
205 227 255
205 227 255
205 227 255
205 227 255
205 227 255
205 226 255
205 226 255
205 226 255
205 226 255
205 226 255
205 226 255
205 226 255
204 226 255
204 226 255
204 226 255
204 226 255
204 226 255
204 226 255
204 226 255
204 226 255
204 226 255
204 226 255
204 226 255
204 226 255
204 226 255
204 226 255
204 226 255
204 226 255
204 226 255
203 226 255
203 226 255
203 226 255
203 226 255
203 226 255
203 226 255
203 226 255
203 225 255
203 225 255
203 225 255
203 225 255
203 225 255
203 225 255
203 225 255
203 225 255
203 225 255
202 225 255
202 225 255
202 225 255
202 225 255
202 225 255
202 225 255
202 225 255
202 225 255
202 225 255
202 225 255
202 225 255
202 225 255
202 225 255
202 225 255
202 225 255
201 225 255
201 225 255
201 225 255
201 225 255
201 224 255
201 224 255
201 224 255
201 224 255
201 224 255
201 224 255
201 224 255
201 224 255
201 224 255
201 224 255
200 224 255
200 224 255
200 224 255
200 224 255
200 224 255
200 224 255
200 224 255
200 224 255
200 224 255
200 224 255
200 224 255
200 224 255
200 224 255
200 224 255
200 224 255
199 224 255
199 224 255
199 223 255
199 223 255
199 223 255
199 223 255
199 223 255
199 223 255
199 223 255
199 223 255
199 223 255
199 223 255
199 223 255
199 223 255
199 223 255
198 223 255
198 223 255
198 223 255
198 223 255
198 223 255
198 223 255
198 223 255
198 223 255
198 223 255
198 223 255
198 223 255
198 223 255
198 223 255
198 223 255
198 223 255
198 223 255
197 222 255
197 222 255
197 222 255
197 222 255
197 222 255
197 222 255
197 222 255
197 222 255
197 222 255
197 222 255
197 222 255
197 222 255
197 222 255
197 222 255
197 222 255
197 222 255
197 222 255
197 222 255
196 222 255
196 222 255
196 222 255
196 222 255
196 222 255
196 222 255
196 222 255
196 222 255
196 222 255
196 222 255
196 222 255
196 222 255
196 222 255
196 222 255
196 222 255
196 222 255
196 222 255
196 222 255
196 222 255
196 222 255
196 222 255
196 222 255
196 222 255
196 222 255
196 222 255
196 222 255
196 222 255
196 221 255
196 221 255
196 221 255
196 221 255
196 221 255
196 221 255
195 221 255
195 221 255
195 221 255
195 221 255
195 221 255
195 221 255
195 221 255
195 221 255
195 221 255
195 221 255
195 221 255
195 221 255
195 221 255
195 221 255
195 221 255
195 221 255
195 221 255
195 221 255
195 221 255
195 221 255
196 221 255
196 221 255
196 221 255
196 221 255
196 221 255
196 221 255
196 222 255
196 222 255
196 222 255
196 222 255
196 222 255
196 222 255
196 222 255
196 222 255
196 222 255
196 222 255
196 222 255
196 222 255
196 222 255
196 222 255
196 222 255
196 222 255
196 222 255
196 222 255
196 222 255
196 222 255
196 222 255
196 222 255
196 222 255
196 222 255
196 222 255
196 222 255
196 222 255
197 222 255
197 222 255
197 222 255
197 222 255
197 222 255
197 222 255
197 222 255
197 222 255
197 222 255
197 222 255
197 222 255
197 222 255
197 222 255
197 222 255
197 222 255
197 222 255
197 222 255
197 222 255
197 223 255
198 223 255
198 223 255
198 223 255
198 223 255
198 223 255
198 223 255
198 223 255
198 223 255
198 223 255
198 223 255
198 223 255
198 223 255
198 223 255
198 223 255
198 223 255
198 223 255
199 223 255
199 223 255
199 223 255
199 223 255
199 223 255
199 223 255
199 223 255
199 223 255
199 223 255
199 223 255
199 223 255
199 223 255
199 224 255
199 224 255
200 224 255
200 224 255
200 224 255
200 224 255
200 224 255
200 224 255
200 224 255
200 224 255
200 224 255
200 224 255
200 224 255
200 224 255
200 224 255
200 224 255
200 224 255
201 224 255
201 224 255
201 224 255
201 224 255
201 224 255
201 224 255
201 224 255
201 224 255
201 224 255
201 224 255
201 225 255
201 225 255
201 225 255
201 225 255
202 225 255
202 225 255
202 225 255
202 225 255
202 225 255
202 225 255
202 225 255
202 225 255
202 225 255
202 225 255
202 225 255
202 225 255
202 225 255
202 225 255
202 225 255
202 225 255
203 225 255
203 225 255
203 225 255
203 225 255
203 225 255
203 225 255
203 225 255
203 225 255
203 226 255
203 226 255
203 226 255
203 226 255
203 226 255
203 226 255
203 226 255
204 226 255
204 226 255
204 226 255
204 226 255
204 226 255
204 226 255
204 226 255
204 226 255
204 226 255
204 226 255
204 226 255
204 226 255
204 226 255
204 226 255
204 226 255
204 226 255
204 226 255
205 226 255
205 226 255
205 226 255
205 226 255
205 226 255
205 226 255
205 226 255
205 227 255
205 227 255
205 227 255
205 227 255
205 227 255
205 227 255
205 227 255
205 227 255
205 227 255
205 227 255
205 227 255
206 227 255
206 227 255
206 227 255
206 227 255
206 227 255
206 227 255
206 227 255
206 227 255
206 227 255
206 227 255
206 227 255
206 227 255
206 227 255
206 227 255
206 227 255
206 227 255
206 227 255
206 227 255
206 227 255
206 227 255
206 227 255
206 227 255
206 227 255
206 227 255
206 227 255
206 227 255
206 227 255
206 227 255
206 227 255
205 227 255
205 227 255
205 227 255
205 227 255
205 227 255
205 227 255
205 227 255
205 227 255
205 227 255
205 227 255
205 227 255
205 226 255
205 226 255
205 226 255
205 226 255
205 226 255
205 226 255
205 226 255
204 226 255
204 226 255
204 226 255
204 226 255
204 226 255
204 226 255
204 226 255
204 226 255
204 226 255
204 226 255
204 226 255
204 226 255
204 226 255
204 226 255
204 226 255
204 226 255
203 226 255
203 226 255
203 226 255
203 226 255
203 226 255
203 226 255
203 226 255
203 225 255
203 225 255
203 225 255
203 225 255
203 225 255
203 225 255
203 225 255
203 225 255
203 225 255
202 225 255
202 225 255
202 225 255
202 225 255
202 225 255
202 225 255
202 225 255
202 225 255
202 225 255
202 225 255
202 225 255
202 225 255
202 225 255
202 225 255
202 225 255
201 225 255
201 225 255
201 225 255
201 225 255
201 224 255
201 224 255
201 224 255
201 224 255
201 224 255
201 224 255
201 224 255
201 224 255
201 224 255
201 224 255
201 224 255
200 224 255
200 224 255
200 224 255
200 224 255
200 224 255
200 224 255
200 224 255
200 224 255
200 224 255
200 224 255
200 224 255
200 224 255
200 224 255
200 224 255
199 224 255
199 224 255
199 223 255
199 223 255
199 223 255
199 223 255
199 223 255
199 223 255
199 223 255
199 223 255
199 223 255
199 223 255
199 223 255
199 223 255
199 223 255
198 223 255
198 223 255
198 223 255
198 223 255
198 223 255
198 223 255
198 223 255
198 223 255
198 223 255
198 223 255
198 223 255
198 223 255
198 223 255
198 223 255
198 223 255
198 223 255
197 223 255
197 222 255
197 222 255
197 222 255
197 222 255
197 222 255
197 222 255
197 222 255
197 222 255
197 222 255
197 222 255
197 222 255
197 222 255
197 222 255
197 222 255
197 222 255
197 222 255
197 222 255
197 222 255
197 222 255
196 222 255
196 222 255
196 222 255
196 222 255
196 222 255
196 222 255
196 222 255
196 222 255
196 222 255
196 222 255
196 222 255
196 222 255
196 222 255
196 222 255
196 222 255
196 222 255
196 222 255
196 222 255
196 222 255
196 222 255
196 222 255
196 222 255
196 222 255
196 222 255
196 222 255
196 222 255
196 222 255
196 222 255
196 222 255
196 222 255
196 222 255
196 222 255
196 222 255
196 222 255
196 222 255
196 222 255
196 222 255
196 222 255
196 222 255
196 222 255
196 222 255
196 222 255
196 222 255
196 222 255
196 222 255
196 222 255
196 222 255
196 222 255
196 222 255
196 222 255
196 222 255
196 222 255
196 222 255
196 222 255
196 222 255
196 222 255
196 222 255
196 222 255
196 222 255
196 222 255
196 222 255
196 222 255
196 222 255
196 222 255
196 222 255
196 222 255
196 222 255
196 222 255
196 222 255
196 222 255
196 222 255
196 222 255
196 222 255
196 222 255
196 222 255
196 222 255
196 222 255
196 222 255
197 222 255
197 222 255
197 222 255
197 222 255
197 222 255
197 222 255
197 222 255
197 222 255
197 222 255
197 222 255
197 222 255
197 222 255
197 222 255
197 222 255
197 222 255
197 222 255
197 222 255
197 222 255
197 222 255
197 223 255
198 223 255
198 223 255
198 223 255
198 223 255
198 223 255
198 223 255
198 223 255
198 223 255
198 223 255
198 223 255
198 223 255
198 223 255
198 223 255
198 223 255
198 223 255
198 223 255
199 223 255
199 223 255
199 223 255
199 223 255
199 223 255
199 223 255
199 223 255
199 223 255
199 223 255
199 223 255
199 223 255
199 223 255
199 223 255
199 224 255
199 224 255
200 224 255
200 224 255
200 224 255
200 224 255
200 224 255
200 224 255
200 224 255
200 224 255
200 224 255
200 224 255
200 224 255
200 224 255
200 224 255
200 224 255
201 224 255
201 224 255
201 224 255
201 224 255
201 224 255
201 224 255
201 224 255
201 224 255
201 224 255
201 224 255
201 224 255
201 225 255
201 225 255
201 225 255
201 225 255
202 225 255
202 225 255
202 225 255
202 225 255
202 225 255
202 225 255
202 225 255
202 225 255
202 225 255
202 225 255
202 225 255
202 225 255
202 225 255
202 225 255
202 225 255
203 225 255
203 225 255
203 225 255
203 225 255
203 225 255
203 225 255
203 225 255
203 225 255
203 225 255
203 226 255
203 226 255
203 226 255
203 226 255
203 226 255
203 226 255
203 226 255
204 226 255
204 226 255
204 226 255
204 226 255
204 226 255
204 226 255
204 226 255
204 226 255
204 226 255
204 226 255
204 226 255
204 226 255
204 226 255
204 226 255
204 226 255
204 226 255
205 226 255
205 226 255
205 226 255
205 226 255
205 226 255
205 226 255
205 226 255
205 227 255
205 227 255
205 227 255
205 227 255
205 227 255
205 227 255
205 227 255
205 227 255
205 227 255
205 227 255
205 227 255
206 227 255
206 227 255
206 227 255
206 227 255
206 227 255
206 227 255
206 227 255
206 227 255
206 227 255
206 227 255
206 227 255
206 227 255
206 227 255
206 227 255
206 227 255
206 227 255
206 227 255
206 227 255
206 227 255
206 227 255
206 227 255
206 227 255
206 227 255
206 227 255
206 227 255
206 227 255
206 227 255
206 227 255
206 227 255
206 227 255
206 227 255
206 227 255
206 227 255
206 227 255
205 227 255
205 227 255
205 227 255
205 227 255
205 227 255
205 227 255
205 227 255
205 227 255
205 227 255
205 227 255
205 227 255
205 226 255
205 226 255
205 226 255
205 226 255
205 226 255
205 226 255
205 226 255
204 226 255
204 226 255
204 226 255
204 226 255
204 226 255
204 226 255
204 226 255
204 226 255
204 226 255
204 226 255
204 226 255
204 226 255
204 226 255
204 226 255
204 226 255
204 226 255
204 226 255
203 226 255
203 226 255
203 226 255
203 226 255
203 226 255
203 226 255
203 226 255
203 225 255
203 225 255
203 225 255
203 225 255
203 225 255
203 225 255
203 225 255
203 225 255
202 225 255
202 225 255
202 225 255
202 225 255
202 225 255
202 225 255
202 225 255
202 225 255
202 225 255
202 225 255
202 225 255
202 225 255
202 225 255
202 225 255
202 225 255
201 225 255
201 225 255
201 225 255
201 225 255
201 225 255
201 224 255
201 224 255
201 224 255
201 224 255
201 224 255
201 224 255
201 224 255
201 224 255
201 224 255
201 224 255
200 224 255
200 224 255
200 224 255
200 224 255
200 224 255
200 224 255
200 224 255
200 224 255
200 224 255
200 224 255
200 224 255
200 224 255
200 224 255
200 224 255
199 224 255
199 224 255
199 224 255
199 223 255
199 223 255
199 223 255
199 223 255
199 223 255
199 223 255
199 223 255
199 223 255
199 223 255
199 223 255
199 223 255
199 223 255
199 223 255
198 223 255
198 223 255
198 223 255
198 223 255
198 223 255
198 223 255
198 223 255
198 223 255
198 223 255
198 223 255
198 223 255
198 223 255
198 223 255
198 223 255
198 223 255
198 223 255
197 223 255
197 222 255
197 222 255
197 222 255
197 222 255
197 222 255
197 222 255
197 222 255
197 222 255
197 222 255
197 222 255
197 222 255
197 222 255
197 222 255
197 222 255
197 222 255
197 222 255
197 222 255
197 222 255
197 222 255
197 222 255
196 222 255
196 222 255
196 222 255
196 222 255
196 222 255
196 222 255
196 222 255
196 222 255
196 222 255
196 222 255
196 222 255
196 222 255
196 222 255
196 222 255
196 222 255
196 222 255
196 222 255
196 222 255
196 222 255
196 222 255
196 222 255
196 222 255
196 222 255
196 222 255
196 222 255
196 222 255
196 222 255
196 222 255
196 222 255
196 222 255
196 222 255
196 222 255
196 222 255
196 222 255
196 222 255
196 222 255
196 222 255
196 222 255
196 222 255
196 222 255
196 222 255
196 222 255
196 222 255
196 222 255
196 222 255
196 222 255
196 222 255
196 222 255
196 222 255
196 222 255
196 222 255
196 222 255
196 222 255
196 222 255
196 222 255
196 222 255
196 222 255
196 222 255
196 222 255
196 222 255
196 222 255
196 222 255
196 222 255
196 222 255
196 222 255
196 222 255
196 222 255
196 222 255
196 222 255
196 222 255
197 222 255
197 222 255
197 222 255
197 222 255
197 222 255
197 222 255
197 222 255
197 222 255
197 222 255
197 222 255
197 222 255
197 222 255
197 222 255
197 222 255
197 222 255
197 222 255
197 222 255
197 222 255
197 222 255
197 222 255
197 223 255
198 223 255
198 223 255
198 223 255
198 223 255
198 223 255
198 223 255
198 223 255
198 223 255
198 223 255
198 223 255
198 223 255
198 223 255
198 223 255
198 223 255
198 223 255
198 223 255
199 223 255
199 223 255
199 223 255
199 223 255
199 223 255
199 223 255
199 223 255
199 223 255
199 223 255
199 223 255
199 223 255
199 223 255
199 223 255
199 224 255
199 224 255
200 224 255
200 224 255
200 224 255
200 224 255
200 224 255
200 224 255
200 224 255
200 224 255
200 224 255
200 224 255
200 224 255
200 224 255
200 224 255
200 224 255
200 224 255
201 224 255
201 224 255
201 224 255
201 224 255
201 224 255
201 224 255
201 224 255
201 224 255
201 224 255
201 224 255
201 225 255
201 225 255
201 225 255
201 225 255
201 225 255
202 225 255
202 225 255
202 225 255
202 225 255
202 225 255
202 225 255
202 225 255
202 225 255
202 225 255
202 225 255
202 225 255
202 225 255
202 225 255
202 225 255
202 225 255
203 225 255
203 225 255
203 225 255
203 225 255
203 225 255
203 225 255
203 225 255
203 225 255
203 226 255
203 226 255
203 226 255
203 226 255
203 226 255
203 226 255
203 226 255
204 226 255
204 226 255
204 226 255
204 226 255
204 226 255
204 226 255
204 226 255
204 226 255
204 226 255
204 226 255
204 226 255
204 226 255
204 226 255
204 226 255
204 226 255
204 226 255
204 226 255
205 226 255
205 226 255
205 226 255
205 226 255
205 226 255
205 226 255
205 226 255
205 227 255
205 227 255
205 227 255
205 227 255
205 227 255
205 227 255
205 227 255
205 227 255
205 227 255
205 227 255
205 227 255
206 227 255
206 227 255
206 227 255
206 227 255
206 227 255
206 227 255
206 227 255
206 227 255
206 227 255
206 227 255
206 227 255
206 227 255
206 227 255
206 227 255
206 227 255
206 227 255
206 227 255
206 227 255
207 227 255
207 227 255
206 227 255
206 227 255
206 227 255
206 227 255
206 227 255
206 227 255
206 227 255
206 227 255
206 227 255
206 227 255
206 227 255
206 227 255
206 227 255
206 227 255
206 227 255
206 227 255
206 227 255
206 227 255
206 227 255
205 227 255
205 227 255
205 227 255
205 227 255
205 227 255
205 227 255
205 227 255
205 227 255
205 227 255
205 227 255
205 227 255
205 226 255
205 226 255
205 226 255
205 226 255
205 226 255
205 226 255
205 226 255
204 226 255
204 226 255
204 226 255
204 226 255
204 226 255
204 226 255
204 226 255
204 226 255
204 226 255
204 226 255
204 226 255
204 226 255
204 226 255
204 226 255
204 226 255
204 226 255
203 226 255
203 226 255
203 226 255
203 226 255
203 226 255
203 226 255
203 226 255
203 225 255
203 225 255
203 225 255
203 225 255
203 225 255
203 225 255
203 225 255
203 225 255
203 225 255
202 225 255
202 225 255
202 225 255
202 225 255
202 225 255
202 225 255
202 225 255
202 225 255
202 225 255
202 225 255
202 225 255
202 225 255
202 225 255
202 225 255
202 225 255
201 225 255
201 225 255
201 225 255
201 225 255
201 224 255
201 224 255
201 224 255
201 224 255
201 224 255
201 224 255
201 224 255
201 224 255
201 224 255
201 224 255
200 224 255
200 224 255
200 224 255
200 224 255
200 224 255
200 224 255
200 224 255
200 224 255
200 224 255
200 224 255
200 224 255
200 224 255
200 224 255
200 224 255
200 224 255
199 224 255
199 224 255
199 223 255
199 223 255
199 223 255
199 223 255
199 223 255
199 223 255
199 223 255
199 223 255
199 223 255
199 223 255
199 223 255
199 223 255
199 223 255
198 223 255
198 223 255
198 223 255
198 223 255
198 223 255
198 223 255
198 223 255
198 223 255
198 223 255
198 223 255
198 223 255
198 223 255
198 223 255
198 223 255
198 223 255
198 223 255
198 223 255
197 223 255
197 222 255
197 222 255
197 222 255
197 222 255
197 222 255
197 222 255
197 222 255
197 222 255
197 222 255
197 222 255
197 222 255
197 222 255
197 222 255
197 222 255
197 222 255
197 222 255
197 222 255
197 222 255
197 222 255
197 222 255
197 222 255
196 222 255
196 222 255
196 222 255
196 222 255
196 222 255
196 222 255
196 222 255
196 222 255
196 222 255
196 222 255
196 222 255
196 222 255
196 222 255
196 222 255
196 222 255
196 222 255
196 222 255
196 222 255
196 222 255
196 222 255
196 222 255
196 222 255
196 222 255
196 222 255
196 222 255
196 222 255
196 222 255
196 222 255
196 222 255
196 222 255
196 222 255
196 222 255
196 222 255
196 222 255
196 222 255
196 222 255
196 222 255
196 222 255
196 222 255
196 222 255
196 222 255
196 222 255
196 222 255
196 222 255
196 222 255
196 222 255
196 222 255
196 222 255
196 222 255
196 222 255
196 222 255
196 222 255
196 222 255
196 222 255
196 222 255
196 222 255
196 222 255
196 222 255
196 222 255
196 222 255
196 222 255
196 222 255
197 222 255
197 222 255
197 222 255
197 222 255
197 222 255
197 222 255
197 222 255
197 222 255
197 222 255
197 222 255
197 222 255
197 222 255
197 222 255
197 222 255
197 222 255
197 222 255
197 222 255
197 222 255
197 222 255
197 222 255
197 222 255
197 223 255
198 223 255
198 223 255
198 223 255
198 223 255
198 223 255
198 223 255
198 223 255
198 223 255
198 223 255
198 223 255
198 223 255
198 223 255
198 223 255
198 223 255
198 223 255
198 223 255
198 223 255
199 223 255
199 223 255
199 223 255
199 223 255
199 223 255
199 223 255
199 223 255
199 223 255
199 223 255
199 223 255
199 223 255
199 223 255
199 223 255
199 224 255
199 224 255
200 224 255
200 224 255
200 224 255
200 224 255
200 224 255
200 224 255
200 224 255
200 224 255
200 224 255
200 224 255
200 224 255
200 224 255
200 224 255
200 224 255
200 224 255
201 224 255
201 224 255
201 224 255
201 224 255
201 224 255
201 224 255
201 224 255
201 224 255
201 224 255
201 224 255
201 225 255
201 225 255
201 225 255
201 225 255
202 225 255
202 225 255
202 225 255
202 225 255
202 225 255
202 225 255
202 225 255
202 225 255
202 225 255
202 225 255
202 225 255
202 225 255
202 225 255
202 225 255
202 225 255
203 225 255
203 225 255
203 225 255
203 225 255
203 225 255
203 225 255
203 225 255
203 225 255
203 225 255
203 226 255
203 226 255
203 226 255
203 226 255
203 226 255
203 226 255
203 226 255
204 226 255
204 226 255
204 226 255
204 226 255
204 226 255
204 226 255
204 226 255
204 226 255
204 226 255
204 226 255
204 226 255
204 226 255
204 226 255
204 226 255
204 226 255
204 226 255
205 226 255
205 226 255
205 226 255
205 226 255
205 226 255
205 226 255
205 226 255
205 227 255
205 227 255
205 227 255
205 227 255
205 227 255
205 227 255
205 227 255
205 227 255
205 227 255
205 227 255
205 227 255
206 227 255
206 227 255
206 227 255
206 227 255
206 227 255
206 227 255
206 227 255
206 227 255
206 227 255
206 227 255
206 227 255
206 227 255
206 227 255
206 227 255
206 227 255
206 227 255
206 227 255
206 227 255
206 227 255
207 227 255
207 227 255
207 227 255
207 227 255
207 227 255
207 227 255
207 227 255
206 227 255
206 227 255
206 227 255
206 227 255
206 227 255
206 227 255
206 227 255
206 227 255
206 227 255
206 227 255
206 227 255
206 227 255
206 227 255
206 227 255
206 227 255
206 227 255
206 227 255
206 227 255
206 227 255
205 227 255
205 227 255
205 227 255
205 227 255
205 227 255
205 227 255
205 227 255
205 227 255
205 227 255
205 227 255
205 226 255
205 226 255
205 226 255
205 226 255
205 226 255
205 226 255
205 226 255
204 226 255
204 226 255
204 226 255
204 226 255
204 226 255
204 226 255
204 226 255
204 226 255
204 226 255
204 226 255
204 226 255
204 226 255
204 226 255
204 226 255
204 226 255
204 226 255
203 226 255
203 226 255
203 226 255
203 226 255
203 226 255
203 226 255
203 226 255
203 226 255
203 225 255
203 225 255
203 225 255
203 225 255
203 225 255
203 225 255
203 225 255
203 225 255
202 225 255
202 225 255
202 225 255
202 225 255
202 225 255
202 225 255
202 225 255
202 225 255
202 225 255
202 225 255
202 225 255
202 225 255
202 225 255
202 225 255
202 225 255
201 225 255
201 225 255
201 225 255
201 225 255
201 224 255
201 224 255
201 224 255
201 224 255
201 224 255
201 224 255
201 224 255
201 224 255
201 224 255
201 224 255
201 224 255
200 224 255
200 224 255
200 224 255
200 224 255
200 224 255
200 224 255
200 224 255
200 224 255
200 224 255
200 224 255
200 224 255
200 224 255
200 224 255
200 224 255
199 224 255
199 224 255
199 224 255
199 223 255
199 223 255
199 223 255
199 223 255
199 223 255
199 223 255
199 223 255
199 223 255
199 223 255
199 223 255
199 223 255
199 223 255
199 223 255
198 223 255
198 223 255
198 223 255
198 223 255
198 223 255
198 223 255
198 223 255
198 223 255
198 223 255
198 223 255
198 223 255
198 223 255
198 223 255
198 223 255
198 223 255
198 223 255
198 223 255
197 223 255
197 222 255
197 222 255
197 222 255
197 222 255
197 222 255
197 222 255
197 222 255
197 222 255
197 222 255
197 222 255
197 222 255
197 222 255
197 222 255
197 222 255
197 222 255
197 222 255
197 222 255
197 222 255
197 222 255
197 222 255
197 222 255
197 222 255
197 222 255
196 222 255
196 222 255
196 222 255
196 222 255
196 222 255
196 222 255
196 222 255
196 222 255
196 222 255
196 222 255
196 222 255
196 222 255
196 222 255
196 222 255
196 222 255
196 222 255
196 222 255
196 222 255
196 222 255
196 222 255
196 222 255
196 222 255
196 222 255
196 222 255
196 222 255
196 222 255
196 222 255
196 222 255
196 222 255
196 222 255
196 222 255
196 222 255
196 222 255
196 222 255
196 222 255
196 222 255
196 222 255
196 222 255
196 222 255
196 222 255
196 222 255
196 222 255
196 222 255
196 222 255
196 222 255
196 222 255
196 222 255
196 222 255
196 222 255
196 222 255
196 222 255
196 222 255
197 222 255
197 222 255
197 222 255
197 222 255
197 222 255
197 222 255
197 222 255
197 222 255
197 222 255
197 222 255
197 222 255
197 222 255
197 222 255
197 222 255
197 222 255
197 222 255
197 222 255
197 222 255
197 222 255
197 222 255
197 222 255
197 222 255
197 222 255
197 223 255
198 223 255
198 223 255
198 223 255
198 223 255
198 223 255
198 223 255
198 223 255
198 223 255
198 223 255
198 223 255
198 223 255
198 223 255
198 223 255
198 223 255
198 223 255
198 223 255
198 223 255
199 223 255
199 223 255
199 223 255
199 223 255
199 223 255
199 223 255
199 223 255
199 223 255
199 223 255
199 223 255
199 223 255
199 223 255
199 223 255
199 224 255
199 224 255
199 224 255
200 224 255
200 224 255
200 224 255
200 224 255
200 224 255
200 224 255
200 224 255
200 224 255
200 224 255
200 224 255
200 224 255
200 224 255
200 224 255
200 224 255
201 224 255
201 224 255
201 224 255
201 224 255
201 224 255
201 224 255
201 224 255
201 224 255
201 224 255
201 224 255
201 224 255
201 225 255
201 225 255
201 225 255
201 225 255
202 225 255
202 225 255
202 225 255
202 225 255
202 225 255
202 225 255
202 225 255
202 225 255
202 225 255
202 225 255
202 225 255
202 225 255
202 225 255
202 225 255
202 225 255
203 225 255
203 225 255
203 225 255
203 225 255
203 225 255
203 225 255
203 225 255
203 225 255
203 226 255
203 226 255
203 226 255
203 226 255
203 226 255
203 226 255
203 226 255
204 226 255
204 226 255
204 226 255
204 226 255
204 226 255
204 226 255
204 226 255
204 226 255
204 226 255
204 226 255
204 226 255
204 226 255
204 226 255
204 226 255
204 226 255
204 226 255
204 226 255
205 226 255
205 226 255
205 226 255
205 226 255
205 226 255
205 226 255
205 226 255
205 227 255
205 227 255
205 227 255
205 227 255
205 227 255
205 227 255
205 227 255
205 227 255
205 227 255
205 227 255
206 227 255
206 227 255
206 227 255
206 227 255
206 227 255
206 227 255
206 227 255
206 227 255
206 227 255
206 227 255
206 227 255
206 227 255
206 227 255
206 227 255
206 227 255
206 227 255
206 227 255
206 227 255
206 227 255
207 227 255
207 227 255
207 227 255
207 227 255
207 227 255
207 228 255
207 228 255
207 227 255
207 227 255
207 227 255
207 227 255
207 227 255
206 227 255
206 227 255
206 227 255
206 227 255
206 227 255
206 227 255
206 227 255
206 227 255
206 227 255
206 227 255
206 227 255
206 227 255
206 227 255
206 227 255
206 227 255
206 227 255
206 227 255
206 227 255
206 227 255
205 227 255
205 227 255
205 227 255
205 227 255
205 227 255
205 227 255
205 227 255
205 227 255
205 227 255
205 227 255
205 227 255
205 226 255
205 226 255
205 226 255
205 226 255
205 226 255
205 226 255
205 226 255
204 226 255
204 226 255
204 226 255
204 226 255
204 226 255
204 226 255
204 226 255
204 226 255
204 226 255
204 226 255
204 226 255
204 226 255
204 226 255
204 226 255
204 226 255
204 226 255
203 226 255
203 226 255
203 226 255
203 226 255
203 226 255
203 226 255
203 226 255
203 225 255
203 225 255
203 225 255
203 225 255
203 225 255
203 225 255
203 225 255
203 225 255
203 225 255
202 225 255
202 225 255
202 225 255
202 225 255
202 225 255
202 225 255
202 225 255
202 225 255
202 225 255
202 225 255
202 225 255
202 225 255
202 225 255
202 225 255
201 225 255
201 225 255
201 225 255
201 225 255
201 225 255
201 224 255
201 224 255
201 224 255
201 224 255
201 224 255
201 224 255
201 224 255
201 224 255
201 224 255
201 224 255
200 224 255
200 224 255
200 224 255
200 224 255
200 224 255
200 224 255
200 224 255
200 224 255
200 224 255
200 224 255
200 224 255
200 224 255
200 224 255
200 224 255
200 224 255
199 224 255
199 224 255
199 223 255
199 223 255
199 223 255
199 223 255
199 223 255
199 223 255
199 223 255
199 223 255
199 223 255
199 223 255
199 223 255
199 223 255
199 223 255
198 223 255
198 223 255
198 223 255
198 223 255
198 223 255
198 223 255
198 223 255
198 223 255
198 223 255
198 223 255
198 223 255
198 223 255
198 223 255
198 223 255
198 223 255
198 223 255
198 223 255
198 223 255
198 223 255
197 222 255
197 222 255
197 222 255
197 222 255
197 222 255
197 222 255
197 222 255
197 222 255
197 222 255
197 222 255
197 222 255
197 222 255
197 222 255
197 222 255
197 222 255
197 222 255
197 222 255
197 222 255
197 222 255
197 222 255
197 222 255
197 222 255
197 222 255
197 222 255
197 222 255
197 222 255
196 222 255
196 222 255
196 222 255
196 222 255
196 222 255
196 222 255
196 222 255
196 222 255
196 222 255
196 222 255
196 222 255
196 222 255
196 222 255
196 222 255
196 222 255
196 222 255
196 222 255
196 222 255
196 222 255
196 222 255
196 222 255
196 222 255
196 222 255
196 222 255
196 222 255
196 222 255
196 222 255
196 222 255
196 222 255
196 222 255
196 222 255
196 222 255
196 222 255
196 222 255
196 222 255
196 222 255
196 222 255
196 222 255
196 222 255
196 222 255
197 222 255
197 222 255
197 222 255
197 222 255
197 222 255
197 222 255
197 222 255
197 222 255
197 222 255
197 222 255
197 222 255
197 222 255
197 222 255
197 222 255
197 222 255
197 222 255
197 222 255
197 222 255
197 222 255
197 222 255
197 222 255
197 222 255
197 222 255
197 222 255
197 222 255
197 222 255
197 223 255
198 223 255
198 223 255
198 223 255
198 223 255
198 223 255
198 223 255
198 223 255
198 223 255
198 223 255
198 223 255
198 223 255
198 223 255
198 223 255
198 223 255
198 223 255
198 223 255
198 223 255
199 223 255
199 223 255
199 223 255
199 223 255
199 223 255
199 223 255
199 223 255
199 223 255
199 223 255
199 223 255
199 223 255
199 223 255
199 223 255
199 223 255
199 224 255
199 224 255
200 224 255
200 224 255
200 224 255
200 224 255
200 224 255
200 224 255
200 224 255
200 224 255
200 224 255
200 224 255
200 224 255
200 224 255
200 224 255
200 224 255
200 224 255
201 224 255
201 224 255
201 224 255
201 224 255
201 224 255
201 224 255
201 224 255
201 224 255
201 224 255
201 224 255
201 225 255
201 225 255
201 225 255
201 225 255
201 225 255
202 225 255
202 225 255
202 225 255
202 225 255
202 225 255
202 225 255
202 225 255
202 225 255
202 225 255
202 225 255
202 225 255
202 225 255
202 225 255
202 225 255
203 225 255
203 225 255
203 225 255
203 225 255
203 225 255
203 225 255
203 225 255
203 225 255
203 225 255
203 226 255
203 226 255
203 226 255
203 226 255
203 226 255
203 226 255
203 226 255
204 226 255
204 226 255
204 226 255
204 226 255
204 226 255
204 226 255
204 226 255
204 226 255
204 226 255
204 226 255
204 226 255
204 226 255
204 226 255
204 226 255
204 226 255
204 226 255
205 226 255
205 226 255
205 226 255
205 226 255
205 226 255
205 226 255
205 226 255
205 227 255
205 227 255
205 227 255
205 227 255
205 227 255
205 227 255
205 227 255
205 227 255
205 227 255
205 227 255
205 227 255
206 227 255
206 227 255
206 227 255
206 227 255
206 227 255
206 227 255
206 227 255
206 227 255
206 227 255
206 227 255
206 227 255
206 227 255
206 227 255
206 227 255
206 227 255
206 227 255
206 227 255
206 227 255
206 227 255
207 227 255
207 227 255
207 227 255
207 227 255
207 227 255
207 228 255
207 228 255
207 228 255
207 228 255
207 228 255
207 228 255
207 228 255
207 227 255
207 227 255
207 227 255
207 227 255
207 227 255
206 227 255
206 227 255
206 227 255
206 227 255
206 227 255
206 227 255
206 227 255
206 227 255
206 227 255
206 227 255
206 227 255
206 227 255
206 227 255
206 227 255
206 227 255
206 227 255
206 227 255
206 227 255
206 227 255
205 227 255
205 227 255
205 227 255
205 227 255
205 227 255
205 227 255
205 227 255
205 227 255
205 227 255
205 227 255
205 226 255
205 226 255
205 226 255
205 226 255
205 226 255
205 226 255
205 226 255
204 226 255
204 226 255
204 226 255
204 226 255
204 226 255
204 226 255
204 226 255
204 226 255
204 226 255
204 226 255
204 226 255
204 226 255
204 226 255
204 226 255
204 226 255
204 226 255
204 226 255
203 226 255
203 226 255
203 226 255
203 226 255
203 226 255
203 226 255
203 225 255
203 225 255
203 225 255
203 225 255
203 225 255
203 225 255
203 225 255
203 225 255
203 225 255
202 225 255
202 225 255
202 225 255
202 225 255
202 225 255
202 225 255
202 225 255
202 225 255
202 225 255
202 225 255
202 225 255
202 225 255
202 225 255
202 225 255
202 225 255
201 225 255
201 225 255
201 225 255
201 225 255
201 224 255
201 224 255
201 224 255
201 224 255
201 224 255
201 224 255
201 224 255
201 224 255
201 224 255
201 224 255
201 224 255
200 224 255
200 224 255
200 224 255
200 224 255
200 224 255
200 224 255
200 224 255
200 224 255
200 224 255
200 224 255
200 224 255
200 224 255
200 224 255
200 224 255
200 224 255
199 224 255
199 224 255
199 223 255
199 223 255
199 223 255
199 223 255
199 223 255
199 223 255
199 223 255
199 223 255
199 223 255
199 223 255
199 223 255
199 223 255
199 223 255
198 223 255
198 223 255
198 223 255
198 223 255
198 223 255
198 223 255
198 223 255
198 223 255
198 223 255
198 223 255
198 223 255
198 223 255
198 223 255
198 223 255
198 223 255
198 223 255
198 223 255
198 223 255
198 223 255
197 223 255
197 222 255
197 222 255
197 222 255
197 222 255
197 222 255
197 222 255
197 222 255
197 222 255
197 222 255
197 222 255
197 222 255
197 222 255
197 222 255
197 222 255
197 222 255
197 222 255
197 222 255
197 222 255
197 222 255
197 222 255
197 222 255
197 222 255
197 222 255
197 222 255
197 222 255
197 222 255
197 222 255
197 222 255
197 222 255
197 222 255
197 222 255
196 222 255
196 222 255
196 222 255
196 222 255
196 222 255
196 222 255
196 222 255
196 222 255
196 222 255
196 222 255
196 222 255
196 222 255
196 222 255
196 222 255
196 222 255
196 222 255
196 222 255
196 222 255
196 222 255
196 222 255
196 222 255
196 222 255
197 222 255
197 222 255
197 222 255
197 222 255
197 222 255
197 222 255
197 222 255
197 222 255
197 222 255
197 222 255
197 222 255
197 222 255
197 222 255
197 222 255
197 222 255
197 222 255
197 222 255
197 222 255
197 222 255
197 222 255
197 222 255
197 222 255
197 222 255
197 222 255
197 222 255
197 222 255
197 222 255
197 222 255
197 222 255
197 222 255
197 222 255
197 223 255
198 223 255
198 223 255
198 223 255
198 223 255
198 223 255
198 223 255
198 223 255
198 223 255
198 223 255
198 223 255
198 223 255
198 223 255
198 223 255
198 223 255
198 223 255
198 223 255
198 223 255
198 223 255
198 223 255
199 223 255
199 223 255
199 223 255
199 223 255
199 223 255
199 223 255
199 223 255
199 223 255
199 223 255
199 223 255
199 223 255
199 223 255
199 223 255
199 224 255
199 224 255
200 224 255
200 224 255
200 224 255
200 224 255
200 224 255
200 224 255
200 224 255
200 224 255
200 224 255
200 224 255
200 224 255
200 224 255
200 224 255
200 224 255
200 224 255
201 224 255
201 224 255
201 224 255
201 224 255
201 224 255
201 224 255
201 224 255
201 224 255
201 224 255
201 224 255
201 224 255
201 225 255
201 225 255
201 225 255
201 225 255
202 225 255
202 225 255
202 225 255
202 225 255
202 225 255
202 225 255
202 225 255
202 225 255
202 225 255
202 225 255
202 225 255
202 225 255
202 225 255
202 225 255
202 225 255
203 225 255
203 225 255
203 225 255
203 225 255
203 225 255
203 225 255
203 225 255
203 225 255
203 225 255
203 226 255
203 226 255
203 226 255
203 226 255
203 226 255
203 226 255
204 226 255
204 226 255
204 226 255
204 226 255
204 226 255
204 226 255
204 226 255
204 226 255
204 226 255
204 226 255
204 226 255
204 226 255
204 226 255
204 226 255
204 226 255
204 226 255
204 226 255
205 226 255
205 226 255
205 226 255
205 226 255
205 226 255
205 226 255
205 226 255
205 227 255
205 227 255
205 227 255
205 227 255
205 227 255
205 227 255
205 227 255
205 227 255
205 227 255
205 227 255
206 227 255
206 227 255
206 227 255
206 227 255
206 227 255
206 227 255
206 227 255
206 227 255
206 227 255
206 227 255
206 227 255
206 227 255
206 227 255
206 227 255
206 227 255
206 227 255
206 227 255
206 227 255
206 227 255
207 227 255
207 227 255
207 227 255
207 227 255
207 227 255
207 228 255
207 228 255
207 228 255
207 228 255
207 228 255
207 228 255
207 228 255
207 228 255
207 228 255
207 228 255
207 228 255
207 228 255
207 228 255
207 227 255
207 227 255
207 227 255
207 227 255
207 227 255
206 227 255
206 227 255
206 227 255
206 227 255
206 227 255
206 227 255
206 227 255
206 227 255
206 227 255
206 227 255
206 227 255
206 227 255
206 227 255
206 227 255
206 227 255
206 227 255
206 227 255
206 227 255
206 227 255
205 227 255
205 227 255
205 227 255
205 227 255
205 227 255
205 227 255
205 227 255
205 227 255
205 227 255
205 227 255
205 226 255
205 226 255
205 226 255
205 226 255
205 226 255
205 226 255
205 226 255
204 226 255
204 226 255
204 226 255
204 226 255
204 226 255
204 226 255
204 226 255
204 226 255
204 226 255
204 226 255
204 226 255
204 226 255
204 226 255
204 226 255
204 226 255
204 226 255
203 226 255
203 226 255
203 226 255
203 226 255
203 226 255
203 226 255
203 226 255
203 225 255
203 225 255
203 225 255
203 225 255
203 225 255
203 225 255
203 225 255
203 225 255
202 225 255
202 225 255
202 225 255
202 225 255
202 225 255
202 225 255
202 225 255
202 225 255
202 225 255
202 225 255
202 225 255
202 225 255
202 225 255
202 225 255
202 225 255
201 225 255
201 225 255
201 225 255
201 225 255
201 225 255
201 224 255
201 224 255
201 224 255
201 224 255
201 224 255
201 224 255
201 224 255
201 224 255
201 224 255
201 224 255
200 224 255
200 224 255
200 224 255
200 224 255
200 224 255
200 224 255
200 224 255
200 224 255
200 224 255
200 224 255
200 224 255
200 224 255
200 224 255
200 224 255
200 224 255
199 224 255
199 224 255
199 224 255
199 223 255
199 223 255
199 223 255
199 223 255
199 223 255
199 223 255
199 223 255
199 223 255
199 223 255
199 223 255
199 223 255
199 223 255
199 223 255
198 223 255
198 223 255
198 223 255
198 223 255
198 223 255
198 223 255
198 223 255
198 223 255
198 223 255
198 223 255
198 223 255
198 223 255
198 223 255
198 223 255
198 223 255
198 223 255
198 223 255
198 223 255
198 223 255
198 223 255
197 223 255
197 222 255
197 222 255
197 222 255
197 222 255
197 222 255
197 222 255
197 222 255
197 222 255
197 222 255
197 222 255
197 222 255
197 222 255
197 222 255
197 222 255
197 222 255
197 222 255
197 222 255
197 222 255
197 222 255
197 222 255
197 222 255
197 222 255
197 222 255
197 222 255
197 222 255
197 222 255
197 222 255
197 222 255
197 222 255
197 222 255
197 222 255
197 222 255
197 222 255
197 222 255
197 222 255
197 222 255
197 222 255
197 222 255
197 222 255
197 222 255
197 222 255
197 222 255
197 222 255
197 222 255
197 222 255
197 222 255
197 222 255
197 222 255
197 222 255
197 222 255
197 222 255
197 222 255
197 222 255
197 222 255
197 222 255
197 222 255
197 222 255
197 222 255
197 222 255
197 222 255
197 222 255
197 222 255
197 222 255
197 222 255
197 222 255
197 222 255
197 222 255
197 222 255
197 222 255
197 222 255
197 222 255
197 222 255
197 222 255
197 222 255
197 222 255
197 222 255
197 223 255
198 223 255
198 223 255
198 223 255
198 223 255
198 223 255
198 223 255
198 223 255
198 223 255
198 223 255
198 223 255
198 223 255
198 223 255
198 223 255
198 223 255
198 223 255
198 223 255
198 223 255
198 223 255
198 223 255
198 223 255
199 223 255
199 223 255
199 223 255
199 223 255
199 223 255
199 223 255
199 223 255
199 223 255
199 223 255
199 223 255
199 223 255
199 223 255
199 223 255
199 224 255
199 224 255
199 224 255
200 224 255
200 224 255
200 224 255
200 224 255
200 224 255
200 224 255
200 224 255
200 224 255
200 224 255
200 224 255
200 224 255
200 224 255
200 224 255
200 224 255
200 224 255
201 224 255
201 224 255
201 224 255
201 224 255
201 224 255
201 224 255
201 224 255
201 224 255
201 224 255
201 224 255
201 225 255
201 225 255
201 225 255
201 225 255
201 225 255
202 225 255
202 225 255
202 225 255
202 225 255
202 225 255
202 225 255
202 225 255
202 225 255
202 225 255
202 225 255
202 225 255
202 225 255
202 225 255
202 225 255
202 225 255
203 225 255
203 225 255
203 225 255
203 225 255
203 225 255
203 225 255
203 225 255
203 225 255
203 226 255
203 226 255
203 226 255
203 226 255
203 226 255
203 226 255
203 226 255
204 226 255
204 226 255
204 226 255
204 226 255
204 226 255
204 226 255
204 226 255
204 226 255
204 226 255
204 226 255
204 226 255
204 226 255
204 226 255
204 226 255
204 226 255
204 226 255
205 226 255
205 226 255
205 226 255
205 226 255
205 226 255
205 226 255
205 226 255
205 227 255
205 227 255
205 227 255
205 227 255
205 227 255
205 227 255
205 227 255
205 227 255
205 227 255
205 227 255
206 227 255
206 227 255
206 227 255
206 227 255
206 227 255
206 227 255
206 227 255
206 227 255
206 227 255
206 227 255
206 227 255
206 227 255
206 227 255
206 227 255
206 227 255
206 227 255
206 227 255
206 227 255
206 227 255
207 227 255
207 227 255
207 227 255
207 227 255
207 227 255
207 228 255
207 228 255
207 228 255
207 228 255
207 228 255
207 228 255
207 228 255
207 228 255
207 228 255
207 228 255
207 228 255
207 228 255
207 228 255
207 228 255
207 228 255
207 228 255
207 228 255
207 228 255
207 228 255
207 227 255
207 227 255
207 227 255
207 227 255
207 227 255
206 227 255
206 227 255
206 227 255
206 227 255
206 227 255
206 227 255
206 227 255
206 227 255
206 227 255
206 227 255
206 227 255
206 227 255
206 227 255
206 227 255
206 227 255
206 227 255
206 227 255
206 227 255
205 227 255
205 227 255
205 227 255
205 227 255
205 227 255
205 227 255
205 227 255
205 227 255
205 227 255
205 227 255
205 227 255
205 226 255
205 226 255
205 226 255
205 226 255
205 226 255
205 226 255
205 226 255
204 226 255
204 226 255
204 226 255
204 226 255
204 226 255
204 226 255
204 226 255
204 226 255
204 226 255
204 226 255
204 226 255
204 226 255
204 226 255
204 226 255
204 226 255
204 226 255
203 226 255
203 226 255
203 226 255
203 226 255
203 226 255
203 226 255
203 225 255
203 225 255
203 225 255
203 225 255
203 225 255
203 225 255
203 225 255
203 225 255
203 225 255
202 225 255
202 225 255
202 225 255
202 225 255
202 225 255
202 225 255
202 225 255
202 225 255
202 225 255
202 225 255
202 225 255
202 225 255
202 225 255
202 225 255
202 225 255
201 225 255
201 225 255
201 225 255
201 225 255
201 224 255
201 224 255
201 224 255
201 224 255
201 224 255
201 224 255
201 224 255
201 224 255
201 224 255
201 224 255
201 224 255
200 224 255
200 224 255
200 224 255
200 224 255
200 224 255
200 224 255
200 224 255
200 224 255
200 224 255
200 224 255
200 224 255
200 224 255
200 224 255
200 224 255
200 224 255
199 224 255
199 224 255
199 223 255
199 223 255
199 223 255
199 223 255
199 223 255
199 223 255
199 223 255
199 223 255
199 223 255
199 223 255
199 223 255
199 223 255
199 223 255
199 223 255
198 223 255
198 223 255
198 223 255
198 223 255
198 223 255
198 223 255
198 223 255
198 223 255
198 223 255
198 223 255
198 223 255
198 223 255
198 223 255
198 223 255
198 223 255
198 223 255
198 223 255
198 223 255
198 223 255
198 223 255
198 223 255
197 223 255
197 222 255
197 222 255
197 222 255
197 222 255
197 222 255
197 222 255
197 222 255
197 222 255
197 222 255
197 222 255
197 222 255
197 222 255
197 222 255
197 222 255
197 222 255
197 222 255
197 222 255
197 222 255
197 222 255
197 222 255
197 222 255
197 222 255
197 222 255
197 222 255
197 222 255
197 222 255
197 222 255
197 222 255
197 222 255
197 222 255
197 222 255
197 222 255
197 222 255
197 222 255
197 222 255
197 222 255
197 222 255
197 222 255
197 222 255
197 222 255
197 222 255
197 222 255
197 222 255
197 222 255
197 222 255
197 222 255
197 222 255
197 222 255
197 222 255
197 222 255
197 222 255
197 222 255
197 222 255
197 222 255
197 222 255
197 222 255
197 222 255
197 222 255
197 222 255
197 222 255
197 222 255
197 222 255
197 222 255
197 222 255
197 222 255
197 222 255
197 222 255
197 222 255
197 223 255
198 223 255
198 223 255
198 223 255
198 223 255
198 223 255
198 223 255
198 223 255
198 223 255
198 223 255
198 223 255
198 223 255
198 223 255
198 223 255
198 223 255
198 223 255
198 223 255
198 223 255
198 223 255
198 223 255
198 223 255
198 223 255
199 223 255
199 223 255
199 223 255
199 223 255
199 223 255
199 223 255
199 223 255
199 223 255
199 223 255
199 223 255
199 223 255
199 223 255
199 223 255
199 223 255
199 224 255
199 224 255
200 224 255
200 224 255
200 224 255
200 224 255
200 224 255
200 224 255
200 224 255
200 224 255
200 224 255
200 224 255
200 224 255
200 224 255
200 224 255
200 224 255
200 224 255
201 224 255
201 224 255
201 224 255
201 224 255
201 224 255
201 224 255
201 224 255
201 224 255
201 224 255
201 224 255
201 224 255
201 225 255
201 225 255
201 225 255
201 225 255
202 225 255
202 225 255
202 225 255
202 225 255
202 225 255
202 225 255
202 225 255
202 225 255
202 225 255
202 225 255
202 225 255
202 225 255
202 225 255
202 225 255
202 225 255
203 225 255
203 225 255
203 225 255
203 225 255
203 225 255
203 225 255
203 225 255
203 225 255
203 225 255
203 226 255
203 226 255
203 226 255
203 226 255
203 226 255
203 226 255
204 226 255
204 226 255
204 226 255
204 226 255
204 226 255
204 226 255
204 226 255
204 226 255
204 226 255
204 226 255
204 226 255
204 226 255
204 226 255
204 226 255
204 226 255
204 226 255
204 226 255
205 226 255
205 226 255
205 226 255
205 226 255
205 226 255
205 226 255
205 227 255
205 227 255
205 227 255
205 227 255
205 227 255
205 227 255
205 227 255
205 227 255
205 227 255
205 227 255
205 227 255
206 227 255
206 227 255
206 227 255
206 227 255
206 227 255
206 227 255
206 227 255
206 227 255
206 227 255
206 227 255
206 227 255
206 227 255
206 227 255
206 227 255
206 227 255
206 227 255
206 227 255
206 227 255
206 227 255
207 227 255
207 227 255
207 227 255
207 227 255
207 228 255
207 228 255
207 228 255
207 228 255
207 228 255
207 228 255
207 228 255
207 228 255
207 228 255
207 228 255
207 228 255
207 228 255
207 228 255
207 228 255
207 228 255
207 228 255
207 228 255
207 228 255
207 228 255
207 228 255
207 228 255
207 228 255
207 228 255
207 228 255
207 228 255
207 227 255
207 227 255
207 227 255
207 227 255
206 227 255
206 227 255
206 227 255
206 227 255
206 227 255
206 227 255
206 227 255
206 227 255
206 227 255
206 227 255
206 227 255
206 227 255
206 227 255
206 227 255
206 227 255
206 227 255
206 227 255
206 227 255
206 227 255
205 227 255
205 227 255
205 227 255
205 227 255
205 227 255
205 227 255
205 227 255
205 227 255
205 227 255
205 227 255
205 226 255
205 226 255
205 226 255
205 226 255
205 226 255
205 226 255
205 226 255
204 226 255
204 226 255
204 226 255
204 226 255
204 226 255
204 226 255
204 226 255
204 226 255
204 226 255
204 226 255
204 226 255
204 226 255
204 226 255
204 226 255
204 226 255
204 226 255
203 226 255
203 226 255
203 226 255
203 226 255
203 226 255
203 226 255
203 226 255
203 225 255
203 225 255
203 225 255
203 225 255
203 225 255
203 225 255
203 225 255
203 225 255
202 225 255
202 225 255
202 225 255
202 225 255
202 225 255
202 225 255
202 225 255
202 225 255
202 225 255
202 225 255
202 225 255
202 225 255
202 225 255
202 225 255
202 225 255
201 225 255
201 225 255
201 225 255
201 225 255
201 225 255
201 224 255
201 224 255
201 224 255
201 224 255
201 224 255
201 224 255
201 224 255
201 224 255
201 224 255
201 224 255
200 224 255
200 224 255
200 224 255
200 224 255
200 224 255
200 224 255
200 224 255
200 224 255
200 224 255
200 224 255
200 224 255
200 224 255
200 224 255
200 224 255
200 224 255
200 224 255
199 224 255
199 224 255
199 223 255
199 223 255
199 223 255
199 223 255
199 223 255
199 223 255
199 223 255
199 223 255
199 223 255
199 223 255
199 223 255
199 223 255
199 223 255
199 223 255
199 223 255
198 223 255
198 223 255
198 223 255
198 223 255
198 223 255
198 223 255
198 223 255
198 223 255
198 223 255
198 223 255
198 223 255
198 223 255
198 223 255
198 223 255
198 223 255
198 223 255
198 223 255
198 223 255
198 223 255
198 223 255
198 223 255
198 223 255
197 223 255
197 222 255
197 222 255
197 222 255
197 222 255
197 222 255
197 222 255
197 222 255
197 222 255
197 222 255
197 222 255
197 222 255
197 222 255
197 222 255
197 222 255
197 222 255
197 222 255
197 222 255
197 222 255
197 222 255
197 222 255
197 222 255
197 222 255
197 222 255
197 222 255
197 222 255
197 222 255
197 222 255
197 222 255
197 222 255
197 222 255
197 222 255
197 222 255
197 222 255
197 222 255
197 222 255
197 222 255
197 222 255
197 222 255
197 222 255
197 222 255
197 222 255
197 222 255
197 222 255
197 222 255
197 222 255
197 222 255
197 222 255
197 222 255
197 222 255
197 222 255
197 222 255
197 222 255
197 222 255
197 222 255
197 222 255
197 222 255
197 222 255
197 222 255
197 223 255
198 223 255
198 223 255
198 223 255
198 223 255
198 223 255
198 223 255
198 223 255
198 223 255
198 223 255
198 223 255
198 223 255
198 223 255
198 223 255
198 223 255
198 223 255
198 223 255
198 223 255
198 223 255
198 223 255
198 223 255
198 223 255
198 223 255
199 223 255
199 223 255
199 223 255
199 223 255
199 223 255
199 223 255
199 223 255
199 223 255
199 223 255
199 223 255
199 223 255
199 223 255
199 223 255
199 223 255
199 223 255
199 224 255
199 224 255
200 224 255
200 224 255
200 224 255
200 224 255
200 224 255
200 224 255
200 224 255
200 224 255
200 224 255
200 224 255
200 224 255
200 224 255
200 224 255
200 224 255
200 224 255
200 224 255
201 224 255
201 224 255
201 224 255
201 224 255
201 224 255
201 224 255
201 224 255
201 224 255
201 224 255
201 224 255
201 225 255
201 225 255
201 225 255
201 225 255
201 225 255
202 225 255
202 225 255
202 225 255
202 225 255
202 225 255
202 225 255
202 225 255
202 225 255
202 225 255
202 225 255
202 225 255
202 225 255
202 225 255
202 225 255
202 225 255
203 225 255
203 225 255
203 225 255
203 225 255
203 225 255
203 225 255
203 225 255
203 225 255
203 226 255
203 226 255
203 226 255
203 226 255
203 226 255
203 226 255
203 226 255
204 226 255
204 226 255
204 226 255
204 226 255
204 226 255
204 226 255
204 226 255
204 226 255
204 226 255
204 226 255
204 226 255
204 226 255
204 226 255
204 226 255
204 226 255
204 226 255
205 226 255
205 226 255
205 226 255
205 226 255
205 226 255
205 226 255
205 226 255
205 227 255
205 227 255
205 227 255
205 227 255
205 227 255
205 227 255
205 227 255
205 227 255
205 227 255
205 227 255
206 227 255
206 227 255
206 227 255
206 227 255
206 227 255
206 227 255
206 227 255
206 227 255
206 227 255
206 227 255
206 227 255
206 227 255
206 227 255
206 227 255
206 227 255
206 227 255
206 227 255
206 227 255
207 227 255
207 227 255
207 227 255
207 227 255
207 227 255
207 228 255
207 228 255
207 228 255
207 228 255
207 228 255
207 228 255
207 228 255
207 228 255
207 228 255
207 228 255
207 228 255
207 228 255
207 228 255
207 228 255
208 228 255
207 228 255
207 228 255
207 228 255
207 228 255
207 228 255
207 228 255
207 228 255
207 228 255
207 228 255
207 228 255
207 228 255
207 228 255
207 228 255
207 228 255
207 228 255
207 227 255
207 227 255
207 227 255
207 227 255
207 227 255
206 227 255
206 227 255
206 227 255
206 227 255
206 227 255
206 227 255
206 227 255
206 227 255
206 227 255
206 227 255
206 227 255
206 227 255
206 227 255
206 227 255
206 227 255
206 227 255
206 227 255
206 227 255
206 227 255
205 227 255
205 227 255
205 227 255
205 227 255
205 227 255
205 227 255
205 227 255
205 227 255
205 227 255
205 227 255
205 226 255
205 226 255
205 226 255
205 226 255
205 226 255
205 226 255
205 226 255
204 226 255
204 226 255
204 226 255
204 226 255
204 226 255
204 226 255
204 226 255
204 226 255
204 226 255
204 226 255
204 226 255
204 226 255
204 226 255
204 226 255
204 226 255
204 226 255
203 226 255
203 226 255
203 226 255
203 226 255
203 226 255
203 226 255
203 226 255
203 225 255
203 225 255
203 225 255
203 225 255
203 225 255
203 225 255
203 225 255
203 225 255
202 225 255
202 225 255
202 225 255
202 225 255
202 225 255
202 225 255
202 225 255
202 225 255
202 225 255
202 225 255
202 225 255
202 225 255
202 225 255
202 225 255
202 225 255
201 225 255
201 225 255
201 225 255
201 225 255
201 224 255
201 224 255
201 224 255
201 224 255
201 224 255
201 224 255
201 224 255
201 224 255
201 224 255
201 224 255
201 224 255
200 224 255
200 224 255
200 224 255
200 224 255
200 224 255
200 224 255
200 224 255
200 224 255
200 224 255
200 224 255
200 224 255
200 224 255
200 224 255
200 224 255
200 224 255
200 224 255
199 224 255
199 224 255
199 223 255
199 223 255
199 223 255
199 223 255
199 223 255
199 223 255
199 223 255
199 223 255
199 223 255
199 223 255
199 223 255
199 223 255
199 223 255
199 223 255
199 223 255
198 223 255
198 223 255
198 223 255
198 223 255
198 223 255
198 223 255
198 223 255
198 223 255
198 223 255
198 223 255
198 223 255
198 223 255
198 223 255
198 223 255
198 223 255
198 223 255
198 223 255
198 223 255
198 223 255
198 223 255
198 223 255
198 223 255
198 223 255
198 223 255
197 223 255
197 222 255
197 222 255
197 222 255
197 222 255
197 222 255
197 222 255
197 222 255
197 222 255
197 222 255
197 222 255
197 222 255
197 222 255
197 222 255
197 222 255
197 222 255
197 222 255
197 222 255
197 222 255
197 222 255
197 222 255
197 222 255
197 222 255
197 222 255
197 222 255
197 222 255
197 222 255
197 222 255
197 222 255
197 222 255
197 222 255
197 222 255
197 222 255
197 222 255
197 222 255
197 222 255
197 222 255
197 222 255
197 222 255
197 222 255
197 222 255
197 222 255
197 222 255
197 222 255
197 222 255
197 222 255
197 222 255
197 222 255
197 223 255
198 223 255
198 223 255
198 223 255
198 223 255
198 223 255
198 223 255
198 223 255
198 223 255
198 223 255
198 223 255
198 223 255
198 223 255
198 223 255
198 223 255
198 223 255
198 223 255
198 223 255
198 223 255
198 223 255
198 223 255
198 223 255
198 223 255
198 223 255
198 223 255
198 223 255
199 223 255
199 223 255
199 223 255
199 223 255
199 223 255
199 223 255
199 223 255
199 223 255
199 223 255
199 223 255
199 223 255
199 223 255
199 223 255
199 223 255
199 223 255
199 224 255
199 224 255
199 224 255
200 224 255
200 224 255
200 224 255
200 224 255
200 224 255
200 224 255
200 224 255
200 224 255
200 224 255
200 224 255
200 224 255
200 224 255
200 224 255
200 224 255
200 224 255
201 224 255
201 224 255
201 224 255
201 224 255
201 224 255
201 224 255
201 224 255
201 224 255
201 224 255
201 224 255
201 224 255
201 225 255
201 225 255
201 225 255
201 225 255
202 225 255
202 225 255
202 225 255
202 225 255
202 225 255
202 225 255
202 225 255
202 225 255
202 225 255
202 225 255
202 225 255
202 225 255
202 225 255
202 225 255
202 225 255
203 225 255
203 225 255
203 225 255
203 225 255
203 225 255
203 225 255
203 225 255
203 225 255
203 226 255
203 226 255
203 226 255
203 226 255
203 226 255
203 226 255
203 226 255
204 226 255
204 226 255
204 226 255
204 226 255
204 226 255
204 226 255
204 226 255
204 226 255
204 226 255
204 226 255
204 226 255
204 226 255
204 226 255
204 226 255
204 226 255
204 226 255
205 226 255
205 226 255
205 226 255
205 226 255
205 226 255
205 226 255
205 226 255
205 227 255
205 227 255
205 227 255
205 227 255
205 227 255
205 227 255
205 227 255
205 227 255
205 227 255
205 227 255
206 227 255
206 227 255
206 227 255
206 227 255
206 227 255
206 227 255
206 227 255
206 227 255
206 227 255
206 227 255
206 227 255
206 227 255
206 227 255
206 227 255
206 227 255
206 227 255
206 227 255
206 227 255
206 227 255
207 227 255
207 227 255
207 227 255
207 227 255
207 228 255
207 228 255
207 228 255
207 228 255
207 228 255
207 228 255
207 228 255
207 228 255
207 228 255
207 228 255
207 228 255
207 228 255
207 228 255
207 228 255
207 228 255
207 228 255
208 228 255
208 228 255
208 228 255
208 228 255
208 228 255
207 228 255
207 228 255
207 228 255
207 228 255
207 228 255
207 228 255
207 228 255
207 228 255
207 228 255
207 228 255
207 228 255
207 228 255
207 228 255
207 228 255
207 228 255
207 227 255
207 227 255
207 227 255
207 227 255
207 227 255
206 227 255
206 227 255
206 227 255
206 227 255
206 227 255
206 227 255
206 227 255
206 227 255
206 227 255
206 227 255
206 227 255
206 227 255
206 227 255
206 227 255
206 227 255
206 227 255
206 227 255
206 227 255
205 227 255
205 227 255
205 227 255
205 227 255
205 227 255
205 227 255
205 227 255
205 227 255
205 227 255
205 227 255
205 227 255
205 226 255
205 226 255
205 226 255
205 226 255
205 226 255
205 226 255
204 226 255
204 226 255
204 226 255
204 226 255
204 226 255
204 226 255
204 226 255
204 226 255
204 226 255
204 226 255
204 226 255
204 226 255
204 226 255
204 226 255
204 226 255
204 226 255
203 226 255
203 226 255
203 226 255
203 226 255
203 226 255
203 226 255
203 226 255
203 225 255
203 225 255
203 225 255
203 225 255
203 225 255
203 225 255
203 225 255
203 225 255
203 225 255
202 225 255
202 225 255
202 225 255
202 225 255
202 225 255
202 225 255
202 225 255
202 225 255
202 225 255
202 225 255
202 225 255
202 225 255
202 225 255
202 225 255
202 225 255
201 225 255
201 225 255
201 225 255
201 225 255
201 224 255
201 224 255
201 224 255
201 224 255
201 224 255
201 224 255
201 224 255
201 224 255
201 224 255
201 224 255
201 224 255
200 224 255
200 224 255
200 224 255
200 224 255
200 224 255
200 224 255
200 224 255
200 224 255
200 224 255
200 224 255
200 224 255
200 224 255
200 224 255
200 224 255
200 224 255
200 224 255
199 224 255
199 224 255
199 223 255
199 223 255
199 223 255
199 223 255
199 223 255
199 223 255
199 223 255
199 223 255
199 223 255
199 223 255
199 223 255
199 223 255
199 223 255
199 223 255
199 223 255
199 223 255
198 223 255
198 223 255
198 223 255
198 223 255
198 223 255
198 223 255
198 223 255
198 223 255
198 223 255
198 223 255
198 223 255
198 223 255
198 223 255
198 223 255
198 223 255
198 223 255
198 223 255
198 223 255
198 223 255
198 223 255
198 223 255
198 223 255
198 223 255
198 223 255
198 223 255
198 223 255
198 223 255
198 223 255
197 223 255
197 222 255
197 222 255
197 222 255
197 222 255
197 222 255
197 222 255
197 222 255
197 222 255
197 222 255
197 222 255
197 222 255
197 222 255
197 222 255
197 222 255
197 222 255
197 222 255
197 222 255
197 222 255
197 222 255
197 222 255
197 222 255
197 222 255
197 222 255
197 222 255
197 222 255
197 222 255
197 222 255
197 222 255
197 222 255
197 222 255
197 222 255
197 222 255
197 223 255
198 223 255
198 223 255
198 223 255
198 223 255
198 223 255
198 223 255
198 223 255
198 223 255
198 223 255
198 223 255
198 223 255
198 223 255
198 223 255
198 223 255
198 223 255
198 223 255
198 223 255
198 223 255
198 223 255
198 223 255
198 223 255
198 223 255
198 223 255
198 223 255
198 223 255
198 223 255
198 223 255
198 223 255
199 223 255
199 223 255
199 223 255
199 223 255
199 223 255
199 223 255
199 223 255
199 223 255
199 223 255
199 223 255
199 223 255
199 223 255
199 223 255
199 223 255
199 223 255
199 223 255
199 224 255
199 224 255
200 224 255
200 224 255
200 224 255
200 224 255
200 224 255
200 224 255
200 224 255
200 224 255
200 224 255
200 224 255
200 224 255
200 224 255
200 224 255
200 224 255
200 224 255
200 224 255
201 224 255
201 224 255
201 224 255
201 224 255
201 224 255
201 224 255
201 224 255
201 224 255
201 224 255
201 224 255
201 224 255
201 225 255
201 225 255
201 225 255
201 225 255
201 225 255
202 225 255
202 225 255
202 225 255
202 225 255
202 225 255
202 225 255
202 225 255
202 225 255
202 225 255
202 225 255
202 225 255
202 225 255
202 225 255
202 225 255
203 225 255
203 225 255
203 225 255
203 225 255
203 225 255
203 225 255
203 225 255
203 225 255
203 225 255
203 226 255
203 226 255
203 226 255
203 226 255
203 226 255
203 226 255
203 226 255
204 226 255
204 226 255
204 226 255
204 226 255
204 226 255
204 226 255
204 226 255
204 226 255
204 226 255
204 226 255
204 226 255
204 226 255
204 226 255
204 226 255
204 226 255
204 226 255
205 226 255
205 226 255
205 226 255
205 226 255
205 226 255
205 226 255
205 227 255
205 227 255
205 227 255
205 227 255
205 227 255
205 227 255
205 227 255
205 227 255
205 227 255
205 227 255
205 227 255
206 227 255
206 227 255
206 227 255
206 227 255
206 227 255
206 227 255
206 227 255
206 227 255
206 227 255
206 227 255
206 227 255
206 227 255
206 227 255
206 227 255
206 227 255
206 227 255
206 227 255
206 227 255
207 227 255
207 227 255
207 227 255
207 227 255
207 227 255
207 228 255
207 228 255
207 228 255
207 228 255
207 228 255
207 228 255
207 228 255
207 228 255
207 228 255
207 228 255
207 228 255
207 228 255
207 228 255
207 228 255
207 228 255
208 228 255
208 228 255
208 228 255
208 228 255
208 228 255
208 228 255
208 228 255
208 228 255
208 228 255
208 228 255
208 228 255
207 228 255
207 228 255
207 228 255
207 228 255
207 228 255
207 228 255
207 228 255
207 228 255
207 228 255
207 228 255
207 228 255
207 228 255
207 228 255
207 228 255
207 228 255
207 227 255
207 227 255
207 227 255
207 227 255
207 227 255
206 227 255
206 227 255
206 227 255
206 227 255
206 227 255
206 227 255
206 227 255
206 227 255
206 227 255
206 227 255
206 227 255
206 227 255
206 227 255
206 227 255
206 227 255
206 227 255
206 227 255
206 227 255
205 227 255
205 227 255
205 227 255
205 227 255
205 227 255
205 227 255
205 227 255
205 227 255
205 227 255
205 227 255
205 226 255
205 226 255
205 226 255
205 226 255
205 226 255
205 226 255
205 226 255
204 226 255
204 226 255
204 226 255
204 226 255
204 226 255
204 226 255
204 226 255
204 226 255
204 226 255
204 226 255
204 226 255
204 226 255
204 226 255
204 226 255
204 226 255
204 226 255
203 226 255
203 226 255
203 226 255
203 226 255
203 226 255
203 226 255
203 226 255
203 225 255
203 225 255
203 225 255
203 225 255
203 225 255
203 225 255
203 225 255
203 225 255
202 225 255
202 225 255
202 225 255
202 225 255
202 225 255
202 225 255
202 225 255
202 225 255
202 225 255
202 225 255
202 225 255
202 225 255
202 225 255
202 225 255
202 225 255
201 225 255
201 225 255
201 225 255
201 225 255
201 225 255
201 224 255
201 224 255
201 224 255
201 224 255
201 224 255
201 224 255
201 224 255
201 224 255
201 224 255
201 224 255
200 224 255
200 224 255
200 224 255
200 224 255
200 224 255
200 224 255
200 224 255
200 224 255
200 224 255
200 224 255
200 224 255
200 224 255
200 224 255
200 224 255
200 224 255
200 224 255
200 224 255
199 224 255
199 224 255
199 223 255
199 223 255
199 223 255
199 223 255
199 223 255
199 223 255
199 223 255
199 223 255
199 223 255
199 223 255
199 223 255
199 223 255
199 223 255
199 223 255
199 223 255
199 223 255
199 223 255
198 223 255
198 223 255
198 223 255
198 223 255
198 223 255
198 223 255
198 223 255
198 223 255
198 223 255
198 223 255
198 223 255
198 223 255
198 223 255
198 223 255
198 223 255
198 223 255
198 223 255
198 223 255
198 223 255
198 223 255
198 223 255
198 223 255
198 223 255
198 223 255
198 223 255
198 223 255
198 223 255
198 223 255
198 223 255
198 223 255
198 223 255
198 223 255
198 223 255
198 223 255
198 223 255
198 223 255
198 223 255
198 223 255
197 223 255
197 223 255
197 223 255
197 223 255
197 223 255
197 223 255
197 223 255
198 223 255
198 223 255
198 223 255
198 223 255
198 223 255
198 223 255
198 223 255
198 223 255
198 223 255
198 223 255
198 223 255
198 223 255
198 223 255
198 223 255
198 223 255
198 223 255
198 223 255
198 223 255
198 223 255
198 223 255
198 223 255
198 223 255
198 223 255
198 223 255
198 223 255
198 223 255
198 223 255
198 223 255
198 223 255
198 223 255
198 223 255
198 223 255
198 223 255
198 223 255
198 223 255
198 223 255
198 223 255
199 223 255
199 223 255
199 223 255
199 223 255
199 223 255
199 223 255
199 223 255
199 223 255
199 223 255
199 223 255
199 223 255
199 223 255
199 223 255
199 223 255
199 223 255
199 223 255
199 223 255
199 224 255
199 224 255
200 224 255
200 224 255
200 224 255
200 224 255
200 224 255
200 224 255
200 224 255
200 224 255
200 224 255
200 224 255
200 224 255
200 224 255
200 224 255
200 224 255
200 224 255
200 224 255
200 224 255
201 224 255
201 224 255
201 224 255
201 224 255
201 224 255
201 224 255
201 224 255
201 224 255
201 224 255
201 224 255
201 225 255
201 225 255
201 225 255
201 225 255
201 225 255
202 225 255
202 225 255
202 225 255
202 225 255
202 225 255
202 225 255
202 225 255
202 225 255
202 225 255
202 225 255
202 225 255
202 225 255
202 225 255
202 225 255
202 225 255
203 225 255
203 225 255
203 225 255
203 225 255
203 225 255
203 225 255
203 225 255
203 225 255
203 226 255
203 226 255
203 226 255
203 226 255
203 226 255
203 226 255
203 226 255
204 226 255
204 226 255
204 226 255
204 226 255
204 226 255
204 226 255
204 226 255
204 226 255
204 226 255
204 226 255
204 226 255
204 226 255
204 226 255
204 226 255
204 226 255
204 226 255
205 226 255
205 226 255
205 226 255
205 226 255
205 226 255
205 226 255
205 226 255
205 227 255
205 227 255
205 227 255
205 227 255
205 227 255
205 227 255
205 227 255
205 227 255
205 227 255
205 227 255
206 227 255
206 227 255
206 227 255
206 227 255
206 227 255
206 227 255
206 227 255
206 227 255
206 227 255
206 227 255
206 227 255
206 227 255
206 227 255
206 227 255
206 227 255
206 227 255
206 227 255
206 227 255
207 227 255
207 227 255
207 227 255
207 227 255
207 227 255
207 228 255
207 228 255
207 228 255
207 228 255
207 228 255
207 228 255
207 228 255
207 228 255
207 228 255
207 228 255
207 228 255
207 228 255
207 228 255
207 228 255
207 228 255
208 228 255
208 228 255
208 228 255
208 228 255
208 228 255
208 228 255
208 228 255
208 228 255
208 228 255
208 228 255
208 228 255
208 228 255
208 228 255
208 228 255
208 228 255
208 228 255
208 228 255
207 228 255
207 228 255
207 228 255
207 228 255
207 228 255
207 228 255
207 228 255
207 228 255
207 228 255
207 228 255
207 228 255
207 228 255
207 228 255
207 228 255
207 228 255
207 227 255
207 227 255
207 227 255
207 227 255
207 227 255
206 227 255
206 227 255
206 227 255
206 227 255
206 227 255
206 227 255
206 227 255
206 227 255
206 227 255
206 227 255
206 227 255
206 227 255
206 227 255
206 227 255
206 227 255
206 227 255
206 227 255
206 227 255
205 227 255
205 227 255
205 227 255
205 227 255
205 227 255
205 227 255
205 227 255
205 227 255
205 227 255
205 227 255
205 226 255
205 226 255
205 226 255
205 226 255
205 226 255
205 226 255
205 226 255
204 226 255
204 226 255
204 226 255
204 226 255
204 226 255
204 226 255
204 226 255
204 226 255
204 226 255
204 226 255
204 226 255
204 226 255
204 226 255
204 226 255
204 226 255
204 226 255
203 226 255
203 226 255
203 226 255
203 226 255
203 226 255
203 226 255
203 225 255
203 225 255
203 225 255
203 225 255
203 225 255
203 225 255
203 225 255
203 225 255
203 225 255
202 225 255
202 225 255
202 225 255
202 225 255
202 225 255
202 225 255
202 225 255
202 225 255
202 225 255
202 225 255
202 225 255
202 225 255
202 225 255
202 225 255
202 225 255
201 225 255
201 225 255
201 225 255
201 225 255
201 224 255
201 224 255
201 224 255
201 224 255
201 224 255
201 224 255
201 224 255
201 224 255
201 224 255
201 224 255
201 224 255
200 224 255
200 224 255
200 224 255
200 224 255
200 224 255
200 224 255
200 224 255
200 224 255
200 224 255
200 224 255
200 224 255
200 224 255
200 224 255
200 224 255
200 224 255
200 224 255
200 224 255
199 224 255
199 224 255
199 224 255
199 223 255
199 223 255
199 223 255
199 223 255
199 223 255
199 223 255
199 223 255
199 223 255
199 223 255
199 223 255
199 223 255
199 223 255
199 223 255
199 223 255
199 223 255
199 223 255
199 223 255
198 223 255
198 223 255
198 223 255
198 223 255
198 223 255
198 223 255
198 223 255
198 223 255
198 223 255
198 223 255
198 223 255
198 223 255
198 223 255
198 223 255
198 223 255
198 223 255
198 223 255
198 223 255
198 223 255
198 223 255
198 223 255
198 223 255
198 223 255
198 223 255
198 223 255
198 223 255
198 223 255
198 223 255
198 223 255
198 223 255
198 223 255
198 223 255
198 223 255
198 223 255
198 223 255
198 223 255
198 223 255
198 223 255
198 223 255
198 223 255
198 223 255
198 223 255
198 223 255
198 223 255
198 223 255
198 223 255
198 223 255
198 223 255
198 223 255
198 223 255
198 223 255
198 223 255
198 223 255
198 223 255
198 223 255
198 223 255
198 223 255
198 223 255
198 223 255
198 223 255
198 223 255
198 223 255
198 223 255
198 223 255
198 223 255
198 223 255
198 223 255
198 223 255
198 223 255
198 223 255
198 223 255
198 223 255
198 223 255
198 223 255
199 223 255
199 223 255
199 223 255
199 223 255
199 223 255
199 223 255
199 223 255
199 223 255
199 223 255
199 223 255
199 223 255
199 223 255
199 223 255
199 223 255
199 223 255
199 223 255
199 223 255
199 224 255
199 224 255
199 224 255
200 224 255
200 224 255
200 224 255
200 224 255
200 224 255
200 224 255
200 224 255
200 224 255
200 224 255
200 224 255
200 224 255
200 224 255
200 224 255
200 224 255
200 224 255
200 224 255
200 224 255
201 224 255
201 224 255
201 224 255
201 224 255
201 224 255
201 224 255
201 224 255
201 224 255
201 224 255
201 224 255
201 224 255
201 225 255
201 225 255
201 225 255
201 225 255
202 225 255
202 225 255
202 225 255
202 225 255
202 225 255
202 225 255
202 225 255
202 225 255
202 225 255
202 225 255
202 225 255
202 225 255
202 225 255
202 225 255
202 225 255
203 225 255
203 225 255
203 225 255
203 225 255
203 225 255
203 225 255
203 225 255
203 225 255
203 225 255
203 226 255
203 226 255
203 226 255
203 226 255
203 226 255
203 226 255
204 226 255
204 226 255
204 226 255
204 226 255
204 226 255
204 226 255
204 226 255
204 226 255
204 226 255
204 226 255
204 226 255
204 226 255
204 226 255
204 226 255
204 226 255
204 226 255
205 226 255
205 226 255
205 226 255
205 226 255
205 226 255
205 226 255
205 226 255
205 227 255
205 227 255
205 227 255
205 227 255
205 227 255
205 227 255
205 227 255
205 227 255
205 227 255
205 227 255
206 227 255
206 227 255
206 227 255
206 227 255
206 227 255
206 227 255
206 227 255
206 227 255
206 227 255
206 227 255
206 227 255
206 227 255
206 227 255
206 227 255
206 227 255
206 227 255
206 227 255
206 227 255
207 227 255
207 227 255
207 227 255
207 227 255
207 227 255
207 228 255
207 228 255
207 228 255
207 228 255
207 228 255
207 228 255
207 228 255
207 228 255
207 228 255
207 228 255
207 228 255
207 228 255
207 228 255
207 228 255
207 228 255
208 228 255
208 228 255
208 228 255
208 228 255
208 228 255
208 228 255
208 228 255
208 228 255
208 228 255
208 228 255
208 228 255
208 228 255
208 228 255
208 228 255
208 228 255
208 228 255
208 228 255
208 228 255
208 228 255
208 228 255
208 228 255
208 228 255
208 228 255
207 228 255
207 228 255
207 228 255
207 228 255
207 228 255
207 228 255
207 228 255
207 228 255
207 228 255
207 228 255
207 228 255
207 228 255
207 228 255
207 228 255
207 228 255
207 227 255
207 227 255
207 227 255
207 227 255
207 227 255
206 227 255
206 227 255
206 227 255
206 227 255
206 227 255
206 227 255
206 227 255
206 227 255
206 227 255
206 227 255
206 227 255
206 227 255
206 227 255
206 227 255
206 227 255
206 227 255
206 227 255
206 227 255
205 227 255
205 227 255
205 227 255
205 227 255
205 227 255
205 227 255
205 227 255
205 227 255
205 227 255
205 227 255
205 226 255
205 226 255
205 226 255
205 226 255
205 226 255
205 226 255
204 226 255
204 226 255
204 226 255
204 226 255
204 226 255
204 226 255
204 226 255
204 226 255
204 226 255
204 226 255
204 226 255
204 226 255
204 226 255
204 226 255
204 226 255
204 226 255
203 226 255
203 226 255
203 226 255
203 226 255
203 226 255
203 226 255
203 226 255
203 225 255
203 225 255
203 225 255
203 225 255
203 225 255
203 225 255
203 225 255
203 225 255
202 225 255
202 225 255
202 225 255
202 225 255
202 225 255
202 225 255
202 225 255
202 225 255
202 225 255
202 225 255
202 225 255
202 225 255
202 225 255
202 225 255
202 225 255
202 225 255
201 225 255
201 225 255
201 225 255
201 225 255
201 224 255
201 224 255
201 224 255
201 224 255
201 224 255
201 224 255
201 224 255
201 224 255
201 224 255
201 224 255
201 224 255
200 224 255
200 224 255
200 224 255
200 224 255
200 224 255
200 224 255
200 224 255
200 224 255
200 224 255
200 224 255
200 224 255
200 224 255
200 224 255
200 224 255
200 224 255
200 224 255
200 224 255
199 224 255
199 224 255
199 224 255
199 223 255
199 223 255
199 223 255
199 223 255
199 223 255
199 223 255
199 223 255
199 223 255
199 223 255
199 223 255
199 223 255
199 223 255
199 223 255
199 223 255
199 223 255
199 223 255
199 223 255
199 223 255
199 223 255
198 223 255
198 223 255
198 223 255
198 223 255
198 223 255
198 223 255
198 223 255
198 223 255
198 223 255
198 223 255
198 223 255
198 223 255
198 223 255
198 223 255
198 223 255
198 223 255
198 223 255
198 223 255
198 223 255
198 223 255
198 223 255
198 223 255
198 223 255
198 223 255
198 223 255
198 223 255
198 223 255
198 223 255
198 223 255
198 223 255
198 223 255
198 223 255
198 223 255
198 223 255
198 223 255
198 223 255
198 223 255
198 223 255
198 223 255
198 223 255
198 223 255
198 223 255
198 223 255
198 223 255
198 223 255
198 223 255
198 223 255
198 223 255
198 223 255
198 223 255
198 223 255
198 223 255
198 223 255
198 223 255
198 223 255
198 223 255
198 223 255
198 223 255
198 223 255
198 223 255
198 223 255
198 223 255
198 223 255
198 223 255
199 223 255
199 223 255
199 223 255
199 223 255
199 223 255
199 223 255
199 223 255
199 223 255
199 223 255
199 223 255
199 223 255
199 223 255
199 223 255
199 223 255
199 223 255
199 223 255
199 223 255
199 223 255
199 223 255
199 224 255
199 224 255
199 224 255
200 224 255
200 224 255
200 224 255
200 224 255
200 224 255
200 224 255
200 224 255
200 224 255
200 224 255
200 224 255
200 224 255
200 224 255
200 224 255
200 224 255
200 224 255
200 224 255
200 224 255
201 224 255
201 224 255
201 224 255
201 224 255
201 224 255
201 224 255
201 224 255
201 224 255
201 224 255
201 224 255
201 224 255
201 225 255
201 225 255
201 225 255
201 225 255
202 225 255
202 225 255
202 225 255
202 225 255
202 225 255
202 225 255
202 225 255
202 225 255
202 225 255
202 225 255
202 225 255
202 225 255
202 225 255
202 225 255
202 225 255
203 225 255
203 225 255
203 225 255
203 225 255
203 225 255
203 225 255
203 225 255
203 225 255
203 225 255
203 226 255
203 226 255
203 226 255
203 226 255
203 226 255
203 226 255
203 226 255
204 226 255
204 226 255
204 226 255
204 226 255
204 226 255
204 226 255
204 226 255
204 226 255
204 226 255
204 226 255
204 226 255
204 226 255
204 226 255
204 226 255
204 226 255
205 226 255
205 226 255
205 226 255
205 226 255
205 226 255
205 226 255
205 226 255
205 227 255
205 227 255
205 227 255
205 227 255
205 227 255
205 227 255
205 227 255
205 227 255
205 227 255
205 227 255
206 227 255
206 227 255
206 227 255
206 227 255
206 227 255
206 227 255
206 227 255
206 227 255
206 227 255
206 227 255
206 227 255
206 227 255
206 227 255
206 227 255
206 227 255
206 227 255
206 227 255
206 227 255
207 227 255
207 227 255
207 227 255
207 227 255
207 227 255
207 228 255
207 228 255
207 228 255
207 228 255
207 228 255
207 228 255
207 228 255
207 228 255
207 228 255
207 228 255
207 228 255
207 228 255
207 228 255
207 228 255
207 228 255
208 228 255
208 228 255
208 228 255
208 228 255
208 228 255
208 228 255
208 228 255
208 228 255
208 228 255
208 228 255
208 228 255
208 228 255
208 228 255
208 228 255
208 228 255
208 228 255
208 228 255
208 228 255
208 228 255
208 228 255
208 228 255
208 228 255
208 228 255
208 228 255
208 228 255
208 228 255
208 228 255
208 228 255
208 228 255
207 228 255
207 228 255
207 228 255
207 228 255
207 228 255
207 228 255
207 228 255
207 228 255
207 228 255
207 228 255
207 228 255
207 228 255
207 228 255
207 228 255
207 228 255
207 227 255
207 227 255
207 227 255
207 227 255
207 227 255
206 227 255
206 227 255
206 227 255
206 227 255
206 227 255
206 227 255
206 227 255
206 227 255
206 227 255
206 227 255
206 227 255
206 227 255
206 227 255
206 227 255
206 227 255
206 227 255
206 227 255
206 227 255
205 227 255
205 227 255
205 227 255
205 227 255
205 227 255
205 227 255
205 227 255
205 227 255
205 227 255
205 227 255
205 226 255
205 226 255
205 226 255
205 226 255
205 226 255
205 226 255
204 226 255
204 226 255
204 226 255
204 226 255
204 226 255
204 226 255
204 226 255
204 226 255
204 226 255
204 226 255
204 226 255
204 226 255
204 226 255
204 226 255
204 226 255
204 226 255
203 226 255
203 226 255
203 226 255
203 226 255
203 226 255
203 226 255
203 226 255
203 225 255
203 225 255
203 225 255
203 225 255
203 225 255
203 225 255
203 225 255
203 225 255
202 225 255
202 225 255
202 225 255
202 225 255
202 225 255
202 225 255
202 225 255
202 225 255
202 225 255
202 225 255
202 225 255
202 225 255
202 225 255
202 225 255
202 225 255
201 225 255
201 225 255
201 225 255
201 225 255
201 225 255
201 224 255
201 224 255
201 224 255
201 224 255
201 224 255
201 224 255
201 224 255
201 224 255
201 224 255
201 224 255
201 224 255
200 224 255
200 224 255
200 224 255
200 224 255
200 224 255
200 224 255
200 224 255
200 224 255
200 224 255
200 224 255
200 224 255
200 224 255
200 224 255
200 224 255
200 224 255
200 224 255
200 224 255
200 224 255
199 224 255
199 224 255
199 224 255
199 223 255
199 223 255
199 223 255
199 223 255
199 223 255
199 223 255
199 223 255
199 223 255
199 223 255
199 223 255
199 223 255
199 223 255
199 223 255
199 223 255
199 223 255
199 223 255
199 223 255
199 223 255
199 223 255
199 223 255
198 223 255
198 223 255
198 223 255
198 223 255
198 223 255
198 223 255
198 223 255
198 223 255
198 223 255
198 223 255
198 223 255
198 223 255
198 223 255
198 223 255
198 223 255
198 223 255
198 223 255
198 223 255
198 223 255
198 223 255
198 223 255
198 223 255
198 223 255
198 223 255
198 223 255
198 223 255
198 223 255
198 223 255
198 223 255
198 223 255
198 223 255
198 223 255
198 223 255
198 223 255
198 223 255
198 223 255
198 223 255
198 223 255
198 223 255
198 223 255
198 223 255
198 223 255
198 223 255
198 223 255
198 223 255
198 223 255
198 223 255
198 223 255
198 223 255
198 223 255
198 223 255
198 223 255
198 223 255
198 223 255
199 223 255
199 223 255
199 223 255
199 223 255
199 223 255
199 223 255
199 223 255
199 223 255
199 223 255
199 223 255
199 223 255
199 223 255
199 223 255
199 223 255
199 223 255
199 223 255
199 223 255
199 223 255
199 223 255
199 223 255
199 224 255
199 224 255
199 224 255
200 224 255
200 224 255
200 224 255
200 224 255
200 224 255
200 224 255
200 224 255
200 224 255
200 224 255
200 224 255
200 224 255
200 224 255
200 224 255
200 224 255
200 224 255
200 224 255
200 224 255
200 224 255
201 224 255
201 224 255
201 224 255
201 224 255
201 224 255
201 224 255
201 224 255
201 224 255
201 224 255
201 224 255
201 224 255
201 225 255
201 225 255
201 225 255
201 225 255
201 225 255
202 225 255
202 225 255
202 225 255
202 225 255
202 225 255
202 225 255
202 225 255
202 225 255
202 225 255
202 225 255
202 225 255
202 225 255
202 225 255
202 225 255
202 225 255
203 225 255
203 225 255
203 225 255
203 225 255
203 225 255
203 225 255
203 225 255
203 225 255
203 226 255
203 226 255
203 226 255
203 226 255
203 226 255
203 226 255
203 226 255
204 226 255
204 226 255
204 226 255
204 226 255
204 226 255
204 226 255
204 226 255
204 226 255
204 226 255
204 226 255
204 226 255
204 226 255
204 226 255
204 226 255
204 226 255
204 226 255
205 226 255
205 226 255
205 226 255
205 226 255
205 226 255
205 226 255
205 227 255
205 227 255
205 227 255
205 227 255
205 227 255
205 227 255
205 227 255
205 227 255
205 227 255
205 227 255
206 227 255
206 227 255
206 227 255
206 227 255
206 227 255
206 227 255
206 227 255
206 227 255
206 227 255
206 227 255
206 227 255
206 227 255
206 227 255
206 227 255
206 227 255
206 227 255
206 227 255
206 227 255
207 227 255
207 227 255
207 227 255
207 227 255
207 227 255
207 228 255
207 228 255
207 228 255
207 228 255
207 228 255
207 228 255
207 228 255
207 228 255
207 228 255
207 228 255
207 228 255
207 228 255
207 228 255
207 228 255
207 228 255
208 228 255
208 228 255
208 228 255
208 228 255
208 228 255
208 228 255
208 228 255
208 228 255
208 228 255
208 228 255
208 228 255
208 228 255
208 228 255
208 228 255
208 228 255
208 228 255
208 228 255
208 228 255
208 228 255
208 228 255
208 228 255
208 228 255
208 228 255
208 228 255
208 228 255
208 228 255
208 228 255
208 228 255
208 228 255
208 228 255
208 228 255
208 228 255
208 228 255
208 228 255
208 228 255
207 228 255
207 228 255
207 228 255
207 228 255
207 228 255
207 228 255
207 228 255
207 228 255
207 228 255
207 228 255
207 228 255
207 228 255
207 228 255
207 228 255
207 228 255
207 227 255
207 227 255
207 227 255
207 227 255
207 227 255
206 227 255
206 227 255
206 227 255
206 227 255
206 227 255
206 227 255
206 227 255
206 227 255
206 227 255
206 227 255
206 227 255
206 227 255
206 227 255
206 227 255
206 227 255
206 227 255
206 227 255
205 227 255
205 227 255
205 227 255
205 227 255
205 227 255
205 227 255
205 227 255
205 227 255
205 227 255
205 227 255
205 226 255
205 226 255
205 226 255
205 226 255
205 226 255
205 226 255
205 226 255
204 226 255
204 226 255
204 226 255
204 226 255
204 226 255
204 226 255
204 226 255
204 226 255
204 226 255
204 226 255
204 226 255
204 226 255
204 226 255
204 226 255
204 226 255
204 226 255
203 226 255
203 226 255
203 226 255
203 226 255
203 226 255
203 226 255
203 225 255
203 225 255
203 225 255
203 225 255
203 225 255
203 225 255
203 225 255
203 225 255
203 225 255
202 225 255
202 225 255
202 225 255
202 225 255
202 225 255
202 225 255
202 225 255
202 225 255
202 225 255
202 225 255
202 225 255
202 225 255
202 225 255
202 225 255
202 225 255
201 225 255
201 225 255
201 225 255
201 225 255
201 225 255
201 224 255
201 224 255
201 224 255
201 224 255
201 224 255
201 224 255
201 224 255
201 224 255
201 224 255
201 224 255
201 224 255
200 224 255
200 224 255
200 224 255
200 224 255
200 224 255
200 224 255
200 224 255
200 224 255
200 224 255
200 224 255
200 224 255
200 224 255
200 224 255
200 224 255
200 224 255
200 224 255
200 224 255
200 224 255
199 224 255
199 224 255
199 224 255
199 224 255
199 223 255
199 223 255
199 223 255
199 223 255
199 223 255
199 223 255
199 223 255
199 223 255
199 223 255
199 223 255
199 223 255
199 223 255
199 223 255
199 223 255
199 223 255
199 223 255
199 223 255
199 223 255
199 223 255
199 223 255
199 223 255
199 223 255
199 223 255
198 223 255
198 223 255
198 223 255
198 223 255
198 223 255
198 223 255
198 223 255
198 223 255
198 223 255
198 223 255
198 223 255
198 223 255
198 223 255
198 223 255
198 223 255
198 223 255
198 223 255
198 223 255
198 223 255
198 223 255
198 223 255
198 223 255
198 223 255
198 223 255
198 223 255
198 223 255
198 223 255
198 223 255
198 223 255
198 223 255
198 223 255
198 223 255
198 223 255
198 223 255
198 223 255
198 223 255
198 223 255
198 223 255
198 223 255
198 223 255
199 223 255
199 223 255
199 223 255
199 223 255
199 223 255
199 223 255
199 223 255
199 223 255
199 223 255
199 223 255
199 223 255
199 223 255
199 223 255
199 223 255
199 223 255
199 223 255
199 223 255
199 223 255
199 223 255
199 223 255
199 223 255
199 223 255
199 223 255
199 224 255
199 224 255
199 224 255
199 224 255
200 224 255
200 224 255
200 224 255
200 224 255
200 224 255
200 224 255
200 224 255
200 224 255
200 224 255
200 224 255
200 224 255
200 224 255
200 224 255
200 224 255
200 224 255
200 224 255
200 224 255
200 224 255
201 224 255
201 224 255
201 224 255
201 224 255
201 224 255
201 224 255
201 224 255
201 224 255
201 224 255
201 224 255
201 224 255
201 225 255
201 225 255
201 225 255
201 225 255
201 225 255
202 225 255
202 225 255
202 225 255
202 225 255
202 225 255
202 225 255
202 225 255
202 225 255
202 225 255
202 225 255
202 225 255
202 225 255
202 225 255
202 225 255
202 225 255
203 225 255
203 225 255
203 225 255
203 225 255
203 225 255
203 225 255
203 225 255
203 225 255
203 225 255
203 226 255
203 226 255
203 226 255
203 226 255
203 226 255
203 226 255
204 226 255
204 226 255
204 226 255
204 226 255
204 226 255
204 226 255
204 226 255
204 226 255
204 226 255
204 226 255
204 226 255
204 226 255
204 226 255
204 226 255
204 226 255
204 226 255
205 226 255
205 226 255
205 226 255
205 226 255
205 226 255
205 226 255
205 226 255
205 227 255
205 227 255
205 227 255
205 227 255
205 227 255
205 227 255
205 227 255
205 227 255
205 227 255
205 227 255
206 227 255
206 227 255
206 227 255
206 227 255
206 227 255
206 227 255
206 227 255
206 227 255
206 227 255
206 227 255
206 227 255
206 227 255
206 227 255
206 227 255
206 227 255
206 227 255
206 227 255
207 227 255
207 227 255
207 227 255
207 227 255
207 227 255
207 228 255
207 228 255
207 228 255
207 228 255
207 228 255
207 228 255
207 228 255
207 228 255
207 228 255
207 228 255
207 228 255
207 228 255
207 228 255
207 228 255
207 228 255
208 228 255
208 228 255
208 228 255
208 228 255
208 228 255
208 228 255
208 228 255
208 228 255
208 228 255
208 228 255
208 228 255
208 228 255
208 228 255
208 228 255
208 228 255
208 228 255
208 228 255
208 228 255
208 228 255
209 228 255
208 228 255
208 228 255
208 228 255
208 228 255
208 228 255
208 228 255
208 228 255
208 228 255
208 228 255
208 228 255
208 228 255
208 228 255
208 228 255
208 228 255
208 228 255
208 228 255
208 228 255
208 228 255
208 228 255
208 228 255
208 228 255
207 228 255
207 228 255
207 228 255
207 228 255
207 228 255
207 228 255
207 228 255
207 228 255
207 228 255
207 228 255
207 228 255
207 228 255
207 228 255
207 228 255
207 228 255
207 227 255
207 227 255
207 227 255
207 227 255
207 227 255
206 227 255
206 227 255
206 227 255
206 227 255
206 227 255
206 227 255
206 227 255
206 227 255
206 227 255
206 227 255
206 227 255
206 227 255
206 227 255
206 227 255
206 227 255
206 227 255
206 227 255
205 227 255
205 227 255
205 227 255
205 227 255
205 227 255
205 227 255
205 227 255
205 227 255
205 227 255
205 227 255
205 226 255
205 226 255
205 226 255
205 226 255
205 226 255
205 226 255
205 226 255
204 226 255
204 226 255
204 226 255
204 226 255
204 226 255
204 226 255
204 226 255
204 226 255
204 226 255
204 226 255
204 226 255
204 226 255
204 226 255
204 226 255
204 226 255
203 226 255
203 226 255
203 226 255
203 226 255
203 226 255
203 226 255
203 226 255
203 225 255
203 225 255
203 225 255
203 225 255
203 225 255
203 225 255
203 225 255
203 225 255
203 225 255
202 225 255
202 225 255
202 225 255
202 225 255
202 225 255
202 225 255
202 225 255
202 225 255
202 225 255
202 225 255
202 225 255
202 225 255
202 225 255
202 225 255
202 225 255
201 225 255
201 225 255
201 225 255
201 225 255
201 225 255
201 224 255
201 224 255
201 224 255
201 224 255
201 224 255
201 224 255
201 224 255
201 224 255
201 224 255
201 224 255
201 224 255
200 224 255
200 224 255
200 224 255
200 224 255
200 224 255
200 224 255
200 224 255
200 224 255
200 224 255
200 224 255
200 224 255
200 224 255
200 224 255
200 224 255
200 224 255
200 224 255
200 224 255
200 224 255
200 224 255
200 224 255
199 224 255
199 224 255
199 224 255
199 223 255
199 223 255
199 223 255
199 223 255
199 223 255
199 223 255
199 223 255
199 223 255
199 223 255
199 223 255
199 223 255
199 223 255
199 223 255
199 223 255
199 223 255
199 223 255
199 223 255
199 223 255
199 223 255
199 223 255
199 223 255
199 223 255
199 223 255
199 223 255
199 223 255
199 223 255
199 223 255
199 223 255
199 223 255
198 223 255
198 223 255
198 223 255
198 223 255
198 223 255
198 223 255
198 223 255
198 223 255
198 223 255
198 223 255
198 223 255
198 223 255
198 223 255
198 223 255
198 223 255
198 223 255
198 223 255
198 223 255
198 223 255
198 223 255
199 223 255
199 223 255
199 223 255
199 223 255
199 223 255
199 223 255
199 223 255
199 223 255
199 223 255
199 223 255
199 223 255
199 223 255
199 223 255
199 223 255
199 223 255
199 223 255
199 223 255
199 223 255
199 223 255
199 223 255
199 223 255
199 223 255
199 223 255
199 223 255
199 223 255
199 223 255
199 223 255
199 223 255
199 223 255
199 224 255
199 224 255
199 224 255
199 224 255
200 224 255
200 224 255
200 224 255
200 224 255
200 224 255
200 224 255
200 224 255
200 224 255
200 224 255
200 224 255
200 224 255
200 224 255
200 224 255
200 224 255
200 224 255
200 224 255
200 224 255
200 224 255
201 224 255
201 224 255
201 224 255
201 224 255
201 224 255
201 224 255
201 224 255
201 224 255
201 224 255
201 224 255
201 224 255
201 224 255
201 225 255
201 225 255
201 225 255
201 225 255
201 225 255
202 225 255
202 225 255
202 225 255
202 225 255
202 225 255
202 225 255
202 225 255
202 225 255
202 225 255
202 225 255
202 225 255
202 225 255
202 225 255
202 225 255
202 225 255
203 225 255
203 225 255
203 225 255
203 225 255
203 225 255
203 225 255
203 225 255
203 225 255
203 225 255
203 226 255
203 226 255
203 226 255
203 226 255
203 226 255
203 226 255
203 226 255
204 226 255
204 226 255
204 226 255
204 226 255
204 226 255
204 226 255
204 226 255
204 226 255
204 226 255
204 226 255
204 226 255
204 226 255
204 226 255
204 226 255
204 226 255
205 226 255
205 226 255
205 226 255
205 226 255
205 226 255
205 226 255
205 226 255
205 227 255
205 227 255
205 227 255
205 227 255
205 227 255
205 227 255
205 227 255
205 227 255
205 227 255
205 227 255
206 227 255
206 227 255
206 227 255
206 227 255
206 227 255
206 227 255
206 227 255
206 227 255
206 227 255
206 227 255
206 227 255
206 227 255
206 227 255
206 227 255
206 227 255
206 227 255
206 227 255
206 227 255
207 227 255
207 227 255
207 227 255
207 227 255
207 228 255
207 228 255
207 228 255
207 228 255
207 228 255
207 228 255
207 228 255
207 228 255
207 228 255
207 228 255
207 228 255
207 228 255
207 228 255
207 228 255
207 228 255
208 228 255
208 228 255
208 228 255
208 228 255
208 228 255
208 228 255
208 228 255
208 228 255
208 228 255
208 228 255
208 228 255
208 228 255
208 228 255
208 228 255
208 228 255
208 228 255
208 228 255
208 228 255
208 228 255
208 228 255
208 228 255
209 228 255
209 229 255
209 229 255
209 228 255
209 228 255
208 228 255
208 228 255
208 228 255
208 228 255
208 228 255
208 228 255
208 228 255
208 228 255
208 228 255
208 228 255
208 228 255
208 228 255
208 228 255
208 228 255
208 228 255
208 228 255
208 228 255
208 228 255
208 228 255
208 228 255
208 228 255
207 228 255
207 228 255
207 228 255
207 228 255
207 228 255
207 228 255
207 228 255
207 228 255
207 228 255
207 228 255
207 228 255
207 228 255
207 228 255
207 228 255
207 228 255
207 227 255
207 227 255
207 227 255
207 227 255
206 227 255
206 227 255
206 227 255
206 227 255
206 227 255
206 227 255
206 227 255
206 227 255
206 227 255
206 227 255
206 227 255
206 227 255
206 227 255
206 227 255
206 227 255
206 227 255
206 227 255
206 227 255
205 227 255
205 227 255
205 227 255
205 227 255
205 227 255
205 227 255
205 227 255
205 227 255
205 227 255
205 227 255
205 226 255
205 226 255
205 226 255
205 226 255
205 226 255
205 226 255
204 226 255
204 226 255
204 226 255
204 226 255
204 226 255
204 226 255
204 226 255
204 226 255
204 226 255
204 226 255
204 226 255
204 226 255
204 226 255
204 226 255
204 226 255
204 226 255
203 226 255
203 226 255
203 226 255
203 226 255
203 226 255
203 226 255
203 226 255
203 225 255
203 225 255
203 225 255
203 225 255
203 225 255
203 225 255
203 225 255
203 225 255
203 225 255
202 225 255
202 225 255
202 225 255
202 225 255
202 225 255
202 225 255
202 225 255
202 225 255
202 225 255
202 225 255
202 225 255
202 225 255
202 225 255
202 225 255
202 225 255
201 225 255
201 225 255
201 225 255
201 225 255
201 225 255
201 224 255
201 224 255
201 224 255
201 224 255
201 224 255
201 224 255
201 224 255
201 224 255
201 224 255
201 224 255
201 224 255
201 224 255
200 224 255
200 224 255
200 224 255
200 224 255
200 224 255
200 224 255
200 224 255
200 224 255
200 224 255
200 224 255
200 224 255
200 224 255
200 224 255
200 224 255
200 224 255
200 224 255
200 224 255
200 224 255
200 224 255
200 224 255
199 224 255
199 224 255
199 224 255
199 224 255
199 223 255
199 223 255
199 223 255
199 223 255
199 223 255
199 223 255
199 223 255
199 223 255
199 223 255
199 223 255
199 223 255
199 223 255
199 223 255
199 223 255
199 223 255
199 223 255
199 223 255
199 223 255
199 223 255
199 223 255
199 223 255
199 223 255
199 223 255
199 223 255
199 223 255
199 223 255
199 223 255
199 223 255
199 223 255
199 223 255
199 223 255
199 223 255
199 223 255
199 223 255
199 223 255
199 223 255
199 223 255
199 223 255
199 223 255
199 223 255
199 223 255
199 223 255
199 223 255
199 223 255
199 223 255
199 223 255
199 223 255
199 223 255
199 223 255
199 223 255
199 223 255
199 223 255
199 223 255
199 223 255
199 223 255
199 223 255
199 223 255
199 223 255
199 223 255
199 223 255
199 223 255
199 223 255
199 223 255
199 223 255
199 223 255
199 223 255
199 223 255
199 223 255
199 224 255
199 224 255
199 224 255
199 224 255
200 224 255
200 224 255
200 224 255
200 224 255
200 224 255
200 224 255
200 224 255
200 224 255
200 224 255
200 224 255
200 224 255
200 224 255
200 224 255
200 224 255
200 224 255
200 224 255
200 224 255
200 224 255
200 224 255
200 224 255
201 224 255
201 224 255
201 224 255
201 224 255
201 224 255
201 224 255
201 224 255
201 224 255
201 224 255
201 224 255
201 224 255
201 224 255
201 225 255
201 225 255
201 225 255
201 225 255
201 225 255
202 225 255
202 225 255
202 225 255
202 225 255
202 225 255
202 225 255
202 225 255
202 225 255
202 225 255
202 225 255
202 225 255
202 225 255
202 225 255
202 225 255
202 225 255
203 225 255
203 225 255
203 225 255
203 225 255
203 225 255
203 225 255
203 225 255
203 225 255
203 225 255
203 226 255
203 226 255
203 226 255
203 226 255
203 226 255
203 226 255
203 226 255
204 226 255
204 226 255
204 226 255
204 226 255
204 226 255
204 226 255
204 226 255
204 226 255
204 226 255
204 226 255
204 226 255
204 226 255
204 226 255
204 226 255
204 226 255
204 226 255
205 226 255
205 226 255
205 226 255
205 226 255
205 226 255
205 226 255
205 227 255
205 227 255
205 227 255
205 227 255
205 227 255
205 227 255
205 227 255
205 227 255
205 227 255
205 227 255
206 227 255
206 227 255
206 227 255
206 227 255
206 227 255
206 227 255
206 227 255
206 227 255
206 227 255
206 227 255
206 227 255
206 227 255
206 227 255
206 227 255
206 227 255
206 227 255
206 227 255
206 227 255
207 227 255
207 227 255
207 227 255
207 227 255
207 228 255
207 228 255
207 228 255
207 228 255
207 228 255
207 228 255
207 228 255
207 228 255
207 228 255
207 228 255
207 228 255
207 228 255
207 228 255
207 228 255
207 228 255
208 228 255
208 228 255
208 228 255
208 228 255
208 228 255
208 228 255
208 228 255
208 228 255
208 228 255
208 228 255
208 228 255
208 228 255
208 228 255
208 228 255
208 228 255
208 228 255
208 228 255
208 228 255
208 228 255
208 228 255
208 228 255
209 228 255
209 228 255
209 229 255
209 229 255
209 229 255
209 229 255
209 229 255
209 229 255
209 229 255
209 229 255
209 228 255
208 228 255
208 228 255
208 228 255
208 228 255
208 228 255
208 228 255
208 228 255
208 228 255
208 228 255
208 228 255
208 228 255
208 228 255
208 228 255
208 228 255
208 228 255
208 228 255
208 228 255
208 228 255
208 228 255
208 228 255
208 228 255
207 228 255
207 228 255
207 228 255
207 228 255
207 228 255
207 228 255
207 228 255
207 228 255
207 228 255
207 228 255
207 228 255
207 228 255
207 228 255
207 228 255
207 228 255
207 227 255
207 227 255
207 227 255
207 227 255
206 227 255
206 227 255
206 227 255
206 227 255
206 227 255
206 227 255
206 227 255
206 227 255
206 227 255
206 227 255
206 227 255
206 227 255
206 227 255
206 227 255
206 227 255
206 227 255
206 227 255
206 227 255
205 227 255
205 227 255
205 227 255
205 227 255
205 227 255
205 227 255
205 227 255
205 227 255
205 227 255
205 227 255
205 226 255
205 226 255
205 226 255
205 226 255
205 226 255
205 226 255
204 226 255
204 226 255
204 226 255
204 226 255
204 226 255
204 226 255
204 226 255
204 226 255
204 226 255
204 226 255
204 226 255
204 226 255
204 226 255
204 226 255
204 226 255
204 226 255
203 226 255
203 226 255
203 226 255
203 226 255
203 226 255
203 226 255
203 226 255
203 225 255
203 225 255
203 225 255
203 225 255
203 225 255
203 225 255
203 225 255
203 225 255
202 225 255
202 225 255
202 225 255
202 225 255
202 225 255
202 225 255
202 225 255
202 225 255
202 225 255
202 225 255
202 225 255
202 225 255
202 225 255
202 225 255
202 225 255
202 225 255
201 225 255
201 225 255
201 225 255
201 225 255
201 225 255
201 224 255
201 224 255
201 224 255
201 224 255
201 224 255
201 224 255
201 224 255
201 224 255
201 224 255
201 224 255
201 224 255
201 224 255
200 224 255
200 224 255
200 224 255
200 224 255
200 224 255
200 224 255
200 224 255
200 224 255
200 224 255
200 224 255
200 224 255
200 224 255
200 224 255
200 224 255
200 224 255
200 224 255
200 224 255
200 224 255
200 224 255
200 224 255
200 224 255
200 224 255
199 224 255
199 224 255
199 224 255
199 224 255
199 223 255
199 223 255
199 223 255
199 223 255
199 223 255
199 223 255
199 223 255
199 223 255
199 223 255
199 223 255
199 223 255
199 223 255
199 223 255
199 223 255
199 223 255
199 223 255
199 223 255
199 223 255
199 223 255
199 223 255
199 223 255
199 223 255
199 223 255
199 223 255
199 223 255
199 223 255
199 223 255
199 223 255
199 223 255
199 223 255
199 223 255
199 223 255
199 223 255
199 223 255
199 223 255
199 223 255
199 223 255
199 223 255
199 223 255
199 223 255
199 223 255
199 223 255
199 223 255
199 223 255
199 223 255
199 223 255
199 223 255
199 223 255
199 223 255
199 223 255
199 223 255
199 223 255
199 223 255
199 223 255
199 223 255
199 223 255
199 223 255
199 223 255
199 224 255
199 224 255
199 224 255
199 224 255
200 224 255
200 224 255
200 224 255
200 224 255
200 224 255
200 224 255
200 224 255
200 224 255
200 224 255
200 224 255
200 224 255
200 224 255
200 224 255
200 224 255
200 224 255
200 224 255
200 224 255
200 224 255
200 224 255
200 224 255
200 224 255
200 224 255
201 224 255
201 224 255
201 224 255
201 224 255
201 224 255
201 224 255
201 224 255
201 224 255
201 224 255
201 224 255
201 224 255
201 224 255
201 225 255
201 225 255
201 225 255
201 225 255
201 225 255
202 225 255
202 225 255
202 225 255
202 225 255
202 225 255
202 225 255
202 225 255
202 225 255
202 225 255
202 225 255
202 225 255
202 225 255
202 225 255
202 225 255
202 225 255
202 225 255
203 225 255
203 225 255
203 225 255
203 225 255
203 225 255
203 225 255
203 225 255
203 225 255
203 226 255
203 226 255
203 226 255
203 226 255
203 226 255
203 226 255
203 226 255
204 226 255
204 226 255
204 226 255
204 226 255
204 226 255
204 226 255
204 226 255
204 226 255
204 226 255
204 226 255
204 226 255
204 226 255
204 226 255
204 226 255
204 226 255
204 226 255
205 226 255
205 226 255
205 226 255
205 226 255
205 226 255
205 226 255
205 227 255
205 227 255
205 227 255
205 227 255
205 227 255
205 227 255
205 227 255
205 227 255
205 227 255
205 227 255
206 227 255
206 227 255
206 227 255
206 227 255
206 227 255
206 227 255
206 227 255
206 227 255
206 227 255
206 227 255
206 227 255
206 227 255
206 227 255
206 227 255
206 227 255
206 227 255
206 227 255
207 227 255
207 227 255
207 227 255
207 227 255
207 227 255
207 228 255
207 228 255
207 228 255
207 228 255
207 228 255
207 228 255
207 228 255
207 228 255
207 228 255
207 228 255
207 228 255
207 228 255
207 228 255
207 228 255
207 228 255
208 228 255
208 228 255
208 228 255
208 228 255
208 228 255
208 228 255
208 228 255
208 228 255
208 228 255
208 228 255
208 228 255
208 228 255
208 228 255
208 228 255
208 228 255
208 228 255
208 228 255
208 228 255
208 228 255
208 228 255
209 228 255
209 228 255
209 229 255
209 229 255
209 229 255
209 229 255
209 229 255
209 229 255
209 229 255
209 229 255
209 229 255
209 229 255
209 229 255
209 229 255
209 229 255
209 229 255
209 229 255
209 228 255
209 228 255
208 228 255
208 228 255
208 228 255
208 228 255
208 228 255
208 228 255
208 228 255
208 228 255
208 228 255
208 228 255
208 228 255
208 228 255
208 228 255
208 228 255
208 228 255
208 228 255
208 228 255
208 228 255
208 228 255
208 228 255
208 228 255
207 228 255
207 228 255
207 228 255
207 228 255
207 228 255
207 228 255
207 228 255
207 228 255
207 228 255
207 228 255
207 228 255
207 228 255
207 228 255
207 228 255
207 227 255
207 227 255
207 227 255
207 227 255
207 227 255
206 227 255
206 227 255
206 227 255
206 227 255
206 227 255
206 227 255
206 227 255
206 227 255
206 227 255
206 227 255
206 227 255
206 227 255
206 227 255
206 227 255
206 227 255
206 227 255
206 227 255
205 227 255
205 227 255
205 227 255
205 227 255
205 227 255
205 227 255
205 227 255
205 227 255
205 227 255
205 227 255
205 226 255
205 226 255
205 226 255
205 226 255
205 226 255
205 226 255
204 226 255
204 226 255
204 226 255
204 226 255
204 226 255
204 226 255
204 226 255
204 226 255
204 226 255
204 226 255
204 226 255
204 226 255
204 226 255
204 226 255
204 226 255
204 226 255
203 226 255
203 226 255
203 226 255
203 226 255
203 226 255
203 226 255
203 226 255
203 225 255
203 225 255
203 225 255
203 225 255
203 225 255
203 225 255
203 225 255
203 225 255
202 225 255
202 225 255
202 225 255
202 225 255
202 225 255
202 225 255
202 225 255
202 225 255
202 225 255
202 225 255
202 225 255
202 225 255
202 225 255
202 225 255
202 225 255
202 225 255
202 225 255
201 225 255
201 225 255
201 225 255
201 225 255
201 225 255
201 224 255
201 224 255
201 224 255
201 224 255
201 224 255
201 224 255
201 224 255
201 224 255
201 224 255
201 224 255
201 224 255
201 224 255
200 224 255
200 224 255
200 224 255
200 224 255
200 224 255
200 224 255
200 224 255
200 224 255
200 224 255
200 224 255
200 224 255
200 224 255
200 224 255
200 224 255
200 224 255
200 224 255
200 224 255
200 224 255
200 224 255
200 224 255
200 224 255
200 224 255
200 224 255
199 224 255
199 224 255
199 224 255
199 224 255
199 224 255
199 224 255
199 223 255
199 223 255
199 223 255
199 223 255
199 223 255
199 223 255
199 223 255
199 223 255
199 223 255
199 223 255
199 223 255
199 223 255
199 223 255
199 223 255
199 223 255
199 223 255
199 223 255
199 223 255
199 223 255
199 223 255
199 223 255
199 223 255
199 223 255
199 223 255
199 223 255
199 223 255
199 223 255
199 223 255
199 223 255
199 223 255
199 223 255
199 223 255
199 223 255
199 223 255
199 223 255
199 223 255
199 223 255
199 223 255
199 223 255
199 223 255
199 223 255
199 223 255
199 223 255
199 223 255
199 224 255
199 224 255
199 224 255
199 224 255
199 224 255
200 224 255
200 224 255
200 224 255
200 224 255
200 224 255
200 224 255
200 224 255
200 224 255
200 224 255
200 224 255
200 224 255
200 224 255
200 224 255
200 224 255
200 224 255
200 224 255
200 224 255
200 224 255
200 224 255
200 224 255
200 224 255
200 224 255
200 224 255
200 224 255
201 224 255
201 224 255
201 224 255
201 224 255
201 224 255
201 224 255
201 224 255
201 224 255
201 224 255
201 224 255
201 224 255
201 224 255
201 224 255
201 225 255
201 225 255
201 225 255
201 225 255
201 225 255
202 225 255
202 225 255
202 225 255
202 225 255
202 225 255
202 225 255
202 225 255
202 225 255
202 225 255
202 225 255
202 225 255
202 225 255
202 225 255
202 225 255
202 225 255
203 225 255
203 225 255
203 225 255
203 225 255
203 225 255
203 225 255
203 225 255
203 225 255
203 225 255
203 226 255
203 226 255
203 226 255
203 226 255
203 226 255
203 226 255
203 226 255
204 226 255
204 226 255
204 226 255
204 226 255
204 226 255
204 226 255
204 226 255
204 226 255
204 226 255
204 226 255
204 226 255
204 226 255
204 226 255
204 226 255
204 226 255
204 226 255
205 226 255
205 226 255
205 226 255
205 226 255
205 226 255
205 226 255
205 227 255
205 227 255
205 227 255
205 227 255
205 227 255
205 227 255
205 227 255
205 227 255
205 227 255
205 227 255
206 227 255
206 227 255
206 227 255
206 227 255
206 227 255
206 227 255
206 227 255
206 227 255
206 227 255
206 227 255
206 227 255
206 227 255
206 227 255
206 227 255
206 227 255
206 227 255
206 227 255
206 227 255
207 227 255
207 227 255
207 227 255
207 227 255
207 228 255
207 228 255
207 228 255
207 228 255
207 228 255
207 228 255
207 228 255
207 228 255
207 228 255
207 228 255
207 228 255
207 228 255
207 228 255
207 228 255
208 228 255
208 228 255
208 228 255
208 228 255
208 228 255
208 228 255
208 228 255
208 228 255
208 228 255
208 228 255
208 228 255
208 228 255
208 228 255
208 228 255
208 228 255
208 228 255
208 228 255
208 228 255
208 228 255
208 228 255
208 228 255
209 228 255
209 228 255
209 229 255
209 229 255
209 229 255
209 229 255
209 229 255
209 229 255
209 229 255
209 229 255
209 229 255
209 229 255
209 229 255
209 229 255
209 229 255
209 229 255
209 229 255
209 229 255
209 229 255
209 229 255
209 229 255
209 229 255
209 229 255
209 228 255
209 228 255
208 228 255
208 228 255
208 228 255
208 228 255
208 228 255
208 228 255
208 228 255
208 228 255
208 228 255
208 228 255
208 228 255
208 228 255
208 228 255
208 228 255
208 228 255
208 228 255
208 228 255
208 228 255
208 228 255
208 228 255
208 228 255
207 228 255
207 228 255
207 228 255
207 228 255
207 228 255
207 228 255
207 228 255
207 228 255
207 228 255
207 228 255
207 228 255
207 228 255
207 228 255
207 228 255
207 227 255
207 227 255
207 227 255
207 227 255
207 227 255
206 227 255
206 227 255
206 227 255
206 227 255
206 227 255
206 227 255
206 227 255
206 227 255
206 227 255
206 227 255
206 227 255
206 227 255
206 227 255
206 227 255
206 227 255
206 227 255
206 227 255
205 227 255
205 227 255
205 227 255
205 227 255
205 227 255
205 227 255
205 227 255
205 227 255
205 227 255
205 226 255
205 226 255
205 226 255
205 226 255
205 226 255
205 226 255
205 226 255
204 226 255
204 226 255
204 226 255
204 226 255
204 226 255
204 226 255
204 226 255
204 226 255
204 226 255
204 226 255
204 226 255
204 226 255
204 226 255
204 226 255
204 226 255
204 226 255
203 226 255
203 226 255
203 226 255
203 226 255
203 226 255
203 226 255
203 226 255
203 225 255
203 225 255
203 225 255
203 225 255
203 225 255
203 225 255
203 225 255
203 225 255
202 225 255
202 225 255
202 225 255
202 225 255
202 225 255
202 225 255
202 225 255
202 225 255
202 225 255
202 225 255
202 225 255
202 225 255
202 225 255
202 225 255
202 225 255
202 225 255
202 225 255
201 225 255
201 225 255
201 225 255
201 225 255
201 225 255
201 224 255
201 224 255
201 224 255
201 224 255
201 224 255
201 224 255
201 224 255
201 224 255
201 224 255
201 224 255
201 224 255
201 224 255
201 224 255
200 224 255
200 224 255
200 224 255
200 224 255
200 224 255
200 224 255
200 224 255
200 224 255
200 224 255
200 224 255
200 224 255
200 224 255
200 224 255
200 224 255
200 224 255
200 224 255
200 224 255
200 224 255
200 224 255
200 224 255
200 224 255
200 224 255
200 224 255
200 224 255
200 224 255
200 224 255
199 224 255
199 224 255
199 224 255
199 224 255
199 224 255
199 224 255
199 224 255
199 224 255
199 224 255
199 223 255
199 223 255
199 223 255
199 223 255
199 223 255
199 223 255
199 223 255
199 223 255
199 223 255
199 223 255
199 223 255
199 223 255
199 223 255
199 223 255
199 223 255
199 223 255
199 223 255
199 223 255
199 223 255
199 223 255
199 223 255
199 223 255
199 223 255
199 223 255
199 224 255
199 224 255
199 224 255
199 224 255
199 224 255
199 224 255
199 224 255
199 224 255
200 224 255
200 224 255
200 224 255
200 224 255
200 224 255
200 224 255
200 224 255
200 224 255
200 224 255
200 224 255
200 224 255
200 224 255
200 224 255
200 224 255
200 224 255
200 224 255
200 224 255
200 224 255
200 224 255
200 224 255
200 224 255
200 224 255
200 224 255
200 224 255
200 224 255
200 224 255
200 224 255
201 224 255
201 224 255
201 224 255
201 224 255
201 224 255
201 224 255
201 224 255
201 224 255
201 224 255
201 224 255
201 224 255
201 224 255
201 224 255
201 225 255
201 225 255
201 225 255
201 225 255
201 225 255
202 225 255
202 225 255
202 225 255
202 225 255
202 225 255
202 225 255
202 225 255
202 225 255
202 225 255
202 225 255
202 225 255
202 225 255
202 225 255
202 225 255
202 225 255
202 225 255
203 225 255
203 225 255
203 225 255
203 225 255
203 225 255
203 225 255
203 225 255
203 225 255
203 225 255
203 226 255
203 226 255
203 226 255
203 226 255
203 226 255
203 226 255
203 226 255
204 226 255
204 226 255
204 226 255
204 226 255
204 226 255
204 226 255
204 226 255
204 226 255
204 226 255
204 226 255
204 226 255
204 226 255
204 226 255
204 226 255
204 226 255
204 226 255
205 226 255
205 226 255
205 226 255
205 226 255
205 226 255
205 226 255
205 227 255
205 227 255
205 227 255
205 227 255
205 227 255
205 227 255
205 227 255
205 227 255
205 227 255
205 227 255
206 227 255
206 227 255
206 227 255
206 227 255
206 227 255
206 227 255
206 227 255
206 227 255
206 227 255
206 227 255
206 227 255
206 227 255
206 227 255
206 227 255
206 227 255
206 227 255
206 227 255
206 227 255
207 227 255
207 227 255
207 227 255
207 227 255
207 228 255
207 228 255
207 228 255
207 228 255
207 228 255
207 228 255
207 228 255
207 228 255
207 228 255
207 228 255
207 228 255
207 228 255
207 228 255
207 228 255
208 228 255
208 228 255
208 228 255
208 228 255
208 228 255
208 228 255
208 228 255
208 228 255
208 228 255
208 228 255
208 228 255
208 228 255
208 228 255
208 228 255
208 228 255
208 228 255
208 228 255
208 228 255
208 228 255
208 228 255
208 228 255
209 228 255
209 228 255
209 229 255
209 229 255
209 229 255
209 229 255
209 229 255
209 229 255
209 229 255
209 229 255
209 229 255
209 229 255
209 229 255
209 229 255
209 229 255
209 229 255
209 229 255
209 229 255
209 229 255
209 229 255
209 229 255
209 229 255
209 229 255
209 229 255
209 229 255
209 229 255
209 229 255
209 229 255
209 229 255
209 229 255
209 228 255
208 228 255
208 228 255
208 228 255
208 228 255
208 228 255
208 228 255
208 228 255
208 228 255
208 228 255
208 228 255
208 228 255
208 228 255
208 228 255
208 228 255
208 228 255
208 228 255
208 228 255
208 228 255
208 228 255
208 228 255
208 228 255
207 228 255
207 228 255
207 228 255
207 228 255
207 228 255
207 228 255
207 228 255
207 228 255
207 228 255
207 228 255
207 228 255
207 228 255
207 228 255
207 228 255
207 227 255
207 227 255
207 227 255
207 227 255
206 227 255
206 227 255
206 227 255
206 227 255
206 227 255
206 227 255
206 227 255
206 227 255
206 227 255
206 227 255
206 227 255
206 227 255
206 227 255
206 227 255
206 227 255
206 227 255
206 227 255
206 227 255
205 227 255
205 227 255
205 227 255
205 227 255
205 227 255
205 227 255
205 227 255
205 227 255
205 227 255
205 226 255
205 226 255
205 226 255
205 226 255
205 226 255
205 226 255
205 226 255
204 226 255
204 226 255
204 226 255
204 226 255
204 226 255
204 226 255
204 226 255
204 226 255
204 226 255
204 226 255
204 226 255
204 226 255
204 226 255
204 226 255
204 226 255
204 226 255
203 226 255
203 226 255
203 226 255
203 226 255
203 226 255
203 226 255
203 226 255
203 225 255
203 225 255
203 225 255
203 225 255
203 225 255
203 225 255
203 225 255
203 225 255
203 225 255
202 225 255
202 225 255
202 225 255
202 225 255
202 225 255
202 225 255
202 225 255
202 225 255
202 225 255
202 225 255
202 225 255
202 225 255
202 225 255
202 225 255
202 225 255
202 225 255
201 225 255
201 225 255
201 225 255
201 225 255
201 225 255
201 224 255
201 224 255
201 224 255
201 224 255
201 224 255
201 224 255
201 224 255
201 224 255
201 224 255
201 224 255
201 224 255
201 224 255
201 224 255
201 224 255
200 224 255
200 224 255
200 224 255
200 224 255
200 224 255
200 224 255
200 224 255
200 224 255
200 224 255
200 224 255
200 224 255
200 224 255
200 224 255
200 224 255
200 224 255
200 224 255
200 224 255
200 224 255
200 224 255
200 224 255
200 224 255
200 224 255
200 224 255
200 224 255
200 224 255
200 224 255
200 224 255
200 224 255
200 224 255
200 224 255
200 224 255
200 224 255
200 224 255
200 224 255
199 224 255
199 224 255
199 224 255
199 224 255
199 224 255
199 224 255
199 224 255
199 224 255
199 224 255
199 224 255
199 224 255
199 224 255
199 224 255
199 224 255
199 224 255
199 224 255
199 224 255
199 224 255
199 224 255
200 224 255
200 224 255
200 224 255
200 224 255
200 224 255
200 224 255
200 224 255
200 224 255
200 224 255
200 224 255
200 224 255
200 224 255
200 224 255
200 224 255
200 224 255
200 224 255
200 224 255
200 224 255
200 224 255
200 224 255
200 224 255
200 224 255
200 224 255
200 224 255
200 224 255
200 224 255
200 224 255
200 224 255
200 224 255
200 224 255
200 224 255
200 224 255
200 224 255
201 224 255
201 224 255
201 224 255
201 224 255
201 224 255
201 224 255
201 224 255
201 224 255
201 224 255
201 224 255
201 224 255
201 224 255
201 224 255
201 224 255
201 225 255
201 225 255
201 225 255
201 225 255
201 225 255
202 225 255
202 225 255
202 225 255
202 225 255
202 225 255
202 225 255
202 225 255
202 225 255
202 225 255
202 225 255
202 225 255
202 225 255
202 225 255
202 225 255
202 225 255
202 225 255
203 225 255
203 225 255
203 225 255
203 225 255
203 225 255
203 225 255
203 225 255
203 225 255
203 225 255
203 226 255
203 226 255
203 226 255
203 226 255
203 226 255
203 226 255
203 226 255
204 226 255
204 226 255
204 226 255
204 226 255
204 226 255
204 226 255
204 226 255
204 226 255
204 226 255
204 226 255
204 226 255
204 226 255
204 226 255
204 226 255
204 226 255
204 226 255
205 226 255
205 226 255
205 226 255
205 226 255
205 226 255
205 226 255
205 227 255
205 227 255
205 227 255
205 227 255
205 227 255
205 227 255
205 227 255
205 227 255
205 227 255
205 227 255
206 227 255
206 227 255
206 227 255
206 227 255
206 227 255
206 227 255
206 227 255
206 227 255
206 227 255
206 227 255
206 227 255
206 227 255
206 227 255
206 227 255
206 227 255
206 227 255
206 227 255
207 227 255
207 227 255
207 227 255
207 227 255
207 227 255
207 228 255
207 228 255
207 228 255
207 228 255
207 228 255
207 228 255
207 228 255
207 228 255
207 228 255
207 228 255
207 228 255
207 228 255
207 228 255
207 228 255
208 228 255
208 228 255
208 228 255
208 228 255
208 228 255
208 228 255
208 228 255
208 228 255
208 228 255
208 228 255
208 228 255
208 228 255
208 228 255
208 228 255
208 228 255
208 228 255
208 228 255
208 228 255
208 228 255
208 228 255
208 228 255
209 228 255
209 229 255
209 229 255
209 229 255
209 229 255
209 229 255
209 229 255
209 229 255
209 229 255
209 229 255
209 229 255
209 229 255
209 229 255
209 229 255
209 229 255
209 229 255
209 229 255
209 229 255
209 229 255
209 229 255
209 229 255
209 229 255
209 229 255
209 229 255
209 229 255
209 229 255
209 229 255
209 229 255
209 229 255
209 229 255
209 229 255
209 229 255
209 229 255
209 229 255
209 229 255
209 229 255
209 228 255
209 228 255
208 228 255
208 228 255
208 228 255
208 228 255
208 228 255
208 228 255
208 228 255
208 228 255
208 228 255
208 228 255
208 228 255
208 228 255
208 228 255
208 228 255
208 228 255
208 228 255
208 228 255
208 228 255
208 228 255
208 228 255
207 228 255
207 228 255
207 228 255
207 228 255
207 228 255
207 228 255
207 228 255
207 228 255
207 228 255
207 228 255
207 228 255
207 228 255
207 228 255
207 228 255
207 227 255
207 227 255
207 227 255
207 227 255
207 227 255
206 227 255
206 227 255
206 227 255
206 227 255
206 227 255
206 227 255
206 227 255
206 227 255
206 227 255
206 227 255
206 227 255
206 227 255
206 227 255
206 227 255
206 227 255
206 227 255
206 227 255
205 227 255
205 227 255
205 227 255
205 227 255
205 227 255
205 227 255
205 227 255
205 227 255
205 227 255
205 226 255
205 226 255
205 226 255
205 226 255
205 226 255
205 226 255
205 226 255
204 226 255
204 226 255
204 226 255
204 226 255
204 226 255
204 226 255
204 226 255
204 226 255
204 226 255
204 226 255
204 226 255
204 226 255
204 226 255
204 226 255
204 226 255
204 226 255
203 226 255
203 226 255
203 226 255
203 226 255
203 226 255
203 226 255
203 226 255
203 225 255
203 225 255
203 225 255
203 225 255
203 225 255
203 225 255
203 225 255
203 225 255
203 225 255
202 225 255
202 225 255
202 225 255
202 225 255
202 225 255
202 225 255
202 225 255
202 225 255
202 225 255
202 225 255
202 225 255
202 225 255
202 225 255
202 225 255
202 225 255
202 225 255
202 225 255
201 225 255
201 225 255
201 225 255
201 225 255
201 225 255
201 224 255
201 224 255
201 224 255
201 224 255
201 224 255
201 224 255
201 224 255
201 224 255
201 224 255
201 224 255
201 224 255
201 224 255
201 224 255
201 224 255
201 224 255
200 224 255
200 224 255
200 224 255
200 224 255
200 224 255
200 224 255
200 224 255
200 224 255
200 224 255
200 224 255
200 224 255
200 224 255
200 224 255
200 224 255
200 224 255
200 224 255
200 224 255
200 224 255
200 224 255
200 224 255
200 224 255
200 224 255
200 224 255
200 224 255
200 224 255
200 224 255
200 224 255
200 224 255
200 224 255
200 224 255
200 224 255
200 224 255
200 224 255
200 224 255
200 224 255
200 224 255
200 224 255
200 224 255
200 224 255
200 224 255
200 224 255
200 224 255
200 224 255
200 224 255
200 224 255
200 224 255
200 224 255
200 224 255
200 224 255
200 224 255
200 224 255
200 224 255
200 224 255
200 224 255
200 224 255
200 224 255
200 224 255
200 224 255
200 224 255
200 224 255
200 224 255
200 224 255
200 224 255
200 224 255
200 224 255
200 224 255
200 224 255
200 224 255
200 224 255
200 224 255
200 224 255
200 224 255
200 224 255
200 224 255
200 224 255
200 224 255
201 224 255
201 224 255
201 224 255
201 224 255
201 224 255
201 224 255
201 224 255
201 224 255
201 224 255
201 224 255
201 224 255
201 224 255
201 224 255
201 224 255
201 224 255
201 225 255
201 225 255
201 225 255
201 225 255
201 225 255
202 225 255
202 225 255
202 225 255
202 225 255
202 225 255
202 225 255
202 225 255
202 225 255
202 225 255
202 225 255
202 225 255
202 225 255
202 225 255
202 225 255
202 225 255
202 225 255
202 225 255
203 225 255
203 225 255
203 225 255
203 225 255
203 225 255
203 225 255
203 225 255
203 225 255
203 225 255
203 226 255
203 226 255
203 226 255
203 226 255
203 226 255
203 226 255
203 226 255
204 226 255
204 226 255
204 226 255
204 226 255
204 226 255
204 226 255
204 226 255
204 226 255
204 226 255
204 226 255
204 226 255
204 226 255
204 226 255
204 226 255
204 226 255
204 226 255
205 226 255
205 226 255
205 226 255
205 226 255
205 226 255
205 226 255
205 226 255
205 227 255
205 227 255
205 227 255
205 227 255
205 227 255
205 227 255
205 227 255
205 227 255
205 227 255
206 227 255
206 227 255
206 227 255
206 227 255
206 227 255
206 227 255
206 227 255
206 227 255
206 227 255
206 227 255
206 227 255
206 227 255
206 227 255
206 227 255
206 227 255
206 227 255
206 227 255
207 227 255
207 227 255
207 227 255
207 227 255
207 227 255
207 228 255
207 228 255
207 228 255
207 228 255
207 228 255
207 228 255
207 228 255
207 228 255
207 228 255
207 228 255
207 228 255
207 228 255
207 228 255
207 228 255
208 228 255
208 228 255
208 228 255
208 228 255
208 228 255
208 228 255
208 228 255
208 228 255
208 228 255
208 228 255
208 228 255
208 228 255
208 228 255
208 228 255
208 228 255
208 228 255
208 228 255
208 228 255
208 228 255
208 228 255
209 228 255
209 228 255
209 229 255
209 229 255
209 229 255
209 229 255
209 229 255
209 229 255
209 229 255
209 229 255
209 229 255
209 229 255
209 229 255
209 229 255
209 229 255
209 229 255
209 229 255
209 229 255
209 229 255
209 229 255
209 229 255
210 229 255
209 229 255
209 229 255
209 229 255
209 229 255
209 229 255
209 229 255
209 229 255
209 229 255
209 229 255
209 229 255
209 229 255
209 229 255
209 229 255
209 229 255
209 229 255
209 229 255
209 229 255
209 229 255
209 229 255
209 229 255
209 229 255
209 228 255
209 228 255
208 228 255
208 228 255
208 228 255
208 228 255
208 228 255
208 228 255
208 228 255
208 228 255
208 228 255
208 228 255
208 228 255
208 228 255
208 228 255
208 228 255
208 228 255
208 228 255
208 228 255
208 228 255
208 228 255
208 228 255
207 228 255
207 228 255
207 228 255
207 228 255
207 228 255
207 228 255
207 228 255
207 228 255
207 228 255
207 228 255
207 228 255
207 228 255
207 228 255
207 228 255
207 227 255
207 227 255
207 227 255
207 227 255
207 227 255
206 227 255
206 227 255
206 227 255
206 227 255
206 227 255
206 227 255
206 227 255
206 227 255
206 227 255
206 227 255
206 227 255
206 227 255
206 227 255
206 227 255
206 227 255
206 227 255
206 227 255
205 227 255
205 227 255
205 227 255
205 227 255
205 227 255
205 227 255
205 227 255
205 227 255
205 227 255
205 227 255
205 226 255
205 226 255
205 226 255
205 226 255
205 226 255
205 226 255
204 226 255
204 226 255
204 226 255
204 226 255
204 226 255
204 226 255
204 226 255
204 226 255
204 226 255
204 226 255
204 226 255
204 226 255
204 226 255
204 226 255
204 226 255
204 226 255
203 226 255
203 226 255
203 226 255
203 226 255
203 226 255
203 226 255
203 226 255
203 225 255
203 225 255
203 225 255
203 225 255
203 225 255
203 225 255
203 225 255
203 225 255
203 225 255
202 225 255
202 225 255
202 225 255
202 225 255
202 225 255
202 225 255
202 225 255
202 225 255
202 225 255
202 225 255
202 225 255
202 225 255
202 225 255
202 225 255
202 225 255
202 225 255
202 225 255
201 225 255
201 225 255
201 225 255
201 225 255
201 225 255
201 225 255
201 224 255
201 224 255
201 224 255
201 224 255
201 224 255
201 224 255
201 224 255
201 224 255
201 224 255
201 224 255
201 224 255
201 224 255
201 224 255
201 224 255
201 224 255
201 224 255
200 224 255
200 224 255
200 224 255
200 224 255
200 224 255
200 224 255
200 224 255
200 224 255
200 224 255
200 224 255
200 224 255
200 224 255
200 224 255
200 224 255
200 224 255
200 224 255
200 224 255
200 224 255
200 224 255
200 224 255
200 224 255
200 224 255
200 224 255
200 224 255
200 224 255
200 224 255
200 224 255
200 224 255
200 224 255
200 224 255
200 224 255
200 224 255
200 224 255
200 224 255
200 224 255
200 224 255
200 224 255
200 224 255
200 224 255
200 224 255
200 224 255
200 224 255
200 224 255
200 224 255
200 224 255
200 224 255
200 224 255
200 224 255
200 224 255
200 224 255
200 224 255
200 224 255
200 224 255
200 224 255
200 224 255
200 224 255
200 224 255
200 224 255
200 224 255
200 224 255
200 224 255
200 224 255
200 224 255
200 224 255
200 224 255
201 224 255
201 224 255
201 224 255
201 224 255
201 224 255
201 224 255
201 224 255
201 224 255
201 224 255
201 224 255
201 224 255
201 224 255
201 224 255
201 224 255
201 224 255
201 224 255
201 224 255
201 225 255
201 225 255
201 225 255
201 225 255
201 225 255
202 225 255
202 225 255
202 225 255
202 225 255
202 225 255
202 225 255
202 225 255
202 225 255
202 225 255
202 225 255
202 225 255
202 225 255
202 225 255
202 225 255
202 225 255
202 225 255
202 225 255
202 225 255
203 225 255
203 225 255
203 225 255
203 225 255
203 225 255
203 225 255
203 225 255
203 225 255
203 225 255
203 226 255
203 226 255
203 226 255
203 226 255
203 226 255
203 226 255
203 226 255
204 226 255
204 226 255
204 226 255
204 226 255
204 226 255
204 226 255
204 226 255
204 226 255
204 226 255
204 226 255
204 226 255
204 226 255
204 226 255
204 226 255
204 226 255
204 226 255
205 226 255
205 226 255
205 226 255
205 226 255
205 226 255
205 226 255
205 226 255
205 227 255
205 227 255
205 227 255
205 227 255
205 227 255
205 227 255
205 227 255
205 227 255
205 227 255
206 227 255
206 227 255
206 227 255
206 227 255
206 227 255
206 227 255
206 227 255
206 227 255
206 227 255
206 227 255
206 227 255
206 227 255
206 227 255
206 227 255
206 227 255
206 227 255
206 227 255
207 227 255
207 227 255
207 227 255
207 227 255
207 227 255
207 228 255
207 228 255
207 228 255
207 228 255
207 228 255
207 228 255
207 228 255
207 228 255
207 228 255
207 228 255
207 228 255
207 228 255
207 228 255
207 228 255
208 228 255
208 228 255
208 228 255
208 228 255
208 228 255
208 228 255
208 228 255
208 228 255
208 228 255
208 228 255
208 228 255
208 228 255
208 228 255
208 228 255
208 228 255
208 228 255
208 228 255
208 228 255
208 228 255
208 228 255
209 228 255
209 228 255
209 229 255
209 229 255
209 229 255
209 229 255
209 229 255
209 229 255
209 229 255
209 229 255
209 229 255
209 229 255
209 229 255
209 229 255
209 229 255
209 229 255
209 229 255
209 229 255
209 229 255
209 229 255
209 229 255
209 229 255
209 229 255
210 229 255
210 229 255
210 229 255
210 229 255
210 229 255
210 229 255
209 229 255
209 229 255
209 229 255
209 229 255
209 229 255
209 229 255
209 229 255
209 229 255
209 229 255
209 229 255
209 229 255
209 229 255
209 229 255
209 229 255
209 229 255
209 229 255
209 229 255
209 229 255
209 229 255
209 229 255
209 229 255
209 228 255
208 228 255
208 228 255
208 228 255
208 228 255
208 228 255
208 228 255
208 228 255
208 228 255
208 228 255
208 228 255
208 228 255
208 228 255
208 228 255
208 228 255
208 228 255
208 228 255
208 228 255
208 228 255
208 228 255
208 228 255
207 228 255
207 228 255
207 228 255
207 228 255
207 228 255
207 228 255
207 228 255
207 228 255
207 228 255
207 228 255
207 228 255
207 228 255
207 228 255
207 228 255
207 227 255
207 227 255
207 227 255
207 227 255
207 227 255
206 227 255
206 227 255
206 227 255
206 227 255
206 227 255
206 227 255
206 227 255
206 227 255
206 227 255
206 227 255
206 227 255
206 227 255
206 227 255
206 227 255
206 227 255
206 227 255
206 227 255
205 227 255
205 227 255
205 227 255
205 227 255
205 227 255
205 227 255
205 227 255
205 227 255
205 227 255
205 227 255
205 226 255
205 226 255
205 226 255
205 226 255
205 226 255
205 226 255
204 226 255
204 226 255
204 226 255
204 226 255
204 226 255
204 226 255
204 226 255
204 226 255
204 226 255
204 226 255
204 226 255
204 226 255
204 226 255
204 226 255
204 226 255
204 226 255
203 226 255
203 226 255
203 226 255
203 226 255
203 226 255
203 226 255
203 226 255
203 225 255
203 225 255
203 225 255
203 225 255
203 225 255
203 225 255
203 225 255
203 225 255
203 225 255
203 225 255
202 225 255
202 225 255
202 225 255
202 225 255
202 225 255
202 225 255
202 225 255
202 225 255
202 225 255
202 225 255
202 225 255
202 225 255
202 225 255
202 225 255
202 225 255
202 225 255
202 225 255
202 225 255
201 225 255
201 225 255
201 225 255
201 225 255
201 225 255
201 225 255
201 224 255
201 224 255
201 224 255
201 224 255
201 224 255
201 224 255
201 224 255
201 224 255
201 224 255
201 224 255
201 224 255
201 224 255
201 224 255
201 224 255
201 224 255
201 224 255
201 224 255
201 224 255
200 224 255
200 224 255
200 224 255
200 224 255
200 224 255
200 224 255
200 224 255
200 224 255
200 224 255
200 224 255
200 224 255
200 224 255
200 224 255
200 224 255
200 224 255
200 224 255
200 224 255
200 224 255
200 224 255
200 224 255
200 224 255
200 224 255
200 224 255
200 224 255
200 224 255
200 224 255
200 224 255
200 224 255
200 224 255
200 224 255
200 224 255
200 224 255
200 224 255
200 224 255
200 224 255
200 224 255
200 224 255
200 224 255
200 224 255
200 224 255
200 224 255
200 224 255
200 224 255
200 224 255
200 224 255
200 224 255
200 224 255
200 224 255
200 224 255
200 224 255
200 224 255
200 224 255
201 224 255
201 224 255
201 224 255
201 224 255
201 224 255
201 224 255
201 224 255
201 224 255
201 224 255
201 224 255
201 224 255
201 224 255
201 224 255
201 224 255
201 224 255
201 224 255
201 224 255
201 224 255
201 225 255
201 225 255
201 225 255
201 225 255
201 225 255
201 225 255
202 225 255
202 225 255
202 225 255
202 225 255
202 225 255
202 225 255
202 225 255
202 225 255
202 225 255
202 225 255
202 225 255
202 225 255
202 225 255
202 225 255
202 225 255
202 225 255
202 225 255
202 225 255
203 225 255
203 225 255
203 225 255
203 225 255
203 225 255
203 225 255
203 225 255
203 225 255
203 225 255
203 225 255
203 226 255
203 226 255
203 226 255
203 226 255
203 226 255
203 226 255
203 226 255
204 226 255
204 226 255
204 226 255
204 226 255
204 226 255
204 226 255
204 226 255
204 226 255
204 226 255
204 226 255
204 226 255
204 226 255
204 226 255
204 226 255
204 226 255
204 226 255
205 226 255
205 226 255
205 226 255
205 226 255
205 226 255
205 226 255
205 227 255
205 227 255
205 227 255
205 227 255
205 227 255
205 227 255
205 227 255
205 227 255
205 227 255
205 227 255
206 227 255
206 227 255
206 227 255
206 227 255
206 227 255
206 227 255
206 227 255
206 227 255
206 227 255
206 227 255
206 227 255
206 227 255
206 227 255
206 227 255
206 227 255
206 227 255
206 227 255
207 227 255
207 227 255
207 227 255
207 227 255
207 227 255
207 228 255
207 228 255
207 228 255
207 228 255
207 228 255
207 228 255
207 228 255
207 228 255
207 228 255
207 228 255
207 228 255
207 228 255
207 228 255
207 228 255
208 228 255
208 228 255
208 228 255
208 228 255
208 228 255
208 228 255
208 228 255
208 228 255
208 228 255
208 228 255
208 228 255
208 228 255
208 228 255
208 228 255
208 228 255
208 228 255
208 228 255
208 228 255
208 228 255
208 228 255
209 228 255
209 229 255
209 229 255
209 229 255
209 229 255
209 229 255
209 229 255
209 229 255
209 229 255
209 229 255
209 229 255
209 229 255
209 229 255
209 229 255
209 229 255
209 229 255
209 229 255
209 229 255
209 229 255
209 229 255
209 229 255
209 229 255
210 229 255
210 229 255
210 229 255
210 229 255
210 229 255
210 229 255
210 229 255
210 229 255
210 229 255
210 229 255
210 229 255
210 229 255
210 229 255
209 229 255
209 229 255
209 229 255
209 229 255
209 229 255
209 229 255
209 229 255
209 229 255
209 229 255
209 229 255
209 229 255
209 229 255
209 229 255
209 229 255
209 229 255
209 229 255
209 229 255
209 229 255
209 229 255
209 229 255
209 229 255
209 228 255
209 228 255
208 228 255
208 228 255
208 228 255
208 228 255
208 228 255
208 228 255
208 228 255
208 228 255
208 228 255
208 228 255
208 228 255
208 228 255
208 228 255
208 228 255
208 228 255
208 228 255
208 228 255
208 228 255
208 228 255
208 228 255
207 228 255
207 228 255
207 228 255
207 228 255
207 228 255
207 228 255
207 228 255
207 228 255
207 228 255
207 228 255
207 228 255
207 228 255
207 228 255
207 228 255
207 227 255
207 227 255
207 227 255
207 227 255
206 227 255
206 227 255
206 227 255
206 227 255
206 227 255
206 227 255
206 227 255
206 227 255
206 227 255
206 227 255
206 227 255
206 227 255
206 227 255
206 227 255
206 227 255
206 227 255
206 227 255
205 227 255
205 227 255
205 227 255
205 227 255
205 227 255
205 227 255
205 227 255
205 227 255
205 227 255
205 227 255
205 226 255
205 226 255
205 226 255
205 226 255
205 226 255
205 226 255
204 226 255
204 226 255
204 226 255
204 226 255
204 226 255
204 226 255
204 226 255
204 226 255
204 226 255
204 226 255
204 226 255
204 226 255
204 226 255
204 226 255
204 226 255
204 226 255
203 226 255
203 226 255
203 226 255
203 226 255
203 226 255
203 226 255
203 226 255
203 226 255
203 225 255
203 225 255
203 225 255
203 225 255
203 225 255
203 225 255
203 225 255
203 225 255
203 225 255
202 225 255
202 225 255
202 225 255
202 225 255
202 225 255
202 225 255
202 225 255
202 225 255
202 225 255
202 225 255
202 225 255
202 225 255
202 225 255
202 225 255
202 225 255
202 225 255
202 225 255
202 225 255
202 225 255
201 225 255
201 225 255
201 225 255
201 225 255
201 225 255
201 225 255
201 224 255
201 224 255
201 224 255
201 224 255
201 224 255
201 224 255
201 224 255
201 224 255
201 224 255
201 224 255
201 224 255
201 224 255
201 224 255
201 224 255
201 224 255
201 224 255
201 224 255
201 224 255
201 224 255
201 224 255
201 224 255
201 224 255
200 224 255
200 224 255
200 224 255
200 224 255
200 224 255
200 224 255
200 224 255
200 224 255
200 224 255
200 224 255
200 224 255
200 224 255
200 224 255
200 224 255
200 224 255
200 224 255
200 224 255
200 224 255
200 224 255
200 224 255
200 224 255
200 224 255
200 224 255
200 224 255
200 224 255
200 224 255
200 224 255
200 224 255
200 224 255
200 224 255
200 224 255
200 224 255
200 224 255
200 224 255
200 224 255
200 224 255
201 224 255
201 224 255
201 224 255
201 224 255
201 224 255
201 224 255
201 224 255
201 224 255
201 224 255
201 224 255
201 224 255
201 224 255
201 224 255
201 224 255
201 224 255
201 224 255
201 224 255
201 224 255
201 224 255
201 224 255
201 224 255
201 224 255
201 225 255
201 225 255
201 225 255
201 225 255
201 225 255
201 225 255
202 225 255
202 225 255
202 225 255
202 225 255
202 225 255
202 225 255
202 225 255
202 225 255
202 225 255
202 225 255
202 225 255
202 225 255
202 225 255
202 225 255
202 225 255
202 225 255
202 225 255
202 225 255
202 225 255
203 225 255
203 225 255
203 225 255
203 225 255
203 225 255
203 225 255
203 225 255
203 225 255
203 225 255
203 226 255
203 226 255
203 226 255
203 226 255
203 226 255
203 226 255
203 226 255
203 226 255
204 226 255
204 226 255
204 226 255
204 226 255
204 226 255
204 226 255
204 226 255
204 226 255
204 226 255
204 226 255
204 226 255
204 226 255
204 226 255
204 226 255
204 226 255
204 226 255
205 226 255
205 226 255
205 226 255
205 226 255
205 226 255
205 226 255
205 227 255
205 227 255
205 227 255
205 227 255
205 227 255
205 227 255
205 227 255
205 227 255
205 227 255
205 227 255
206 227 255
206 227 255
206 227 255
206 227 255
206 227 255
206 227 255
206 227 255
206 227 255
206 227 255
206 227 255
206 227 255
206 227 255
206 227 255
206 227 255
206 227 255
206 227 255
206 227 255
207 227 255
207 227 255
207 227 255
207 227 255
207 228 255
207 228 255
207 228 255
207 228 255
207 228 255
207 228 255
207 228 255
207 228 255
207 228 255
207 228 255
207 228 255
207 228 255
207 228 255
207 228 255
208 228 255
208 228 255
208 228 255
208 228 255
208 228 255
208 228 255
208 228 255
208 228 255
208 228 255
208 228 255
208 228 255
208 228 255
208 228 255
208 228 255
208 228 255
208 228 255
208 228 255
208 228 255
208 228 255
208 228 255
209 228 255
209 228 255
209 229 255
209 229 255
209 229 255
209 229 255
209 229 255
209 229 255
209 229 255
209 229 255
209 229 255
209 229 255
209 229 255
209 229 255
209 229 255
209 229 255
209 229 255
209 229 255
209 229 255
209 229 255
209 229 255
209 229 255
209 229 255
210 229 255
210 229 255
210 229 255
210 229 255
210 229 255
210 229 255
210 229 255
210 229 255
210 229 255
210 229 255
210 229 255
210 229 255
210 229 255
210 229 255
210 229 255
210 229 255
210 229 255
210 229 255
210 229 255
210 229 255
209 229 255
209 229 255
209 229 255
209 229 255
209 229 255
209 229 255
209 229 255
209 229 255
209 229 255
209 229 255
209 229 255
209 229 255
209 229 255
209 229 255
209 229 255
209 229 255
209 229 255
209 229 255
209 229 255
209 229 255
209 229 255
209 228 255
208 228 255
208 228 255
208 228 255
208 228 255
208 228 255
208 228 255
208 228 255
208 228 255
208 228 255
208 228 255
208 228 255
208 228 255
208 228 255
208 228 255
208 228 255
208 228 255
208 228 255
208 228 255
208 228 255
208 228 255
207 228 255
207 228 255
207 228 255
207 228 255
207 228 255
207 228 255
207 228 255
207 228 255
207 228 255
207 228 255
207 228 255
207 228 255
207 228 255
207 228 255
207 227 255
207 227 255
207 227 255
207 227 255
206 227 255
206 227 255
206 227 255
206 227 255
206 227 255
206 227 255
206 227 255
206 227 255
206 227 255
206 227 255
206 227 255
206 227 255
206 227 255
206 227 255
206 227 255
206 227 255
206 227 255
205 227 255
205 227 255
205 227 255
205 227 255
205 227 255
205 227 255
205 227 255
205 227 255
205 227 255
205 227 255
205 226 255
205 226 255
205 226 255
205 226 255
205 226 255
205 226 255
204 226 255
204 226 255
204 226 255
204 226 255
204 226 255
204 226 255
204 226 255
204 226 255
204 226 255
204 226 255
204 226 255
204 226 255
204 226 255
204 226 255
204 226 255
204 226 255
204 226 255
203 226 255
203 226 255
203 226 255
203 226 255
203 226 255
203 226 255
203 226 255
203 225 255
203 225 255
203 225 255
203 225 255
203 225 255
203 225 255
203 225 255
203 225 255
203 225 255
203 225 255
202 225 255
202 225 255
202 225 255
202 225 255
202 225 255
202 225 255
202 225 255
202 225 255
202 225 255
202 225 255
202 225 255
202 225 255
202 225 255
202 225 255
202 225 255
202 225 255
202 225 255
202 225 255
202 225 255
201 225 255
201 225 255
201 225 255
201 225 255
201 225 255
201 225 255
201 225 255
201 225 255
201 224 255
201 224 255
201 224 255
201 224 255
201 224 255
201 224 255
201 224 255
201 224 255
201 224 255
201 224 255
201 224 255
201 224 255
201 224 255
201 224 255
201 224 255
201 224 255
201 224 255
201 224 255
201 224 255
201 224 255
201 224 255
201 224 255
201 224 255
201 224 255
201 224 255
201 224 255
201 224 255
201 224 255
201 224 255
201 224 255
201 224 255
201 224 255
201 224 255
201 224 255
201 224 255
201 224 255
201 224 255
201 224 255
201 224 255
201 224 255
201 224 255
201 224 255
201 224 255
201 224 255
201 224 255
201 224 255
201 224 255
201 224 255
201 224 255
201 224 255
201 224 255
201 224 255
201 224 255
201 224 255
201 224 255
201 224 255
201 224 255
201 224 255
201 224 255
201 224 255
201 224 255
201 224 255
201 224 255
201 224 255
201 224 255
201 224 255
201 224 255
201 224 255
201 225 255
201 225 255
201 225 255
201 225 255
201 225 255
201 225 255
201 225 255
202 225 255
202 225 255
202 225 255
202 225 255
202 225 255
202 225 255
202 225 255
202 225 255
202 225 255
202 225 255
202 225 255
202 225 255
202 225 255
202 225 255
202 225 255
202 225 255
202 225 255
202 225 255
202 225 255
202 225 255
203 225 255
203 225 255
203 225 255
203 225 255
203 225 255
203 225 255
203 225 255
203 225 255
203 225 255
203 225 255
203 226 255
203 226 255
203 226 255
203 226 255
203 226 255
203 226 255
203 226 255
204 226 255
204 226 255
204 226 255
204 226 255
204 226 255
204 226 255
204 226 255
204 226 255
204 226 255
204 226 255
204 226 255
204 226 255
204 226 255
204 226 255
204 226 255
204 226 255
204 226 255
205 226 255
205 226 255
205 226 255
205 226 255
205 226 255
205 226 255
205 227 255
205 227 255
205 227 255
205 227 255
205 227 255
205 227 255
205 227 255
205 227 255
205 227 255
205 227 255
206 227 255
206 227 255
206 227 255
206 227 255
206 227 255
206 227 255
206 227 255
206 227 255
206 227 255
206 227 255
206 227 255
206 227 255
206 227 255
206 227 255
206 227 255
206 227 255
206 227 255
207 227 255
207 227 255
207 227 255
207 227 255
207 228 255
207 228 255
207 228 255
207 228 255
207 228 255
207 228 255
207 228 255
207 228 255
207 228 255
207 228 255
207 228 255
207 228 255
207 228 255
207 228 255
208 228 255
208 228 255
208 228 255
208 228 255
208 228 255
208 228 255
208 228 255
208 228 255
208 228 255
208 228 255
208 228 255
208 228 255
208 228 255
208 228 255
208 228 255
208 228 255
208 228 255
208 228 255
208 228 255
208 228 255
209 228 255
209 229 255
209 229 255
209 229 255
209 229 255
209 229 255
209 229 255
209 229 255
209 229 255
209 229 255
209 229 255
209 229 255
209 229 255
209 229 255
209 229 255
209 229 255
209 229 255
209 229 255
209 229 255
209 229 255
209 229 255
209 229 255
210 229 255
210 229 255
210 229 255
210 229 255
210 229 255
210 229 255
210 229 255
210 229 255
210 229 255
210 229 255
210 229 255
210 229 255
210 229 255
210 229 255
210 229 255
210 229 255
210 229 255
210 229 255
210 229 255
210 229 255
210 229 255
210 229 255
210 229 255
210 229 255
210 229 255
210 229 255
210 229 255
210 229 255
209 229 255
209 229 255
209 229 255
209 229 255
209 229 255
209 229 255
209 229 255
209 229 255
209 229 255
209 229 255
209 229 255
209 229 255
209 229 255
209 229 255
209 229 255
209 229 255
209 229 255
209 229 255
209 229 255
209 229 255
209 228 255
208 228 255
208 228 255
208 228 255
208 228 255
208 228 255
208 228 255
208 228 255
208 228 255
208 228 255
208 228 255
208 228 255
208 228 255
208 228 255
208 228 255
208 228 255
208 228 255
208 228 255
208 228 255
208 228 255
208 228 255
207 228 255
207 228 255
207 228 255
207 228 255
207 228 255
207 228 255
207 228 255
207 228 255
207 228 255
207 228 255
207 228 255
207 228 255
207 228 255
207 228 255
207 227 255
207 227 255
207 227 255
207 227 255
206 227 255
206 227 255
206 227 255
206 227 255
206 227 255
206 227 255
206 227 255
206 227 255
206 227 255
206 227 255
206 227 255
206 227 255
206 227 255
206 227 255
206 227 255
206 227 255
206 227 255
205 227 255
205 227 255
205 227 255
205 227 255
205 227 255
205 227 255
205 227 255
205 227 255
205 227 255
205 227 255
205 226 255
205 226 255
205 226 255
205 226 255
205 226 255
205 226 255
205 226 255
204 226 255
204 226 255
204 226 255
204 226 255
204 226 255
204 226 255
204 226 255
204 226 255
204 226 255
204 226 255
204 226 255
204 226 255
204 226 255
204 226 255
204 226 255
204 226 255
203 226 255
203 226 255
203 226 255
203 226 255
203 226 255
203 226 255
203 226 255
203 226 255
203 225 255
203 225 255
203 225 255
203 225 255
203 225 255
203 225 255
203 225 255
203 225 255
203 225 255
203 225 255
202 225 255
202 225 255
202 225 255
202 225 255
202 225 255
202 225 255
202 225 255
202 225 255
202 225 255
202 225 255
202 225 255
202 225 255
202 225 255
202 225 255
202 225 255
202 225 255
202 225 255
202 225 255
202 225 255
202 225 255
202 225 255
201 225 255
201 225 255
201 225 255
201 225 255
201 225 255
201 225 255
201 225 255
201 225 255
201 224 255
201 224 255
201 224 255
201 224 255
201 224 255
201 224 255
201 224 255
201 224 255
201 224 255
201 224 255
201 224 255
201 224 255
201 224 255
201 224 255
201 224 255
201 224 255
201 224 255
201 224 255
201 224 255
201 224 255
201 224 255
201 224 255
201 224 255
201 224 255
201 224 255
201 224 255
201 224 255
201 224 255
201 224 255
201 224 255
201 224 255
201 224 255
201 224 255
201 224 255
201 224 255
201 224 255
201 224 255
201 224 255
201 224 255
201 224 255
201 224 255
201 224 255
201 224 255
201 224 255
201 224 255
201 224 255
201 224 255
201 224 255
201 224 255
201 224 255
201 224 255
201 224 255
201 224 255
201 224 255
201 224 255
201 224 255
201 225 255
201 225 255
201 225 255
201 225 255
201 225 255
201 225 255
201 225 255
201 225 255
202 225 255
202 225 255
202 225 255
202 225 255
202 225 255
202 225 255
202 225 255
202 225 255
202 225 255
202 225 255
202 225 255
202 225 255
202 225 255
202 225 255
202 225 255
202 225 255
202 225 255
202 225 255
202 225 255
202 225 255
202 225 255
203 225 255
203 225 255
203 225 255
203 225 255
203 225 255
203 225 255
203 225 255
203 225 255
203 225 255
203 225 255
203 226 255
203 226 255
203 226 255
203 226 255
203 226 255
203 226 255
203 226 255
203 226 255
204 226 255
204 226 255
204 226 255
204 226 255
204 226 255
204 226 255
204 226 255
204 226 255
204 226 255
204 226 255
204 226 255
204 226 255
204 226 255
204 226 255
204 226 255
204 226 255
205 226 255
205 226 255
205 226 255
205 226 255
205 226 255
205 226 255
205 226 255
205 227 255
205 227 255
205 227 255
205 227 255
205 227 255
205 227 255
205 227 255
205 227 255
205 227 255
205 227 255
206 227 255
206 227 255
206 227 255
206 227 255
206 227 255
206 227 255
206 227 255
206 227 255
206 227 255
206 227 255
206 227 255
206 227 255
206 227 255
206 227 255
206 227 255
206 227 255
206 227 255
207 227 255
207 227 255
207 227 255
207 227 255
207 228 255
207 228 255
207 228 255
207 228 255
207 228 255
207 228 255
207 228 255
207 228 255
207 228 255
207 228 255
207 228 255
207 228 255
207 228 255
207 228 255
208 228 255
208 228 255
208 228 255
208 228 255
208 228 255
208 228 255
208 228 255
208 228 255
208 228 255
208 228 255
208 228 255
208 228 255
208 228 255
208 228 255
208 228 255
208 228 255
208 228 255
208 228 255
208 228 255
209 228 255
209 228 255
209 229 255
209 229 255
209 229 255
209 229 255
209 229 255
209 229 255
209 229 255
209 229 255
209 229 255
209 229 255
209 229 255
209 229 255
209 229 255
209 229 255
209 229 255
209 229 255
209 229 255
209 229 255
209 229 255
209 229 255
210 229 255
210 229 255
210 229 255
210 229 255
210 229 255
210 229 255
210 229 255
210 229 255
210 229 255
210 229 255
210 229 255
210 229 255
210 229 255
210 229 255
210 229 255
210 229 255
210 229 255
210 229 255
210 229 255
210 229 255
210 229 255
210 229 255
210 229 255
210 229 255
210 229 255
210 229 255
210 229 255
210 229 255
210 229 255
210 229 255
210 229 255
210 229 255
210 229 255
210 229 255
210 229 255
209 229 255
209 229 255
209 229 255
209 229 255
209 229 255
209 229 255
209 229 255
209 229 255
209 229 255
209 229 255
209 229 255
209 229 255
209 229 255
209 229 255
209 229 255
209 229 255
209 229 255
209 229 255
209 229 255
209 229 255
209 228 255
209 228 255
208 228 255
208 228 255
208 228 255
208 228 255
208 228 255
208 228 255
208 228 255
208 228 255
208 228 255
208 228 255
208 228 255
208 228 255
208 228 255
208 228 255
208 228 255
208 228 255
208 228 255
208 228 255
208 228 255
207 228 255
207 228 255
207 228 255
207 228 255
207 228 255
207 228 255
207 228 255
207 228 255
207 228 255
207 228 255
207 228 255
207 228 255
207 228 255
207 228 255
207 227 255
207 227 255
207 227 255
207 227 255
207 227 255
206 227 255
206 227 255
206 227 255
206 227 255
206 227 255
206 227 255
206 227 255
206 227 255
206 227 255
206 227 255
206 227 255
206 227 255
206 227 255
206 227 255
206 227 255
206 227 255
205 227 255
205 227 255
205 227 255
205 227 255
205 227 255
205 227 255
205 227 255
205 227 255
205 227 255
205 227 255
205 226 255
205 226 255
205 226 255
205 226 255
205 226 255
205 226 255
205 226 255
204 226 255
204 226 255
204 226 255
204 226 255
204 226 255
204 226 255
204 226 255
204 226 255
204 226 255
204 226 255
204 226 255
204 226 255
204 226 255
204 226 255
204 226 255
204 226 255
203 226 255
203 226 255
203 226 255
203 226 255
203 226 255
203 226 255
203 226 255
203 226 255
203 225 255
203 225 255
203 225 255
203 225 255
203 225 255
203 225 255
203 225 255
203 225 255
203 225 255
203 225 255
203 225 255
202 225 255
202 225 255
202 225 255
202 225 255
202 225 255
202 225 255
202 225 255
202 225 255
202 225 255
202 225 255
202 225 255
202 225 255
202 225 255
202 225 255
202 225 255
202 225 255
202 225 255
202 225 255
202 225 255
202 225 255
202 225 255
202 225 255
202 225 255
201 225 255
201 225 255
201 225 255
201 225 255
201 225 255
201 225 255
201 225 255
201 225 255
201 225 255
201 225 255
201 224 255
201 224 255
201 224 255
201 224 255
201 224 255
201 224 255
201 224 255
201 224 255
201 224 255
201 224 255
201 224 255
201 224 255
201 224 255
201 224 255
201 224 255
201 224 255
201 224 255
201 224 255
201 224 255
201 224 255
201 224 255
201 224 255
201 224 255
201 224 255
201 224 255
201 224 255
201 224 255
201 224 255
201 224 255
201 224 255
201 224 255
201 224 255
201 224 255
201 224 255
201 224 255
201 224 255
201 224 255
201 224 255
201 224 255
201 224 255
201 224 255
201 225 255
201 225 255
201 225 255
201 225 255
201 225 255
201 225 255
201 225 255
201 225 255
201 225 255
202 225 255
202 225 255
202 225 255
202 225 255
202 225 255
202 225 255
202 225 255
202 225 255
202 225 255
202 225 255
202 225 255
202 225 255
202 225 255
202 225 255
202 225 255
202 225 255
202 225 255
202 225 255
202 225 255
202 225 255
202 225 255
202 225 255
202 225 255
203 225 255
203 225 255
203 225 255
203 225 255
203 225 255
203 225 255
203 225 255
203 225 255
203 225 255
203 225 255
203 225 255
203 226 255
203 226 255
203 226 255
203 226 255
203 226 255
203 226 255
203 226 255
204 226 255
204 226 255
204 226 255
204 226 255
204 226 255
204 226 255
204 226 255
204 226 255
204 226 255
204 226 255
204 226 255
204 226 255
204 226 255
204 226 255
204 226 255
204 226 255
204 226 255
205 226 255
205 226 255
205 226 255
205 226 255
205 226 255
205 226 255
205 226 255
205 227 255
205 227 255
205 227 255
205 227 255
205 227 255
205 227 255
205 227 255
205 227 255
205 227 255
206 227 255
206 227 255
206 227 255
206 227 255
206 227 255
206 227 255
206 227 255
206 227 255
206 227 255
206 227 255
206 227 255
206 227 255
206 227 255
206 227 255
206 227 255
206 227 255
206 227 255
206 227 255
207 227 255
207 227 255
207 227 255
207 227 255
207 228 255
207 228 255
207 228 255
207 228 255
207 228 255
207 228 255
207 228 255
207 228 255
207 228 255
207 228 255
207 228 255
207 228 255
207 228 255
208 228 255
208 228 255
208 228 255
208 228 255
208 228 255
208 228 255
208 228 255
208 228 255
208 228 255
208 228 255
208 228 255
208 228 255
208 228 255
208 228 255
208 228 255
208 228 255
208 228 255
208 228 255
208 228 255
208 228 255
209 228 255
209 229 255
209 229 255
209 229 255
209 229 255
209 229 255
209 229 255
209 229 255
209 229 255
209 229 255
209 229 255
209 229 255
209 229 255
209 229 255
209 229 255
209 229 255
209 229 255
209 229 255
209 229 255
209 229 255
209 229 255
209 229 255
210 229 255
210 229 255
210 229 255
210 229 255
210 229 255
210 229 255
210 229 255
210 229 255
210 229 255
210 229 255
210 229 255
210 229 255
210 229 255
210 229 255
210 229 255
210 229 255
210 229 255
210 229 255
210 229 255
210 230 255
210 229 255
210 229 255
210 229 255
210 229 255
210 229 255
210 229 255
210 229 255
210 229 255
210 229 255
210 229 255
210 229 255
210 229 255
210 229 255
210 229 255
210 229 255
210 229 255
210 229 255
210 229 255
210 229 255
210 229 255
210 229 255
210 229 255
209 229 255
209 229 255
209 229 255
209 229 255
209 229 255
209 229 255
209 229 255
209 229 255
209 229 255
209 229 255
209 229 255
209 229 255
209 229 255
209 229 255
209 229 255
209 229 255
209 229 255
209 229 255
209 229 255
209 229 255
209 228 255
208 228 255
208 228 255
208 228 255
208 228 255
208 228 255
208 228 255
208 228 255
208 228 255
208 228 255
208 228 255
208 228 255
208 228 255
208 228 255
208 228 255
208 228 255
208 228 255
208 228 255
208 228 255
208 228 255
208 228 255
207 228 255
207 228 255
207 228 255
207 228 255
207 228 255
207 228 255
207 228 255
207 228 255
207 228 255
207 228 255
207 228 255
207 228 255
207 228 255
207 228 255
207 227 255
207 227 255
207 227 255
207 227 255
206 227 255
206 227 255
206 227 255
206 227 255
206 227 255
206 227 255
206 227 255
206 227 255
206 227 255
206 227 255
206 227 255
206 227 255
206 227 255
206 227 255
206 227 255
206 227 255
206 227 255
205 227 255
205 227 255
205 227 255
205 227 255
205 227 255
205 227 255
205 227 255
205 227 255
205 227 255
205 227 255
205 226 255
205 226 255
205 226 255
205 226 255
205 226 255
205 226 255
205 226 255
204 226 255
204 226 255
204 226 255
204 226 255
204 226 255
204 226 255
204 226 255
204 226 255
204 226 255
204 226 255
204 226 255
204 226 255
204 226 255
204 226 255
204 226 255
204 226 255
203 226 255
203 226 255
203 226 255
203 226 255
203 226 255
203 226 255
203 226 255
203 226 255
203 225 255
203 225 255
203 225 255
203 225 255
203 225 255
203 225 255
203 225 255
203 225 255
203 225 255
203 225 255
203 225 255
202 225 255
202 225 255
202 225 255
202 225 255
202 225 255
202 225 255
202 225 255
202 225 255
202 225 255
202 225 255
202 225 255
202 225 255
202 225 255
202 225 255
202 225 255
202 225 255
202 225 255
202 225 255
202 225 255
202 225 255
202 225 255
202 225 255
202 225 255
202 225 255
202 225 255
202 225 255
201 225 255
201 225 255
201 225 255
201 225 255
201 225 255
201 225 255
201 225 255
201 225 255
201 225 255
201 225 255
201 225 255
201 225 255
201 225 255
201 225 255
201 225 255
201 225 255
201 225 255
201 224 255
201 224 255
201 224 255
201 224 255
201 224 255
201 224 255
201 224 255
201 224 255
201 224 255
201 224 255
201 224 255
201 225 255
201 225 255
201 225 255
201 225 255
201 225 255
201 225 255
201 225 255
201 225 255
201 225 255
201 225 255
201 225 255
201 225 255
201 225 255
201 225 255
201 225 255
201 225 255
201 225 255
201 225 255
202 225 255
202 225 255
202 225 255
202 225 255
202 225 255
202 225 255
202 225 255
202 225 255
202 225 255
202 225 255
202 225 255
202 225 255
202 225 255
202 225 255
202 225 255
202 225 255
202 225 255
202 225 255
202 225 255
202 225 255
202 225 255
202 225 255
202 225 255
202 225 255
202 225 255
202 225 255
203 225 255
203 225 255
203 225 255
203 225 255
203 225 255
203 225 255
203 225 255
203 225 255
203 225 255
203 225 255
203 225 255
203 226 255
203 226 255
203 226 255
203 226 255
203 226 255
203 226 255
203 226 255
203 226 255
204 226 255
204 226 255
204 226 255
204 226 255
204 226 255
204 226 255
204 226 255
204 226 255
204 226 255
204 226 255
204 226 255
204 226 255
204 226 255
204 226 255
204 226 255
204 226 255
204 226 255
205 226 255
205 226 255
205 226 255
205 226 255
205 226 255
205 226 255
205 227 255
205 227 255
205 227 255
205 227 255
205 227 255
205 227 255
205 227 255
205 227 255
205 227 255
205 227 255
206 227 255
206 227 255
206 227 255
206 227 255
206 227 255
206 227 255
206 227 255
206 227 255
206 227 255
206 227 255
206 227 255
206 227 255
206 227 255
206 227 255
206 227 255
206 227 255
206 227 255
207 227 255
207 227 255
207 227 255
207 227 255
207 228 255
207 228 255
207 228 255
207 228 255
207 228 255
207 228 255
207 228 255
207 228 255
207 228 255
207 228 255
207 228 255
207 228 255
207 228 255
207 228 255
208 228 255
208 228 255
208 228 255
208 228 255
208 228 255
208 228 255
208 228 255
208 228 255
208 228 255
208 228 255
208 228 255
208 228 255
208 228 255
208 228 255
208 228 255
208 228 255
208 228 255
208 228 255
208 228 255
208 228 255
209 228 255
209 229 255
209 229 255
209 229 255
209 229 255
209 229 255
209 229 255
209 229 255
209 229 255
209 229 255
209 229 255
209 229 255
209 229 255
209 229 255
209 229 255
209 229 255
209 229 255
209 229 255
209 229 255
209 229 255
209 229 255
210 229 255
210 229 255
210 229 255
210 229 255
210 229 255
210 229 255
210 229 255
210 229 255
210 229 255
210 229 255
210 229 255
210 229 255
210 229 255
210 229 255
210 229 255
210 229 255
210 229 255
210 229 255
210 229 255
210 229 255
210 229 255
210 229 255
210 230 255
211 230 255
211 230 255
210 230 255
210 230 255
210 230 255
210 229 255
210 229 255
210 229 255
210 229 255
210 229 255
210 229 255
210 229 255
210 229 255
210 229 255
210 229 255
210 229 255
210 229 255
210 229 255
210 229 255
210 229 255
210 229 255
210 229 255
210 229 255
210 229 255
210 229 255
210 229 255
210 229 255
209 229 255
209 229 255
209 229 255
209 229 255
209 229 255
209 229 255
209 229 255
209 229 255
209 229 255
209 229 255
209 229 255
209 229 255
209 229 255
209 229 255
209 229 255
209 229 255
209 229 255
209 229 255
209 229 255
209 228 255
209 228 255
208 228 255
208 228 255
208 228 255
208 228 255
208 228 255
208 228 255
208 228 255
208 228 255
208 228 255
208 228 255
208 228 255
208 228 255
208 228 255
208 228 255
208 228 255
208 228 255
208 228 255
208 228 255
208 228 255
207 228 255
207 228 255
207 228 255
207 228 255
207 228 255
207 228 255
207 228 255
207 228 255
207 228 255
207 228 255
207 228 255
207 228 255
207 228 255
207 228 255
207 227 255
207 227 255
207 227 255
207 227 255
206 227 255
206 227 255
206 227 255
206 227 255
206 227 255
206 227 255
206 227 255
206 227 255
206 227 255
206 227 255
206 227 255
206 227 255
206 227 255
206 227 255
206 227 255
206 227 255
206 227 255
205 227 255
205 227 255
205 227 255
205 227 255
205 227 255
205 227 255
205 227 255
205 227 255
205 227 255
205 227 255
205 226 255
205 226 255
205 226 255
205 226 255
205 226 255
205 226 255
205 226 255
204 226 255
204 226 255
204 226 255
204 226 255
204 226 255
204 226 255
204 226 255
204 226 255
204 226 255
204 226 255
204 226 255
204 226 255
204 226 255
204 226 255
204 226 255
204 226 255
204 226 255
203 226 255
203 226 255
203 226 255
203 226 255
203 226 255
203 226 255
203 226 255
203 226 255
203 225 255
203 225 255
203 225 255
203 225 255
203 225 255
203 225 255
203 225 255
203 225 255
203 225 255
203 225 255
203 225 255
203 225 255
202 225 255
202 225 255
202 225 255
202 225 255
202 225 255
202 225 255
202 225 255
202 225 255
202 225 255
202 225 255
202 225 255
202 225 255
202 225 255
202 225 255
202 225 255
202 225 255
202 225 255
202 225 255
202 225 255
202 225 255
202 225 255
202 225 255
202 225 255
202 225 255
202 225 255
202 225 255
202 225 255
202 225 255
202 225 255
202 225 255
202 225 255
201 225 255
201 225 255
201 225 255
201 225 255
201 225 255
201 225 255
201 225 255
201 225 255
201 225 255
201 225 255
201 225 255
201 225 255
201 225 255
201 225 255
201 225 255
201 225 255
201 225 255
201 225 255
201 225 255
201 225 255
201 225 255
201 225 255
201 225 255
201 225 255
201 225 255
201 225 255
202 225 255
202 225 255
202 225 255
202 225 255
202 225 255
202 225 255
202 225 255
202 225 255
202 225 255
202 225 255
202 225 255
202 225 255
202 225 255
202 225 255
202 225 255
202 225 255
202 225 255
202 225 255
202 225 255
202 225 255
202 225 255
202 225 255
202 225 255
202 225 255
202 225 255
202 225 255
202 225 255
202 225 255
202 225 255
202 225 255
202 225 255
203 225 255
203 225 255
203 225 255
203 225 255
203 225 255
203 225 255
203 225 255
203 225 255
203 225 255
203 225 255
203 225 255
203 226 255
203 226 255
203 226 255
203 226 255
203 226 255
203 226 255
203 226 255
203 226 255
203 226 255
204 226 255
204 226 255
204 226 255
204 226 255
204 226 255
204 226 255
204 226 255
204 226 255
204 226 255
204 226 255
204 226 255
204 226 255
204 226 255
204 226 255
204 226 255
204 226 255
204 226 255
205 226 255
205 226 255
205 226 255
205 226 255
205 226 255
205 226 255
205 226 255
205 227 255
205 227 255
205 227 255
205 227 255
205 227 255
205 227 255
205 227 255
205 227 255
205 227 255
205 227 255
206 227 255
206 227 255
206 227 255
206 227 255
206 227 255
206 227 255
206 227 255
206 227 255
206 227 255
206 227 255
206 227 255
206 227 255
206 227 255
206 227 255
206 227 255
206 227 255
206 227 255
207 227 255
207 227 255
207 227 255
207 227 255
207 228 255
207 228 255
207 228 255
207 228 255
207 228 255
207 228 255
207 228 255
207 228 255
207 228 255
207 228 255
207 228 255
207 228 255
207 228 255
207 228 255
208 228 255
208 228 255
208 228 255
208 228 255
208 228 255
208 228 255
208 228 255
208 228 255
208 228 255
208 228 255
208 228 255
208 228 255
208 228 255
208 228 255
208 228 255
208 228 255
208 228 255
208 228 255
208 228 255
209 228 255
209 228 255
209 229 255
209 229 255
209 229 255
209 229 255
209 229 255
209 229 255
209 229 255
209 229 255
209 229 255
209 229 255
209 229 255
209 229 255
209 229 255
209 229 255
209 229 255
209 229 255
209 229 255
209 229 255
209 229 255
210 229 255
210 229 255
210 229 255
210 229 255
210 229 255
210 229 255
210 229 255
210 229 255
210 229 255
210 229 255
210 229 255
210 229 255
210 229 255
210 229 255
210 229 255
210 229 255
210 229 255
210 229 255
210 229 255
210 229 255
210 229 255
210 229 255
210 230 255
210 230 255
210 230 255
211 230 255
211 230 255
211 230 255
211 230 255
211 230 255
211 230 255
211 230 255
211 230 255
210 230 255
210 230 255
210 230 255
210 229 255
210 229 255
210 229 255
210 229 255
210 229 255
210 229 255
210 229 255
210 229 255
210 229 255
210 229 255
210 229 255
210 229 255
210 229 255
210 229 255
210 229 255
210 229 255
210 229 255
210 229 255
210 229 255
210 229 255
210 229 255
209 229 255
209 229 255
209 229 255
209 229 255
209 229 255
209 229 255
209 229 255
209 229 255
209 229 255
209 229 255
209 229 255
209 229 255
209 229 255
209 229 255
209 229 255
209 229 255
209 229 255
209 229 255
209 229 255
209 229 255
209 228 255
209 228 255
208 228 255
208 228 255
208 228 255
208 228 255
208 228 255
208 228 255
208 228 255
208 228 255
208 228 255
208 228 255
208 228 255
208 228 255
208 228 255
208 228 255
208 228 255
208 228 255
208 228 255
208 228 255
208 228 255
207 228 255
207 228 255
207 228 255
207 228 255
207 228 255
207 228 255
207 228 255
207 228 255
207 228 255
207 228 255
207 228 255
207 228 255
207 228 255
207 227 255
207 227 255
207 227 255
207 227 255
207 227 255
206 227 255
206 227 255
206 227 255
206 227 255
206 227 255
206 227 255
206 227 255
206 227 255
206 227 255
206 227 255
206 227 255
206 227 255
206 227 255
206 227 255
206 227 255
206 227 255
206 227 255
205 227 255
205 227 255
205 227 255
205 227 255
205 227 255
205 227 255
205 227 255
205 227 255
205 227 255
205 227 255
205 226 255
205 226 255
205 226 255
205 226 255
205 226 255
205 226 255
204 226 255
204 226 255
204 226 255
204 226 255
204 226 255
204 226 255
204 226 255
204 226 255
204 226 255
204 226 255
204 226 255
204 226 255
204 226 255
204 226 255
204 226 255
204 226 255
204 226 255
204 226 255
203 226 255
203 226 255
203 226 255
203 226 255
203 226 255
203 226 255
203 226 255
203 226 255
203 226 255
203 225 255
203 225 255
203 225 255
203 225 255
203 225 255
203 225 255
203 225 255
203 225 255
203 225 255
203 225 255
203 225 255
203 225 255
202 225 255
202 225 255
202 225 255
202 225 255
202 225 255
202 225 255
202 225 255
202 225 255
202 225 255
202 225 255
202 225 255
202 225 255
202 225 255
202 225 255
202 225 255
202 225 255
202 225 255
202 225 255
202 225 255
202 225 255
202 225 255
202 225 255
202 225 255
202 225 255
202 225 255
202 225 255
202 225 255
202 225 255
202 225 255
202 225 255
202 225 255
202 225 255
202 225 255
202 225 255
202 225 255
202 225 255
202 225 255
202 225 255
202 225 255
202 225 255
202 225 255
202 225 255
202 225 255
202 225 255
202 225 255
202 225 255
202 225 255
202 225 255
202 225 255
202 225 255
202 225 255
202 225 255
202 225 255
202 225 255
202 225 255
202 225 255
202 225 255
202 225 255
202 225 255
202 225 255
202 225 255
202 225 255
202 225 255
202 225 255
202 225 255
202 225 255
202 225 255
202 225 255
202 225 255
202 225 255
202 225 255
202 225 255
202 225 255
202 225 255
202 225 255
202 225 255
202 225 255
202 225 255
203 225 255
203 225 255
203 225 255
203 225 255
203 225 255
203 225 255
203 225 255
203 225 255
203 225 255
203 225 255
203 225 255
203 225 255
203 226 255
203 226 255
203 226 255
203 226 255
203 226 255
203 226 255
203 226 255
203 226 255
203 226 255
204 226 255
204 226 255
204 226 255
204 226 255
204 226 255
204 226 255
204 226 255
204 226 255
204 226 255
204 226 255
204 226 255
204 226 255
204 226 255
204 226 255
204 226 255
204 226 255
204 226 255
204 226 255
205 226 255
205 226 255
205 226 255
205 226 255
205 226 255
205 226 255
205 227 255
205 227 255
205 227 255
205 227 255
205 227 255
205 227 255
205 227 255
205 227 255
205 227 255
205 227 255
205 227 255
206 227 255
206 227 255
206 227 255
206 227 255
206 227 255
206 227 255
206 227 255
206 227 255
206 227 255
206 227 255
206 227 255
206 227 255
206 227 255
206 227 255
206 227 255
206 227 255
207 227 255
207 227 255
207 227 255
207 227 255
207 227 255
207 228 255
207 228 255
207 228 255
207 228 255
207 228 255
207 228 255
207 228 255
207 228 255
207 228 255
207 228 255
207 228 255
207 228 255
207 228 255
208 228 255
208 228 255
208 228 255
208 228 255
208 228 255
208 228 255
208 228 255
208 228 255
208 228 255
208 228 255
208 228 255
208 228 255
208 228 255
208 228 255
208 228 255
208 228 255
208 228 255
208 228 255
208 228 255
209 228 255
209 228 255
209 229 255
209 229 255
209 229 255
209 229 255
209 229 255
209 229 255
209 229 255
209 229 255
209 229 255
209 229 255
209 229 255
209 229 255
209 229 255
209 229 255
209 229 255
209 229 255
209 229 255
209 229 255
209 229 255
209 229 255
210 229 255
210 229 255
210 229 255
210 229 255
210 229 255
210 229 255
210 229 255
210 229 255
210 229 255
210 229 255
210 229 255
210 229 255
210 229 255
210 229 255
210 229 255
210 229 255
210 229 255
210 229 255
210 229 255
210 229 255
210 229 255
210 230 255
210 230 255
210 230 255
211 230 255
211 230 255
211 230 255
211 230 255
211 230 255
211 230 255
211 230 255
211 230 255
211 230 255
211 230 255
211 230 255
211 230 255
211 230 255
211 230 255
211 230 255
211 230 255
210 230 255
210 230 255
210 230 255
210 229 255
210 229 255
210 229 255
210 229 255
210 229 255
210 229 255
210 229 255
210 229 255
210 229 255
210 229 255
210 229 255
210 229 255
210 229 255
210 229 255
210 229 255
210 229 255
210 229 255
210 229 255
210 229 255
210 229 255
210 229 255
209 229 255
209 229 255
209 229 255
209 229 255
209 229 255
209 229 255
209 229 255
209 229 255
208 228 255
207 228 255
208 228 255
207 228 255
207 228 255
207 228 255
207 228 255
207 228 255
206 227 255
207 227 255
207 228 255
207 228 255
207 228 255
207 228 255
207 228 255
207 228 255
208 228 255
208 228 255
208 228 255
208 228 255
208 228 255
208 228 255
208 228 255
208 228 255
208 228 255
208 228 255
208 228 255
208 228 255
208 228 255
208 228 255
208 228 255
208 228 255
207 228 255
207 228 255
207 228 255
207 228 255
207 228 255
207 228 255
207 228 255
207 228 255
207 228 255
207 228 255
207 228 255
207 228 255
207 228 255
207 228 255
207 227 255
207 227 255
207 227 255
207 227 255
206 227 255
206 227 255
206 227 255
206 227 255
206 227 255
206 227 255
206 227 255
206 227 255
206 227 255
206 227 255
206 227 255
206 227 255
206 227 255
206 227 255
206 227 255
206 227 255
206 227 255
205 227 255
205 227 255
205 227 255
205 227 255
205 227 255
205 227 255
205 227 255
205 227 255
205 227 255
205 227 255
205 226 255
205 226 255
205 226 255
205 226 255
205 226 255
205 226 255
205 226 255
204 226 255
204 226 255
204 226 255
204 226 255
204 226 255
204 226 255
204 226 255
204 226 255
204 226 255
204 226 255
204 226 255
204 226 255
204 226 255
204 226 255
204 226 255
204 226 255
204 226 255
204 226 255
203 226 255
203 226 255
203 226 255
203 226 255
203 226 255
203 226 255
203 226 255
203 226 255
203 226 255
203 225 255
203 225 255
203 225 255
203 225 255
203 225 255
203 225 255
203 225 255
203 225 255
203 225 255
203 225 255
203 225 255
203 225 255
203 225 255
203 225 255
202 225 255
202 225 255
202 225 255
202 225 255
202 225 255
202 225 255
202 225 255
202 225 255
202 225 255
202 225 255
202 225 255
202 225 255
202 225 255
202 225 255
202 225 255
202 225 255
202 225 255
202 225 255
202 225 255
202 225 255
202 225 255
202 225 255
202 225 255
202 225 255
202 225 255
202 225 255
202 225 255
202 225 255
202 225 255
202 225 255
202 225 255
202 225 255
202 225 255
202 225 255
202 225 255
202 225 255
202 225 255
202 225 255
202 225 255
202 225 255
202 225 255
202 225 255
202 225 255
202 225 255
202 225 255
202 225 255
202 225 255
202 225 255
202 225 255
202 225 255
202 225 255
202 225 255
202 225 255
202 225 255
202 225 255
202 225 255
202 225 255
202 225 255
202 225 255
202 225 255
202 225 255
202 225 255
202 225 255
202 225 255
202 225 255
202 225 255
203 225 255
203 225 255
203 225 255
203 225 255
203 225 255
203 225 255
203 225 255
203 225 255
203 225 255
203 225 255
203 225 255
203 225 255
203 225 255
203 226 255
203 226 255
203 226 255
203 226 255
203 226 255
203 226 255
203 226 255
203 226 255
203 226 255
203 226 255
204 226 255
204 226 255
204 226 255
204 226 255
204 226 255
204 226 255
204 226 255
204 226 255
204 226 255
204 226 255
204 226 255
204 226 255
204 226 255
204 226 255
204 226 255
204 226 255
204 226 255
204 226 255
205 226 255
205 226 255
205 226 255
205 226 255
205 226 255
205 226 255
205 226 255
205 227 255
205 227 255
205 227 255
205 227 255
205 227 255
205 227 255
205 227 255
205 227 255
205 227 255
205 227 255
206 227 255
206 227 255
206 227 255
206 227 255
206 227 255
206 227 255
206 227 255
206 227 255
206 227 255
206 227 255
206 227 255
206 227 255
206 227 255
206 227 255
206 227 255
206 227 255
206 227 255
207 227 255
207 227 255
207 227 255
207 227 255
207 228 255
207 228 255
207 228 255
207 228 255
207 228 255
207 228 255
207 228 255
207 228 255
207 228 255
207 228 255
207 228 255
207 228 255
207 228 255
207 228 255
208 228 255
208 228 255
208 228 255
208 228 255
208 228 255
208 228 255
208 228 255
208 228 255
208 228 255
208 228 255
208 228 255
208 228 255
206 225 252
200 218 241
196 214 235
199 216 237
186 201 218
188 203 219
183 196 207
180 193 202
182 195 206
184 198 209
176 185 184
178 191 201
183 195 200
178 192 203
173 185 193
171 184 194
185 198 208
183 197 211
193 209 227
189 205 224
196 212 229
202 219 240
205 224 248
208 227 253
209 229 255
209 229 255
209 229 255
209 229 255
210 229 255
210 229 255
210 229 255
210 229 255
210 229 255
210 229 255
210 229 255
210 229 255
210 229 255
210 229 255
210 229 255
210 229 255
210 229 255
210 229 255
210 229 255
210 229 255
210 229 255
210 229 255
210 229 255
210 229 255
210 229 255
210 230 255
210 230 255
210 230 255
211 230 255
211 230 255
211 230 255
211 230 255
211 230 255
211 230 255
211 230 255
211 230 255
211 230 255
211 230 255
211 230 255
211 230 255
211 230 255
211 230 255
211 230 255
211 230 255
211 230 255
211 230 255
211 230 255
211 230 255
211 230 255
211 230 255
211 230 255
211 230 255
210 230 255
210 230 255
210 230 255
210 229 255
210 229 255
210 229 255
210 229 255
210 229 255
210 229 255
210 229 255
210 229 255
210 229 255
210 229 255
210 229 255
210 229 255
210 229 255
209 229 255
209 229 255
208 228 255
208 228 255
207 227 255
205 227 255
205 227 255
204 226 255
203 226 255
203 225 255
202 225 255
202 225 255
201 225 255
201 224 255
201 224 255
200 224 255
200 224 255
200 224 255
200 224 255
200 224 255
200 224 255
199 223 255
199 224 255
199 223 255
199 223 255
199 224 255
199 223 255
200 224 255
200 224 255
200 224 255
200 224 255
201 224 255
202 225 255
202 225 255
203 225 255
204 226 255
205 226 255
206 227 255
207 227 255
208 228 255
208 228 255
208 228 255
208 228 255
208 228 255
208 228 255
208 228 255
208 228 255
208 228 255
207 228 255
207 228 255
207 228 255
207 228 255
207 228 255
207 228 255
207 228 255
207 228 255
207 228 255
207 228 255
207 228 255
207 228 255
207 228 255
207 227 255
207 227 255
207 227 255
207 227 255
207 227 255
206 227 255
206 227 255
206 227 255
206 227 255
206 227 255
206 227 255
206 227 255
206 227 255
206 227 255
206 227 255
206 227 255
206 227 255
206 227 255
206 227 255
206 227 255
206 227 255
206 227 255
205 227 255
205 227 255
205 227 255
205 227 255
205 227 255
205 227 255
205 227 255
205 227 255
205 227 255
205 227 255
205 226 255
205 226 255
205 226 255
205 226 255
205 226 255
205 226 255
205 226 255
204 226 255
204 226 255
204 226 255
204 226 255
204 226 255
204 226 255
204 226 255
204 226 255
204 226 255
204 226 255
204 226 255
204 226 255
204 226 255
204 226 255
204 226 255
204 226 255
204 226 255
204 226 255
204 226 255
203 226 255
203 226 255
203 226 255
203 226 255
203 226 255
203 226 255
203 226 255
203 226 255
203 226 255
203 226 255
203 225 255
203 225 255
203 225 255
203 225 255
203 225 255
203 225 255
203 225 255
203 225 255
203 225 255
203 225 255
203 225 255
203 225 255
203 225 255
203 225 255
203 225 255
202 225 255
202 225 255
202 225 255
202 225 255
202 225 255
202 225 255
202 225 255
202 225 255
202 225 255
202 225 255
202 225 255
202 225 255
202 225 255
202 225 255
202 225 255
202 225 255
202 225 255
202 225 255
202 225 255
202 225 255
202 225 255
202 225 255
202 225 255
202 225 255
202 225 255
202 225 255
202 225 255
202 225 255
202 225 255
202 225 255
202 225 255
202 225 255
202 225 255
202 225 255
202 225 255
202 225 255
202 225 255
202 225 255
202 225 255
202 225 255
202 225 255
202 225 255
202 225 255
202 225 255
202 225 255
202 225 255
202 225 255
202 225 255
202 225 255
202 225 255
202 225 255
202 225 255
203 225 255
203 225 255
203 225 255
203 225 255
203 225 255
203 225 255
203 225 255
203 225 255
203 225 255
203 225 255
203 225 255
203 225 255
203 225 255
203 225 255
203 225 255
203 225 255
203 226 255
203 226 255
203 226 255
203 226 255
203 226 255
203 226 255
203 226 255
203 226 255
203 226 255
204 226 255
204 226 255
204 226 255
204 226 255
204 226 255
204 226 255
204 226 255
204 226 255
204 226 255
204 226 255
204 226 255
204 226 255
204 226 255
204 226 255
204 226 255
204 226 255
204 226 255
204 226 255
204 226 255
205 226 255
205 226 255
205 226 255
205 226 255
205 226 255
205 226 255
205 226 255
205 227 255
205 227 255
205 227 255
205 227 255
205 227 255
205 227 255
205 227 255
205 227 255
205 227 255
205 227 255
206 227 255
206 227 255
206 227 255
206 227 255
206 227 255
206 227 255
206 227 255
206 227 255
206 227 255
206 227 255
206 227 255
206 227 255
206 227 255
206 227 255
206 227 255
206 227 255
206 227 255
207 227 255
207 227 255
207 227 255
207 227 255
207 227 255
207 228 255
207 228 255
207 228 255
207 228 255
207 228 255
207 228 255
207 228 255
207 228 255
207 228 255
207 228 255
207 228 255
207 228 255
207 228 255
208 228 255
208 228 255
208 228 255
208 228 255
208 228 255
208 228 255
208 228 255
204 224 250
197 214 235
183 198 214
175 188 196
172 184 190
154 162 159
149 152 134
154 158 140
132 131 97
134 133 93
138 136 90
136 132 87
134 131 87
136 134 89
123 121 80
137 133 88
143 140 93
138 135 90
135 132 88
135 133 89
128 126 84
128 126 84
130 127 84
128 126 84
130 128 84
135 133 87
126 123 82
135 132 87
139 137 90
126 123 81
139 135 90
121 117 75
132 130 87
139 137 99
149 153 136
160 165 152
157 164 156
175 182 176
180 192 199
186 201 218
193 209 228
207 225 250
210 229 255
210 229 255
210 229 255
210 229 255
210 229 255
210 229 255
210 229 255
210 229 255
210 229 255
210 229 255
210 229 255
210 229 255
210 230 255
210 230 255
210 230 255
211 230 255
211 230 255
211 230 255
211 230 255
211 230 255
211 230 255
211 230 255
211 230 255
211 230 255
211 230 255
211 230 255
211 230 255
211 230 255
211 230 255
211 230 255
211 230 255
211 230 255
211 230 255
211 230 255
211 230 255
211 230 255
211 230 255
211 230 255
211 230 255
211 230 255
211 230 255
211 230 255
211 230 255
211 230 255
211 230 255
211 230 255
211 230 255
210 230 255
210 230 255
210 230 255
210 229 255
210 229 255
210 229 255
209 229 255
209 229 255
207 228 255
207 228 255
205 227 255
204 226 255
203 226 255
203 225 255
202 225 255
201 225 255
201 224 255
200 224 255
200 224 255
199 223 255
199 223 255
199 223 255
198 223 255
198 223 255
198 223 255
197 222 255
197 222 255
197 222 255
197 222 255
196 222 255
196 222 255
196 222 255
196 222 255
196 221 255
196 221 255
196 222 255
195 221 255
195 221 255
195 221 255
195 221 255
196 221 255
196 221 255
196 221 255
196 222 255
196 222 255
196 222 255
196 222 255
197 222 255
197 222 255
198 223 255
198 223 255
199 223 255
200 224 255
202 225 255
203 225 255
204 226 255
205 227 255
206 227 255
208 228 255
208 228 255
208 228 255
208 228 255
208 228 255
207 228 255
207 228 255
207 228 255
207 228 255
207 228 255
207 228 255
207 228 255
207 228 255
207 228 255
207 228 255
207 228 255
207 228 255
207 228 255
207 228 255
207 227 255
207 227 255
207 227 255
207 227 255
206 227 255
206 227 255
206 227 255
206 227 255
206 227 255
206 227 255
206 227 255
206 227 255
206 227 255
206 227 255
206 227 255
206 227 255
206 227 255
206 227 255
206 227 255
206 227 255
206 227 255
206 227 255
205 227 255
205 227 255
205 227 255
205 227 255
205 227 255
205 227 255
205 227 255
205 227 255
205 227 255
205 227 255
205 226 255
205 226 255
205 226 255
205 226 255
205 226 255
205 226 255
205 226 255
204 226 255
204 226 255
204 226 255
204 226 255
204 226 255
204 226 255
204 226 255
204 226 255
204 226 255
204 226 255
204 226 255
204 226 255
204 226 255
204 226 255
204 226 255
204 226 255
204 226 255
204 226 255
204 226 255
204 226 255
203 226 255
203 226 255
203 226 255
203 226 255
203 226 255
203 226 255
203 226 255
203 226 255
203 226 255
203 226 255
203 225 255
203 225 255
203 225 255
203 225 255
203 225 255
203 225 255
203 225 255
203 225 255
203 225 255
203 225 255
203 225 255
203 225 255
203 225 255
203 225 255
203 225 255
203 225 255
203 225 255
203 225 255
203 225 255
203 225 255
202 225 255
202 225 255
202 225 255
202 225 255
202 225 255
202 225 255
202 225 255
202 225 255
202 225 255
202 225 255
202 225 255
202 225 255
202 225 255
202 225 255
202 225 255
202 225 255
202 225 255
202 225 255
202 225 255
202 225 255
202 225 255
202 225 255
202 225 255
202 225 255
202 225 255
202 225 255
202 225 255
202 225 255
202 225 255
202 225 255
202 225 255
202 225 255
203 225 255
203 225 255
203 225 255
203 225 255
203 225 255
203 225 255
203 225 255
203 225 255
203 225 255
203 225 255
203 225 255
203 225 255
203 225 255
203 225 255
203 225 255
203 225 255
203 225 255
203 225 255
203 225 255
203 225 255
203 226 255
203 226 255
203 226 255
203 226 255
203 226 255
203 226 255
203 226 255
203 226 255
203 226 255
203 226 255
204 226 255
204 226 255
204 226 255
204 226 255
204 226 255
204 226 255
204 226 255
204 226 255
204 226 255
204 226 255
204 226 255
204 226 255
204 226 255
204 226 255
204 226 255
204 226 255
204 226 255
204 226 255
204 226 255
204 226 255
205 226 255
205 226 255
205 226 255
205 226 255
205 226 255
205 226 255
205 226 255
205 227 255
205 227 255
205 227 255
205 227 255
205 227 255
205 227 255
205 227 255
205 227 255
205 227 255
205 227 255
205 227 255
206 227 255
206 227 255
206 227 255
206 227 255
206 227 255
206 227 255
206 227 255
206 227 255
206 227 255
206 227 255
206 227 255
206 227 255
206 227 255
206 227 255
206 227 255
206 227 255
206 227 255
207 227 255
207 227 255
207 227 255
207 227 255
207 228 255
207 228 255
207 228 255
207 228 255
207 228 255
207 228 255
207 228 255
207 228 255
207 228 255
207 228 255
207 228 255
207 228 255
207 228 255
207 228 255
208 228 255
208 228 255
208 228 255
208 228 255
199 217 241
187 203 219
184 198 209
164 175 180
141 145 130
133 133 104
129 127 84
138 135 90
126 123 82
132 130 87
137 135 90
139 137 92
136 135 90
130 128 85
133 131 87
140 138 92
138 136 90
130 128 86
125 124 83
132 130 87
140 138 93
126 124 83
142 140 94
133 131 87
137 135 89
135 134 89
136 134 90
132 129 86
139 136 90
138 135 88
135 132 87
138 135 90
130 129 86
136 133 88
137 133 87
130 128 84
135 133 88
123 120 79
140 137 91
137 135 90
129 126 83
129 127 84
128 125 81
135 132 87
135 132 87
137 134 88
131 128 85
130 126 83
141 142 115
158 163 150
169 178 180
187 200 209
193 208 223
206 224 248
210 229 255
210 229 255
210 230 255
210 230 255
210 230 255
211 230 255
211 230 255
211 230 255
211 230 255
211 230 255
211 230 255
211 230 255
211 230 255
211 230 255
211 230 255
211 230 255
211 230 255
211 230 255
211 230 255
211 230 255
211 230 255
211 230 255
211 230 255
211 230 255
211 230 255
211 230 255
211 230 255
211 230 255
211 230 255
211 230 255
211 230 255
211 230 255
211 230 255
211 230 255
211 230 255
211 230 255
211 230 255
211 230 255
211 230 255
211 230 255
211 230 255
210 230 255
210 229 255
209 229 255
207 228 255
206 227 255
205 226 255
204 226 255
203 225 255
202 225 255
201 225 255
201 224 255
200 224 255
200 224 255
199 223 255
199 223 255
198 223 255
198 223 255
198 223 255
197 222 255
197 222 255
197 222 255
196 222 255
196 222 255
196 221 255
195 221 255
195 221 255
195 221 255
194 221 255
194 221 255
194 221 255
194 220 255
193 220 255
193 220 255
193 220 255
193 220 255
193 220 255
193 220 255
193 220 255
193 220 255
193 220 255
193 220 255
193 220 255
193 220 255
193 220 255
193 220 255
193 220 255
193 220 255
193 220 255
193 220 255
194 220 255
194 221 255
194 221 255
195 221 255
195 221 255
196 222 255
196 222 255
197 222 255
198 223 255
200 224 255
201 225 255
203 226 255
205 226 255
207 228 255
207 228 255
208 228 255
208 228 255
208 228 255
207 228 255
207 228 255
207 228 255
207 228 255
207 228 255
207 228 255
207 228 255
207 228 255
207 228 255
207 228 255
207 228 255
207 228 255
207 228 255
207 227 255
207 227 255
207 227 255
207 227 255
207 227 255
206 227 255
206 227 255
206 227 255
206 227 255
206 227 255
206 227 255
206 227 255
206 227 255
206 227 255
206 227 255
206 227 255
206 227 255
206 227 255
206 227 255
206 227 255
206 227 255
206 227 255
205 227 255
205 227 255
205 227 255
205 227 255
205 227 255
205 227 255
205 227 255
205 227 255
205 227 255
205 227 255
205 227 255
205 226 255
205 226 255
205 226 255
205 226 255
205 226 255
205 226 255
205 226 255
204 226 255
204 226 255
204 226 255
204 226 255
204 226 255
204 226 255
204 226 255
204 226 255
204 226 255
204 226 255
204 226 255
204 226 255
204 226 255
204 226 255
204 226 255
204 226 255
204 226 255
204 226 255
204 226 255
204 226 255
204 226 255
203 226 255
203 226 255
203 226 255
203 226 255
203 226 255
203 226 255
203 226 255
203 226 255
203 226 255
203 226 255
203 226 255
203 226 255
203 225 255
203 225 255
203 225 255
203 225 255
203 225 255
203 225 255
203 225 255
203 225 255
203 225 255
203 225 255
203 225 255
203 225 255
203 225 255
203 225 255
203 225 255
203 225 255
203 225 255
203 225 255
203 225 255
203 225 255
203 225 255
203 225 255
203 225 255
203 225 255
203 225 255
203 225 255
203 225 255
203 225 255
203 225 255
203 225 255
203 225 255
203 225 255
203 225 255
203 225 255
203 225 255
203 225 255
203 225 255
203 225 255
203 225 255
203 225 255
203 225 255
203 225 255
203 225 255
203 225 255
203 225 255
203 225 255
203 225 255
203 225 255
203 225 255
203 225 255
203 225 255
203 225 255
203 225 255
203 225 255
203 225 255
203 225 255
203 225 255
203 225 255
203 226 255
203 226 255
203 226 255
203 226 255
203 226 255
203 226 255
203 226 255
203 226 255
203 226 255
203 226 255
203 226 255
203 226 255
204 226 255
204 226 255
204 226 255
204 226 255
204 226 255
204 226 255
204 226 255
204 226 255
204 226 255
204 226 255
204 226 255
204 226 255
204 226 255
204 226 255
204 226 255
204 226 255
204 226 255
204 226 255
204 226 255
204 226 255
204 226 255
205 226 255
205 226 255
205 226 255
205 226 255
205 226 255
205 226 255
205 226 255
205 227 255
205 227 255
205 227 255
205 227 255
205 227 255
205 227 255
205 227 255
205 227 255
205 227 255
205 227 255
205 227 255
206 227 255
206 227 255
206 227 255
206 227 255
206 227 255
206 227 255
206 227 255
206 227 255
206 227 255
206 227 255
206 227 255
206 227 255
206 227 255
206 227 255
206 227 255
206 227 255
206 227 255
207 227 255
207 227 255
207 227 255
207 227 255
207 227 255
207 228 255
207 228 255
207 228 255
207 228 255
207 228 255
207 228 255
207 228 255
207 228 255
207 228 255
207 228 255
207 228 255
207 228 255
207 228 255
208 228 255
208 228 255
208 228 255
202 221 246
186 200 212
169 179 182
160 167 161
126 127 99
130 128 85
132 130 87
129 127 84
132 130 87
128 127 85
130 129 86
132 129 86
127 126 84
130 128 86
140 138 92
141 140 93
139 137 92
141 139 93
141 140 94
136 135 90
132 130 87
125 124 83
139 137 91
142 140 93
139 137 91
133 132 89
134 131 87
140 138 92
136 134 89
141 138 92
143 141 94
135 133 89
132 130 87
142 139 93
129 127 85
136 134 88
142 139 93
133 130 85
141 139 93
140 138 91
140 138 93
143 141 93
139 137 90
133 130 85
138 135 90
136 134 90
127 125 83
130 127 84
142 139 91
138 134 88
136 133 87
135 132 87
139 136 90
137 133 85
138 134 87
129 125 82
132 128 83
139 135 87
125 121 78
135 136 116
164 167 150
177 189 197
197 212 228
205 223 245
211 230 255
211 230 255
211 230 255
211 230 255
211 230 255
211 230 255
211 230 255
211 230 255
211 230 255
211 230 255
211 230 255
211 230 255
211 230 255
211 230 255
211 230 255
211 230 255
211 230 255
211 230 255
211 230 255
211 230 255
211 230 255
211 230 255
211 230 255
211 230 255
211 230 255
211 230 255
211 230 255
211 230 255
211 230 255
211 230 255
211 230 255
211 230 255
211 230 255
210 229 255
209 228 255
207 228 255
205 227 255
204 226 255
203 226 255
203 225 255
202 225 255
201 224 255
201 224 255
200 224 255
200 224 255
199 223 255
198 223 255
198 223 255
198 223 255
197 222 255
197 222 255
196 222 255
196 222 255
196 222 255
195 221 255
195 221 255
195 221 255
194 221 255
194 221 255
194 221 255
193 220 255
193 220 255
193 220 255
193 220 255
192 220 255
192 220 255
192 220 255
192 220 255
192 219 255
191 219 255
191 219 255
191 219 255
191 219 255
191 219 255
191 219 255
191 219 255
190 219 255
191 219 255
190 219 255
191 219 255
190 219 255
191 219 255
191 219 255
191 219 255
191 219 255
191 219 255
191 219 255
191 219 255
192 219 255
192 219 255
192 220 255
192 220 255
193 220 255
194 221 255
194 221 255
195 221 255
196 221 255
197 222 255
197 222 255
199 223 255
201 225 255
204 226 255
206 227 255
207 228 255
208 228 255
208 228 255
207 228 255
207 228 255
207 228 255
207 228 255
207 228 255
207 228 255
207 228 255
207 228 255
207 228 255
207 228 255
207 228 255
207 228 255
207 228 255
207 228 255
207 227 255
207 227 255
207 227 255
207 227 255
206 227 255
206 227 255
206 227 255
206 227 255
206 227 255
206 227 255
206 227 255
206 227 255
206 227 255
206 227 255
206 227 255
206 227 255
206 227 255
206 227 255
206 227 255
206 227 255
206 227 255
206 227 255
205 227 255
205 227 255
205 227 255
205 227 255
205 227 255
205 227 255
205 227 255
205 227 255
205 227 255
205 227 255
205 227 255
205 226 255
205 226 255
205 226 255
205 226 255
205 226 255
205 226 255
205 226 255
205 226 255
204 226 255
204 226 255
204 226 255
204 226 255
204 226 255
204 226 255
204 226 255
204 226 255
204 226 255
204 226 255
204 226 255
204 226 255
204 226 255
204 226 255
204 226 255
204 226 255
204 226 255
204 226 255
204 226 255
204 226 255
204 226 255
204 226 255
203 226 255
203 226 255
203 226 255
203 226 255
203 226 255
203 226 255
203 226 255
203 226 255
203 226 255
203 226 255
203 226 255
203 226 255
203 226 255
203 226 255
203 226 255
203 225 255
203 225 255
203 225 255
203 225 255
203 225 255
203 225 255
203 225 255
203 225 255
203 225 255
203 225 255
203 225 255
203 225 255
203 225 255
203 225 255
203 225 255
203 225 255
203 225 255
203 225 255
203 225 255
203 225 255
203 225 255
203 225 255
203 225 255
203 225 255
203 225 255
203 225 255
203 225 255
203 225 255
203 225 255
203 225 255
203 225 255
203 225 255
203 225 255
203 225 255
203 225 255
203 225 255
203 225 255
203 225 255
203 225 255
203 225 255
203 226 255
203 226 255
203 226 255
203 226 255
203 226 255
203 226 255
203 226 255
203 226 255
203 226 255
203 226 255
203 226 255
203 226 255
203 226 255
203 226 255
203 226 255
204 226 255
204 226 255
204 226 255
204 226 255
204 226 255
204 226 255
204 226 255
204 226 255
204 226 255
204 226 255
204 226 255
204 226 255
204 226 255
204 226 255
204 226 255
204 226 255
204 226 255
204 226 255
204 226 255
204 226 255
204 226 255
204 226 255
205 226 255
205 226 255
205 226 255
205 226 255
205 226 255
205 226 255
205 226 255
205 226 255
205 227 255
205 227 255
205 227 255
205 227 255
205 227 255
205 227 255
205 227 255
205 227 255
205 227 255
205 227 255
205 227 255
206 227 255
206 227 255
206 227 255
206 227 255
206 227 255
206 227 255
206 227 255
206 227 255
206 227 255
206 227 255
206 227 255
206 227 255
206 227 255
206 227 255
206 227 255
206 227 255
206 227 255
206 227 255
207 227 255
207 227 255
207 227 255
207 227 255
207 228 255
207 228 255
207 228 255
207 228 255
207 228 255
207 228 255
207 228 255
207 228 255
207 228 255
207 228 255
207 228 255
207 228 255
207 228 255
207 228 255
208 228 255
208 228 255
202 220 244
186 201 217
160 168 163
139 142 124
134 131 90
139 137 92
128 126 84
131 130 87
133 132 88
135 134 90
134 132 88
138 136 91
135 134 90
138 137 92
138 137 92
140 139 93
134 133 89
133 132 89
145 143 95
138 136 90
133 131 87
133 131 88
143 142 95
138 136 91
131 130 87
151 149 99
156 153 102
137 134 89
143 140 93
140 138 93
140 139 93
145 143 95
141 139 93
144 141 93
134 132 88
144 143 96
144 142 94
143 140 93
130 129 85
146 144 95
138 136 90
131 130 86
140 138 92
145 142 95
132 129 84
139 136 90
135 132 87
141 139 92
139 137 91
132 131 87
138 134 89
142 139 92
134 131 87
137 134 88
132 129 85
132 129 84
140 136 90
141 137 90
137 134 87
136 134 87
140 137 87
128 125 81
135 131 85
129 126 82
137 133 85
138 134 87
135 132 85
131 128 82
135 137 118
163 171 167
183 196 208
196 212 232
211 230 255
211 230 255
211 230 255
211 230 255
211 230 255
211 230 255
211 230 255
211 230 255
211 230 255
211 230 255
211 230 255
211 230 255
211 230 255
211 230 255
212 230 255
212 230 255
212 230 255
212 230 255
211 230 255
211 230 255
211 230 255
211 230 255
211 230 255
211 230 255
211 230 255
210 229 255
209 229 255
207 228 255
206 227 255
205 226 255
204 226 255
203 226 255
202 225 255
202 225 255
201 224 255
200 224 255
200 224 255
199 223 255
199 223 255
198 223 255
198 223 255
197 222 255
197 222 255
196 222 255
196 222 255
196 222 255
195 221 255
195 221 255
195 221 255
194 221 255
194 221 255
193 220 255
193 220 255
193 220 255
193 220 255
192 220 255
192 220 255
192 219 255
191 219 255
191 219 255
191 219 255
191 219 255
190 219 255
190 219 255
190 219 255
190 219 255
190 218 255
190 218 255
189 218 255
189 218 255
189 218 255
189 218 255
189 218 255
189 218 255
189 218 255
189 218 255
189 218 255
189 218 255
189 218 255
189 218 255
189 218 255
189 218 255
189 218 255
189 218 255
189 218 255
189 218 255
190 218 255
190 218 255
190 219 255
190 219 255
191 219 255
191 219 255
192 219 255
192 220 255
193 220 255
194 220 255
194 221 255
196 222 255
197 222 255
198 223 255
201 224 255
204 226 255
206 227 255
207 228 255
208 228 255
208 228 255
207 228 255
207 228 255
207 228 255
207 228 255
207 228 255
207 228 255
207 228 255
207 228 255
207 228 255
207 228 255
207 228 255
207 228 255
207 228 255
207 228 255
207 227 255
207 227 255
207 227 255
207 227 255
206 227 255
206 227 255
206 227 255
206 227 255
206 227 255
206 227 255
206 227 255
206 227 255
206 227 255
206 227 255
206 227 255
206 227 255
206 227 255
206 227 255
206 227 255
206 227 255
206 227 255
206 227 255
205 227 255
205 227 255
205 227 255
205 227 255
205 227 255
205 227 255
205 227 255
205 227 255
205 227 255
205 227 255
205 227 255
205 226 255
205 226 255
205 226 255
205 226 255
205 226 255
205 226 255
205 226 255
205 226 255
204 226 255
204 226 255
204 226 255
204 226 255
204 226 255
204 226 255
204 226 255
204 226 255
204 226 255
204 226 255
204 226 255
204 226 255
204 226 255
204 226 255
204 226 255
204 226 255
204 226 255
204 226 255
204 226 255
204 226 255
204 226 255
204 226 255
204 226 255
204 226 255
204 226 255
203 226 255
203 226 255
203 226 255
203 226 255
203 226 255
203 226 255
203 226 255
203 226 255
203 226 255
203 226 255
203 226 255
203 226 255
203 226 255
203 226 255
203 226 255
203 226 255
203 226 255
203 226 255
203 226 255
203 226 255
203 226 255
203 226 255
203 226 255
203 226 255
203 226 255
203 226 255
203 226 255
203 226 255
203 226 255
203 226 255
203 226 255
203 226 255
203 226 255
203 226 255
203 226 255
203 226 255
203 226 255
203 226 255
203 226 255
203 226 255
203 226 255
203 226 255
203 226 255
203 226 255
203 226 255
203 226 255
203 226 255
203 226 255
203 226 255
203 226 255
203 226 255
203 226 255
203 226 255
203 226 255
203 226 255
203 226 255
204 226 255
204 226 255
204 226 255
204 226 255
204 226 255
204 226 255
204 226 255
204 226 255
204 226 255
204 226 255
204 226 255
204 226 255
204 226 255
204 226 255
204 226 255
204 226 255
204 226 255
204 226 255
204 226 255
204 226 255
204 226 255
204 226 255
204 226 255
204 226 255
204 226 255
205 226 255
205 226 255
205 226 255
205 226 255
205 226 255
205 226 255
205 226 255
205 226 255
205 227 255
205 227 255
205 227 255
205 227 255
205 227 255
205 227 255
205 227 255
205 227 255
205 227 255
205 227 255
205 227 255
206 227 255
206 227 255
206 227 255
206 227 255
206 227 255
206 227 255
206 227 255
206 227 255
206 227 255
206 227 255
206 227 255
206 227 255
206 227 255
206 227 255
206 227 255
206 227 255
206 227 255
206 227 255
207 227 255
207 227 255
207 227 255
207 227 255
207 228 255
207 228 255
207 228 255
207 228 255
207 228 255
207 228 255
207 228 255
207 228 255
207 228 255
207 228 255
207 228 255
207 228 255
207 228 255
207 228 255
208 228 255
208 228 255
203 223 248
183 197 209
158 166 159
128 128 97
125 122 81
134 132 88
130 128 85
141 140 94
134 132 88
136 135 90
135 133 89
135 134 90
135 134 90
143 141 95
129 127 85
129 127 85
146 144 96
145 142 95
141 140 94
136 135 90
139 138 93
142 140 94
141 139 93
141 140 94
134 133 90
144 142 95
140 139 93
145 143 95
141 139 93
144 143 95
140 139 93
144 142 95
144 143 96
144 141 94
135 132 88
141 140 93
120 118 79
140 139 93
145 143 95
140 138 93
141 139 93
134 132 88
141 138 92
146 144 96
141 138 91
141 139 93
146 143 95
137 135 90
137 135 87
146 144 95
141 139 93
142 140 92
146 143 95
140 138 92
144 140 93
140 137 90
146 143 95
136 133 88
147 144 95
142 139 91
131 127 83
135 133 88
143 140 92
133 129 82
144 140 91
135 132 87
138 135 89
141 139 90
132 129 84
138 135 89
134 131 86
142 140 90
121 118 76
120 118 76
132 129 84
138 134 85
145 143 110
160 167 165
191 205 220
208 226 251
211 230 255
211 230 255
211 230 255
211 230 255
211 230 255
211 230 255
212 230 255
212 230 255
212 230 255
212 230 255
212 230 255
212 230 255
212 230 255
212 230 255
212 230 255
212 230 255
212 230 255
211 230 255
210 229 255
209 229 255
207 227 255
205 227 255
204 226 255
204 226 255
203 225 255
202 225 255
201 225 255
201 224 255
200 224 255
200 224 255
199 223 255
199 223 255
198 223 255
198 223 255
197 222 255
197 222 255
196 222 255
196 222 255
196 221 255
195 221 255
195 221 255
194 221 255
194 221 255
194 221 255
193 220 255
193 220 255
193 220 255
192 220 255
192 220 255
192 219 255
191 219 255
191 219 255
191 219 255
191 219 255
190 219 255
190 219 255
190 219 255
190 218 255
189 218 255
189 218 255
189 218 255
189 218 255
189 218 255
188 218 255
188 218 255
188 218 255
188 217 255
188 217 255
188 217 255
188 217 255
187 217 255
187 217 255
187 217 255
187 217 255
187 217 255
187 217 255
187 217 255
187 217 255
187 217 255
187 217 255
187 217 255
187 217 255
188 217 255
188 217 255
188 217 255
188 218 255
188 218 255
189 218 255
189 218 255
190 218 255
190 219 255
190 219 255
191 219 255
192 219 255
192 220 255
193 220 255
194 221 255
195 221 255
197 222 255
199 223 255
203 225 255
205 227 255
207 228 255
208 228 255
208 228 255
208 228 255
207 228 255
207 228 255
207 228 255
207 228 255
207 228 255
207 228 255
207 228 255
207 228 255
207 228 255
207 228 255
207 228 255
207 228 255
207 228 255
207 228 255
207 227 255
207 227 255
207 227 255
207 227 255
206 227 255
206 227 255
206 227 255
206 227 255
206 227 255
206 227 255
206 227 255
206 227 255
206 227 255
206 227 255
206 227 255
206 227 255
206 227 255
206 227 255
206 227 255
206 227 255
206 227 255
206 227 255
205 227 255
205 227 255
205 227 255
205 227 255
205 227 255
205 227 255
205 227 255
205 227 255
205 227 255
205 227 255
205 227 255
205 226 255
205 226 255
205 226 255
205 226 255
205 226 255
205 226 255
205 226 255
205 226 255
205 226 255
205 226 255
204 226 255
204 226 255
204 226 255
204 226 255
204 226 255
204 226 255
204 226 255
204 226 255
204 226 255
204 226 255
204 226 255
204 226 255
204 226 255
204 226 255
204 226 255
204 226 255
204 226 255
204 226 255
204 226 255
204 226 255
204 226 255
204 226 255
204 226 255
204 226 255
204 226 255
204 226 255
204 226 255
204 226 255
204 226 255
203 226 255
203 226 255
203 226 255
203 226 255
203 226 255
203 226 255
203 226 255
203 226 255
203 226 255
203 226 255
203 226 255
203 226 255
203 226 255
203 226 255
203 226 255
203 226 255
203 226 255
203 226 255
203 226 255
203 226 255
203 226 255
203 226 255
203 226 255
203 226 255
203 226 255
203 226 255
203 226 255
203 226 255
203 226 255
203 226 255
203 226 255
203 226 255
203 226 255
203 226 255
203 226 255
203 226 255
204 226 255
204 226 255
204 226 255
204 226 255
204 226 255
204 226 255
204 226 255
204 226 255
204 226 255
204 226 255
204 226 255
204 226 255
204 226 255
204 226 255
204 226 255
204 226 255
204 226 255
204 226 255
204 226 255
204 226 255
204 226 255
204 226 255
204 226 255
204 226 255
204 226 255
204 226 255
204 226 255
204 226 255
204 226 255
204 226 255
205 226 255
205 226 255
205 226 255
205 226 255
205 226 255
205 226 255
205 226 255
205 226 255
205 227 255
205 227 255
205 227 255
205 227 255
205 227 255
205 227 255
205 227 255
205 227 255
205 227 255
205 227 255
205 227 255
205 227 255
206 227 255
206 227 255
206 227 255
206 227 255
206 227 255
206 227 255
206 227 255
206 227 255
206 227 255
206 227 255
206 227 255
206 227 255
206 227 255
206 227 255
206 227 255
206 227 255
206 227 255
206 227 255
207 227 255
207 227 255
207 227 255
207 227 255
207 228 255
207 228 255
207 228 255
207 228 255
207 228 255
207 228 255
207 228 255
207 228 255
207 228 255
207 228 255
207 228 255
207 228 255
207 228 255
207 228 255
208 228 255
208 228 255
208 228 255
189 206 228
176 188 195
145 150 136
126 125 86
139 138 93
136 134 90
120 119 80
131 130 87
134 133 89
139 137 92
133 132 88
136 135 90
139 137 92
141 139 93
125 124 84
137 136 91
139 137 92
136 135 90
142 141 95
129 127 85
141 139 93
128 128 86
144 142 95
137 135 90
135 135 90
140 140 94
157 155 104
141 139 93
141 139 93
143 142 95
142 141 94
142 140 94
146 145 97
146 144 96
146 144 97
141 139 93
153 151 101
145 144 96
141 139 93
143 142 95
144 142 95
138 137 92
133 131 87
142 140 93
141 139 93
141 138 92
138 136 90
151 149 99
145 143 94
139 137 91
146 143 95
137 135 90
146 143 95
144 140 93
137 136 89
140 136 90
150 148 97
139 136 89
137 136 90
141 138 90
128 126 82
140 137 90
137 134 88
146 142 94
132 130 84
137 134 88
138 135 87
142 139 92
137 134 88
137 134 87
135 131 85
132 128 84
134 131 86
135 131 87
137 133 87
143 139 90
143 138 90
148 144 93
143 140 92
134 131 84
142 137 86
135 131 84
121 118 75
149 151 131
176 186 190
197 212 228
212 230 255
212 230 255
212 230 255
212 230 255
212 230 255
212 230 255
212 230 255
212 230 255
212 230 255
212 230 255
212 230 255
211 230 255
210 229 255
208 228 255
207 227 255
206 227 255
205 226 255
204 226 255
203 225 255
202 225 255
202 225 255
201 224 255
200 224 255
200 224 255
199 223 255
199 223 255
198 223 255
198 223 255
197 222 255
197 222 255
197 222 255
196 222 255
196 222 255
195 221 255
195 221 255
195 221 255
194 221 255
194 221 255
193 220 255
193 220 255
193 220 255
192 220 255
192 220 255
192 220 255
191 219 255
191 219 255
191 219 255
191 219 255
190 219 255
190 219 255
190 218 255
189 218 255
189 218 255
189 218 255
189 218 255
189 218 255
188 218 255
188 218 255
188 217 255
188 217 255
188 217 255
187 217 255
187 217 255
187 217 255
187 217 255
187 217 255
187 217 255
186 217 255
186 217 255
186 217 255
186 217 255
186 217 255
186 216 255
186 216 255
186 216 255
186 216 255
186 216 255
186 216 255
186 216 255
186 217 255
186 217 255
186 217 255
186 217 255
187 217 255
187 217 255
187 217 255
187 217 255
188 217 255
188 218 255
188 218 255
189 218 255
189 218 255
190 219 255
190 219 255
191 219 255
192 220 255
193 220 255
195 221 255
196 222 255
198 223 255
201 224 255
204 226 255
207 228 255
208 228 255
208 228 255
208 228 255
208 228 255
207 228 255
207 228 255
207 228 255
207 228 255
207 228 255
207 228 255
207 228 255
207 228 255
207 228 255
207 228 255
207 228 255
207 228 255
207 228 255
207 228 255
207 227 255
207 227 255
207 227 255
207 227 255
206 227 255
206 227 255
206 227 255
206 227 255
206 227 255
206 227 255
206 227 255
206 227 255
206 227 255
206 227 255
206 227 255
206 227 255
206 227 255
206 227 255
206 227 255
206 227 255
206 227 255
206 227 255
206 227 255
205 227 255
205 227 255
205 227 255
205 227 255
205 227 255
205 227 255
205 227 255
205 227 255
205 227 255
205 227 255
205 227 255
205 227 255
205 226 255
205 226 255
205 226 255
205 226 255
205 226 255
205 226 255
205 226 255
205 226 255
205 226 255
204 226 255
204 226 255
204 226 255
204 226 255
204 226 255
204 226 255
204 226 255
204 226 255
204 226 255
204 226 255
204 226 255
204 226 255
204 226 255
204 226 255
204 226 255
204 226 255
204 226 255
204 226 255
204 226 255
204 226 255
204 226 255
204 226 255
204 226 255
204 226 255
204 226 255
204 226 255
204 226 255
204 226 255
204 226 255
204 226 255
204 226 255
204 226 255
204 226 255
204 226 255
204 226 255
204 226 255
204 226 255
204 226 255
204 226 255
204 226 255
204 226 255
204 226 255
204 226 255
204 226 255
204 226 255
204 226 255
204 226 255
204 226 255
204 226 255
204 226 255
204 226 255
204 226 255
204 226 255
204 226 255
204 226 255
204 226 255
204 226 255
204 226 255
204 226 255
204 226 255
204 226 255
204 226 255
204 226 255
204 226 255
204 226 255
204 226 255
204 226 255
204 226 255
204 226 255
204 226 255
204 226 255
204 226 255
204 226 255
204 226 255
204 226 255
204 226 255
204 226 255
204 226 255
204 226 255
204 226 255
204 226 255
204 226 255
204 226 255
204 226 255
205 226 255
205 226 255
205 226 255
205 226 255
205 226 255
205 226 255
205 226 255
205 226 255
205 226 255
205 227 255
205 227 255
205 227 255
205 227 255
205 227 255
205 227 255
205 227 255
205 227 255
205 227 255
205 227 255
205 227 255
205 227 255
206 227 255
206 227 255
206 227 255
206 227 255
206 227 255
206 227 255
206 227 255
206 227 255
206 227 255
206 227 255
206 227 255
206 227 255
206 227 255
206 227 255
206 227 255
206 227 255
206 227 255
206 227 255
206 227 255
207 227 255
207 227 255
207 227 255
207 227 255
207 228 255
207 228 255
207 228 255
207 228 255
207 228 255
207 228 255
207 228 255
207 228 255
207 228 255
207 228 255
207 228 255
207 228 255
207 228 255
207 228 255
208 228 255
208 228 255
208 228 255
207 227 254
193 210 230
170 179 175
128 129 99
130 127 84
141 139 93
127 125 84
130 128 86
136 135 90
135 134 90
140 138 93
140 138 93
133 131 87
132 131 88
144 143 96
140 138 93
153 152 102
139 138 93
136 135 90
140 139 93
137 136 91
139 137 92
140 138 93
142 141 95
145 143 96
136 135 91
142 140 94
146 144 97
141 139 93
145 143 96
142 140 94
145 144 96
145 143 95
145 143 95
146 143 95
148 147 99
149 147 99
148 146 97
143 142 95
150 147 98
148 145 95
143 141 93
144 141 94
140 138 91
142 140 94
145 143 95
149 147 98
145 143 96
148 146 98
152 150 100
144 141 93
141 140 93
130 129 86
141 139 93
153 150 99
139 137 90
147 145 95
147 145 97
140 138 92
137 135 90
146 144 95
146 144 95
137 134 89
135 133 88
142 139 91
141 138 90
138 136 90
150 146 95
133 130 85
146 142 93
147 143 93
143 141 93
142 140 93
135 132 85
137 133 87
141 137 88
143 141 93
141 138 90
137 133 85
134 131 86
128 125 80
137 133 85
133 129 83
146 141 91
128 125 80
147 142 90
131 127 81
126 122 79
130 127 79
123 119 78
147 146 118
173 180 176
200 215 232
210 229 253
212 230 255
212 230 255
212 230 255
212 230 255
212 230 255
210 229 255
209 229 255
207 228 255
206 227 255
205 227 255
204 226 255
203 226 255
203 225 255
202 225 255
201 225 255
201 224 255
200 224 255
200 224 255
199 223 255
199 223 255
198 223 255
198 223 255
197 222 255
197 222 255
196 222 255
196 222 255
196 222 255
195 221 255
195 221 255
194 221 255
194 221 255
194 221 255
193 220 255
193 220 255
193 220 255
192 220 255
192 220 255
192 219 255
191 219 255
191 219 255
191 219 255
190 219 255
190 219 255
190 219 255
190 218 255
189 218 255
189 218 255
189 218 255
189 218 255
188 218 255
188 218 255
188 217 255
188 217 255
187 217 255
187 217 255
187 217 255
187 217 255
187 217 255
186 217 255
186 217 255
186 217 255
186 216 255
186 216 255
186 216 255
185 216 255
185 216 255
185 216 255
185 216 255
185 216 255
185 216 255
185 216 255
185 216 255
185 216 255
185 216 255
185 216 255
185 216 255
185 216 255
185 216 255
185 216 255
185 216 255
185 216 255
186 216 255
186 216 255
186 216 255
186 217 255
186 217 255
187 217 255
187 217 255
188 217 255
188 218 255
189 218 255
189 218 255
190 219 255
191 219 255
192 220 255
193 220 255
194 221 255
196 222 255
198 223 255
201 224 255
205 226 255
207 228 255
208 228 255
208 228 255
208 228 255
208 228 255
207 228 255
207 228 255
207 228 255
207 228 255
207 228 255
207 228 255
207 228 255
207 228 255
207 228 255
207 228 255
207 228 255
207 228 255
207 228 255
207 228 255
207 228 255
207 227 255
207 227 255
207 227 255
207 227 255
206 227 255
206 227 255
206 227 255
206 227 255
206 227 255
206 227 255
206 227 255
206 227 255
206 227 255
206 227 255
206 227 255
206 227 255
206 227 255
206 227 255
206 227 255
206 227 255
206 227 255
206 227 255
206 227 255
206 227 255
205 227 255
205 227 255
205 227 255
205 227 255
205 227 255
205 227 255
205 227 255
205 227 255
205 227 255
205 227 255
205 227 255
205 227 255
205 226 255
205 226 255
205 226 255
205 226 255
205 226 255
205 226 255
205 226 255
205 226 255
205 226 255
205 226 255
205 226 255
204 226 255
204 226 255
204 226 255
204 226 255
204 226 255
204 226 255
204 226 255
204 226 255
204 226 255
204 226 255
204 226 255
204 226 255
204 226 255
204 226 255
204 226 255
204 226 255
204 226 255
204 226 255
204 226 255
204 226 255
204 226 255
204 226 255
204 226 255
204 226 255
204 226 255
204 226 255
204 226 255
204 226 255
204 226 255
204 226 255
204 226 255
204 226 255
204 226 255
204 226 255
204 226 255
204 226 255
204 226 255
204 226 255
204 226 255
204 226 255
204 226 255
204 226 255
204 226 255
204 226 255
204 226 255
204 226 255
204 226 255
204 226 255
204 226 255
204 226 255
204 226 255
204 226 255
204 226 255
204 226 255
204 226 255
204 226 255
204 226 255
204 226 255
204 226 255
204 226 255
204 226 255
204 226 255
204 226 255
204 226 255
204 226 255
204 226 255
204 226 255
204 226 255
204 226 255
204 226 255
205 226 255
205 226 255
205 226 255
205 226 255
205 226 255
205 226 255
205 226 255
205 226 255
205 226 255
205 226 255
205 226 255
205 227 255
205 227 255
205 227 255
205 227 255
205 227 255
205 227 255
205 227 255
205 227 255
205 227 255
205 227 255
205 227 255
205 227 255
205 227 255
206 227 255
206 227 255
206 227 255
206 227 255
206 227 255
206 227 255
206 227 255
206 227 255
206 227 255
206 227 255
206 227 255
206 227 255
206 227 255
206 227 255
206 227 255
206 227 255
206 227 255
206 227 255
206 227 255
207 227 255
207 227 255
207 227 255
207 227 255
207 228 255
207 228 255
207 228 255
207 228 255
207 228 255
207 228 255
207 228 255
207 228 255
207 228 255
207 228 255
207 228 255
207 228 255
207 228 255
207 228 255
208 228 255
208 228 255
208 228 255
208 228 255
208 228 255
198 216 239
174 182 176
154 157 136
125 123 82
136 134 90
135 134 90
131 129 87
136 135 91
138 138 93
137 136 91
142 141 95
145 144 97
138 137 92
138 137 92
142 141 95
139 138 93
144 142 95
144 143 96
130 129 87
145 144 97
133 132 89
138 137 93
139 138 93
139 138 93
148 146 97
138 137 92
154 153 103
151 149 100
149 147 99
144 142 95
148 146 97
145 143 96
143 141 95
140 139 93
152 151 101
146 145 97
149 148 99
145 143 96
140 140 94
144 142 95
143 141 93
130 128 86
146 143 95
149 147 98
152 150 100
141 139 93
153 151 101
142 140 93
148 147 98
144 141 93
137 135 88
149 146 96
145 142 95
133 132 88
143 139 91
145 142 95
143 140 93
144 142 92
149 146 97
138 135 88
145 143 95
142 139 93
144 141 93
144 142 93
141 138 91
146 143 94
144 141 94
142 139 92
150 146 95
136 134 89
141 138 90
144 140 90
138 135 90
138 135 88
137 134 87
135 132 87
149 146 95
149 146 95
137 134 88
145 142 90
137 133 87
143 138 88
135 132 86
137 133 87
139 135 87
146 142 91
136 134 88
135 132 84
141 137 86
139 135 87
132 128 81
126 123 75
135 131 83
134 130 82
126 122 77
135 135 107
173 182 183
198 213 229
212 230 255
210 229 255
208 228 255
207 227 255
205 227 255
205 226 255
204 226 255
203 226 255
203 225 255
202 225 255
201 225 255
201 224 255
200 224 255
200 224 255
199 223 255
199 223 255
198 223 255
198 223 255
197 222 255
197 222 255
197 222 255
196 222 255
196 222 255
195 221 255
195 221 255
195 221 255
194 221 255
194 221 255
193 220 255
193 220 255
193 220 255
192 220 255
192 220 255
192 219 255
191 219 255
191 219 255
191 219 255
191 219 255
190 219 255
190 219 255
190 218 255
189 218 255
189 218 255
189 218 255
189 218 255
188 218 255
188 218 255
188 217 255
188 217 255
187 217 255
187 217 255
187 217 255
187 217 255
186 217 255
186 217 255
186 216 255
186 216 255
186 216 255
185 216 255
185 216 255
185 216 255
185 216 255
185 216 255
185 216 255
185 216 255
184 216 255
184 216 255
184 216 255
184 216 255
184 215 255
184 215 255
184 215 255
184 215 255
184 215 255
184 215 255
184 215 255
184 215 255
184 215 255
184 216 255
184 216 255
184 216 255
185 216 255
185 216 255
185 216 255
185 216 255
186 216 255
186 216 255
186 217 255
187 217 255
187 217 255
188 217 255
188 218 255
189 218 255
190 218 255
191 219 255
192 219 255
193 220 255
194 221 255
196 222 255
199 223 255
202 225 255
206 227 255
208 228 255
208 228 255
208 228 255
208 228 255
208 228 255
208 228 255
208 228 255
207 228 255
207 228 255
207 228 255
207 228 255
207 228 255
207 228 255
207 228 255
207 228 255
207 228 255
207 228 255
207 228 255
207 228 255
207 228 255
207 228 255
207 227 255
207 227 255
207 227 255
207 227 255
207 227 255
206 227 255
206 227 255
206 227 255
206 227 255
206 227 255
206 227 255
206 227 255
206 227 255
206 227 255
206 227 255
206 227 255
206 227 255
206 227 255
206 227 255
206 227 255
206 227 255
206 227 255
206 227 255
206 227 255
205 227 255
205 227 255
205 227 255
205 227 255
205 227 255
205 227 255
205 227 255
205 227 255
205 227 255
205 227 255
205 227 255
205 227 255
205 227 255
205 227 255
205 226 255
205 226 255
205 226 255
205 226 255
205 226 255
205 226 255
205 226 255
205 226 255
205 226 255
205 226 255
205 226 255
205 226 255
205 226 255
204 226 255
204 226 255
204 226 255
204 226 255
204 226 255
204 226 255
204 226 255
204 226 255
204 226 255
204 226 255
204 226 255
204 226 255
204 226 255
204 226 255
204 226 255
204 226 255
204 226 255
204 226 255
204 226 255
204 226 255
204 226 255
204 226 255
204 226 255
204 226 255
204 226 255
204 226 255
204 226 255
204 226 255
204 226 255
204 226 255
204 226 255
204 226 255
204 226 255
204 226 255
204 226 255
204 226 255
204 226 255
204 226 255
204 226 255
204 226 255
204 226 255
204 226 255
204 226 255
204 226 255
204 226 255
204 226 255
204 226 255
204 226 255
204 226 255
204 226 255
204 226 255
204 226 255
204 226 255
204 226 255
204 226 255
205 226 255
205 226 255
205 226 255
205 226 255
205 226 255
205 226 255
205 226 255
205 226 255
205 226 255
205 226 255
205 226 255
205 226 255
205 227 255
205 227 255
205 227 255
205 227 255
205 227 255
205 227 255
205 227 255
205 227 255
205 227 255
205 227 255
205 227 255
205 227 255
205 227 255
205 227 255
206 227 255
206 227 255
206 227 255
206 227 255
206 227 255
206 227 255
206 227 255
206 227 255
206 227 255
206 227 255
206 227 255
206 227 255
206 227 255
206 227 255
206 227 255
206 227 255
206 227 255
206 227 255
206 227 255
207 227 255
207 227 255
207 227 255
207 227 255
207 227 255
207 228 255
207 228 255
207 228 255
207 228 255
207 228 255
207 228 255
207 228 255
207 228 255
207 228 255
207 228 255
207 228 255
207 228 255
207 228 255
207 228 255
208 228 255
208 228 255
208 228 255
208 228 255
208 228 255
208 228 255
205 224 250
186 202 216
147 150 128
131 129 86
123 122 82
123 121 81
128 126 84
143 142 95
143 142 95
138 136 90
136 135 90
127 127 85
127 126 84
133 132 89
130 129 87
140 139 93
147 145 97
139 138 93
138 136 91
133 132 89
142 141 95
145 144 97
151 150 101
142 142 95
146 145 97
142 141 95
140 138 93
142 141 95
145 143 95
153 151 101
143 142 95
150 148 99
144 143 96
138 136 91
138 136 90
144 142 95
151 150 101
150 148 99
155 153 103
142 140 93
150 147 98
146 145 97
150 148 99
149 147 97
148 145 97
141 139 93
143 141 94
152 149 97
146 144 95
138 137 90
155 153 101
150 147 98
141 138 91
149 147 98
150 148 98
157 154 103
142 140 93
146 143 95
147 145 96
156 154 103
149 147 96
152 150 99
147 144 95
149 147 97
146 143 95
147 144 95
149 145 95
150 148 97
151 148 98
141 139 93
142 140 92
143 139 91
148 146 97
142 139 92
144 141 90
137 134 86
137 134 86
156 152 100
141 139 92
146 142 93
143 140 89
140 137 90
143 140 90
151 149 99
143 139 90
130 128 82
140 136 89
127 124 79
141 138 89
146 143 92
134 130 82
136 132 85
142 138 88
139 137 88
130 127 80
126 123 80
131 127 80
135 132 84
139 135 85
134 130 82
129 125 78
153 156 134
206 227 255
205 227 255
204 226 255
204 226 255
203 226 255
203 225 255
202 225 255
201 225 255
201 224 255
200 224 255
200 224 255
199 223 255
199 223 255
198 223 255
198 223 255
198 223 255
197 222 255
197 222 255
196 222 255
196 222 255
195 221 255
195 221 255
195 221 255
194 221 255
194 221 255
194 220 255
193 220 255
193 220 255
193 220 255
192 220 255
192 220 255
192 219 255
191 219 255
191 219 255
191 219 255
190 219 255
190 219 255
190 218 255
190 218 255
189 218 255
189 218 255
189 218 255
188 218 255
188 218 255
188 217 255
188 217 255
187 217 255
187 217 255
187 217 255
187 217 255
186 217 255
186 217 255
186 216 255
186 216 255
186 216 255
185 216 255
185 216 255
185 216 255
185 216 255
185 216 255
184 216 255
184 216 255
184 216 255
184 215 255
184 215 255
184 215 255
184 215 255
183 215 255
183 215 255
183 215 255
183 215 255
183 215 255
183 215 255
183 215 255
183 215 255
183 215 255
183 215 255
183 215 255
183 215 255
183 215 255
183 215 255
184 215 255
184 215 255
184 215 255
184 216 255
184 216 255
185 216 255
185 216 255
185 216 255
186 216 255
186 217 255
187 217 255
187 217 255
188 218 255
189 218 255
190 218 255
191 219 255
192 219 255
193 220 255
195 221 255
197 222 255
200 224 255
204 226 255
207 228 255
208 228 255
208 228 255
208 228 255
208 228 255
208 228 255
208 228 255
208 228 255
208 228 255
207 228 255
207 228 255
207 228 255
207 228 255
207 228 255
207 228 255
207 228 255
207 228 255
207 228 255
207 228 255
207 228 255
207 228 255
207 228 255
207 228 255
207 227 255
207 227 255
207 227 255
207 227 255
207 227 255
206 227 255
206 227 255
206 227 255
206 227 255
206 227 255
206 227 255
206 227 255
206 227 255
206 227 255
206 227 255
206 227 255
206 227 255
206 227 255
206 227 255
206 227 255
206 227 255
206 227 255
206 227 255
206 227 255
206 227 255
206 227 255
205 227 255
205 227 255
205 227 255
205 227 255
205 227 255
205 227 255
205 227 255
205 227 255
205 227 255
205 227 255
205 227 255
205 227 255
205 227 255
205 227 255
205 227 255
205 226 255
205 226 255
205 226 255
205 226 255
205 226 255
205 226 255
205 226 255
205 226 255
205 226 255
205 226 255
205 226 255
205 226 255
205 226 255
205 226 255
205 226 255
204 226 255
204 226 255
204 226 255
204 226 255
204 226 255
204 226 255
204 226 255
204 226 255
204 226 255
204 226 255
204 226 255
204 226 255
204 226 255
204 226 255
204 226 255
204 226 255
204 226 255
204 226 255
204 226 255
204 226 255
204 226 255
204 226 255
204 226 255
204 226 255
204 226 255
204 226 255
204 226 255
204 226 255
204 226 255
204 226 255
204 226 255
204 226 255
204 226 255
204 226 255
204 226 255
205 226 255
205 226 255
205 226 255
205 226 255
205 226 255
205 226 255
205 226 255
205 226 255
205 226 255
205 226 255
205 226 255
205 226 255
205 226 255
205 226 255
205 226 255
205 226 255
205 227 255
205 227 255
205 227 255
205 227 255
205 227 255
205 227 255
205 227 255
205 227 255
205 227 255
205 227 255
205 227 255
205 227 255
205 227 255
205 227 255
205 227 255
206 227 255
206 227 255
206 227 255
206 227 255
206 227 255
206 227 255
206 227 255
206 227 255
206 227 255
206 227 255
206 227 255
206 227 255
206 227 255
206 227 255
206 227 255
206 227 255
206 227 255
206 227 255
206 227 255
206 227 255
206 227 255
207 227 255
207 227 255
207 227 255
207 227 255
207 227 255
207 228 255
207 228 255
207 228 255
207 228 255
207 228 255
207 228 255
207 228 255
207 228 255
207 228 255
207 228 255
207 228 255
207 228 255
207 228 255
207 228 255
208 228 255
208 228 255
208 228 255
208 228 255
208 228 255
208 228 255
208 228 255
208 228 255
193 210 231
160 168 165
126 126 91
130 128 86
132 130 87
140 138 93
141 139 93
137 136 91
140 139 93
140 139 94
140 139 93
132 131 88
137 135 91
140 139 93
138 138 93
140 138 93
144 143 96
144 144 97
137 136 92
148 146 98
142 140 94
144 143 96
143 142 95
152 150 101
141 140 94
150 148 99
155 153 103
149 148 99
139 138 93
144 143 96
140 139 93
148 146 98
146 144 97
146 144 96
145 143 96
148 146 97
142 140 93
155 153 103
148 146 97
144 143 96
154 152 102
148 147 99
148 147 98
145 144 96
144 142 95
149 147 97
142 140 93
151 148 97
150 148 99
149 147 98
144 142 95
147 144 96
143 142 95
144 142 95
158 155 103
154 151 101
147 145 97
158 155 101
147 145 96
151 147 97
147 145 97
155 152 97
149 146 97
146 143 94
154 151 100
140 138 92
151 148 97
139 136 89
142 139 92
152 147 97
147 144 93
152 148 98
145 141 93
146 143 95
150 147 97
153 150 97
142 139 91
147 144 94
149 146 96
143 139 91
146 143 94
137 134 88
139 136 89
152 147 94
148 144 93
147 143 93
139 135 87
150 147 96
131 128 84
150 145 93
143 140 91
138 135 85
145 142 92
134 130 84
138 135 87
140 137 89
137 133 85
136 131 84
134 130 82
145 140 87
129 125 79
136 133 84
134 130 84
135 131 84
205 226 255
204 226 255
203 226 255
203 225 255
202 225 255
202 225 255
201 224 255
200 224 255
200 224 255
200 224 255
199 223 255
199 223 255
198 223 255
198 223 255
197 222 255
197 222 255
197 222 255
196 222 255
196 222 255
195 221 255
195 221 255
195 221 255
194 221 255
194 221 255
194 220 255
193 220 255
193 220 255
193 220 255
192 220 255
192 220 255
192 219 255
191 219 255
191 219 255
191 219 255
190 219 255
190 219 255
190 218 255
189 218 255
189 218 255
189 218 255
189 218 255
188 218 255
188 218 255
188 217 255
188 217 255
187 217 255
187 217 255
187 217 255
187 217 255
186 217 255
186 217 255
186 216 255
186 216 255
185 216 255
185 216 255
185 216 255
185 216 255
185 216 255
184 216 255
184 216 255
184 215 255
184 215 255
184 215 255
184 215 255
183 215 255
183 215 255
183 215 255
183 215 255
183 215 255
183 215 255
183 215 255
183 215 255
183 215 255
183 215 255
182 215 255
183 215 255
183 215 255
183 215 255
183 215 255
183 215 255
183 215 255
183 215 255
183 215 255
183 215 255
183 215 255
183 215 255
184 215 255
184 215 255
184 216 255
184 216 255
185 216 255
185 216 255
186 216 255
186 217 255
187 217 255
187 217 255
188 218 255
189 218 255
190 219 255
191 219 255
192 220 255
194 221 255
196 222 255
199 223 255
202 225 255
207 227 255
208 228 255
208 228 255
208 228 255
208 228 255
208 228 255
208 228 255
208 228 255
208 228 255
208 228 255
208 228 255
207 228 255
207 228 255
207 228 255
207 228 255
207 228 255
207 228 255
207 228 255
207 228 255
207 228 255
207 228 255
207 228 255
207 228 255
207 228 255
207 228 255
207 228 255
207 227 255
207 227 255
207 227 255
207 227 255
207 227 255
206 227 255
206 227 255
206 227 255
206 227 255
206 227 255
206 227 255
206 227 255
206 227 255
206 227 255
206 227 255
206 227 255
206 227 255
206 227 255
206 227 255
206 227 255
206 227 255
206 227 255
206 227 255
206 227 255
206 227 255
206 227 255
206 227 255
205 227 255
205 227 255
205 227 255
205 227 255
205 227 255
205 227 255
205 227 255
205 227 255
205 227 255
205 227 255
205 227 255
205 227 255
205 227 255
205 227 255
205 227 255
205 227 255
205 227 255
205 227 255
205 226 255
205 226 255
205 226 255
205 226 255
205 226 255
205 226 255
205 226 255
205 226 255
205 226 255
205 226 255
205 226 255
205 226 255
205 226 255
205 226 255
205 226 255
205 226 255
205 226 255
205 226 255
205 226 255
205 226 255
205 226 255
205 226 255
205 226 255
205 226 255
205 226 255
205 226 255
205 226 255
205 226 255
205 226 255
205 226 255
205 226 255
205 226 255
205 226 255
205 226 255
205 226 255
205 226 255
205 226 255
205 226 255
205 226 255
205 226 255
205 226 255
205 226 255
205 226 255
205 226 255
205 226 255
205 226 255
205 226 255
205 226 255
205 227 255
205 227 255
205 227 255
205 227 255
205 227 255
205 227 255
205 227 255
205 227 255
205 227 255
205 227 255
205 227 255
205 227 255
205 227 255
205 227 255
205 227 255
205 227 255
205 227 255
205 227 255
206 227 255
206 227 255
206 227 255
206 227 255
206 227 255
206 227 255
206 227 255
206 227 255
206 227 255
206 227 255
206 227 255
206 227 255
206 227 255
206 227 255
206 227 255
206 227 255
206 227 255
206 227 255
206 227 255
206 227 255
206 227 255
206 227 255
207 227 255
207 227 255
207 227 255
207 227 255
207 227 255
207 228 255
207 228 255
207 228 255
207 228 255
207 228 255
207 228 255
207 228 255
207 228 255
207 228 255
207 228 255
207 228 255
207 228 255
207 228 255
207 228 255
207 228 255
208 228 255
208 228 255
208 228 255
208 228 255
208 228 255
208 228 255
208 228 255
208 228 255
208 228 255
208 228 255
180 195 210
152 156 140
123 121 80
128 127 85
136 135 90
132 131 87
132 131 88
138 136 91
139 138 93
146 144 97
130 129 87
139 138 93
140 139 93
141 139 94
147 145 97
142 142 95
147 145 98
144 143 96
128 128 86
142 141 95
142 141 95
147 146 98
146 145 97
145 144 97
139 138 93
147 146 98
148 146 97
149 147 99
154 152 102
147 146 98
148 146 97
147 146 98
139 138 93
151 150 101
148 146 98
144 143 96
149 147 98
152 150 101
152 150 100
151 149 100
149 147 99
159 157 105
142 141 95
154 151 101
147 146 97
151 149 100
152 151 101
153 151 101
148 147 98
154 152 101
149 147 98
149 147 99
149 146 97
149 147 98
145 143 95
152 150 99
146 143 95
149 147 98
151 148 98
147 145 97
148 146 96
143 141 93
146 143 93
152 150 98
153 149 99
150 146 95
150 147 95
144 142 94
148 146 98
148 145 95
150 147 97
145 142 92
144 140 93
149 145 95
139 137 90
145 142 93
144 141 93
145 142 94
152 148 96
150 147 96
138 135 87
149 145 95
141 137 90
146 144 93
142 139 91
133 130 84
147 143 92
146 143 95
142 138 88
146 142 91
147 144 95
143 140 89
140 136 87
140 136 84
148 144 93
144 140 89
131 127 82
140 137 87
127 125 79
140 136 85
135 132 85
145 141 90
140 137 88
137 134 84
136 132 85
145 141 88
203 226 255
203 225 255
202 225 255
202 225 255
201 225 255
201 224 255
200 224 255
200 224 255
199 224 255
199 223 255
199 223 255
198 223 255
198 223 255
197 222 255
197 222 255
197 222 255
196 222 255
196 222 255
195 221 255
195 221 255
195 221 255
194 221 255
194 221 255
194 220 255
193 220 255
193 220 255
193 220 255
192 220 255
192 220 255
192 219 255
191 219 255
191 219 255
191 219 255
190 219 255
190 219 255
190 218 255
190 218 255
189 218 255
189 218 255
189 218 255
188 218 255
188 218 255
188 217 255
188 217 255
187 217 255
187 217 255
187 217 255
187 217 255
186 217 255
186 217 255
186 216 255
186 216 255
185 216 255
185 216 255
185 216 255
185 216 255
185 216 255
184 216 255
184 216 255
184 215 255
184 215 255
184 215 255
183 215 255
183 215 255
183 215 255
183 215 255
183 215 255
183 215 255
183 215 255
182 215 255
182 215 255
182 215 255
182 215 255
182 214 255
182 214 255
182 214 255
182 214 255
182 214 255
182 214 255
182 214 255
182 214 255
182 214 255
182 214 255
182 215 255
182 215 255
182 215 255
183 215 255
183 215 255
183 215 255
183 215 255
183 215 255
184 215 255
184 216 255
185 216 255
185 216 255
186 216 255
186 217 255
187 217 255
188 217 255
188 218 255
189 218 255
191 219 255
192 219 255
193 220 255
195 221 255
198 223 255
202 225 255
206 227 255
208 228 255
208 228 255
208 228 255
208 228 255
208 228 255
208 228 255
208 228 255
208 228 255
208 228 255
208 228 255
208 228 255
208 228 255
208 228 255
207 228 255
207 228 255
207 228 255
207 228 255
207 228 255
207 228 255
207 228 255
207 228 255
207 228 255
207 228 255
207 228 255
207 228 255
207 228 255
207 228 255
207 228 255
207 227 255
207 227 255
207 227 255
207 227 255
207 227 255
206 227 255
206 227 255
206 227 255
206 227 255
206 227 255
206 227 255
206 227 255
206 227 255
206 227 255
206 227 255
206 227 255
206 227 255
206 227 255
206 227 255
206 227 255
206 227 255
206 227 255
206 227 255
206 227 255
206 227 255
206 227 255
206 227 255
206 227 255
206 227 255
205 227 255
205 227 255
205 227 255
205 227 255
205 227 255
205 227 255
205 227 255
205 227 255
205 227 255
205 227 255
205 227 255
205 227 255
205 227 255
205 227 255
205 227 255
205 227 255
205 227 255
205 227 255
205 227 255
205 227 255
205 227 255
205 227 255
205 227 255
205 227 255
205 227 255
205 226 255
205 226 255
205 226 255
205 226 255
205 226 255
205 226 255
205 226 255
205 226 255
205 226 255
205 226 255
205 226 255
205 226 255
205 226 255
205 226 255
205 226 255
205 226 255
205 226 255
205 226 255
205 226 255
205 226 255
205 227 255
205 227 255
205 227 255
205 227 255
205 227 255
205 227 255
205 227 255
205 227 255
205 227 255
205 227 255
205 227 255
205 227 255
205 227 255
205 227 255
205 227 255
205 227 255
205 227 255
205 227 255
205 227 255
205 227 255
205 227 255
205 227 255
205 227 255
205 227 255
205 227 255
205 227 255
206 227 255
206 227 255
206 227 255
206 227 255
206 227 255
206 227 255
206 227 255
206 227 255
206 227 255
206 227 255
206 227 255
206 227 255
206 227 255
206 227 255
206 227 255
206 227 255
206 227 255
206 227 255
206 227 255
206 227 255
206 227 255
206 227 255
206 227 255
207 227 255
207 227 255
207 227 255
207 227 255
207 227 255
207 228 255
207 228 255
207 228 255
207 228 255
207 228 255
207 228 255
207 228 255
207 228 255
207 228 255
207 228 255
207 228 255
207 228 255
207 228 255
207 228 255
207 228 255
208 228 255
208 228 255
208 228 255
208 228 255
208 228 255
208 228 255
208 228 255
208 228 255
208 228 255
208 228 255
208 228 255
208 228 255
205 224 249
185 199 212
146 147 121
117 115 76
132 130 87
129 128 86
135 133 90
134 132 89
133 132 89
131 131 88
144 142 95
138 136 91
146 144 97
141 140 94
140 139 93
145 144 97
138 137 93
144 143 96
142 142 95
147 146 98
148 146 98
143 141 95
140 138 93
147 145 97
150 150 101
147 145 97
149 147 99
152 151 101
148 146 98
149 148 99
145 143 96
153 151 101
153 151 101
144 144 97
142 141 95
147 146 98
137 135 90
151 149 100
154 152 102
148 146 98
156 154 103
153 151 101
152 150 100
157 155 103
147 145 97
153 150 100
150 148 99
153 151 101
153 151 101
148 146 97
154 152 101
152 150 100
156 153 102
152 149 99
153 152 101
154 152 101
155 153 102
145 143 95
154 151 101
151 148 99
156 153 102
156 154 103
156 153 100
154 150 99
149 146 97
147 144 95
145 143 93
146 143 94
153 150 100
153 150 98
153 150 99
151 147 97
151 149 99
156 152 100
144 141 93
145 142 93
151 147 97
149 146 97
140 138 90
154 150 96
140 137 88
139 135 89
144 141 91
150 147 96
154 151 98
149 144 95
138 135 88
151 148 96
151 147 97
132 128 80
151 147 95
139 137 90
143 139 90
148 144 94
151 147 95
144 141 92
140 137 90
148 144 92
138 134 86
147 143 92
151 147 93
138 134 87
143 139 90
140 137 87
145 141 86
151 146 93
143 139 87
134 131 83
136 133 85
203 225 255
202 225 255
202 225 255
201 224 255
201 224 255
200 224 255
200 224 255
199 223 255
199 223 255
198 223 255
198 223 255
198 223 255
197 222 255
197 222 255
197 222 255
196 222 255
196 222 255
195 221 255
195 221 255
195 221 255
194 221 255
194 221 255
194 221 255
193 220 255
193 220 255
193 220 255
192 220 255
192 220 255
192 220 255
191 219 255
191 219 255
191 219 255
191 219 255
190 219 255
190 219 255
190 218 255
189 218 255
189 218 255
189 218 255
189 218 255
188 218 255
188 218 255
188 217 255
187 217 255
187 217 255
187 217 255
187 217 255
186 217 255
186 217 255
186 216 255
186 216 255
185 216 255
185 216 255
185 216 255
185 216 255
185 216 255
184 216 255
184 216 255
184 215 255
184 215 255
184 215 255
183 215 255
183 215 255
183 215 255
183 215 255
183 215 255
183 215 255
182 215 255
182 215 255
182 215 255
182 214 255
182 214 255
182 214 255
182 214 255
182 214 255
182 214 255
182 214 255
182 214 255
181 214 255
181 214 255
181 214 255
182 214 255
182 214 255
182 214 255
182 214 255
182 214 255
182 214 255
182 214 255
182 215 255
182 215 255
183 215 255
183 215 255
183 215 255
183 215 255
184 215 255
184 216 255
185 216 255
185 216 255
186 216 255
187 217 255
187 217 255
188 218 255
189 218 255
190 219 255
191 219 255
193 220 255
195 221 255
197 222 255
201 224 255
206 227 255
208 228 255
208 228 255
208 228 255
208 228 255
208 228 255
208 228 255
208 228 255
208 228 255
208 228 255
208 228 255
208 228 255
208 228 255
208 228 255
208 228 255
208 228 255
208 228 255
207 228 255
207 228 255
207 228 255
207 228 255
207 228 255
207 228 255
207 228 255
207 228 255
207 228 255
207 228 255
207 228 255
207 228 255
207 228 255
207 228 255
207 228 255
207 227 255
207 227 255
207 227 255
207 227 255
207 227 255
206 227 255
206 227 255
206 227 255
206 227 255
206 227 255
206 227 255
206 227 255
206 227 255
206 227 255
206 227 255
206 227 255
206 227 255
206 227 255
206 227 255
206 227 255
206 227 255
206 227 255
206 227 255
206 227 255
206 227 255
206 227 255
206 227 255
206 227 255
206 227 255
206 227 255
206 227 255
206 227 255
205 227 255
205 227 255
205 227 255
205 227 255
205 227 255
205 227 255
205 227 255
205 227 255
205 227 255
205 227 255
205 227 255
205 227 255
205 227 255
205 227 255
205 227 255
205 227 255
205 227 255
205 227 255
205 227 255
205 227 255
205 227 255
205 227 255
205 227 255
205 227 255
203 225 254
200 222 252
201 223 253
199 221 252
198 220 251
205 227 255
205 227 255
205 227 255
205 227 255
205 227 255
205 227 255
205 227 255
205 227 255
205 227 255
205 227 255
205 227 255
205 227 255
205 227 255
205 227 255
205 227 255
205 227 255
205 227 255
205 227 255
205 227 255
205 227 255
205 227 255
205 227 255
205 227 255
205 227 255
205 227 255
206 227 255
206 227 255
206 227 255
206 227 255
206 227 255
206 227 255
206 227 255
206 227 255
206 227 255
206 227 255
206 227 255
206 227 255
206 227 255
206 227 255
206 227 255
206 227 255
206 227 255
206 227 255
206 227 255
206 227 255
206 227 255
206 227 255
206 227 255
206 227 255
206 227 255
206 227 255
206 227 255
207 227 255
207 227 255
207 227 255
207 227 255
207 227 255
207 228 255
207 228 255
207 228 255
207 228 255
207 228 255
207 228 255
207 228 255
207 228 255
207 228 255
207 228 255
207 228 255
207 228 255
207 228 255
207 228 255
207 228 255
207 228 255
208 228 255
208 228 255
208 228 255
208 228 255
208 228 255
208 228 255
208 228 255
208 228 255
208 228 255
208 228 255
208 228 255
208 228 255
208 228 255
208 228 255
206 226 251
173 184 185
144 144 110
136 135 90
138 136 91
135 134 90
132 131 87
139 138 93
144 143 96
139 138 93
140 139 93
145 143 95
134 133 89
143 142 96
137 136 91
148 147 99
142 141 95
144 142 95
143 142 95
151 150 101
146 145 98
151 150 101
146 145 97
146 145 97
141 140 94
153 152 102
146 144 97
143 141 95
151 149 100
151 150 101
147 147 99
146 144 97
153 152 102
142 141 95
152 150 101
156 153 103
155 154 103
151 149 99
156 154 103
152 150 100
151 150 100
138 137 92
152 149 99
156 154 103
151 149 99
148 146 97
154 152 101
151 149 100
149 148 99
149 147 98
150 148 98
149 148 99
151 149 99
154 151 100
159 156 104
144 141 94
151 149 99
154 151 99
146 144 95
156 153 101
158 154 103
153 151 101
150 148 96
148 146 97
149 147 97
152 149 99
152 148 98
147 145 97
147 144 94
147 144 95
156 153 101
147 145 95
156 152 98
155 152 99
148 144 95
151 148 97
152 149 97
147 144 95
146 142 92
150 147 97
145 142 92
152 148 95
155 151 99
156 152 97
150 147 97
148 144 93
146 143 94
148 144 93
137 135 87
149 146 93
145 142 92
154 150 99
148 144 95
144 141 91
153 149 99
146 142 91
148 144 95
141 138 87
148 144 94
147 144 91
145 141 90
137 135 86
136 132 84
144 141 90
148 144 90
152 147 93
141 138 87
145 141 90
138 133 85
143 139 88
134 131 85
202 225 255
202 225 255
201 224 255
201 224 255
200 224 255
200 224 255
199 224 255
199 223 255
199 223 255
198 223 255
198 223 255
197 222 255
197 222 255
197 222 255
196 222 255
196 222 255
196 222 255
195 221 255
195 221 255
195 221 255
194 221 255
194 221 255
194 220 255
193 220 255
193 220 255
193 220 255
192 220 255
192 220 255
192 219 255
191 219 255
191 219 255
191 219 255
190 219 255
190 219 255
190 219 255
190 218 255
189 218 255
189 218 255
189 218 255
188 218 255
188 218 255
188 218 255
188 217 255
187 217 255
187 217 255
187 217 255
187 217 255
186 217 255
186 217 255
186 216 255
186 216 255
185 216 255
185 216 255
185 216 255
185 216 255
185 216 255
184 216 255
184 216 255
184 215 255
184 215 255
183 215 255
183 215 255
183 215 255
183 215 255
183 215 255
183 215 255
182 215 255
182 215 255
182 215 255
182 214 255
182 214 255
182 214 255
182 214 255
182 214 255
181 214 255
181 214 255
181 214 255
181 214 255
181 214 255
181 214 255
181 214 255
181 214 255
181 214 255
181 214 255
181 214 255
181 214 255
181 214 255
181 214 255
182 214 255
182 214 255
182 214 255
182 214 255
182 215 255
183 215 255
183 215 255
183 215 255
184 215 255
184 215 255
185 216 255
185 216 255
186 216 255
186 217 255
187 217 255
188 218 255
189 218 255
190 219 255
191 219 255
193 220 255
195 221 255
197 222 255
201 225 255
206 227 255
208 228 255
208 228 255
208 228 255
208 228 255
208 228 255
208 228 255
208 228 255
208 228 255
208 228 255
208 228 255
208 228 255
208 228 255
208 228 255
208 228 255
208 228 255
208 228 255
208 228 255
208 228 255
207 228 255
207 228 255
207 228 255
207 228 255
207 228 255
207 228 255
207 228 255
207 228 255
207 228 255
207 228 255
207 228 255
207 228 255
207 228 255
207 228 255
207 228 255
207 228 255
207 227 255
207 227 255
207 227 255
207 227 255
207 227 255
207 227 255
206 227 255
206 227 255
206 227 255
206 227 255
206 227 255
206 227 255
206 227 255
206 227 255
206 227 255
206 227 255
206 227 255
206 227 255
206 227 255
206 227 255
206 227 255
206 227 255
206 227 255
206 227 255
206 227 255
206 227 255
206 227 255
206 227 255
206 227 255
206 227 255
206 227 255
206 227 255
206 227 255
206 227 255
206 227 255
206 227 255
206 227 255
206 227 255
206 227 255
205 227 255
205 227 255
205 227 255
205 227 255
205 227 255
191 213 246
168 191 231
157 180 223
127 152 207
122 148 203
90 120 188
81 113 187
62 99 175
62 99 176
61 98 174
62 99 176
62 98 174
62 99 176
83 114 183
92 121 184
106 133 196
131 156 209
136 160 210
165 188 229
185 207 242
204 225 254
205 227 255
205 227 255
205 227 255
206 227 255
206 227 255
206 227 255
206 227 255
206 227 255
206 227 255
206 227 255
206 227 255
206 227 255
206 227 255
206 227 255
206 227 255
206 227 255
206 227 255
206 227 255
206 227 255
206 227 255
206 227 255
206 227 255
206 227 255
206 227 255
206 227 255
206 227 255
206 227 255
206 227 255
206 227 255
206 227 255
206 227 255
206 227 255
206 227 255
206 227 255
206 227 255
206 227 255
206 227 255
207 227 255
207 227 255
207 227 255
207 227 255
207 227 255
207 227 255
207 228 255
207 228 255
207 228 255
207 228 255
207 228 255
207 228 255
207 228 255
207 228 255
207 228 255
207 228 255
207 228 255
207 228 255
207 228 255
207 228 255
207 228 255
207 228 255
208 228 255
208 228 255
208 228 255
208 228 255
208 228 255
208 228 255
208 228 255
208 228 255
208 228 255
208 228 255
208 228 255
208 228 255
208 228 255
208 228 255
208 228 255
208 228 255
208 228 255
205 224 251
180 191 196
129 130 102
136 134 90
127 126 84
138 135 90
147 146 98
134 132 89
151 149 100
134 133 89
149 147 99
135 134 90
151 149 100
142 141 95
145 144 97
148 146 98
145 144 97
141 140 94
142 140 94
142 141 95
144 143 96
151 149 100
147 147 99
147 146 98
150 148 99
155 153 103
145 144 96
151 149 99
153 151 101
154 152 102
152 150 101
150 149 100
148 147 99
145 144 97
157 154 103
151 149 99
156 153 103
148 146 98
149 147 98
150 149 100
151 149 99
155 153 102
156 153 102
148 146 98
149 148 99
149 147 97
154 152 101
156 153 102
156 153 102
155 153 102
146 145 97
153 152 101
155 152 101
158 156 103
150 148 98
155 153 102
156 154 102
153 150 100
151 149 99
148 146 97
151 149 99
150 147 98
148 147 97
152 148 99
156 154 103
157 153 101
154 150 100
157 154 101
154 151 99
148 146 97
159 155 102
152 149 99
145 143 95
153 149 98
147 144 95
144 142 93
152 149 97
148 145 94
156 152 101
152 147 94
153 150 97
152 149 96
152 148 95
151 147 94
151 148 97
156 151 99
147 145 95
152 149 96
148 145 96
152 148 98
148 144 93
143 139 90
150 147 94
146 142 88
157 152 98
145 141 90
151 147 91
150 146 93
150 146 94
139 135 87
150 146 95
151 148 93
144 140 90
150 146 94
137 134 86
151 147 93
148 143 91
146 142 90
144 140 90
141 136 86
143 139 90
141 138 87
149 145 93
202 225 255
201 224 255
201 224 255
200 224 255
200 224 255
199 224 255
199 223 255
199 223 255
198 223 255
198 223 255
198 223 255
197 222 255
197 222 255
196 222 255
196 222 255
196 222 255
195 221 255
195 221 255
195 221 255
194 221 255
194 221 255
194 221 255
194 220 255
193 220 255
193 220 255
193 220 255
192 220 255
192 220 255
192 219 255
191 219 255
191 219 255
191 219 255
190 219 255
190 219 255
190 219 255
190 218 255
189 218 255
189 218 255
189 218 255
189 218 255
188 218 255
188 218 255
188 217 255
187 217 255
187 217 255
187 217 255
187 217 255
186 217 255
186 217 255
186 216 255
186 216 255
185 216 255
185 216 255
185 216 255
185 216 255
185 216 255
184 216 255
184 216 255
184 215 255
184 215 255
184 215 255
183 215 255
183 215 255
183 215 255
183 215 255
183 215 255
182 215 255
182 215 255
182 214 255
182 214 255
182 214 255
182 214 255
182 214 255
181 214 255
181 214 255
181 214 255
181 214 255
181 214 255
181 214 255
181 214 255
181 214 255
181 214 255
181 214 255
181 214 255
181 214 255
181 214 255
181 214 255
181 214 255
181 214 255
181 214 255
181 214 255
182 214 255
182 214 255
182 214 255
182 215 255
182 215 255
183 215 255
183 215 255
184 215 255
184 215 255
184 216 255
185 216 255
186 216 255
186 217 255
187 217 255
188 217 255
189 218 255
190 219 255
192 219 255
193 220 255
195 221 255
198 223 255
202 225 255
207 228 255
208 228 255
208 228 255
208 228 255
208 228 255
208 228 255
208 228 255
208 228 255
208 228 255
208 228 255
208 228 255
208 228 255
208 228 255
208 228 255
208 228 255
208 228 255
208 228 255
208 228 255
208 228 255
208 228 255
208 228 255
208 228 255
207 228 255
207 228 255
207 228 255
207 228 255
207 228 255
207 228 255
207 228 255
207 228 255
207 228 255
207 228 255
207 228 255
207 228 255
207 228 255
207 228 255
207 228 255
207 228 255
207 228 255
207 227 255
207 227 255
207 227 255
207 227 255
207 227 255
207 227 255
206 227 255
206 227 255
206 227 255
206 227 255
206 227 255
206 227 255
206 227 255
206 227 255
206 227 255
206 227 255
206 227 255
206 227 255
206 227 255
206 227 255
206 227 255
206 227 255
206 227 255
206 227 255
206 227 255
206 227 255
206 227 255
206 227 255
206 227 255
206 227 255
206 227 255
206 227 255
206 227 255
203 224 254
176 198 236
152 175 220
114 141 197
74 107 178
62 99 176
62 99 174
62 99 177
62 99 177
62 99 174
62 99 174
63 99 176
62 99 172
62 99 177
62 99 177
62 99 176
62 99 175
63 99 176
62 99 174
63 99 174
63 100 178
62 99 177
62 98 175
61 98 176
61 98 173
74 107 180
114 140 199
151 174 220
181 203 238
202 223 252
206 227 255
206 227 255
206 227 255
206 227 255
206 227 255
206 227 255
206 227 255
206 227 255
206 227 255
206 227 255
206 227 255
206 227 255
206 227 255
206 227 255
206 227 255
206 227 255
206 227 255
206 227 255
206 227 255
206 227 255
206 227 255
206 227 255
206 227 255
206 227 255
206 227 255
206 227 255
206 227 255
207 227 255
207 227 255
207 227 255
207 227 255
207 227 255
207 227 255
207 228 255
207 228 255
207 228 255
207 228 255
207 228 255
207 228 255
207 228 255
207 228 255
207 228 255
207 228 255
207 228 255
207 228 255
207 228 255
207 228 255
207 228 255
207 228 255
207 228 255
208 228 255
208 228 255
208 228 255
208 228 255
208 228 255
208 228 255
208 228 255
208 228 255
208 228 255
208 228 255
208 228 255
208 228 255
208 228 255
208 228 255
208 228 255
208 228 255
208 228 255
208 228 255
208 228 255
208 228 255
207 227 254
179 193 205
119 118 88
133 131 88
137 135 90
136 134 90
137 136 91
141 138 92
140 139 93
131 130 87
143 143 97
145 143 96
143 143 96
150 148 100
145 144 97
142 141 95
149 148 100
153 151 102
150 149 101
150 148 99
142 141 95
146 145 97
154 153 103
147 145 97
152 151 101
156 155 104
141 139 93
143 141 95
150 149 101
151 149 100
146 145 97
149 147 99
156 155 104
155 153 103
155 153 102
154 152 102
152 150 100
154 153 103
161 159 106
144 143 96
153 151 101
144 142 95
152 150 100
155 153 102
155 153 102
158 156 104
148 146 97
153 151 101
153 151 101
161 158 105
157 155 103
157 155 103
152 150 100
151 149 98
147 146 97
152 150 100
156 153 102
152 150 100
158 154 101
150 147 97
159 155 103
156 153 100
155 152 101
161 159 105
156 154 103
153 150 100
155 153 101
150 147 97
163 158 103
151 148 96
151 149 99
147 144 93
151 148 96
152 149 97
149 146 95
145 142 93
149 146 97
146 144 95
152 149 99
147 144 93
149 146 96
160 157 103
152 149 97
148 144 93
155 152 99
150 148 97
153 150 97
158 153 99
155 151 97
150 146 95
142 139 92
159 156 100
147 145 94
148 145 94
142 139 90
148 144 93
144 141 92
150 146 93
151 147 94
156 151 97
150 146 95
144 139 90
144 140 87
139 136 87
146 142 92
149 145 92
146 142 92
144 141 92
150 146 95
147 143 91
145 140 88
135 132 83
140 137 87
139 135 85
145 141 87
201 224 255
201 224 255
200 224 255
200 224 255
200 224 255
199 223 255
199 223 255
198 223 255
198 223 255
198 223 255
197 222 255
197 222 255
197 222 255
196 222 255
196 222 255
196 222 255
195 221 255
195 221 255
195 221 255
194 221 255
194 221 255
194 221 255
193 220 255
193 220 255
193 220 255
193 220 255
192 220 255
192 220 255
192 219 255
191 219 255
191 219 255
191 219 255
191 219 255
190 219 255
190 219 255
190 218 255
189 218 255
189 218 255
189 218 255
189 218 255
188 218 255
188 218 255
188 217 255
188 217 255
187 217 255
187 217 255
187 217 255
187 217 255
186 217 255
186 217 255
186 216 255
186 216 255
185 216 255
185 216 255
185 216 255
185 216 255
184 216 255
184 216 255
184 215 255
184 215 255
184 215 255
183 215 255
183 215 255
183 215 255
183 215 255
183 215 255
182 215 255
182 215 255
182 215 255
182 214 255
182 214 255
182 214 255
182 214 255
181 214 255
181 214 255
181 214 255
181 214 255
181 214 255
181 214 255
181 214 255
181 214 255
181 214 255
181 214 255
181 214 255
181 214 255
181 214 255
181 214 255
181 214 255
181 214 255
181 214 255
181 214 255
181 214 255
181 214 255
181 214 255
182 214 255
182 214 255
182 214 255
182 215 255
183 215 255
183 215 255
184 215 255
184 215 255
184 216 255
185 216 255
186 216 255
186 217 255
187 217 255
188 218 255
189 218 255
190 219 255
192 219 255
193 220 255
195 221 255
198 223 255
203 225 255
208 228 255
209 229 255
209 229 255
209 228 255
208 228 255
208 228 255
208 228 255
208 228 255
208 228 255
208 228 255
208 228 255
208 228 255
208 228 255
208 228 255
208 228 255
208 228 255
208 228 255
208 228 255
208 228 255
208 228 255
208 228 255
208 228 255
208 228 255
208 228 255
208 228 255
208 228 255
207 228 255
207 228 255
207 228 255
207 228 255
207 228 255
207 228 255
207 228 255
207 228 255
207 228 255
207 228 255
207 228 255
207 228 255
207 228 255
207 228 255
207 228 255
207 228 255
207 228 255
207 228 255
207 227 255
207 227 255
207 227 255
207 227 255
207 227 255
207 227 255
207 227 255
206 227 255
206 227 255
206 227 255
206 227 255
206 227 255
206 227 255
206 227 255
206 227 255
206 227 255
206 227 255
206 227 255
206 227 255
206 227 255
206 227 255
206 227 255
206 227 255
200 222 251
176 197 234
130 155 207
71 105 179
62 99 176
62 99 176
61 98 176
63 100 177
62 99 173
62 99 178
62 99 177
63 99 173
62 99 174
62 99 176
61 98 171
62 99 175
61 99 178
63 99 176
63 99 175
62 99 173
62 98 174
62 99 175
62 99 176
62 99 176
62 99 170
62 98 173
61 97 170
62 99 178
62 99 174
63 99 173
61 98 172
62 99 175
81 113 182
133 157 205
172 194 232
204 225 254
206 227 255
206 227 255
206 227 255
206 227 255
206 227 255
206 227 255
206 227 255
206 227 255
206 227 255
206 227 255
206 227 255
206 227 255
206 227 255
206 227 255
206 227 255
206 227 255
207 227 255
207 227 255
207 227 255
207 227 255
207 227 255
207 227 255
207 227 255
207 228 255
207 228 255
207 228 255
207 228 255
207 228 255
207 228 255
207 228 255
207 228 255
207 228 255
207 228 255
207 228 255
207 228 255
207 228 255
207 228 255
207 228 255
207 228 255
207 228 255
207 228 255
208 228 255
208 228 255
208 228 255
208 228 255
208 228 255
208 228 255
208 228 255
208 228 255
208 228 255
208 228 255
208 228 255
208 228 255
208 228 255
208 228 255
208 228 255
208 228 255
208 228 255
208 228 255
208 228 255
208 228 255
208 228 255
209 228 255
209 228 255
209 229 255
209 229 255
193 208 221
151 155 139
139 136 91
127 126 84
131 129 86
138 136 91
142 140 93
142 140 94
136 135 90
140 137 91
144 143 96
142 140 94
139 138 93
146 144 97
149 148 100
142 141 95
151 151 101
148 148 99
147 145 97
148 147 99
146 144 96
148 147 99
146 145 97
144 142 95
151 150 101
150 149 99
154 153 103
147 146 98
156 154 103
152 150 100
152 150 100
150 148 100
154 153 103
146 144 96
151 149 100
159 158 106
151 149 100
149 147 99
156 154 103
152 149 99
156 154 103
154 152 101
161 159 106
161 160 107
160 156 104
159 157 105
158 155 103
153 151 101
154 151 101
155 153 102
160 157 104
149 147 99
154 152 101
152 149 99
152 149 99
156 154 101
155 152 101
153 150 100
154 153 103
159 156 101
151 148 97
159 155 102
164 161 105
157 154 103
156 153 101
157 153 99
164 160 106
153 150 99
155 153 101
157 154 102
158 154 101
152 148 96
150 147 95
153 150 99
151 148 97
154 151 97
153 150 99
152 149 96
157 154 101
163 158 104
150 147 96
159 155 101
153 150 97
157 153 99
146 143 93
149 145 93
151 148 97
149 146 95
149 145 95
152 149 96
149 145 93
149 146 95
152 148 96
151 149 95
151 147 92
143 139 88
147 143 90
153 150 96
146 143 93
148 144 92
149 144 93
152 148 95
148 145 92
152 149 97
148 144 93
141 137 89
149 145 93
142 138 89
146 142 89
149 145 91
144 140 89
141 137 90
157 152 95
147 143 88
131 128 80
144 141 91
201 224 255
201 224 255
200 224 255
200 224 255
199 224 255
199 223 255
199 223 255
198 223 255
198 223 255
198 223 255
197 222 255
197 222 255
197 222 255
196 222 255
196 222 255
196 222 255
195 221 255
195 221 255
195 221 255
194 221 255
194 221 255
194 221 255
194 220 255
193 220 255
193 220 255
193 220 255
192 220 255
192 220 255
192 219 255
191 219 255
191 219 255
191 219 255
191 219 255
190 219 255
190 219 255
190 218 255
190 218 255
189 218 255
189 218 255
189 218 255
188 218 255
188 218 255
188 217 255
188 217 255
187 217 255
187 217 255
187 217 255
187 217 255
186 217 255
186 217 255
186 216 255
186 216 255
185 216 255
185 216 255
185 216 255
185 216 255
185 216 255
184 216 255
184 216 255
184 215 255
184 215 255
184 215 255
183 215 255
183 215 255
183 215 255
183 215 255
183 215 255
182 215 255
182 215 255
182 214 255
182 214 255
182 214 255
182 214 255
181 214 255
181 214 255
181 214 255
181 214 255
181 214 255
181 214 255
181 214 255
181 214 255
181 214 255
181 214 255
181 214 255
181 214 255
181 214 255
181 214 255
181 214 255
181 214 255
181 214 255
181 214 255
181 214 255
181 214 255
181 214 255
181 214 255
181 214 255
182 214 255
182 214 255
182 214 255
182 215 255
183 215 255
183 215 255
184 215 255
184 215 255
185 216 255
185 216 255
186 216 255
187 217 255
187 217 255
188 218 255
189 218 255
191 219 255
192 220 255
194 221 255
196 222 255
199 223 255
204 226 255
208 228 255
209 229 255
209 229 255
209 229 255
209 229 255
209 229 255
209 228 255
209 228 255
208 228 255
208 228 255
208 228 255
208 228 255
208 228 255
208 228 255
208 228 255
208 228 255
208 228 255
208 228 255
208 228 255
208 228 255
208 228 255
208 228 255
208 228 255
208 228 255
208 228 255
208 228 255
208 228 255
208 228 255
208 228 255
208 228 255
207 228 255
207 228 255
207 228 255
207 228 255
207 228 255
207 228 255
207 228 255
207 228 255
207 228 255
207 228 255
207 228 255
207 228 255
207 228 255
207 228 255
207 228 255
207 228 255
207 228 255
207 228 255
207 228 255
207 228 255
207 227 255
207 227 255
207 227 255
207 227 255
207 227 255
207 227 255
207 227 255
207 227 255
207 227 255
206 227 255
206 227 255
206 227 255
206 227 255
180 202 238
130 155 207
73 107 181
62 99 176
62 99 177
61 99 179
62 98 172
61 98 167
63 100 176
62 99 170
61 98 173
63 99 175
62 98 172
62 99 173
62 99 174
62 99 176
62 99 175
62 99 171
62 99 172
62 98 169
62 98 169
62 99 170
62 98 169
62 99 170
63 100 173
62 98 175
62 99 175
62 99 173
61 98 167
62 98 172
63 99 175
63 99 177
62 98 170
62 99 176
61 98 173
62 99 176
62 99 177
68 103 179
130 155 207
178 200 236
206 227 255
206 227 255
206 227 255
206 227 255
206 227 255
207 227 255
207 227 255
207 227 255
207 227 255
207 227 255
207 227 255
207 227 255
207 227 255
207 227 255
207 228 255
207 228 255
207 228 255
207 228 255
207 228 255
207 228 255
207 228 255
207 228 255
207 228 255
207 228 255
207 228 255
207 228 255
207 228 255
207 228 255
207 228 255
207 228 255
207 228 255
207 228 255
207 228 255
207 228 255
208 228 255
208 228 255
208 228 255
208 228 255
208 228 255
208 228 255
208 228 255
208 228 255
208 228 255
208 228 255
208 228 255
208 228 255
208 228 255
208 228 255
208 228 255
208 228 255
208 228 255
208 228 255
208 228 255
208 228 255
208 228 255
208 228 255
209 228 255
209 229 255
209 229 255
209 229 255
209 229 255
209 229 255
200 218 240
155 160 148
123 121 80
133 130 87
134 132 88
131 129 86
130 129 86
133 131 88
146 145 97
139 137 92
143 142 95
146 145 98
142 140 94
143 141 94
147 145 97
151 149 100
147 145 97
150 150 101
139 139 93
143 141 95
143 142 96
153 152 102
150 149 100
154 152 102
150 148 99
142 141 95
150 149 100
141 139 93
154 153 103
151 150 101
156 154 103
157 155 104
156 154 103
156 154 103
152 151 101
158 156 104
161 159 106
158 156 104
146 144 96
157 156 104
150 148 99
163 161 108
146 143 95
157 154 103
155 152 101
162 160 107
157 154 103
155 152 102
153 152 101
159 157 105
164 161 107
154 152 100
162 157 104
152 150 99
157 154 103
161 158 105
151 148 99
155 153 102
157 154 103
152 149 99
153 150 99
157 155 103
159 156 103
159 156 103
151 148 99
156 154 103
153 150 99
161 157 103
151 148 98
156 153 101
160 156 101
155 152 101
153 150 99
154 151 98
157 153 100
149 146 96
160 156 103
159 155 101
156 152 100
152 149 98
160 156 103
155 151 99
153 150 98
158 154 101
163 159 103
151 148 97
151 147 97
158 153 99
149 145 95
156 151 97
150 146 92
154 150 97
145 143 94
151 148 97
155 150 97
158 154 98
148 144 94
147 143 91
145 141 93
151 147 97
146 143 94
157 152 98
138 134 84
152 147 93
153 148 95
140 136 86
155 152 97
148 144 90
148 145 94
152 148 94
154 149 96
149 144 88
145 141 88
146 141 88
157 153 97
141 136 85
149 145 92
148 144 90
201 224 255
200 224 255
200 224 255
200 224 255
199 223 255
199 223 255
199 223 255
198 223 255
198 223 255
198 223 255
197 222 255
197 222 255
197 222 255
196 222 255
196 222 255
196 222 255
195 221 255
195 221 255
195 221 255
194 221 255
194 221 255
194 221 255
194 220 255
193 220 255
193 220 255
193 220 255
192 220 255
192 220 255
192 220 255
192 219 255
191 219 255
191 219 255
191 219 255
191 219 255
190 219 255
190 219 255
190 218 255
189 218 255
189 218 255
189 218 255
189 218 255
188 218 255
188 218 255
188 217 255
188 217 255
187 217 255
187 217 255
187 217 255
187 217 255
186 217 255
186 217 255
186 216 255
186 216 255
185 216 255
185 216 255
185 216 255
185 216 255
185 216 255
184 216 255
184 216 255
184 215 255
184 215 255
184 215 255
183 215 255
183 215 255
183 215 255
183 215 255
183 215 255
182 215 255
182 215 255
182 214 255
182 214 255
182 214 255
182 214 255
181 214 255
181 214 255
181 214 255
181 214 255
181 214 255
181 214 255
181 214 255
181 214 255
181 214 255
181 214 255
181 214 255
181 214 255
181 214 255
181 214 255
181 214 255
181 214 255
181 214 255
181 214 255
181 214 255
181 214 255
181 214 255
181 214 255
181 214 255
181 214 255
182 214 255
182 214 255
182 215 255
182 215 255
183 215 255
183 215 255
184 215 255
184 216 255
185 216 255
185 216 255
186 217 255
187 217 255
188 217 255
189 218 255
190 219 255
191 219 255
193 220 255
195 221 255
197 222 255
201 224 255
207 227 255
209 229 255
209 229 255
209 229 255
209 229 255
209 229 255
209 229 255
209 229 255
209 229 255
209 229 255
209 228 255
209 228 255
208 228 255
208 228 255
208 228 255
208 228 255
208 228 255
208 228 255
208 228 255
208 228 255
208 228 255
208 228 255
208 228 255
208 228 255
208 228 255
208 228 255
208 228 255
208 228 255
208 228 255
208 228 255
208 228 255
208 228 255
208 228 255
208 228 255
208 228 255
207 228 255
207 228 255
207 228 255
207 228 255
207 228 255
207 228 255
207 228 255
207 228 255
207 228 255
207 228 255
207 228 255
207 228 255
207 228 255
207 228 255
207 228 255
207 228 255
207 228 255
207 228 255
207 228 255
207 228 255
207 228 255
207 228 255
207 228 255
207 228 255
206 227 255
174 196 233
102 130 193
62 99 175
62 99 178
62 98 172
61 98 175
62 99 172
62 99 174
62 99 169
62 99 171
63 99 172
62 99 177
63 99 171
63 99 175
62 99 174
62 99 175
62 99 173
63 99 173
62 99 170
62 99 170
62 98 169
62 98 170
62 98 173
62 99 173
62 99 172
61 98 167
62 99 175
62 98 170
62 99 171
62 99 171
62 98 174
62 98 171
61 98 170
62 98 173
62 98 172
62 98 171
63 100 178
62 98 173
62 99 173
61 98 170
62 98 172
61 98 173
104 132 192
164 186 227
204 225 253
207 228 255
207 228 255
207 228 255
207 228 255
207 228 255
207 228 255
207 228 255
207 228 255
207 228 255
207 228 255
207 228 255
207 228 255
207 228 255
207 228 255
207 228 255
207 228 255
207 228 255
207 228 255
207 228 255
207 228 255
207 228 255
207 228 255
207 228 255
207 228 255
208 228 255
208 228 255
208 228 255
208 228 255
208 228 255
208 228 255
208 228 255
208 228 255
208 228 255
208 228 255
208 228 255
208 228 255
208 228 255
208 228 255
208 228 255
208 228 255
208 228 255
208 228 255
208 228 255
208 228 255
208 228 255
208 228 255
208 228 255
209 228 255
209 228 255
209 229 255
209 229 255
209 229 255
209 229 255
209 229 255
209 229 255
209 229 255
209 229 255
207 226 252
180 195 209
129 128 92
133 131 88
136 134 89
139 136 91
136 134 89
142 141 95
138 136 91
144 143 97
140 138 93
138 137 91
134 134 91
148 146 98
137 137 92
147 145 98
152 151 102
150 149 100
151 149 99
142 142 96
155 154 103
151 150 101
156 154 103
147 146 98
156 154 103
151 149 100
149 148 99
148 146 98
152 150 101
159 157 105
146 145 97
154 152 101
151 149 100
152 150 101
153 152 102
156 155 104
156 154 103
152 150 101
152 150 100
156 153 102
158 157 106
163 161 108
148 145 97
162 159 106
163 160 107
149 147 99
159 156 104
161 158 106
160 158 106
157 154 103
163 160 106
153 151 101
161 157 104
162 159 106
160 157 104
159 155 103
154 152 101
155 152 100
158 156 104
155 151 100
153 150 99
157 154 102
157 154 102
157 153 100
152 149 98
155 153 101
160 157 103
154 152 100
154 150 99
159 156 101
152 150 99
152 149 97
166 162 107
152 150 99
159 155 101
159 155 102
165 160 104
151 148 97
159 155 101
157 153 99
162 158 103
154 150 98
157 153 99
160 156 99
160 156 101
166 162 105
155 151 99
149 146 95
158 155 100
145 143 93
152 149 95
156 152 97
152 150 96
149 145 95
148 145 92
156 152 101
153 149 97
155 151 97
155 151 95
155 150 95
154 149 93
151 147 95
151 147 94
148 144 93
152 148 95
152 147 94
148 145 93
152 149 98
139 135 84
153 150 97
148 143 91
141 137 89
148 145 93
150 145 90
142 138 85
145 141 91
155 151 97
144 141 89
150 145 92
148 145 91
201 224 255
200 224 255
200 224 255
200 224 255
199 223 255
199 223 255
199 223 255
198 223 255
198 223 255
198 223 255
197 222 255
197 222 255
197 222 255
196 222 255
196 222 255
196 222 255
195 221 255
195 221 255
195 221 255
195 221 255
194 221 255
194 221 255
194 221 255
193 220 255
193 220 255
193 220 255
193 220 255
192 220 255
192 220 255
192 220 255
192 219 255
191 219 255
191 219 255
191 219 255
190 219 255
190 219 255
190 219 255
190 218 255
189 218 255
189 218 255
189 218 255
189 218 255
188 218 255
188 218 255
188 217 255
188 217 255
187 217 255
187 217 255
187 217 255
187 217 255
186 217 255
186 217 255
186 216 255
186 216 255
186 216 255
185 216 255
185 216 255
185 216 255
185 216 255
184 216 255
184 216 255
184 215 255
184 215 255
184 215 255
183 215 255
184 215 255
183 215 253
183 215 255
183 215 255
182 214 254
182 214 254
182 215 255
182 214 255
182 215 255
182 214 255
182 214 255
181 214 255
181 214 255
181 214 255
181 214 255
181 214 255
181 214 255
181 214 255
181 214 255
181 214 255
181 214 255
181 214 255
181 214 255
181 214 255
181 214 255
181 214 255
181 214 255
181 214 255
181 214 255
181 214 255
181 214 255
181 214 255
181 214 255
181 214 255
182 214 255
182 214 255
182 214 255
182 215 255
183 215 255
183 215 255
184 215 255
184 215 255
185 216 255
185 216 255
186 216 255
187 217 255
187 217 255
188 218 255
189 218 255
191 219 255
192 220 255
194 221 255
196 222 255
199 223 255
203 225 255
208 228 255
209 229 255
209 229 255
209 229 255
209 229 255
209 229 255
209 229 255
209 229 255
209 229 255
209 229 255
209 229 255
209 229 255
209 229 255
209 228 255
209 228 255
208 228 255
208 228 255
208 228 255
208 228 255
208 228 255
208 228 255
208 228 255
208 228 255
208 228 255
208 228 255
208 228 255
208 228 255
208 228 255
208 228 255
208 228 255
208 228 255
208 228 255
208 228 255
208 228 255
208 228 255
208 228 255
208 228 255
208 228 255
208 228 255
208 228 255
207 228 255
207 228 255
207 228 255
207 228 255
207 228 255
207 228 255
207 228 255
207 228 255
207 228 255
207 228 255
207 228 255
207 228 255
207 228 255
207 228 255
207 228 255
205 226 254
159 181 223
92 121 187
62 99 177
62 99 176
62 99 176
62 99 177
62 99 177
62 98 168
62 99 172
62 99 176
62 98 168
62 99 171
62 99 173
62 99 173
62 99 171
63 99 175
62 99 172
62 98 167
62 99 171
62 99 171
62 99 172
62 98 165
63 99 170
62 99 172
62 98 162
61 97 166
62 99 174
62 99 171
62 98 166
62 99 172
61 98 171
61 98 169
62 98 172
63 99 168
62 98 171
62 99 167
61 97 163
62 98 170
62 98 174
62 99 171
63 99 174
61 97 164
61 97 168
61 97 173
61 97 171
62 98 171
92 121 182
159 181 222
205 226 254
207 228 255
207 228 255
207 228 255
207 228 255
207 228 255
207 228 255
207 228 255
207 228 255
207 228 255
207 228 255
207 228 255
207 228 255
207 228 255
207 228 255
207 228 255
208 228 255
208 228 255
208 228 255
208 228 255
208 228 255
208 228 255
208 228 255
208 228 255
208 228 255
208 228 255
208 228 255
208 228 255
208 228 255
208 228 255
208 228 255
208 228 255
208 228 255
208 228 255
208 228 255
208 228 255
208 228 255
208 228 255
208 228 255
208 228 255
208 228 255
209 228 255
209 229 255
209 229 255
209 229 255
209 229 255
209 229 255
209 229 255
209 229 255
209 229 255
209 229 255
209 229 255
209 229 255
209 229 255
209 229 255
195 212 233
142 144 123
137 134 88
137 135 90
131 130 87
138 137 92
138 136 91
140 138 92
143 141 94
138 137 92
145 143 96
141 139 93
147 146 98
141 140 94
151 149 100
153 151 101
150 148 100
146 145 97
146 144 97
145 142 95
147 146 99
140 140 95
152 151 101
154 153 103
156 155 104
150 149 100
139 138 93
158 157 105
143 142 96
156 154 103
156 154 103
160 158 106
157 156 104
157 155 104
158 156 104
151 148 99
159 157 105
150 148 99
157 155 104
155 152 101
152 149 99
157 154 103
161 158 105
159 157 104
156 153 102
159 157 106
159 156 103
155 153 101
160 158 106
157 154 103
160 157 104
155 152 101
152 149 98
159 156 104
163 160 106
156 154 103
152 150 100
157 156 104
154 151 101
153 150 100
159 156 102
163 160 106
151 149 98
161 158 104
154 152 101
162 159 104
159 157 103
162 158 104
163 159 104
159 156 103
158 154 101
157 154 102
161 159 105
154 151 99
163 159 103
158 154 101
157 153 100
151 148 98
160 155 101
155 151 99
156 151 97
151 148 95
159 154 99
155 152 98
153 149 96
148 145 95
153 149 96
157 153 99
150 146 93
151 147 95
156 153 97
151 149 95
152 148 95
154 151 95
151 148 95
151 147 95
164 160 102
156 152 95
158 154 99
152 148 97
152 148 94
156 152 96
153 150 93
159 155 97
155 151 96
149 146 92
148 144 94
156 152 99
149 146 95
139 136 87
140 136 87
144 142 90
151 147 93
157 153 96
153 147 94
145 141 87
147 142 90
150 145 92
147 143 90
147 142 87
149 145 90
201 224 255
200 224 255
200 224 255
200 224 255
199 223 255
199 223 255
199 223 255
198 223 255
198 223 255
198 223 255
197 222 255
197 222 255
197 222 255
197 222 255
196 222 255
196 222 255
196 222 255
195 221 255
195 221 255
195 221 255
194 221 255
194 221 255
194 221 255
194 220 255
193 220 255
193 220 255
193 220 255
193 220 255
192 220 255
192 220 255
192 219 255
192 219 255
191 219 255
191 219 255
191 219 255
190 219 255
190 219 255
190 219 255
190 218 255
189 218 255
189 218 255
189 218 255
189 218 255
188 218 255
188 218 255
188 217 255
188 217 255
187 217 255
187 217 255
187 217 255
187 217 255
187 217 255
186 217 255
186 217 255
186 216 255
186 217 255
187 217 254
186 217 255
188 217 255
187 217 255
186 217 255
187 217 253
187 217 255
188 217 255
187 217 255
189 218 253
188 217 252
188 217 255
186 216 254
187 217 254
186 216 253
187 217 253
187 217 255
185 216 254
185 216 253
185 216 254
184 216 255
184 215 255
184 216 255
184 215 255
182 214 254
183 215 254
182 214 254
181 214 255
181 214 255
181 214 255
181 214 255
181 214 255
181 214 255
181 214 255
181 214 255
181 214 255
181 214 255
181 214 255
181 214 255
181 214 255
181 214 255
181 214 255
181 214 255
181 214 255
182 214 255
182 214 255
182 214 255
182 215 255
183 215 255
183 215 255
183 215 255
184 215 255
184 216 255
185 216 255
186 216 255
186 217 255
187 217 255
188 217 255
189 218 255
190 219 255
191 219 255
193 220 255
195 221 255
197 222 255
201 224 255
207 227 255
209 229 255
209 229 255
209 229 255
209 229 255
209 229 255
209 229 255
209 229 255
209 229 255
209 229 255
209 229 255
209 229 255
209 229 255
209 229 255
209 229 255
209 229 255
209 229 255
209 229 255
209 228 255
209 228 255
208 228 255
208 228 255
208 228 255
208 228 255
208 228 255
208 228 255
208 228 255
208 228 255
208 228 255
208 228 255
208 228 255
208 228 255
208 228 255
208 228 255
208 228 255
208 228 255
208 228 255
208 228 255
208 228 255
208 228 255
208 228 255
208 228 255
208 228 255
208 228 255
208 228 255
208 228 255
208 228 255
208 228 255
207 228 255
207 228 255
207 228 255
207 228 255
207 228 255
164 186 226
105 132 191
62 99 171
63 99 176
62 99 173
62 99 175
62 99 177
62 99 176
62 99 173
62 99 170
62 99 173
62 98 170
62 99 168
63 99 173
62 98 171
62 99 171
62 99 170
62 99 170
62 99 173
62 99 171
61 98 165
62 99 169
63 99 172
62 99 168
62 99 168
62 99 168
62 99 173
63 99 171
62 98 162
62 98 170
62 98 169
62 99 172
63 99 172
62 99 171
62 99 176
62 99 172
63 99 171
62 98 160
62 98 171
61 98 171
62 99 170
61 97 166
62 99 171
62 98 171
63 99 174
61 97 166
62 99 179
61 96 171
61 98 169
62 99 174
104 131 191
169 191 231
207 228 255
207 228 255
207 228 255
207 228 255
207 228 255
207 228 255
208 228 255
208 228 255
208 228 255
208 228 255
208 228 255
208 228 255
208 228 255
208 228 255
208 228 255
208 228 255
208 228 255
208 228 255
208 228 255
208 228 255
208 228 255
208 228 255
208 228 255
208 228 255
208 228 255
208 228 255
208 228 255
208 228 255
208 228 255
208 228 255
208 228 255
208 228 255
208 228 255
209 228 255
209 228 255
209 229 255
209 229 255
209 229 255
209 229 255
209 229 255
209 229 255
209 229 255
209 229 255
209 229 255
209 229 255
209 229 255
209 229 255
209 229 255
209 229 255
209 229 255
209 229 255
203 221 247
161 171 172
125 123 84
136 133 88
138 137 92
134 132 89
134 133 89
142 141 94
144 142 95
143 142 96
131 130 87
142 142 96
144 143 96
134 133 90
139 138 93
145 144 97
148 147 99
151 150 101
145 145 99
153 152 102
152 151 102
151 149 100
155 153 103
157 155 104
150 149 100
154 153 103
157 155 104
147 145 97
155 154 103
152 151 101
152 150 101
158 155 104
162 160 108
161 159 107
160 157 104
153 150 100
158 156 104
153 150 100
155 152 102
157 155 103
160 157 105
157 154 103
157 155 104
159 156 104
157 154 102
158 155 103
154 152 101
152 149 99
162 159 106
158 155 103
165 161 107
163 160 106
162 159 106
158 155 102
167 163 108
154 152 101
160 156 104
157 154 99
167 162 107
155 153 102
157 154 103
164 160 106
156 153 100
157 154 103
161 158 104
158 155 102
152 149 99
162 158 104
159 157 103
163 161 107
149 145 94
160 156 104
159 155 101
160 157 103
164 160 104
156 152 100
154 151 99
160 156 100
153 149 98
162 158 102
158 154 102
160 156 101
153 149 96
161 158 103
166 161 103
160 156 103
155 151 98
158 154 101
156 152 99
149 145 93
159 154 99
151 148 94
153 149 95
157 153 98
153 149 95
165 160 104
143 141 91
163 157 99
151 148 95
159 156 99
152 148 95
153 150 97
149 145 93
147 144 91
152 149 95
154 148 94
157 154 99
148 145 91
149 145 93
150 146 93
148 143 91
142 138 87
153 149 95
154 150 95
148 144 91
155 150 95
160 154 97
151 147 93
146 141 85
143 139 85
146 142 90
138 134 85
145 141 91
201 224 255
200 224 255
200 224 255
200 224 255
199 224 255
199 223 255
199 223 255
198 223 255
198 223 255
198 223 255
198 223 255
197 222 255
197 222 255
197 222 255
196 222 255
196 222 255
196 222 255
196 221 255
195 221 255
195 221 255
195 221 255
194 221 255
194 221 255
194 221 255
194 220 255
193 220 255
193 220 255
193 220 255
193 220 255
192 220 255
192 220 255
192 219 255
192 219 255
191 219 255
191 219 255
191 219 255
191 219 255
190 219 255
190 219 255
190 218 255
190 218 255
189 218 255
189 218 255
189 218 255
189 218 255
188 218 255
188 218 255
188 217 255
188 217 255
188 217 255
189 218 255
188 217 254
190 218 255
189 218 253
189 218 254
189 218 254
189 218 253
190 218 254
189 218 254
189 218 253
189 218 255
189 218 254
189 218 255
188 217 250
190 219 254
189 218 254
188 218 254
188 218 254
187 217 254
187 217 255
187 217 254
187 217 253
186 216 252
187 217 255
187 217 254
187 217 254
187 217 253
186 217 255
186 216 252
186 216 254
187 217 254
187 217 254
187 217 255
185 216 254
186 216 254
183 214 253
182 214 254
182 215 255
183 215 255
181 214 255
181 214 255
181 214 255
181 214 255
181 214 255
181 214 255
181 214 255
181 214 255
181 214 255
181 214 255
181 214 255
182 214 255
182 214 255
182 214 255
182 214 255
182 215 255
183 215 255
183 215 255
183 215 255
184 215 255
184 216 255
185 216 255
185 216 255
186 217 255
187 217 255
188 217 255
189 218 255
190 218 255
191 219 255
192 220 255
194 221 255
196 222 255
199 223 255
204 226 255
209 229 255
209 229 255
209 229 255
209 229 255
209 229 255
209 229 255
209 229 255
209 229 255
209 229 255
209 229 255
209 229 255
209 229 255
209 229 255
209 229 255
209 229 255
209 229 255
209 229 255
209 229 255
209 229 255
209 229 255
209 229 255
209 229 255
209 228 255
209 228 255
208 228 255
208 228 255
208 228 255
208 228 255
208 228 255
208 228 255
208 228 255
208 228 255
208 228 255
208 228 255
208 228 255
208 228 255
208 228 255
208 228 255
208 228 255
208 228 255
208 228 255
208 228 255
208 228 255
208 228 255
208 228 255
208 228 255
208 228 255
208 228 255
208 228 255
193 214 246
126 151 201
61 98 174
61 98 166
62 98 169
62 99 175
62 99 168
62 99 173
62 98 170
63 99 175
62 99 172
62 99 169
62 98 170
62 99 169
62 98 170
63 99 176
63 99 169
61 98 165
62 98 167
63 99 172
62 98 166
62 99 173
62 99 170
62 99 170
62 98 162
62 99 169
62 98 168
62 98 169
61 98 167
62 99 170
63 100 172
62 99 169
62 98 169
61 97 169
62 99 170
63 99 174
61 98 167
62 98 170
61 97 165
62 99 171
63 99 169
62 99 170
61 98 170
62 98 169
62 99 173
62 98 170
62 98 168
61 98 170
62 98 170
62 98 165
61 96 165
62 98 170
61 97 171
60 96 168
115 141 198
197 217 247
208 228 255
208 228 255
208 228 255
208 228 255
208 228 255
208 228 255
208 228 255
208 228 255
208 228 255
208 228 255
208 228 255
208 228 255
208 228 255
208 228 255
208 228 255
208 228 255
208 228 255
208 228 255
208 228 255
208 228 255
208 228 255
208 228 255
208 228 255
208 228 255
208 228 255
209 228 255
209 229 255
209 229 255
209 229 255
209 229 255
209 229 255
209 229 255
209 229 255
209 229 255
209 229 255
209 229 255
209 229 255
209 229 255
209 229 255
209 229 255
209 229 255
209 229 255
209 229 255
209 229 255
209 229 255
209 229 255
209 229 255
209 229 255
199 216 237
143 148 137
127 126 83
135 133 89
145 142 95
138 136 91
136 135 92
142 140 95
143 141 95
138 137 92
146 144 97
142 141 95
145 144 96
145 144 97
150 149 100
144 143 96
149 148 100
147 146 98
150 148 99
153 151 101
152 151 102
152 151 102
149 148 101
152 150 101
147 145 97
148 147 98
151 150 101
150 149 100
157 154 103
160 158 106
156 154 103
154 152 102
153 152 103
155 152 101
159 158 106
159 157 105
156 154 103
151 148 99
153 151 101
154 152 102
157 154 103
164 160 107
161 158 105
158 156 104
157 154 102
155 152 101
163 160 107
161 159 105
157 154 103
161 158 105
155 151 99
163 160 106
160 157 104
160 156 103
161 158 104
154 152 101
165 161 106
159 156 103
156 153 101
170 167 110
162 159 105
152 148 97
155 152 101
157 154 101
163 159 105
151 148 95
157 154 101
161 158 106
164 160 104
164 160 106
160 157 103
160 157 102
156 153 101
159 155 101
158 154 101
160 156 101
163 159 101
164 160 104
155 151 98
169 164 108
159 155 101
152 148 97
160 156 101
159 155 101
159 155 101
161 156 100
155 152 98
149 145 94
157 153 99
161 157 103
153 150 96
150 146 94
158 154 99
148 144 92
154 149 95
147 144 93
159 156 100
144 140 88
153 149 95
157 153 99
153 149 96
145 142 91
165 160 102
154 150 96
147 144 90
157 152 97
152 147 94
157 153 98
151 147 92
144 141 91
152 147 91
146 143 91
155 151 95
153 149 93
159 154 95
153 148 93
155 150 96
153 149 95
148 144 89
150 146 93
153 150 95
148 142 87
151 146 93
147 142 89
201 224 255
200 224 255
200 224 255
200 224 255
199 224 255
199 223 255
199 223 255
199 223 255
198 223 255
198 223 255
198 223 255
197 222 255
197 222 255
197 222 255
197 222 255
196 222 255
196 222 255
196 222 255
196 221 255
195 221 255
195 221 255
195 221 255
194 221 255
194 221 255
194 221 255
194 220 255
193 220 255
193 220 255
193 220 255
193 220 255
192 220 255
192 220 255
192 220 255
192 219 255
191 219 255
191 219 255
191 219 255
191 219 255
190 219 255
190 219 255
190 218 255
190 218 255
189 218 255
189 218 255
189 218 255
188 217 254
190 219 255
191 219 255
191 219 254
191 219 254
191 219 254
190 219 255
191 219 254
190 218 252
190 219 255
190 219 255
189 218 254
189 218 252
189 218 254
190 219 254
189 218 255
189 218 252
191 219 255
189 218 254
189 218 254
189 218 253
189 218 253
190 218 255
188 217 254
189 218 254
188 217 254
186 215 250
189 217 250
188 217 253
188 218 255
188 217 252
188 217 254
187 217 252
187 217 254
187 217 254
187 217 253
188 218 255
187 217 252
186 216 254
187 217 254
186 216 253
186 216 254
185 216 255
186 217 254
185 216 254
185 216 254
184 216 255
182 215 255
181 214 255
181 214 255
181 214 255
181 214 255
181 214 255
181 214 255
181 214 255
182 214 255
182 214 255
182 214 255
182 214 255
182 215 255
183 215 255
183 215 255
183 215 255
184 215 255
184 215 255
184 216 255
185 216 255
185 216 255
186 217 255
187 217 255
188 217 255
188 218 255
190 218 255
191 219 255
192 220 255
194 220 255
196 222 255
198 223 255
202 225 255
208 228 255
210 229 255
210 229 255
210 229 255
210 229 255
210 229 255
209 229 255
209 229 255
209 229 255
209 229 255
209 229 255
209 229 255
209 229 255
209 229 255
209 229 255
209 229 255
209 229 255
209 229 255
209 229 255
209 229 255
209 229 255
209 229 255
209 229 255
209 229 255
209 229 255
209 229 255
209 229 255
209 229 255
209 228 255
209 228 255
208 228 255
208 228 255
208 228 255
208 228 255
208 228 255
208 228 255
208 228 255
208 228 255
208 228 255
208 228 255
208 228 255
208 228 255
208 228 255
208 228 255
208 228 255
208 228 255
205 225 254
162 184 225
76 109 179
62 99 177
62 99 169
62 98 169
62 99 173
62 99 175
63 99 176
62 99 169
62 98 168
62 99 175
63 99 170
62 99 173
62 98 170
63 99 173
61 97 164
62 98 165
62 99 173
61 98 170
63 99 174
63 99 171
63 100 173
62 98 171
62 98 167
62 99 168
62 98 165
62 98 165
62 98 167
62 98 166
62 98 166
62 98 168
62 99 171
62 98 161
61 98 167
62 99 171
62 98 170
62 98 164
63 99 168
63 99 173
62 99 169
62 99 170
63 99 171
63 99 173
61 97 168
62 98 167
62 98 172
62 97 164
62 99 170
62 98 171
61 98 173
62 98 172
62 98 172
62 98 167
61 97 167
60 96 170
61 97 171
62 98 169
155 176 216
207 227 255
208 228 255
208 228 255
208 228 255
208 228 255
208 228 255
208 228 255
208 228 255
208 228 255
208 228 255
208 228 255
208 228 255
208 228 255
208 228 255
208 228 255
208 228 255
208 228 255
209 228 255
209 229 255
209 229 255
209 229 255
209 229 255
209 229 255
209 229 255
209 229 255
209 229 255
209 229 255
209 229 255
209 229 255
209 229 255
209 229 255
209 229 255
209 229 255
209 229 255
209 229 255
209 229 255
209 229 255
209 229 255
209 229 255
209 229 255
209 229 255
210 229 255
210 229 255
210 229 255
210 229 255
210 229 255
187 199 209
129 128 90
128 125 83
140 137 91
129 127 86
130 129 86
139 138 92
138 137 92
135 134 90
139 137 92
140 139 94
141 140 95
144 143 96
145 144 97
148 147 99
154 153 103
144 143 96
147 146 99
151 149 100
154 153 103
154 153 103
150 148 99
141 139 93
155 153 103
147 145 98
155 154 104
153 151 101
156 155 104
152 150 101
153 151 101
156 154 103
153 152 102
151 149 100
155 153 103
161 159 106
156 153 102
153 151 102
156 153 103
163 160 106
157 154 103
157 155 103
165 162 108
160 157 104
163 159 104
161 157 104
153 151 100
164 161 107
161 158 105
161 158 104
157 154 101
165 162 108
158 154 101
158 154 101
157 154 102
160 158 104
160 157 104
163 160 106
169 166 108
164 160 106
154 151 99
156 153 101
162 160 106
159 156 103
156 152 100
167 163 106
165 161 104
163 160 104
162 159 104
161 157 102
162 159 105
156 152 99
162 158 103
156 154 101
161 158 101
161 158 101
166 162 104
167 163 106
164 160 103
159 155 100
160 156 101
160 156 101
159 155 100
158 154 100
160 155 101
160 156 102
158 153 100
161 157 97
159 155 102
157 153 99
161 156 101
157 152 100
158 154 95
155 151 96
162 157 100
159 155 100
158 154 99
157 153 98
149 146 93
161 156 99
158 153 97
160 156 100
147 144 90
157 153 99
156 151 95
154 150 96
160 156 99
152 148 94
152 148 94
150 145 93
153 147 92
162 157 99
156 151 96
153 149 95
147 143 90
148 144 90
146 141 90
150 146 93
151 147 95
159 155 96
153 148 92
152 148 91
147 142 89
146 142 89
151 146 93
148 142 93
201 224 255
201 224 255
200 224 255
200 224 255
200 224 255
199 224 255
199 223 255
199 223 255
198 223 255
198 223 255
198 223 255
198 223 255
197 222 255
197 222 255
197 222 255
197 222 255
196 222 255
196 222 255
196 222 255
196 221 255
195 221 255
195 221 255
195 221 255
195 221 255
194 221 255
194 221 255
194 221 255
193 220 255
193 220 255
193 220 255
193 220 255
192 220 255
192 220 255
192 220 255
192 219 255
191 219 255
191 219 255
191 219 255
191 219 255
191 219 255
190 219 255
190 219 255
191 219 254
192 220 254
191 219 254
191 219 254
192 219 253
192 219 253
193 220 255
192 219 255
191 219 254
192 220 254
192 219 255
192 220 255
191 219 254
192 220 254
190 219 254
191 219 253
192 219 254
190 218 253
190 218 252
191 219 254
189 218 250
190 219 254
190 219 254
191 219 253
191 218 252
188 217 254
189 218 254
189 218 253
190 218 255
190 218 254
189 218 255
189 218 254
188 218 255
189 218 254
188 217 252
187 217 254
186 216 249
187 217 254
187 217 253
188 217 255
187 217 253
187 217 253
187 217 254
187 217 250
187 217 254
188 217 253
188 218 255
188 217 254
186 216 254
185 216 255
185 216 255
185 216 253
184 215 254
183 215 255
182 214 255
181 214 255
181 214 255
182 214 255
182 214 255
182 214 255
182 214 255
182 214 255
182 215 255
182 215 255
183 215 255
183 215 255
183 215 255
184 215 255
184 215 255
185 216 255
185 216 255
186 216 255
186 217 255
187 217 255
188 217 255
189 218 255
189 218 255
191 219 255
192 220 255
193 220 255
195 221 255
197 222 255
201 224 255
206 227 255
210 229 255
210 229 255
210 229 255
210 229 255
210 229 255
210 229 255
210 229 255
210 229 255
210 229 255
209 229 255
209 229 255
209 229 255
209 229 255
209 229 255
209 229 255
209 229 255
209 229 255
209 229 255
209 229 255
209 229 255
209 229 255
209 229 255
209 229 255
209 229 255
209 229 255
209 229 255
209 229 255
209 229 255
209 229 255
209 229 255
209 229 255
209 229 255
209 229 255
209 229 255
209 228 255
209 228 255
209 228 255
208 228 255
208 228 255
208 228 255
208 228 255
208 228 255
208 228 255
186 207 240
101 128 189
61 98 170
62 99 173
62 98 168
62 98 168
62 99 173
62 99 174
62 99 171
62 99 174
63 99 172
62 99 172
62 98 169
62 98 165
62 99 169
62 99 166
62 98 167
61 98 165
62 99 170
62 99 171
61 98 169
62 98 165
61 97 162
62 98 166
62 98 160
62 98 166
62 98 173
62 98 164
63 99 172
62 99 171
62 98 168
62 98 164
61 97 163
62 98 168
62 98 164
62 98 166
62 98 166
62 98 169
62 98 164
62 99 169
63 99 167
62 98 167
62 98 166
62 98 169
62 97 166
61 97 167
62 98 166
63 99 170
62 98 167
62 98 167
61 97 164
62 98 167
61 97 166
61 97 163
62 98 168
61 97 164
62 98 171
62 97 170
61 96 167
61 96 167
118 143 194
196 217 247
208 228 255
208 228 255
208 228 255
208 228 255
208 228 255
208 228 255
208 228 255
209 228 255
209 229 255
209 229 255
209 229 255
209 229 255
209 229 255
209 229 255
209 229 255
209 229 255
209 229 255
209 229 255
209 229 255
209 229 255
209 229 255
209 229 255
209 229 255
209 229 255
209 229 255
209 229 255
209 229 255
209 229 255
209 229 255
209 229 255
209 229 255
209 229 255
209 229 255
210 229 255
210 229 255
210 229 255
210 229 255
210 229 255
210 229 255
210 229 255
210 229 255
210 229 255
208 227 252
164 172 169
139 136 90
127 125 83
135 132 88
146 144 97
134 132 88
143 140 93
141 140 95
150 149 100
141 139 94
144 141 94
144 143 96
145 144 97
145 143 96
148 146 98
147 145 98
150 148 100
145 144 97
145 144 96
143 142 96
147 145 98
151 149 101
151 150 101
155 153 103
151 149 100
148 147 98
155 152 102
158 155 104
154 152 102
159 157 105
155 153 103
152 150 100
156 153 102
165 162 108
153 151 100
156 154 103
155 153 102
160 158 106
167 164 109
153 150 100
157 155 103
162 159 106
165 162 106
164 161 107
161 157 104
163 160 106
162 159 106
161 158 106
168 165 110
159 156 103
162 159 104
165 162 108
164 161 106
164 160 105
166 163 108
168 164 108
158 156 103
159 156 103
160 156 103
160 156 102
161 158 103
164 161 105
165 161 105
159 156 104
165 161 107
162 159 104
160 156 101
165 161 106
155 151 99
163 159 105
157 153 99
161 157 103
160 157 103
161 158 104
165 161 104
162 157 103
156 152 99
162 158 101
160 157 101
163 160 104
151 147 95
153 150 98
155 151 97
167 162 106
154 151 98
160 158 102
161 157 99
163 160 103
157 153 99
154 151 97
166 160 103
152 149 95
148 144 92
161 156 101
156 152 99
159 155 99
166 162 105
164 160 103
151 147 92
152 147 93
158 154 95
157 152 93
157 153 96
156 152 98
156 152 98
158 153 99
150 146 91
161 155 99
152 147 91
148 144 94
156 151 97
157 152 93
161 156 99
157 152 94
157 152 95
151 147 93
149 144 90
156 151 96
151 147 91
148 143 89
155 151 94
143 140 87
150 144 91
148 145 87
151 146 90
148 144 88
201 224 255
201 224 255
200 224 255
200 224 255
200 224 255
200 224 255
199 223 255
199 223 255
199 223 255
198 223 255
198 223 255
198 223 255
198 223 255
197 222 255
197 222 255
197 222 255
197 222 255
196 222 255
196 222 255
196 222 255
196 221 255
195 221 255
195 221 255
195 221 255
195 221 255
194 221 255
194 221 255
194 221 255
194 220 255
193 220 255
193 220 255
193 220 255
193 220 255
192 220 255
192 220 255
192 220 255
192 219 255
191 219 255
192 220 255
192 220 255
192 220 254
193 220 253
193 219 252
193 220 254
193 220 254
193 220 255
194 220 253
193 220 253
193 220 253
193 220 254
193 220 255
193 220 254
192 220 253
192 219 253
190 218 250
191 219 252
190 218 252
192 219 253
193 220 255
192 220 254
192 220 255
192 220 254
191 219 255
192 219 254
192 219 254
191 219 252
191 219 255
191 219 255
190 219 255
191 219 253
190 218 252
190 219 255
192 219 254
190 218 254
191 219 255
190 218 254
190 218 254
189 218 253
189 218 255
190 218 253
189 218 254
189 218 255
189 218 254
188 218 254
188 217 253
187 216 249
187 217 255
187 217 252
186 217 254
186 217 255
188 217 253
189 218 255
186 217 255
186 216 255
188 217 254
187 217 253
185 216 255
185 215 254
182 214 253
183 215 255
182 214 255
182 214 255
182 214 255
182 215 255
182 215 255
183 215 255
183 215 255
183 215 255
183 215 255
184 215 255
184 215 255
184 216 255
185 216 255
185 216 255
186 216 255
186 217 255
187 217 255
188 217 255
188 218 255
189 218 255
190 219 255
192 219 255
193 220 255
195 221 255
197 222 255
200 224 255
205 226 255
209 229 255
210 229 255
210 229 255
210 229 255
210 229 255
210 229 255
210 229 255
210 229 255
210 229 255
210 229 255
210 229 255
210 229 255
210 229 255
210 229 255
210 229 255
209 229 255
209 229 255
209 229 255
209 229 255
209 229 255
209 229 255
209 229 255
209 229 255
209 229 255
209 229 255
209 229 255
209 229 255
209 229 255
209 229 255
209 229 255
209 229 255
209 229 255
209 229 255
209 229 255
209 229 255
209 229 255
209 229 255
209 229 255
209 229 255
209 229 255
209 229 255
170 191 228
84 115 184
61 98 170
62 99 174
61 98 167
62 98 168
61 98 167
62 98 169
62 98 166
62 98 169
62 99 166
63 99 176
62 99 169
62 98 168
62 99 167
61 98 163
62 99 172
62 99 166
62 98 162
62 99 170
63 99 166
62 98 169
62 98 164
62 99 166
63 99 169
62 98 169
62 98 164
63 99 164
61 97 159
62 99 168
63 99 168
62 98 162
62 98 166
62 99 167
62 98 165
62 98 167
62 98 165
62 98 161
62 99 173
62 98 161
61 97 160
62 98 165
63 99 168
62 97 158
61 98 166
62 98 167
62 98 163
63 99 174
62 98 166
62 98 171
61 97 164
62 97 163
62 98 170
62 98 166
61 97 165
62 97 168
62 98 167
61 98 169
61 97 166
61 96 165
60 97 167
62 98 172
81 111 176
186 206 237
209 229 255
209 229 255
209 229 255
209 229 255
209 229 255
209 229 255
209 229 255
209 229 255
209 229 255
209 229 255
209 229 255
209 229 255
209 229 255
209 229 255
209 229 255
209 229 255
209 229 255
209 229 255
209 229 255
209 229 255
209 229 255
209 229 255
209 229 255
209 229 255
209 229 255
209 229 255
210 229 255
210 229 255
210 229 255
210 229 255
210 229 255
210 229 255
210 229 255
210 229 255
210 229 255
210 229 255
210 229 255
210 229 255
210 229 255
210 229 255
201 219 241
148 152 138
136 134 89
137 134 90
133 131 87
136 134 90
140 138 93
137 136 92
133 133 91
142 140 94
139 138 93
138 137 92
127 127 86
140 139 94
148 146 98
142 142 97
135 135 91
147 146 98
153 151 101
149 148 100
152 150 101
148 148 100
151 150 101
145 145 98
155 153 102
159 158 106
154 152 103
162 159 106
158 156 105
160 157 105
161 159 106
159 157 105
161 158 105
156 153 102
161 158 105
160 159 107
157 155 104
156 153 102
158 155 103
162 159 106
154 151 101
165 162 107
156 154 103
156 154 102
165 162 108
161 157 105
163 160 105
161 158 105
158 156 103
160 158 104
163 159 105
167 163 108
162 160 106
162 160 105
164 161 106
167 163 107
164 160 105
165 161 104
167 162 108
165 162 105
160 156 103
165 161 105
157 153 101
163 160 104
161 157 102
166 162 108
165 161 104
167 164 106
164 160 105
156 153 100
167 162 105
164 160 105
161 158 103
163 160 105
163 159 103
164 159 101
164 160 106
165 160 99
162 157 102
163 159 103
165 161 104
158 154 99
160 156 100
154 151 97
163 159 103
167 163 105
161 158 103
162 157 101
156 152 100
164 159 102
164 159 101
156 152 97
159 154 97
155 150 96
162 157 99
162 159 104
161 156 100
158 153 96
159 155 98
168 163 105
156 152 98
160 155 98
153 150 95
156 151 93
157 152 94
158 153 100
158 153 99
165 160 100
154 150 97
159 154 99
155 150 94
159 154 97
158 154 99
153 148 94
153 149 93
151 147 91
151 146 93
151 146 92
150 147 93
152 147 95
148 143 90
141 137 85
153 149 91
145 141 90
153 149 93
149 145 90
146 142 89
146 143 90
201 224 255
201 224 255
201 224 255
200 224 255
200 224 255
200 224 255
200 224 255
199 223 255
199 223 255
199 223 255
198 223 255
198 223 255
198 223 255
198 223 255
197 222 255
197 222 255
197 222 255
197 222 255
196 222 255
196 222 255
196 222 255
196 222 255
195 221 255
195 221 255
195 221 255
195 221 255
194 221 255
194 221 255
194 221 255
194 221 255
194 220 255
193 220 255
193 220 255
193 220 255
193 220 255
193 220 255
193 220 255
193 220 254
195 221 254
194 220 252
193 220 254
194 221 255
195 221 253
194 220 254
193 220 253
194 221 254
193 220 254
195 221 255
194 220 255
193 220 253
194 221 254
193 220 254
192 219 252
194 220 254
192 220 253
192 219 252
193 220 255
193 220 255
193 220 255
193 220 254
192 220 253
193 220 253
192 220 254
192 219 254
192 219 254
192 219 254
190 219 254
193 220 255
191 219 253
193 220 254
192 219 255
191 219 255
190 218 254
191 219 255
191 219 255
190 218 254
191 219 255
191 219 255
189 218 255
192 220 255
189 218 254
190 219 254
189 218 254
189 218 255
190 219 255
189 218 253
189 218 255
189 218 254
189 218 253
189 218 255
188 217 253
188 217 249
188 217 254
187 217 254
187 217 255
187 217 254
186 216 255
186 216 255
188 217 255
185 216 255
185 216 255
184 216 255
182 215 255
182 215 255
183 215 255
183 215 255
183 215 255
183 215 255
183 215 255
184 215 255
184 215 255
184 216 255
185 216 255
185 216 255
185 216 255
186 216 255
187 217 255
187 217 255
188 217 255
189 218 255
190 218 255
191 219 255
192 220 255
193 220 255
195 221 255
197 222 255
200 224 255
203 226 255
209 229 255
210 229 255
210 229 255
210 229 255
210 229 255
210 229 255
210 229 255
210 229 255
210 229 255
210 229 255
210 229 255
210 229 255
210 229 255
210 229 255
210 229 255
210 229 255
210 229 255
210 229 255
210 229 255
210 229 255
210 229 255
210 229 255
209 229 255
209 229 255
209 229 255
209 229 255
209 229 255
209 229 255
209 229 255
209 229 255
209 229 255
209 229 255
209 229 255
209 229 255
209 229 255
209 229 255
209 229 255
209 229 255
208 228 255
149 171 217
65 101 175
62 98 171
61 98 167
62 99 174
62 99 171
62 99 168
62 99 168
62 99 170
62 99 170
62 98 163
63 99 169
62 98 161
62 99 165
63 99 174
63 99 170
62 99 168
62 98 164
61 98 165
62 98 166
61 97 160
62 99 167
62 99 169
62 98 162
62 98 162
62 98 166
62 98 165
62 99 169
62 98 165
62 98 165
63 99 165
62 98 166
62 98 166
63 99 170
62 98 166
62 98 166
61 97 159
61 97 164
62 98 167
63 99 172
62 98 164
62 98 163
63 99 164
62 98 166
62 98 164
61 97 166
62 98 167
61 97 164
62 98 168
61 97 165
62 98 164
62 98 168
61 97 163
61 97 169
62 98 169
62 98 162
61 96 156
63 98 169
61 98 169
62 98 168
61 97 163
61 96 165
61 97 167
61 96 165
61 96 166
148 170 213
209 229 255
209 229 255
209 229 255
209 229 255
209 229 255
209 229 255
209 229 255
209 229 255
209 229 255
209 229 255
209 229 255
209 229 255
209 229 255
209 229 255
209 229 255
209 229 255
209 229 255
209 229 255
210 229 255
210 229 255
210 229 255
210 229 255
210 229 255
210 229 255
210 229 255
210 229 255
210 229 255
210 229 255
210 229 255
210 229 255
210 229 255
210 229 255
210 229 255
210 229 255
210 229 255
210 229 255
210 229 255
210 229 255
197 213 230
132 129 92
124 122 78
130 128 85
137 136 91
138 136 90
138 136 92
136 134 89
137 135 91
137 135 91
143 141 94
147 146 99
140 138 93
140 139 93
151 149 100
141 141 96
150 148 99
147 146 99
144 143 97
156 154 103
148 146 98
150 149 100
158 156 104
143 142 95
153 151 102
141 140 94
154 153 103
160 158 105
156 155 104
164 162 108
150 147 99
154 152 101
157 154 103
159 156 104
148 147 99
159 158 106
155 153 103
159 156 104
166 163 108
156 154 103
160 157 104
158 155 103
167 165 109
160 157 104
159 156 104
164 161 106
163 160 107
159 157 105
165 161 107
165 161 105
163 159 104
158 154 103
168 165 109
165 162 108
160 157 103
162 159 105
168 163 108
163 160 106
170 165 109
165 161 105
165 162 107
168 164 108
164 161 106
168 164 106
161 158 104
164 161 104
161 157 102
163 159 101
168 163 106
164 161 105
159 155 103
164 160 105
170 165 108
167 162 106
162 158 103
158 154 100
165 160 104
163 160 102
157 153 98
165 161 106
157 154 98
164 160 104
158 154 99
162 159 101
152 149 97
164 160 103
167 162 104
167 162 104
164 158 101
159 156 103
167 163 106
161 156 98
158 153 99
157 154 97
162 158 100
155 153 99
156 152 97
151 147 93
162 158 99
160 156 98
152 147 95
155 149 94
165 161 102
157 152 96
156 152 99
167 162 102
158 154 96
149 145 90
163 158 101
159 155 97
160 156 99
161 156 97
157 152 96
159 154 97
159 155 97
164 159 103
160 155 98
158 153 95
156 151 95
146 142 90
150 146 93
151 148 93
146 142 89
154 149 95
145 141 87
143 139 87
153 149 92
148 142 90
153 149 89
201 225 255
201 224 255
201 224 255
201 224 255
200 224 255
200 224 255
200 224 255
200 224 255
199 223 255
199 223 255
199 223 255
199 223 255
198 223 255
198 223 255
198 223 255
198 223 255
197 222 255
197 222 255
197 222 255
197 222 255
196 222 255
196 222 255
196 222 255
196 222 255
195 221 255
195 221 255
195 221 255
195 221 255
194 221 255
194 221 255
194 221 255
194 221 255
194 220 255
193 219 254
194 221 254
195 221 254
196 222 254
195 221 253
195 221 255
196 222 254
195 221 254
194 220 254
194 221 254
196 222 255
197 222 255
195 221 254
195 221 254
195 221 254
194 221 255
193 220 254
194 221 254
194 220 253
195 221 255
195 221 255
194 221 255
194 220 252
194 221 254
195 221 255
194 221 255
195 221 254
192 220 255
194 221 254
193 220 255
193 220 255
192 219 255
192 219 254
192 220 255
193 220 255
192 220 255
193 220 255
193 220 255
192 220 255
193 220 255
192 219 254
192 220 253
192 220 255
191 218 250
192 219 253
190 218 255
191 219 254
192 220 255
194 220 255
192 219 255
191 219 255
191 219 255
191 219 254
192 219 255
190 218 255
190 219 255
189 218 254
188 218 255
190 218 254
189 218 255
188 217 254
188 217 254
187 217 252
187 217 255
187 217 253
188 217 253
188 217 255
186 216 254
185 216 255
187 217 253
185 216 255
184 215 255
183 215 255
183 215 255
183 215 255
183 215 255
184 215 255
184 215 255
184 216 255
185 216 255
185 216 255
185 216 255
186 216 255
186 217 255
187 217 255
187 217 255
188 218 255
189 218 255
190 218 255
191 219 255
192 220 255
193 220 255
195 221 255
197 222 255
199 223 255
203 225 255
209 229 255
210 230 255
210 230 255
210 230 255
210 229 255
210 229 255
210 229 255
210 229 255
210 229 255
210 229 255
210 229 255
210 229 255
210 229 255
210 229 255
210 229 255
210 229 255
210 229 255
210 229 255
210 229 255
210 229 255
210 229 255
210 229 255
210 229 255
210 229 255
210 229 255
210 229 255
210 229 255
210 229 255
209 229 255
209 229 255
209 229 255
209 229 255
209 229 255
209 229 255
209 229 255
209 229 255
201 221 249
118 143 197
62 99 167
62 98 170
62 98 168
61 98 161
63 99 170
61 98 163
62 99 169
62 99 168
62 98 165
63 99 169
61 97 163
63 99 166
62 98 168
63 99 171
63 99 166
61 98 162
62 98 166
62 98 165
62 98 163
63 99 169
61 97 163
62 98 165
62 98 164
62 98 165
62 98 166
62 98 164
62 99 164
62 98 161
62 98 167
61 97 158
61 97 163
63 99 167
63 99 164
62 98 166
62 99 169
62 98 165
60 96 159
62 98 164
62 99 164
61 97 161
61 97 160
62 98 167
62 98 162
62 98 165
62 98 162
62 98 161
62 98 166
62 99 168
61 97 162
62 98 163
62 97 162
61 98 164
61 97 164
62 97 160
62 98 161
61 97 166
61 97 162
63 98 171
62 98 168
62 97 160
61 96 161
60 96 163
61 96 162
60 95 159
62 97 162
60 95 164
122 145 193
206 226 252
209 229 255
209 229 255
209 229 255
209 229 255
209 229 255
209 229 255
209 229 255
210 229 255
210 229 255
210 229 255
210 229 255
210 229 255
210 229 255
210 229 255
210 229 255
210 229 255
210 229 255
210 229 255
210 229 255
210 229 255
210 229 255
210 229 255
210 229 255
210 229 255
210 229 255
210 229 255
210 229 255
210 229 255
210 229 255
210 229 255
210 229 255
210 229 255
210 230 255
210 230 255
210 230 255
189 203 217
132 131 90
132 130 86
138 135 89
138 136 92
143 142 96
133 131 89
140 139 93
140 139 94
143 142 96
145 144 98
132 132 90
154 152 103
149 147 99
142 142 96
146 144 97
145 143 97
137 136 92
151 149 100
141 140 95
147 147 99
158 155 104
143 143 97
160 158 106
158 156 104
150 149 100
150 147 99
158 155 104
158 156 104
151 149 101
161 158 105
155 152 102
162 159 105
160 158 105
153 151 100
155 152 102
167 164 108
165 162 108
165 162 108
166 163 108
161 159 106
167 163 108
159 155 102
161 157 104
163 160 105
164 160 106
166 162 106
163 159 105
163 159 105
168 164 108
160 157 104
169 165 109
163 160 106
163 159 104
160 157 103
162 158 104
163 160 105
162 159 104
164 160 103
161 157 103
165 161 106
162 158 104
167 164 108
162 159 104
161 156 101
167 163 106
161 158 103
159 155 100
166 162 106
163 160 104
164 160 103
164 160 105
164 159 103
163 160 104
157 154 95
160 156 101
161 158 103
160 155 100
170 166 106
173 168 108
165 161 105
164 161 102
164 159 101
162 157 101
166 160 102
162 157 101
163 157 102
166 161 102
155 151 97
162 158 99
159 156 97
161 156 97
163 159 103
165 161 101
160 155 99
160 154 98
163 158 99
159 154 99
163 158 101
159 155 101
161 157 100
158 155 101
147 144 90
160 155 97
158 154 95
167 161 102
165 158 99
157 153 97
157 153 93
154 148 93
158 152 97
154 150 93
156 151 97
160 156 96
159 154 96
156 151 93
146 141 90
155 150 91
155 150 92
151 146 87
152 148 92
152 148 92
153 149 94
157 153 95
153 148 93
148 145 91
154 149 92
148 143 91
148 144 91
144 140 85
202 225 255
201 225 255
201 224 255
201 224 255
201 224 255
200 224 255
200 224 255
200 224 255
200 224 255
199 224 255
199 223 255
199 223 255
199 223 255
198 223 255
198 223 255
198 223 255
198 223 255
197 222 255
197 222 255
197 222 255
197 222 255
196 222 255
196 222 255
196 222 255
196 222 255
196 221 255
195 221 255
195 221 255
195 221 255
195 221 255
194 221 255
195 221 254
196 222 254
195 221 255
197 222 253
196 222 255
195 221 255
197 222 254
196 222 254
197 222 255
195 221 254
195 221 254
196 222 254
195 221 252
196 222 255
194 221 255
196 222 254
195 221 255
196 222 255
197 222 255
195 221 255
195 221 255
194 221 253
195 221 255
195 221 255
195 221 255
194 221 255
195 221 255
194 221 255
196 222 255
195 221 255
194 220 253
193 220 252
193 220 254
193 220 254
192 219 250
192 219 253
192 219 252
192 219 252
191 219 250
192 219 254
192 219 253
191 218 249
191 219 253
191 219 253
191 219 250
191 219 253
191 219 253
190 218 252
190 218 246
189 217 246
190 218 249
190 218 252
191 219 253
190 218 254
189 218 249
190 219 255
190 218 254
191 219 253
190 219 255
191 219 255
191 219 255
190 218 255
190 219 255
191 219 253
188 217 254
190 219 255
189 218 252
187 217 254
188 218 255
188 217 254
187 217 253
189 218 255
187 217 254
188 218 255
186 216 254
185 216 255
184 215 255
184 215 255
184 215 255
184 216 255
184 216 255
185 216 255
185 216 255
185 216 255
186 216 255
186 217 255
187 217 255
187 217 255
188 217 255
188 218 255
189 218 255
190 219 255
191 219 255
192 220 255
194 220 255
195 221 255
197 222 255
199 223 255
203 225 255
209 229 255
211 230 255
211 230 255
211 230 255
211 230 255
211 230 255
211 230 255
210 230 255
210 230 255
210 230 255
210 229 255
210 229 255
210 229 255
210 229 255
210 229 255
210 229 255
210 229 255
210 229 255
210 229 255
210 229 255
210 229 255
210 229 255
210 229 255
210 229 255
210 229 255
210 229 255
210 229 255
210 229 255
210 229 255
210 229 255
210 229 255
210 229 255
210 229 255
210 229 255
199 219 248
110 136 191
62 98 172
63 99 177
62 99 168
62 98 166
62 98 167
62 98 166
61 97 157
62 98 169
60 96 166
62 98 173
62 99 168
62 98 168
62 98 167
62 98 166
62 99 167
61 97 160
63 99 170
61 98 162
63 99 170
62 98 161
61 98 166
62 98 157
63 99 165
62 98 159
63 99 166
62 98 161
62 98 164
61 97 165
63 99 171
62 98 165
62 98 165
61 97 154
61 98 166
62 98 168
61 97 160
62 98 161
61 97 161
62 99 168
62 98 160
62 98 165
62 98 166
63 99 165
62 98 165
62 98 167
62 98 165
62 98 167
63 99 168
61 97 160
62 98 166
62 99 164
62 98 166
61 97 166
62 98 164
62 97 157
61 97 162
62 98 165
62 97 158
61 97 161
62 98 164
61 97 163
62 98 164
61 97 163
61 96 157
62 98 166
62 98 167
60 95 161
61 96 164
60 95 167
112 136 185
204 223 251
210 229 255
210 229 255
210 229 255
210 229 255
210 229 255
210 229 255
210 229 255
210 229 255
210 229 255
210 229 255
210 229 255
210 229 255
210 229 255
210 229 255
210 229 255
210 229 255
210 229 255
210 229 255
210 229 255
210 229 255
210 229 255
210 229 255
210 229 255
210 229 255
210 230 255
210 230 255
210 230 255
211 230 255
211 230 255
211 230 255
211 230 255
211 230 255
211 230 255
174 186 197
121 118 77
137 135 90
136 134 90
139 138 93
131 129 88
137 136 92
134 132 90
143 142 96
141 139 94
142 141 95
132 131 88
139 138 94
139 139 95
147 146 98
149 147 99
141 140 95
148 146 98
144 143 96
151 149 100
153 151 102
153 151 103
151 150 102
156 154 103
152 150 101
150 148 100
154 152 102
158 155 102
153 151 101
158 155 103
154 153 103
162 159 106
159 157 106
157 155 104
162 159 105
157 155 104
165 162 108
156 153 103
161 158 103
162 159 105
161 157 104
157 155 102
165 162 108
168 164 109
164 161 106
162 158 104
162 159 105
170 166 109
164 160 104
159 155 101
160 157 103
163 159 105
166 163 106
168 165 110
167 164 108
162 159 104
164 159 104
159 155 101
168 164 108
168 163 106
168 164 108
167 163 106
162 158 104
164 160 106
167 163 107
170 165 106
164 160 106
166 161 106
161 157 100
162 157 102
164 159 104
169 165 108
168 164 106
164 159 102
168 165 106
166 162 104
163 159 102
165 161 101
165 160 104
166 161 104
164 159 101
157 154 100
160 157 100
163 159 101
157 152 99
161 157 101
164 158 103
162 157 100
160 155 99
160 156 101
163 159 101
156 151 97
164 160 103
160 156 97
164 159 99
158 153 97
156 153 99
163 157 98
163 159 100
160 155 101
156 151 95
157 153 96
162 157 101
166 160 101
164 159 97
157 153 99
160 154 96
160 156 96
156 152 95
161 156 99
158 153 97
158 153 95
160 155 97
155 150 96
155 150 94
158 154 97
155 150 93
162 158 99
153 148 93
156 151 94
161 156 94
156 152 93
154 149 92
155 151 95
155 150 98
153 149 93
149 144 88
150 145 89
152 148 94
143 139 86
151 146 85
202 225 255
202 225 255
201 225 255
201 224 255
201 224 255
201 224 255
200 224 255
200 224 255
200 224 255
200 224 255
199 224 255
199 223 255
199 223 255
199 223 255
199 223 255
198 223 255
198 223 255
198 223 255
198 223 255
197 222 255
197 222 255
197 222 255
197 222 255
196 222 255
196 222 255
196 222 255
196 222 255
196 222 255
195 221 255
196 222 255
198 223 254
198 222 253
197 222 253
198 223 255
198 222 253
198 223 255
198 223 254
197 222 255
197 222 254
197 222 254
196 222 254
196 222 253
196 221 250
197 222 255
197 222 252
196 222 254
195 221 254
197 222 253
196 222 255
195 221 254
197 222 255
195 221 255
197 222 255
196 222 255
195 221 255
196 222 255
195 221 253
194 220 249
194 221 254
194 220 252
193 220 248
193 219 248
192 219 245
193 220 250
193 220 253
193 220 253
193 220 250
193 220 250
193 219 250
191 218 242
192 219 254
193 220 253
193 220 253
192 219 249
193 220 253
192 219 249
192 219 253
191 219 249
192 219 250
192 219 250
191 219 252
191 218 249
191 218 249
191 218 250
190 218 248
191 219 255
190 218 248
190 218 249
189 217 246
190 218 252
190 218 252
189 218 250
192 220 255
193 220 255
190 219 254
191 219 254
190 218 255
190 219 254
190 218 254
190 218 254
189 218 252
188 218 255
188 218 255
188 218 254
190 219 254
189 217 252
187 217 255
188 217 253
185 216 255
184 216 255
184 216 255
185 216 255
185 216 255
185 216 255
185 216 255
186 216 255
186 217 255
187 217 255
187 217 255
188 217 255
188 218 255
189 218 255
190 218 255
190 219 255
191 219 255
192 220 255
194 221 255
195 221 255
197 222 255
199 223 255
203 225 255
208 228 255
211 230 255
211 230 255
211 230 255
211 230 255
211 230 255
211 230 255
211 230 255
211 230 255
211 230 255
211 230 255
211 230 255
211 230 255
211 230 255
210 230 255
210 230 255
210 229 255
210 229 255
210 229 255
210 229 255
210 229 255
210 229 255
210 229 255
210 229 255
210 229 255
210 229 255
210 229 255
210 229 255
210 229 255
210 229 255
210 229 255
210 229 255
202 222 250
116 141 194
62 99 177
62 99 173
62 99 171
62 99 172
61 98 166
62 99 168
62 98 168
62 98 162
62 99 170
62 98 166
62 98 171
61 98 164
62 98 164
63 99 161
62 99 170
62 98 169
61 98 161
62 98 163
62 98 164
61 97 164
61 98 162
63 99 168
62 98 158
62 99 164
61 97 161
62 98 163
63 98 159
62 98 163
63 99 165
61 97 153
63 99 164
62 98 158
62 98 163
62 98 163
62 98 162
62 99 166
61 97 160
61 97 159
63 99 166
61 96 151
62 98 159
62 98 165
63 99 168
62 99 165
62 98 160
63 99 169
61 97 163
62 98 161
61 97 154
62 98 164
61 96 159
62 99 168
61 97 162
62 98 169
62 98 166
62 98 167
62 98 163
62 98 167
61 97 164
61 97 163
62 98 163
62 98 162
61 97 167
62 98 167
61 96 165
62 97 164
61 96 163
61 96 164
59 93 156
61 96 167
100 125 173
203 222 250
210 229 255
210 229 255
210 229 255
210 229 255
210 229 255
210 229 255
210 229 255
210 229 255
210 229 255
210 229 255
210 229 255
210 229 255
210 229 255
210 229 255
210 229 255
210 230 255
210 230 255
210 230 255
210 230 255
211 230 255
211 230 255
211 230 255
211 230 255
211 230 255
211 230 255
211 230 255
211 230 255
211 230 255
211 230 255
211 230 255
211 230 255
174 185 190
131 128 83
127 125 83
146 143 95
135 133 89
140 139 94
143 142 95
131 130 89
139 138 94
144 142 96
147 145 97
144 143 96
138 137 93
143 142 96
142 140 95
153 151 102
150 149 100
144 142 96
150 148 100
145 143 97
148 147 100
144 143 97
147 146 99
147 146 99
140 139 94
152 150 101
156 155 104
163 160 106
149 147 99
152 150 100
166 163 109
158 155 102
157 154 102
159 157 105
156 154 104
165 161 106
162 160 107
160 157 105
161 157 104
165 161 105
171 168 111
168 164 107
164 161 108
166 162 106
161 158 105
164 160 105
162 158 104
165 160 104
163 160 105
165 162 105
170 165 109
165 162 107
162 158 105
164 161 104
165 161 106
163 159 104
168 163 106
164 161 105
166 162 107
161 157 103
167 164 106
166 162 106
166 161 103
164 160 103
168 164 107
169 165 106
161 157 103
162 159 103
165 161 103
163 159 102
166 161 104
171 165 107
168 163 105
165 160 103
167 163 104
162 157 99
165 161 103
165 161 104
168 163 104
164 159 101
166 161 104
167 162 103
167 163 104
168 163 104
161 157 101
161 157 100
168 164 103
164 159 100
166 162 101
166 162 103
162 158 101
161 156 97
159 155 98
160 155 97
163 158 96
163 159 100
169 164 105
167 161 101
157 151 93
162 158 100
164 159 99
162 157 101
165 161 102
159 154 97
162 157 99
158 153 95
155 152 97
160 155 95
155 150 92
164 159 100
158 154 96
159 154 98
162 156 97
155 150 95
161 157 97
157 151 92
155 150 93
149 145 88
157 153 93
158 153 95
147 143 86
154 149 92
157 152 95
155 150 94
157 152 96
151 147 92
153 147 92
160 154 97
151 147 90
143 138 85
147 143 88
157 153 95
202 225 255
202 225 255
202 225 255
201 225 255
201 225 255
201 224 255
201 224 255
201 224 255
200 224 255
200 224 255
200 224 255
200 224 255
199 224 255
199 223 255
199 223 255
199 223 255
199 223 255
198 223 255
198 223 255
198 223 255
198 223 255
197 222 255
197 222 255
197 222 255
197 222 255
197 222 255
196 222 255
197 222 254
196 221 252
198 223 255
198 223 255
198 223 254
196 222 253
198 223 254
197 222 254
198 223 254
198 222 253
196 221 249
197 222 255
197 222 254
197 222 254
197 222 254
199 223 253
197 222 255
197 222 255
197 222 254
197 222 255
196 222 254
196 222 253
198 222 254
196 222 254
197 222 255
197 222 254
196 222 255
195 221 254
194 220 245
194 220 246
194 220 248
193 219 248
195 221 253
194 220 250
195 221 254
194 220 252
194 220 252
194 220 249
194 221 253
195 221 254
194 220 250
193 220 253
194 220 252
194 221 255
193 220 249
193 220 249
193 220 252
193 219 248
193 219 249
193 220 253
193 220 253
192 219 246
193 220 253
192 220 253
192 219 250
192 219 252
192 219 248
191 219 248
192 219 252
192 220 255
192 219 252
191 218 245
190 218 249
190 218 248
189 217 244
189 217 248
190 218 250
190 218 249
190 219 254
191 219 255
191 219 255
192 220 255
191 219 254
191 219 255
190 219 254
189 218 254
189 218 253
189 218 253
189 218 253
188 217 254
190 218 254
187 217 254
187 217 253
187 217 255
185 216 255
185 216 255
185 216 255
186 216 255
186 217 255
186 217 255
187 217 255
187 217 255
188 217 255
188 218 255
189 218 255
189 218 255
190 219 255
191 219 255
192 220 255
193 220 255
194 221 255
196 221 255
197 222 255
200 224 255
203 225 255
209 229 255
211 230 255
211 230 255
211 230 255
211 230 255
211 230 255
211 230 255
211 230 255
211 230 255
211 230 255
211 230 255
211 230 255
211 230 255
211 230 255
211 230 255
211 230 255
211 230 255
211 230 255
211 230 255
211 230 255
210 230 255
210 230 255
210 230 255
210 229 255
210 229 255
210 229 255
210 229 255
210 229 255
210 229 255
210 229 255
196 216 245
113 138 194
62 98 168
62 98 164
61 97 163
62 98 170
62 98 166
61 97 160
62 99 168
62 98 164
62 98 165
62 98 161
62 98 164
62 98 168
62 98 165
62 98 165
62 99 165
63 99 170
62 98 164
61 98 165
62 98 164
62 99 165
62 98 166
62 98 157
62 99 164
63 99 169
62 98 162
62 98 160
63 98 162
62 98 159
61 97 157
62 98 161
62 98 162
62 98 163
62 99 162
62 98 165
63 99 166
61 97 156
62 98 158
62 98 164
63 99 169
62 99 165
62 98 165
62 97 158
62 97 153
61 97 159
62 98 166
61 97 163
60 95 154
61 97 164
62 98 159
62 98 164
61 97 156
61 97 155
61 97 157
62 97 160
62 97 164
61 97 162
62 98 169
62 98 167
60 96 157
62 98 164
61 97 161
61 97 163
62 98 162
61 97 167
60 95 163
61 96 161
62 97 166
61 96 156
61 95 157
61 95 160
60 95 159
59 94 158
94 120 173
197 217 246
210 229 255
210 229 255
210 229 255
210 229 255
210 229 255
210 229 255
210 230 255
210 230 255
210 230 255
210 230 255
211 230 255
211 230 255
211 230 255
211 230 255
211 230 255
211 230 255
211 230 255
211 230 255
211 230 255
211 230 255
211 230 255
211 230 255
211 230 255
211 230 255
211 230 255
211 230 255
211 230 255
211 230 255
211 229 254
166 176 178
133 130 87
137 135 90
140 138 93
130 129 88
131 130 89
135 134 91
135 133 89
141 140 95
144 142 96
141 140 95
126 126 87
140 139 94
140 140 95
151 149 100
147 146 99
155 153 103
142 140 94
145 145 98
148 147 99
152 150 101
152 150 101
157 155 104
153 151 102
152 149 100
147 145 95
148 146 99
154 152 101
155 152 102
154 152 101
150 148 99
159 156 105
160 158 105
152 149 100
158 155 102
156 153 101
156 153 102
158 154 103
160 157 104
166 162 107
158 155 104
168 165 108
160 157 105
162 159 105
166 162 107
164 160 104
167 163 107
165 161 106
168 165 109
165 161 105
166 163 108
167 163 107
166 162 106
169 164 108
167 162 105
167 163 108
167 163 106
166 162 105
167 163 107
167 163 107
162 159 102
163 160 105
167 163 106
166 162 105
165 161 104
165 160 104
168 164 105
174 168 108
167 162 103
160 157 103
167 163 104
165 161 104
169 164 106
158 154 97
155 151 95
168 163 106
168 163 104
168 162 103
168 163 103
163 160 103
172 167 108
169 164 103
164 160 104
163 158 100
163 158 100
165 161 102
163 158 99
164 160 102
168 163 104
159 155 98
164 160 102
165 160 103
168 163 104
160 156 96
163 159 100
164 160 101
164 160 99
159 154 96
167 162 103
155 151 97
165 160 101
165 159 102
162 157 96
163 158 99
161 155 96
157 152 92
165 160 102
156 152 93
161 156 100
165 159 99
155 151 91
158 154 95
156 152 93
156 151 93
149 145 89
154 151 93
156 151 93
154 149 95
154 150 94
157 152 99
152 147 92
151 146 93
158 151 95
158 153 95
149 144 88
156 151 92
155 150 93
155 149 90
157 151 93
154 149 90
156 151 92
153 149 90
158 152 92
203 225 255
202 225 255
202 225 255
202 225 255
202 225 255
201 225 255
201 224 255
201 224 255
201 224 255
200 224 255
200 224 255
200 224 255
200 224 255
200 224 255
199 224 255
199 223 255
199 223 255
199 223 255
199 223 255
198 223 255
198 223 255
198 223 255
198 223 255
197 222 255
197 222 255
197 222 254
199 223 254
198 223 252
199 223 255
198 223 254
199 223 254
200 224 255
198 223 254
199 223 254
199 223 254
199 223 252
199 223 254
198 223 253
198 223 255
199 223 252
198 223 254
197 222 254
198 223 255
199 223 254
199 223 255
198 223 254
197 222 254
198 223 255
199 223 255
198 223 255
197 222 254
196 222 252
196 222 254
196 221 253
195 221 249
195 220 248
195 220 245
195 220 248
195 221 250
195 220 248
195 221 252
195 221 252
195 221 252
196 222 255
195 221 250
195 221 253
195 221 252
194 220 249
195 221 254
194 220 249
195 221 254
195 221 253
194 220 252
194 220 250
193 219 246
194 220 252
194 221 253
193 220 248
193 220 253
194 220 253
194 220 253
193 220 252
193 220 252
193 220 254
193 220 252
193 220 254
193 220 252
193 220 253
192 220 253
192 220 253
191 219 248
191 219 249
192 219 254
190 218 245
191 219 253
191 219 253
190 217 245
189 218 248
192 219 253
193 220 255
191 219 255
192 220 254
191 219 255
191 219 254
190 219 254
190 218 255
188 217 252
189 218 252
190 219 254
190 218 255
190 218 255
189 218 254
187 217 254
186 216 255
186 217 255
186 217 255
187 217 255
187 217 255
187 217 255
188 217 255
188 218 255
189 218 255
189 218 255
190 219 255
191 219 255
191 219 255
192 220 255
193 220 255
195 221 255
196 222 255
198 223 255
200 224 255
203 226 255
209 228 255
211 230 255
211 230 255
211 230 255
211 230 255
211 230 255
211 230 255
211 230 255
211 230 255
211 230 255
211 230 255
211 230 255
211 230 255
211 230 255
211 230 255
211 230 255
211 230 255
211 230 255
211 230 255
211 230 255
211 230 255
211 230 255
211 230 255
211 230 255
211 230 255
211 230 255
211 230 255
211 230 255
204 223 250
105 131 184
62 99 172
61 97 155
61 97 166
62 98 161
62 98 164
62 97 159
62 98 162
63 99 169
62 98 164
61 97 159
61 98 166
62 98 161
62 98 166
62 98 160
62 98 164
61 97 162
62 98 159
62 98 164
62 98 163
63 99 164
61 97 157
63 99 167
62 98 163
62 98 160
62 98 160
62 98 162
62 98 165
62 98 166
61 97 157
62 98 157
62 98 156
61 97 158
63 98 161
62 98 156
62 98 164
61 97 153
62 98 162
62 98 163
62 98 166
62 98 163
63 99 165
62 98 162
63 98 162
62 98 161
61 97 155
62 99 167
62 98 165
62 98 158
62 97 164
62 98 161
62 98 163
61 97 159
61 97 158
62 98 162
62 98 164
63 99 169
61 96 156
61 97 160
61 96 156
61 97 162
62 98 166
61 96 161
62 97 159
61 97 167
61 96 156
60 96 164
61 96 162
62 97 158
61 95 157
61 95 160
62 96 162
62 97 170
60 94 156
59 93 161
86 114 176
200 219 247
211 230 255
211 230 255
211 230 255
211 230 255
211 230 255
211 230 255
211 230 255
211 230 255
211 230 255
211 230 255
211 230 255
211 230 255
211 230 255
211 230 255
211 230 255
211 230 255
211 230 255
211 230 255
211 230 255
211 230 255
211 230 255
211 230 255
211 230 255
211 230 255
211 230 255
211 230 255
211 230 255
166 176 178
134 131 86
140 137 90
134 132 87
131 129 87
143 141 95
133 132 89
144 142 97
140 140 95
136 136 92
147 144 97
130 130 89
144 143 97
141 139 94
144 142 96
141 140 94
146 146 99
141 140 95
156 153 103
148 147 99
150 149 101
146 144 97
149 147 99
153 152 103
156 154 105
152 150 100
154 152 101
149 148 99
153 152 102
148 146 98
159 156 103
153 150 100
158 156 104
161 158 105
158 156 105
155 152 101
161 158 105
163 160 107
163 160 105
161 158 105
165 163 108
168 164 109
160 157 103
170 166 109
167 163 108
163 159 105
160 157 104
171 166 109
167 163 107
167 163 107
164 160 103
158 155 103
164 160 104
167 162 103
166 163 106
172 168 107
167 164 108
164 161 106
165 161 103
171 165 104
168 164 105
170 166 107
167 162 106
163 160 103
165 161 102
169 166 108
170 165 106
170 166 107
171 165 107
168 163 105
167 162 104
166 161 102
165 160 103
171 167 109
168 164 104
161 155 99
167 161 103
168 163 106
168 164 103
165 161 103
165 160 103
168 163 104
163 158 103
168 163 105
167 162 106
162 157 99
169 164 105
167 162 101
160 156 98
167 162 103
167 160 97
164 160 98
163 159 102
161 157 101
156 151 95
163 158 101
166 161 104
160 156 101
159 156 99
167 162 102
167 161 101
160 155 97
156 152 94
164 158 99
163 159 98
161 156 96
158 153 97
160 155 96
162 158 97
163 159 102
164 159 99
156 152 97
163 158 101
162 157 97
153 148 92
157 152 97
155 150 93
153 148 94
152 148 90
162 157 97
158 153 93
149 145 84
154 149 91
163 158 96
151 147 89
157 152 93
163 159 101
150 145 87
151 146 90
143 138 84
149 144 88
152 148 87
157 152 93
151 147 86
203 225 255
203 225 255
202 225 255
202 225 255
202 225 255
202 225 255
202 225 255
201 225 255
201 224 255
201 224 255
201 224 255
201 224 255
200 224 255
200 224 255
200 224 255
200 224 255
199 224 255
199 223 255
199 223 255
199 223 255
199 223 255
198 223 255
198 223 255
198 223 255
199 223 254
200 224 254
199 223 252
199 223 253
200 224 255
200 224 255
199 223 254
198 223 253
199 223 253
199 223 253
199 223 252
198 223 254
199 223 253
199 223 254
198 223 254
199 223 253
200 224 255
198 223 255
199 223 255
199 223 254
199 223 255
198 223 255
199 223 255
198 223 254
198 222 252
196 221 244
196 221 248
197 222 252
197 222 253
196 221 248
197 222 253
196 221 246
197 222 253
197 222 253
196 221 248
196 221 252
196 221 249
196 222 252
197 222 254
196 222 254
196 222 254
196 222 253
195 221 249
197 222 255
196 221 253
195 221 250
196 222 254
195 221 250
196 221 253
195 221 253
194 220 249
196 221 254
195 221 252
195 221 253
196 221 255
195 221 253
195 221 253
195 221 253
194 221 253
194 221 253
194 220 252
193 220 250
194 220 252
193 220 252
192 218 245
192 219 252
193 220 255
193 220 253
193 220 253
193 220 255
193 220 254
192 219 252
192 219 252
191 219 250
190 218 244
191 218 246
191 219 250
191 219 253
193 220 255
192 219 254
192 220 255
191 219 255
192 220 255
191 219 254
190 218 253
191 219 253
191 219 254
191 219 255
190 218 253
188 218 255
187 217 255
187 217 255
187 217 255
187 217 255
188 217 255
188 218 255
188 218 255
189 218 255
189 218 255
190 219 255
191 219 255
191 219 255
192 220 255
193 220 255
194 221 255
195 221 255
197 222 255
198 223 255
200 224 255
204 226 255
210 229 255
212 230 255
212 230 255
212 230 255
212 230 255
211 230 255
211 230 255
211 230 255
211 230 255
211 230 255
211 230 255
211 230 255
211 230 255
211 230 255
211 230 255
211 230 255
211 230 255
211 230 255
211 230 255
211 230 255
211 230 255
211 230 255
211 230 255
211 230 255
211 230 255
211 230 255
210 229 255
125 149 198
62 99 177
62 99 172
61 98 166
61 98 167
61 98 162
63 99 165
62 99 170
61 98 162
62 98 165
62 98 161
61 98 158
62 98 162
62 98 164
62 98 165
61 97 160
62 98 163
62 98 161
62 98 166
63 99 165
62 99 165
61 97 154
63 99 166
61 97 149
62 98 158
62 98 160
62 98 160
62 98 166
62 98 156
62 98 161
62 97 159
62 98 161
61 97 160
61 97 158
61 97 151
62 98 158
63 99 165
61 96 149
62 98 166
61 97 161
62 98 156
62 98 155
61 97 161
61 97 160
64 99 168
63 100 173
62 98 163
63 99 167
62 98 163
62 97 158
61 97 156
60 96 158
63 99 165
62 97 158
61 97 155
62 98 164
62 98 162
61 97 161
62 98 161
61 97 155
62 98 168
62 97 156
62 97 160
62 99 171
62 97 165
62 97 164
62 98 163
62 97 161
61 97 161
60 96 161
61 96 167
60 95 162
61 96 159
60 95 158
59 94 157
60 95 158
60 93 156
122 145 190
208 227 253
211 230 255
211 230 255
211 230 255
211 230 255
211 230 255
211 230 255
211 230 255
211 230 255
211 230 255
211 230 255
211 230 255
211 230 255
211 230 255
211 230 255
211 230 255
211 230 255
211 230 255
211 230 255
211 230 255
211 230 255
211 230 255
212 230 255
212 230 255
212 230 255
212 230 255
170 178 177
132 129 84
138 136 90
133 131 87
133 131 88
142 140 94
127 127 88
132 131 88
135 135 93
144 142 97
137 137 95
149 148 100
147 145 97
135 135 92
144 142 96
142 141 95
148 147 100
141 139 93
149 147 99
145 144 97
149 147 100
157 155 103
150 148 100
150 148 99
153 150 100
148 147 100
155 153 103
157 155 104
152 150 101
155 152 102
152 150 100
151 149 99
166 163 109
164 161 107
156 154 102
161 158 105
162 159 107
159 156 104
154 151 101
166 163 108
167 164 109
158 156 103
155 153 100
166 161 106
165 161 106
160 157 103
169 166 108
166 162 105
170 166 109
167 163 106
165 161 106
162 158 104
165 162 106
167 163 104
169 165 106
164 161 104
162 159 105
169 165 105
168 165 105
169 164 107
166 162 105
168 163 106
164 159 104
166 161 104
164 159 101
167 163 104
166 162 103
168 163 106
166 161 104
167 162 105
167 162 104
173 167 106
170 164 106
168 163 104
163 160 103
164 160 104
166 162 101
162 158 101
165 160 103
161 157 100
169 165 108
168 162 101
172 167 108
166 161 101
171 167 108
156 151 95
164 160 102
170 165 105
168 163 103
161 158 101
164 160 101
161 157 99
163 158 99
162 158 97
157 152 97
164 159 99
162 157 99
163 158 98
165 160 101
162 158 99
164 159 101
169 164 103
162 157 98
166 161 98
163 158 100
155 152 95
162 157 98
159 154 94
158 153 94
155 150 93
168 161 99
159 154 94
159 154 95
161 155 95
163 158 98
160 155 96
165 159 97
163 158 97
159 154 93
161 155 95
152 147 93
159 153 95
156 151 95
154 149 95
158 153 95
158 153 93
155 150 94
148 143 91
155 149 89
165 159 97
154 148 90
148 143 82
149 145 87
144 140 84
150 145 89
203 226 255
203 225 255
203 225 255
203 225 255
202 225 255
202 225 255
202 225 255
202 225 255
202 225 255
201 225 255
201 224 255
201 224 255
201 224 255
201 224 255
200 224 255
200 224 255
200 224 255
200 224 255
200 224 255
199 223 255
199 223 255
199 223 255
199 224 255
201 224 255
200 224 253
200 224 252
201 224 255
200 224 253
200 224 255
200 224 255
200 224 255
200 224 254
200 224 255
200 224 254
199 223 252
201 224 254
201 224 255
200 224 254
200 224 255
200 224 255
200 224 255
201 224 255
200 224 255
200 224 255
200 224 255
198 223 253
198 222 250
197 222 250
198 222 253
198 223 254
197 222 249
198 222 253
198 222 253
198 222 250
198 222 253
197 222 252
197 222 249
197 222 248
197 222 252
198 222 253
197 222 253
197 222 250
197 222 253
197 222 254
197 222 252
197 222 250
197 222 252
197 222 254
196 221 250
197 222 254
197 222 253
196 221 250
197 222 254
197 222 254
195 220 246
196 221 252
196 222 254
196 221 252
195 221 249
196 221 253
196 221 253
196 221 252
195 221 252
196 221 254
195 221 253
195 221 253
195 221 252
194 220 246
195 221 252
195 221 253
194 221 254
194 220 253
194 220 252
194 221 254
193 219 246
192 219 246
193 220 254
192 219 248
192 219 249
193 220 254
192 219 250
192 220 255
192 219 250
191 219 250
193 220 255
191 219 255
194 220 255
192 219 253
192 219 255
190 218 252
192 219 252
190 218 252
191 219 252
191 219 253
190 218 252
188 217 253
187 217 255
188 217 255
188 218 255
188 218 255
189 218 255
189 218 255
190 218 255
190 219 255
191 219 255
191 219 255
192 220 255
193 220 255
194 220 255
195 221 255
196 222 255
197 222 255
199 223 255
201 224 255
204 226 255
210 229 255
212 230 255
212 230 255
212 230 255
212 230 255
212 230 255
212 230 255
212 230 255
212 230 255
212 230 255
212 230 255
212 230 255
212 230 255
211 230 255
211 230 255
211 230 255
211 230 255
211 230 255
211 230 255
211 230 255
211 230 255
211 230 255
211 230 255
211 230 255
211 230 255
137 160 207
62 99 168
62 98 162
61 98 164
62 98 161
62 98 168
62 98 162
61 98 163
62 98 161
63 99 163
63 99 167
61 98 166
62 98 161
61 97 159
62 98 160
63 99 170
64 100 175
63 99 169
61 97 158
62 98 161
62 98 162
61 97 151
62 98 163
62 98 165
61 97 157
63 99 164
61 97 162
62 98 158
62 98 156
62 98 165
62 97 159
62 98 162
63 99 167
62 97 160
62 98 161
62 98 162
62 98 163
62 99 164
63 99 166
62 97 161
62 98 162
62 98 156
61 96 150
62 99 163
62 98 161
61 96 155
62 98 156
61 97 156
62 98 159
61 97 160
60 96 158
62 98 163
61 97 153
62 98 162
62 98 161
62 98 166
62 97 160
62 98 163
61 97 163
62 98 163
60 95 157
61 97 160
63 98 166
61 96 157
61 96 162
61 96 157
61 96 157
61 96 156
61 98 166
61 96 160
62 98 162
60 95 161
61 96 163
60 96 158
60 93 150
61 96 159
61 96 162
60 94 154
59 93 164
129 151 196
210 229 255
211 230 255
211 230 255
211 230 255
211 230 255
211 230 255
211 230 255
211 230 255
211 230 255
211 230 255
211 230 255
211 230 255
211 230 255
212 230 255
212 230 255
212 230 255
212 230 255
212 230 255
212 230 255
212 230 255
212 230 255
212 230 255
212 230 255
212 230 255
180 191 197
132 128 83
131 129 86
130 128 85
133 131 88
131 130 88
136 135 92
137 135 91
139 137 92
139 138 94
130 129 88
136 136 93
142 141 96
137 137 93
139 138 95
143 143 99
148 147 99
140 139 95
149 147 99
148 147 99
141 140 94
150 149 100
147 145 99
151 149 99
156 153 103
147 146 99
157 154 103
152 150 100
149 147 99
157 153 100
153 152 102
152 149 98
166 162 107
157 155 104
159 156 103
163 161 107
156 155 103
162 158 102
157 155 103
157 155 101
165 161 105
165 161 107
162 158 103
167 163 106
162 159 104
167 162 106
164 159 103
162 158 103
163 158 103
167 163 107
168 164 106
167 163 106
163 158 101
173 168 109
167 163 106
169 165 107
170 165 108
167 163 105
163 159 102
169 165 107
165 161 103
166 162 105
170 165 104
169 164 106
167 162 104
172 167 108
166 162 104
166 162 103
165 161 102
163 160 103
170 166 105
168 163 105
175 169 108
166 163 104
171 165 103
168 164 104
170 165 104
162 158 103
165 160 104
165 160 103
165 160 103
171 166 106
168 163 104
164 161 105
167 162 104
170 164 102
164 160 99
167 162 103
164 160 101
169 163 104
167 162 101
165 160 98
165 161 100
165 159 98
164 158 99
166 162 101
170 164 105
160 156 97
170 165 104
167 162 101
164 160 102
163 158 97
162 158 94
167 163 101
163 158 99
164 159 95
162 157 98
158 152 95
165 160 97
160 155 94
161 157 98
164 159 99
151 146 92
165 160 100
154 149 93
157 152 92
159 153 94
159 153 95
162 157 97
161 156 97
162 156 95
157 153 93
158 153 93
163 157 98
158 152 95
148 143 84
161 155 95
159 154 95
161 156 95
159 153 90
149 145 89
144 140 85
148 143 89
165 158 97
154 148 92
155 150 90
204 226 255
203 226 255
203 226 255
203 225 255
203 225 255
203 225 255
202 225 255
202 225 255
202 225 255
202 225 255
202 225 255
201 225 255
201 224 255
201 224 255
201 224 255
201 224 255
200 224 255
200 224 255
200 224 255
200 224 255
200 224 255
201 224 255
201 224 254
202 225 255
202 225 255
202 225 255
201 224 253
200 224 254
201 224 255
201 224 255
199 223 249
200 224 255
200 224 255
201 224 255
200 224 254
200 223 254
201 224 255
201 224 254
200 224 255
200 224 255
201 224 255
202 225 255
201 225 255
198 222 252
199 223 252
199 223 253
199 223 252
198 222 249
197 221 249
199 223 253
198 222 250
199 223 254
199 223 253
198 222 249
199 223 253
198 222 250
198 223 252
198 222 249
198 222 252
198 222 249
199 223 255
197 222 250
197 222 249
199 223 254
198 222 250
199 223 255
198 223 255
198 222 250
198 223 253
198 223 253
197 222 250
197 222 250
197 222 250
197 222 250
197 222 253
198 223 255
197 222 254
197 222 253
197 222 254
197 222 253
197 222 254
196 221 250
197 222 255
195 220 250
195 221 252
196 222 254
196 222 255
196 222 255
196 221 253
195 221 250
196 222 255
195 221 253
195 221 252
195 221 254
194 220 250
195 221 253
194 221 254
194 221 255
194 220 250
193 220 250
193 220 253
192 219 250
192 219 250
193 220 253
192 220 253
193 220 253
193 220 254
193 220 255
192 220 255
193 220 254
192 219 254
192 219 255
192 219 252
192 219 255
193 220 250
191 219 255
190 218 254
189 218 255
188 218 255
189 218 255
189 218 255
189 218 255
190 218 255
190 219 255
191 219 255
191 219 255
192 220 255
193 220 255
193 220 255
194 221 255
195 221 255
196 222 255
198 223 255
200 224 255
202 225 255
205 227 255
211 230 255
212 230 255
212 230 255
212 230 255
212 230 255
212 230 255
212 230 255
212 230 255
212 230 255
212 230 255
212 230 255
212 230 255
212 230 255
212 230 255
212 230 255
212 230 255
212 230 255
212 230 255
212 230 255
212 230 255
212 230 255
212 230 255
211 230 255
160 181 220
62 98 164
61 97 159
61 97 164
62 99 167
61 98 161
60 97 155
61 96 159
61 97 156
62 98 162
62 97 161
62 98 162
62 98 160
63 99 168
63 99 164
62 98 160
61 97 154
62 98 163
62 98 159
62 98 163
62 98 164
62 98 156
61 97 162
63 99 164
62 98 162
62 98 158
63 99 165
62 98 162
61 97 161
61 97 153
61 97 153
62 98 159
61 98 161
62 98 162
61 97 154
61 97 154
61 97 153
62 98 161
63 98 161
62 99 166
62 98 168
62 98 158
61 96 154
61 97 155
62 98 162
62 98 161
62 98 159
61 98 160
62 97 158
61 97 160
62 97 159
61 97 156
62 98 159
62 98 165
61 97 158
62 98 155
61 97 163
62 98 162
62 98 168
62 98 164
62 98 163
61 96 157
62 97 160
61 97 159
61 97 158
62 97 160
61 96 155
62 98 164
62 98 165
60 95 159
61 96 162
61 96 162
60 95 159
60 94 154
61 95 157
61 95 160
60 95 158
58 91 149
60 95 156
60 94 153
59 91 153
169 188 218
211 230 255
211 230 255
212 230 255
212 230 255
212 230 255
212 230 255
212 230 255
212 230 255
212 230 255
212 230 255
212 230 255
212 230 255
212 230 255
212 230 255
212 230 255
212 230 255
212 230 255
212 230 255
212 230 255
212 230 255
212 230 255
212 230 255
193 207 221
125 123 84
125 122 79
123 122 82
118 118 82
134 133 91
135 134 91
128 127 87
141 141 96
133 132 89
132 131 90
139 137 92
134 134 92
136 137 95
143 142 97
145 145 98
140 140 95
140 139 96
143 142 96
148 147 98
146 145 97
148 147 101
145 144 97
144 144 98
150 149 100
135 134 89
162 160 107
151 149 100
150 148 99
159 157 103
147 147 99
155 153 103
153 150 100
157 154 103
158 155 103
158 156 104
161 159 105
161 159 104
160 157 104
163 159 105
156 153 101
164 161 107
165 161 105
160 156 102
162 158 103
165 161 104
170 165 107
167 164 106
161 158 103
167 163 104
164 160 103
170 165 106
169 165 108
162 158 102
164 161 104
162 158 103
167 163 106
166 162 103
164 161 103
168 163 106
167 162 105
163 159 101
170 166 107
169 164 107
169 164 104
171 166 105
167 162 103
166 162 105
168 163 105
168 163 104
165 161 102
165 159 101
168 163 100
171 166 104
172 166 106
171 166 106
168 163 104
166 160 103
159 155 98
166 161 101
167 162 101
163 157 97
167 163 101
166 161 101
163 158 99
165 160 102
167 161 98
167 162 100
161 157 103
168 163 102
159 154 99
170 165 105
166 160 100
154 150 97
165 160 101
164 158 98
166 161 99
159 154 98
169 164 103
165 160 99
159 154 93
163 157 97
161 157 95
167 162 99
164 159 97
166 160 95
165 159 101
164 158 97
161 156 96
165 160 99
168 163 100
151 146 88
161 155 97
153 148 87
161 157 94
168 162 100
160 155 93
158 153 93
162 158 97
156 152 93
152 147 90
157 152 95
155 151 92
157 152 91
160 155 93
153 148 87
155 150 92
158 153 95
163 157 98
155 150 90
160 155 94
159 154 94
161 155 96
156 152 92
157 152 91
157 151 90
156 152 92
204 226 255
204 226 255
204 226 255
203 226 255
203 226 255
203 226 255
203 225 255
203 225 255
203 225 255
202 225 255
202 225 255
202 225 255
202 225 255
202 225 255
201 225 255
201 224 255
201 224 255
201 224 255
201 224 255
201 224 255
202 225 255
202 225 255
202 225 254
202 225 254
203 225 255
201 224 252
202 225 254
202 225 254
202 225 255
201 224 253
200 224 252
202 225 255
202 225 254
202 225 254
200 224 253
202 225 255
201 224 255
202 225 255
201 225 255
201 224 255
201 224 255
201 224 254
199 223 252
199 223 252
199 222 246
200 224 254
199 223 249
199 223 250
199 223 249
200 224 254
200 224 253
199 223 252
199 223 248
199 223 250
199 223 252
198 222 250
199 223 253
199 223 253
199 223 252
198 222 253
199 223 253
199 223 250
199 223 254
199 223 252
199 223 252
199 223 250
199 223 252
199 223 253
199 223 254
198 222 253
198 223 253
198 223 252
199 223 254
198 222 250
198 223 254
198 222 252
198 222 252
198 223 254
198 223 254
198 223 255
198 223 255
196 221 252
197 222 253
197 221 252
197 222 250
197 223 255
197 222 252
197 222 254
197 222 253
197 222 253
197 222 254
196 222 254
196 221 253
196 222 254
195 221 249
196 221 253
196 221 255
195 221 253
195 220 250
194 220 250
194 221 252
193 219 249
194 221 254
193 219 250
194 220 253
194 220 254
192 219 249
193 219 248
193 220 254
193 220 252
193 220 254
194 221 255
193 220 255
192 219 250
193 220 255
192 220 255
192 220 255
191 219 253
190 218 254
189 218 255
189 218 255
190 218 255
190 219 255
191 219 255
191 219 255
192 219 255
192 220 255
193 220 255
193 220 255
194 221 255
195 221 255
196 222 255
197 222 255
199 223 255
200 224 255
203 225 255
206 227 255
212 230 255
212 231 255
212 231 255
212 231 255
212 231 255
212 231 255
212 230 255
212 230 255
212 230 255
212 230 255
212 230 255
212 230 255
212 230 255
212 230 255
212 230 255
212 230 255
212 230 255
212 230 255
212 230 255
212 230 255
212 230 255
193 212 242
64 99 165
61 97 162
61 97 164
62 98 159
62 98 162
62 98 165
63 99 167
60 95 151
61 97 155
61 97 159
61 98 159
62 98 166
62 97 162
62 98 160
62 98 159
62 98 163
62 99 164
62 98 159
62 98 163
63 99 165
61 97 153
61 97 156
61 97 160
62 98 156
61 97 157
63 99 167
61 97 158
63 99 160
62 98 159
63 99 162
63 99 164
62 98 159
62 99 165
62 98 158
61 96 152
62 98 161
62 98 161
62 98 161
61 96 151
61 97 151
62 98 159
61 97 156
61 97 154
62 98 161
62 99 165
61 97 156
61 96 156
62 98 158
62 98 164
61 96 150
61 97 161
62 98 161
62 97 164
62 98 162
61 97 157
62 97 155
61 97 160
61 97 160
62 97 152
62 97 152
62 98 160
62 98 161
61 97 158
62 98 163
61 97 165
61 96 158
61 97 160
61 96 159
61 97 164
61 97 158
63 98 170
62 96 155
62 97 164
61 96 160
60 94 159
59 93 151
62 97 162
60 95 158
59 93 153
58 92 155
58 92 157
65 97 155
187 205 235
212 230 255
212 230 255
212 230 255
212 230 255
212 230 255
212 230 255
212 230 255
212 230 255
212 230 255
212 230 255
212 230 255
212 230 255
212 230 255
212 230 255
212 230 255
212 231 255
212 231 255
212 231 255
212 231 255
212 231 255
198 213 231
136 133 88
132 129 85
128 127 86
130 129 88
132 131 90
137 136 93
129 128 87
142 142 97
127 127 88
135 134 92
122 122 85
134 134 91
132 132 92
139 138 94
137 136 93
136 136 94
141 140 95
145 144 97
143 143 96
157 156 105
148 146 99
147 146 99
144 144 98
146 145 97
144 142 95
148 146 98
155 152 100
144 143 96
154 152 102
156 154 102
155 153 101
157 154 100
154 151 99
158 154 102
166 163 107
152 148 99
159 157 104
161 158 103
160 156 103
168 164 107
163 159 102
162 159 104
165 161 104
166 162 105
164 162 105
166 163 103
170 165 107
163 161 106
163 159 103
164 160 104
164 160 103
166 162 106
167 162 103
168 164 108
165 161 106
169 164 105
170 166 106
169 164 107
164 159 100
171 166 107
174 168 107
169 164 105
168 163 105
169 164 105
170 166 105
169 165 104
165 161 103
169 165 106
171 165 105
166 162 102
172 168 106
165 161 104
168 163 101
170 165 104
173 169 110
171 166 105
171 165 103
169 164 105
170 165 104
169 164 104
168 163 104
171 165 106
169 163 102
164 159 98
172 167 105
167 161 103
168 163 97
164 160 101
164 159 100
167 162 102
165 160 101
166 161 101
157 153 94
165 160 99
169 163 102
171 165 104
172 166 104
163 158 99
167 162 104
165 159 101
166 162 99
166 161 99
160 156 95
169 163 102
162 157 99
169 164 101
155 151 95
163 157 97
159 155 97
162 157 95
160 155 96
162 157 95
163 158 97
162 157 93
163 157 97
163 157 100
160 156 93
162 156 97
167 161 96
158 153 96
158 154 93
160 155 94
157 152 90
166 159 94
161 156 95
156 152 93
156 151 92
159 154 90
160 155 93
160 156 99
160 153 93
164 157 96
158 153 95
165 158 97
150 146 87
156 150 91
153 148 86
204 226 255
204 226 255
204 226 255
204 226 255
204 226 255
204 226 255
203 226 255
203 226 255
203 225 255
203 225 255
203 225 255
202 225 255
202 225 255
202 225 255
202 225 255
202 225 255
201 225 255
201 225 255
202 225 254
202 225 254
203 225 255
202 225 255
203 225 254
202 225 254
203 225 254
202 225 253
203 225 255
201 224 252
202 225 253
203 225 255
203 226 255
203 225 255
202 225 253
203 225 255
203 225 255
203 226 255
202 225 255
202 225 255
204 226 255
202 225 255
201 224 253
200 224 252
201 224 254
200 223 248
200 223 250
200 224 252
201 224 253
201 224 255
200 224 253
200 224 253
200 224 252
200 223 250
201 224 254
201 224 253
200 223 249
200 224 253
200 224 253
201 224 254
200 224 252
201 224 255
201 224 255
200 224 253
200 224 253
200 223 252
199 223 250
200 224 254
199 223 252
198 222 249
200 224 253
200 224 254
199 223 252
199 223 252
200 224 254
200 223 254
199 223 254
199 223 254
198 222 250
197 221 248
198 222 250
199 223 253
198 223 252
198 223 253
198 223 253
198 222 252
199 223 255
198 223 254
198 223 253
197 222 250
198 222 253
198 222 253
197 222 253
197 222 254
197 222 253
197 222 255
197 222 254
197 222 254
197 222 254
197 222 254
196 222 254
196 221 253
195 221 252
195 220 249
195 221 253
195 221 252
194 220 248
194 220 250
194 220 248
194 220 252
194 220 253
193 220 252
195 221 253
194 221 254
195 221 254
195 221 253
194 220 254
194 221 255
194 220 254
193 220 254
192 219 253
191 219 250
190 219 255
190 219 255
191 219 255
191 219 255
191 219 255
192 219 255
192 220 255
193 220 255
193 220 255
194 221 255
195 221 255
196 222 255
197 222 255
198 223 255
199 224 255
201 224 255
204 226 255
208 228 255
212 231 255
213 231 255
213 231 255
213 231 255
212 231 255
212 231 255
212 231 255
212 231 255
212 231 255
212 231 255
212 231 255
212 231 255
212 231 255
212 231 255
212 231 255
212 230 255
212 230 255
212 230 255
212 230 255
198 217 246
84 114 174
62 98 168
61 97 160
62 98 159
62 98 163
62 98 158
61 97 160
61 96 153
62 98 164
62 98 163
62 98 161
62 98 161
62 98 161
62 98 161
61 97 160
62 97 157
62 97 161
61 96 150
62 98 158
61 98 168
61 97 156
63 99 161
62 98 157
63 99 164
62 98 159
62 98 162
62 98 158
62 98 157
62 98 161
61 97 154
62 98 159
63 98 164
60 96 147
62 98 157
61 97 154
60 96 150
62 98 159
63 99 163
62 98 159
62 98 164
62 97 156
62 98 165
62 98 154
62 98 156
62 98 151
63 98 158
61 97 155
62 98 163
61 97 158
62 98 164
62 98 162
62 98 162
62 98 162
62 97 160
62 97 158
62 98 161
60 95 148
62 98 160
62 98 160
61 96 153
61 96 154
62 97 159
62 97 160
61 97 158
59 95 150
62 97 160
61 97 159
61 95 155
61 96 163
62 97 158
61 95 151
61 95 154
61 95 149
61 95 151
60 95 154
61 95 155
62 96 161
60 95 161
59 93 150
61 95 158
62 96 166
58 92 155
59 93 156
96 120 166
208 226 251
212 230 255
212 230 255
212 230 255
212 230 255
212 230 255
212 231 255
212 231 255
212 231 255
212 231 255
212 231 255
212 231 255
212 231 255
212 231 255
212 231 255
212 231 255
213 231 255
213 231 255
213 231 255
204 220 240
139 139 111
130 128 86
127 126 84
119 117 79
124 123 84
124 124 85
131 129 86
132 131 90
125 124 85
141 140 94
139 137 93
135 135 93
130 131 90
136 136 93
134 133 91
132 131 90
144 143 98
140 139 94
142 141 95
146 144 97
139 139 95
147 146 97
147 145 98
143 144 98
154 152 102
150 148 98
155 153 103
152 151 99
145 144 96
149 147 99
156 153 102
153 151 101
152 149 100
156 153 101
158 155 103
156 153 101
163 160 106
161 158 103
162 160 106
161 158 104
165 161 103
163 160 105
164 160 105
166 162 106
162 159 105
169 164 106
163 160 104
167 163 105
165 162 105
160 157 102
164 161 106
166 162 104
170 165 107
167 163 103
169 165 105
171 166 108
172 167 108
169 164 103
173 168 109
167 163 103
169 164 106
171 166 108
169 165 107
172 167 107
166 161 100
171 166 105
168 164 103
174 168 107
169 165 103
166 162 103
171 166 104
172 167 105
168 163 99
171 166 106
170 165 105
172 166 103
163 158 99
164 160 101
169 164 104
166 161 100
168 163 101
171 166 104
170 164 103
164 160 99
168 162 102
169 163 104
170 165 103
167 162 101
170 164 101
163 159 97
162 158 99
168 163 100
167 162 102
160 156 93
165 161 99
161 156 94
168 164 103
159 154 90
168 162 99
164 159 97
169 164 98
169 164 103
159 154 96
165 160 100
170 163 102
168 163 101
162 157 98
168 162 99
168 163 103
165 160 99
164 159 99
161 157 97
161 156 96
158 153 89
167 162 101
153 149 91
165 159 99
162 157 96
160 154 92
160 155 96
157 152 96
153 147 88
153 149 91
159 154 93
164 158 97
159 155 97
157 152 93
157 153 93
161 155 94
155 150 90
158 153 94
163 157 91
150 145 88
156 151 92
155 151 90
148 143 85
147 142 86
153 148 90
205 227 255
205 226 255
205 226 255
204 226 255
204 226 255
204 226 255
204 226 255
204 226 255
203 226 255
203 226 255
203 226 255
203 225 255
203 225 255
203 225 255
202 225 255
202 225 255
202 225 254
203 226 255
203 226 254
203 226 254
203 225 254
203 225 254
204 226 255
204 226 255
204 226 253
204 226 255
202 224 250
203 225 255
203 225 253
204 226 255
203 225 255
203 226 254
203 225 254
203 226 255
203 225 253
204 226 255
202 225 254
203 225 254
202 225 253
201 224 250
200 223 246
200 223 246
201 224 250
201 224 249
201 224 253
201 224 250
202 225 255
201 224 252
201 224 253
200 223 252
201 224 253
201 224 253
201 224 253
201 224 254
202 225 255
200 223 253
201 224 253
200 224 252
201 224 250
201 224 252
201 225 255
200 224 252
201 225 255
200 224 252
201 224 254
201 224 254
200 223 250
201 224 255
201 224 253
200 223 254
201 224 254
200 224 253
200 224 253
200 224 253
199 223 250
200 224 254
200 224 255
199 223 252
200 224 254
200 224 254
199 223 250
199 223 252
199 223 254
199 223 254
199 223 254
199 223 254
199 223 252
198 222 250
198 222 248
197 222 248
198 222 252
198 223 254
198 223 254
198 222 253
197 222 254
197 222 253
197 221 249
197 222 253
197 222 253
197 222 254
197 222 255
197 222 252
197 222 254
195 221 250
195 221 253
195 220 249
196 221 254
195 221 252
194 220 248
194 220 250
193 220 248
196 222 255
195 221 254
195 221 255
195 221 255
194 221 254
195 221 254
194 220 253
195 221 253
193 220 253
192 220 254
191 219 255
191 219 255
191 219 255
192 220 255
192 220 255
193 220 255
193 220 255
194 220 255
194 221 255
195 221 255
196 222 255
197 222 255
198 223 255
199 223 255
200 224 255
202 225 255
205 226 255
209 229 255
213 231 255
213 231 255
213 231 255
213 231 255
213 231 255
213 231 255
213 231 255
213 231 255
213 231 255
213 231 255
213 231 255
213 231 255
213 231 255
213 231 255
212 231 255
212 231 255
212 231 255
212 231 255
135 158 203
61 97 160
61 97 161
61 97 158
62 98 162
61 97 162
63 99 169
62 98 164
62 97 160
63 99 171
62 98 159
62 98 162
62 98 165
62 99 164
61 97 156
62 98 164
61 96 158
62 98 159
60 96 154
61 97 156
62 98 164
62 98 164
61 96 154
63 99 164
61 97 153
62 98 160
61 96 153
61 97 150
62 98 158
61 97 155
61 97 154
62 97 159
61 97 151
61 97 159
60 96 154
61 96 147
63 98 161
61 97 156
62 98 157
61 97 154
61 97 152
62 98 159
62 98 163
61 97 155
62 97 152
60 96 146
61 97 153
62 98 155
61 96 151
62 98 159
62 98 158
61 97 153
61 97 152
61 97 154
62 97 156
61 97 155
62 97 156
61 97 162
62 97 159
61 97 157
61 96 151
60 95 150
62 97 162
62 98 157
62 98 164
61 96 156
62 98 166
61 96 157
61 97 160
61 97 158
61 96 160
62 97 155
60 95 157
62 98 166
60 95 157
61 96 160
60 95 156
61 96 161
60 94 148
60 95 159
61 95 162
59 92 153
61 95 163
58 91 151
57 91 154
129 150 193
212 231 255
212 231 255
212 231 255
212 231 255
212 231 255
213 231 255
213 231 255
213 231 255
213 231 255
213 231 255
213 231 255
213 231 255
213 231 255
213 231 255
213 231 255
213 231 255
213 231 255
213 230 254
139 142 124
130 126 82
125 124 83
131 129 87
133 132 89
132 131 89
126 125 85
126 126 86
131 130 90
126 126 87
137 137 94
139 138 93
136 136 94
140 140 96
140 139 96
137 136 93
138 137 93
142 141 96
144 143 96
136 136 93
138 138 96
143 143 97
145 143 98
149 148 100
152 150 100
155 153 102
153 151 100
158 155 102
155 153 100
155 152 100
155 152 102
161 158 104
157 155 104
150 148 99
158 155 101
162 158 104
158 155 101
155 152 98
164 160 105
156 155 103
160 158 104
167 164 105
165 160 103
166 162 105
166 162 103
161 157 101
166 161 103
163 160 105
171 166 104
170 165 107
162 159 103
171 167 107
166 162 104
168 164 105
173 168 109
169 164 107
173 166 106
168 163 104
169 165 107
171 166 106
174 169 108
170 165 104
170 165 104
170 166 104
173 167 107
170 165 107
173 168 108
172 167 108
170 164 104
172 167 105
169 164 102
170 165 106
169 163 104
169 164 104
170 165 104
171 166 105
172 167 103
168 162 103
166 161 101
164 159 101
170 164 103
167 162 101
170 164 104
173 168 103
165 161 97
166 161 103
167 162 104
172 166 103
172 166 104
161 157 94
168 162 101
168 163 99
169 163 100
164 159 100
169 163 101
157 152 95
163 158 99
166 161 99
170 164 99
166 161 97
166 162 101
162 157 95
163 159 101
167 161 100
163 158 99
162 156 97
169 164 102
157 152 93
165 160 97
157 152 95
162 157 95
164 158 97
161 154 95
161 156 93
157 153 89
168 161 95
165 160 100
162 157 93
158 153 94
164 159 95
162 156 96
165 160 97
163 158 93
164 158 93
155 149 89
158 153 94
158 153 93
164 158 99
159 153 91
150 146 89
157 152 91
156 150 89
155 150 87
147 142 87
163 157 93
154 149 88
155 149 92
152 148 89
156 152 93
205 227 255
205 227 255
205 227 255
205 226 255
205 226 255
204 226 255
204 226 255
204 226 255
204 226 255
204 226 255
204 226 255
204 226 255
203 226 255
203 226 255
203 225 255
203 225 255
205 227 255
204 226 255
205 226 255
204 226 253
204 226 255
204 226 255
204 226 253
204 226 254
203 225 250
203 225 253
203 226 254
204 226 254
204 226 255
203 225 253
204 226 254
204 226 255
205 227 255
204 226 255
203 225 254
204 226 254
204 226 254
202 225 252
202 224 250
202 225 252
202 225 253
202 225 252
202 225 253
201 224 248
203 225 255
202 225 253
201 224 252
201 224 249
201 224 249
202 224 252
202 225 253
202 225 252
201 223 246
202 225 254
202 225 253
202 225 254
202 225 254
201 224 249
201 224 249
202 225 253
201 224 250
202 224 253
201 223 252
202 225 253
201 224 249
202 225 254
201 224 252
202 225 254
201 224 254
200 223 253
201 224 254
201 224 253
200 223 250
201 224 254
200 224 254
200 224 250
201 224 253
200 224 250
201 224 255
200 223 252
201 224 254
200 224 252
200 224 254
200 224 253
200 223 252
199 222 250
200 223 253
200 224 255
200 224 254
199 223 252
198 222 248
199 223 254
198 222 249
199 223 250
199 223 253
199 223 252
198 223 254
198 223 253
198 222 252
197 222 250
197 221 246
198 223 255
198 222 254
197 222 254
196 221 250
197 222 255
197 222 250
195 220 248
196 222 254
196 221 252
195 221 249
195 221 253
195 220 249
195 221 254
196 222 255
197 222 255
196 222 254
195 221 255
195 221 253
195 221 255
194 221 254
193 220 253
192 220 255
192 220 255
192 220 255
193 220 255
193 220 255
194 220 255
194 221 255
195 221 255
195 221 255
196 222 255
197 222 255
198 223 255
199 223 255
200 224 255
201 225 255
203 226 255
206 227 255
211 230 255
213 231 255
213 231 255
213 231 255
213 231 255
213 231 255
213 231 255
213 231 255
213 231 255
213 231 255
213 231 255
213 231 255
213 231 255
213 231 255
213 231 255
213 231 255
213 231 255
174 194 228
61 98 165
61 97 159
60 96 157
62 98 166
61 98 164
62 98 164
61 97 158
62 98 164
62 98 161
61 98 164
62 98 160
61 97 151
61 97 159
62 97 157
61 97 159
62 97 153
62 98 156
61 97 155
62 98 164
62 98 164
62 98 161
62 97 154
61 97 156
62 97 156
62 98 156
61 97 153
61 97 158
60 96 145
62 98 159
61 97 150
62 98 160
62 98 157
62 97 152
62 98 158
62 97 155
61 96 147
61 96 150
61 97 162
61 97 158
62 98 161
61 97 150
61 97 149
61 97 153
62 97 156
61 97 156
62 97 153
62 98 157
62 97 158
62 98 162
61 97 156
62 98 161
61 97 156
61 96 154
61 96 156
61 97 150
61 97 158
63 99 165
62 97 155
61 97 152
62 97 160
61 97 154
60 96 154
62 97 160
60 95 148
62 97 160
61 97 158
62 97 159
62 97 155
61 96 155
61 96 154
61 96 154
61 96 157
60 94 152
61 96 155
60 94 147
61 95 152
61 96 157
60 94 154
61 96 156
59 93 151
60 94 156
60 94 157
60 93 151
59 93 157
59 92 149
58 91 154
179 198 227
213 231 255
213 231 255
213 231 255
213 231 255
213 231 255
213 231 255
213 231 255
213 231 255
213 231 255
213 231 255
213 231 255
213 231 255
213 231 255
213 231 255
213 231 255
213 231 255
162 168 162
130 127 83
130 128 86
124 123 83
120 119 80
120 120 82
122 122 84
127 128 88
135 134 91
133 134 92
134 133 92
136 136 94
133 133 92
132 132 90
117 118 84
140 139 94
151 150 101
126 126 88
137 137 94
143 142 95
136 135 92
152 150 101
153 152 102
145 144 98
152 150 102
152 149 99
153 151 100
156 153 103
155 152 100
153 151 102
150 147 96
153 151 100
156 153 99
154 151 98
162 159 105
160 157 104
162 159 104
158 156 103
149 147 96
159 157 101
155 153 98
167 163 106
164 160 102
168 163 102
161 158 103
162 158 103
167 163 106
166 162 104
163 159 101
166 163 105
164 160 104
169 164 105
173 169 110
165 161 103
172 167 109
169 165 105
168 163 103
170 165 105
174 168 107
171 166 107
172 167 105
172 167 106
169 164 104
169 165 104
171 166 106
168 163 102
166 161 103
166 161 101
173 167 106
165 159 101
166 162 104
170 164 107
170 165 102
170 164 102
170 164 103
169 164 100
171 166 105
166 161 101
168 162 103
172 168 106
168 163 101
173 168 104
174 168 106
166 162 100
166 161 97
165 161 99
171 165 101
167 162 101
166 159 98
170 165 103
172 166 102
171 166 104
167 162 103
165 161 99
170 165 101
168 163 99
170 164 100
165 161 97
171 166 106
166 161 98
169 165 101
169 164 101
164 159 101
162 158 96
162 157 97
168 163 104
162 158 96
165 159 98
161 156 95
163 157 94
163 159 96
165 160 98
160 155 93
165 159 98
172 165 102
162 156 96
163 157 93
167 161 101
164 159 95
161 156 88
157 151 88
155 150 90
156 151 94
160 155 93
153 149 89
162 156 93
156 151 90
157 151 89
158 154 97
159 154 92
158 152 89
154 149 87
160 155 90
150 145 84
156 151 90
143 139 81
155 151 92
159 153 90
155 150 87
151 146 86
206 227 255
206 227 255
206 227 255
205 227 255
205 227 255
205 227 255
205 226 255
205 226 255
205 226 255
204 226 255
204 226 255
204 226 255
204 226 255
204 226 255
204 226 255
205 226 254
205 227 255
205 226 255
206 227 255
205 226 254
204 226 253
205 227 255
206 227 255
205 226 254
204 226 255
204 226 254
205 226 253
204 226 254
205 227 255
204 226 254
206 227 255
204 226 253
205 227 255
204 226 255
203 225 254
202 224 246
202 224 248
202 224 248
202 225 249
203 225 252
202 224 249
203 225 253
203 225 250
203 225 252
203 225 253
203 225 254
203 225 252
203 225 253
203 226 255
204 226 255
203 226 255
203 225 253
203 225 253
203 225 253
202 225 252
202 224 246
203 226 255
202 224 249
203 225 253
203 225 254
202 224 252
203 225 254
202 225 253
202 225 252
202 224 253
202 225 252
202 224 249
202 225 253
202 225 254
202 225 254
203 225 255
202 225 254
202 225 253
202 225 255
202 225 254
202 225 254
201 224 253
202 224 253
201 224 253
202 225 255
201 224 253
201 224 253
201 224 252
201 224 253
201 224 253
200 224 252
200 224 253
201 224 254
200 224 252
200 223 250
200 224 252
200 224 253
200 223 253
200 224 255
200 224 254
199 223 250
200 224 255
199 223 253
199 223 250
199 223 254
198 223 252
198 223 252
199 223 252
198 223 253
198 222 252
198 223 254
197 222 252
198 222 253
197 221 248
196 221 249
197 222 252
196 221 250
196 221 252
196 221 253
197 222 254
199 223 255
197 222 255
196 222 253
196 221 250
196 221 252
196 222 255
195 221 254
195 221 253
193 220 255
193 220 255
193 220 255
194 220 255
194 221 255
194 221 255
195 221 255
195 221 255
196 222 255
197 222 255
198 223 255
199 223 255
200 224 255
201 224 255
203 225 255
204 226 255
208 228 255
213 231 255
213 231 255
213 231 255
213 231 255
213 231 255
213 231 255
213 231 255
213 231 255
213 231 255
213 231 255
213 231 255
213 231 255
213 231 255
213 231 255
213 231 255
207 225 250
91 120 174
61 97 168
62 98 162
61 97 159
62 98 167
62 99 169
61 98 160
62 98 160
61 97 157
61 97 152
61 97 155
61 97 156
62 98 158
61 97 156
60 96 149
62 98 159
62 98 164
61 97 153
62 98 162
61 97 158
62 97 152
62 98 162
62 98 158
62 97 155
61 97 151
60 96 154
62 98 163
61 97 155
61 96 151
62 98 156
62 98 155
61 97 155
62 98 157
62 98 157
62 97 157
62 98 156
61 97 150
61 97 154
62 98 155
62 98 158
61 97 160
62 97 154
61 97 153
60 95 150
62 98 159
60 95 153
62 98 160
62 97 157
60 96 149
61 97 157
61 97 157
61 96 150
61 97 155
62 98 160
60 96 152
61 97 162
60 96 148
62 98 161
62 98 160
61 97 155
61 97 153
61 96 156
61 97 159
61 97 151
61 96 149
61 96 156
62 97 160
61 96 151
60 94 148
61 97 159
61 96 154
60 94 150
61 96 152
60 94 149
61 95 153
62 97 161
60 94 149
60 95 155
59 94 153
62 96 158
60 93 152
59 91 146
59 92 146
60 94 155
59 92 150
58 90 149
59 92 152
91 115 158
205 222 247
213 231 255
213 231 255
213 231 255
213 231 255
213 231 255
213 231 255
213 231 255
213 231 255
213 231 255
213 231 255
213 231 255
213 231 255
213 231 255
213 231 255
196 210 226
115 114 78
128 126 82
127 126 84
116 116 80
125 125 84
121 120 82
122 122 83
123 124 88
112 112 79
123 123 85
126 127 88
129 129 89
134 134 93
121 122 87
134 133 91
145 145 100
129 130 90
139 138 95
143 141 95
138 138 95
140 140 96
145 144 97
148 147 98
148 146 97
151 149 100
153 150 101
157 154 104
154 152 102
149 147 99
145 143 93
154 152 101
155 153 101
157 155 104
149 148 99
156 154 99
160 157 102
158 155 101
165 160 104
160 157 102
160 157 103
159 155 100
163 159 102
160 157 104
168 164 105
165 161 103
168 164 106
160 157 101
168 163 105
169 164 104
166 162 103
163 159 102
166 162 105
167 163 104
165 160 101
169 166 105
169 164 104
170 166 104
164 160 103
167 162 103
170 166 104
169 165 104
168 163 98
172 167 108
168 163 99
168 163 102
173 167 105
173 168 107
172 166 101
173 168 108
171 166 104
169 164 103
166 162 100
170 166 103
169 164 103
170 166 103
170 165 103
174 168 105
174 169 106
168 163 101
167 162 98
168 163 99
171 165 104
175 169 104
168 163 101
173 167 103
173 167 104
165 161 101
167 162 99
167 163 99
164 159 96
170 164 104
167 162 99
172 166 103
174 168 104
168 162 98
166 161 95
160 155 95
171 164 99
164 160 95
168 163 97
168 162 95
168 162 101
161 156 97
163 158 99
163 158 93
166 160 97
164 159 95
169 164 99
165 159 95
165 159 98
160 154 89
168 162 101
167 161 99
163 156 97
161 156 93
156 151 93
160 155 94
160 154 92
159 153 90
162 157 96
160 155 95
159 154 94
161 155 95
164 158 95
165 160 97
158 152 88
165 159 96
157 151 90
165 158 91
163 156 93
153 149 90
152 148 87
152 146 85
159 153 95
158 152 93
149 144 85
149 143 85
152 147 87
157 152 90
156 150 87
206 227 255
206 227 255
206 227 255
206 227 255
206 227 255
206 227 255
205 227 255
205 227 255
205 227 255
205 226 255
205 226 255
205 226 255
204 226 255
205 226 255
205 227 254
205 227 254
205 227 255
205 227 254
205 226 250
206 227 254
206 227 253
206 227 254
204 226 253
205 226 253
204 226 252
205 226 253
205 226 255
205 226 252
205 227 254
205 227 255
205 227 255
206 227 254
205 226 255
205 226 255
204 226 252
203 225 249
202 224 246
203 225 249
203 225 250
202 224 248
203 225 250
203 225 248
204 226 253
204 225 252
204 226 253
204 226 254
203 225 252
204 226 255
203 225 250
203 225 252
204 226 255
204 226 254
204 226 254
204 226 255
204 226 254
204 226 255
203 225 252
204 226 254
203 225 252
203 225 253
203 226 254
203 226 254
203 226 254
203 226 254
202 224 252
203 225 254
202 224 252
203 225 252
202 225 252
201 224 249
203 225 254
203 225 254
203 225 254
202 225 252
202 224 250
203 225 253
202 225 254
201 223 246
202 225 250
202 225 254
202 225 253
201 224 249
202 224 252
201 224 252
202 225 254
202 225 255
202 224 252
201 224 253
201 224 253
202 225 254
201 224 254
201 225 254
201 224 253
201 224 252
201 224 254
200 224 252
200 224 254
200 223 250
200 224 254
199 223 249
199 223 252
200 224 255
200 224 254
199 223 252
199 223 252
199 223 252
199 223 255
199 223 254
198 223 253
198 222 253
198 223 254
197 222 252
197 221 249
196 221 248
196 221 250
197 222 253
198 223 255
197 222 255
197 222 254
197 222 254
196 221 254
197 222 255
196 222 255
196 222 255
195 221 255
194 221 255
194 221 255
195 221 255
195 221 255
195 221 255
196 222 255
196 222 255
197 222 255
198 223 255
199 223 255
200 224 255
201 224 255
202 225 255
204 226 255
206 227 255
210 229 255
214 231 255
214 231 255
214 231 255
214 231 255
214 231 255
214 231 255
214 231 255
213 231 255
213 231 255
213 231 255
213 231 255
213 231 255
213 231 255
213 231 255
161 181 217
61 97 161
61 97 165
62 98 163
62 98 156
61 97 155
62 98 159
61 97 155
61 97 153
61 97 157
61 97 155
61 97 155
62 98 157
62 98 162
62 98 166
61 97 158
62 97 154
61 97 157
62 98 159
62 98 163
62 97 154
61 97 148
61 97 154
62 97 156
61 97 155
62 98 158
61 96 148
61 97 154
62 98 155
62 98 161
61 97 153
61 98 162
61 96 150
61 97 153
62 98 159
62 98 152
62 97 159
62 97 156
61 96 145
62 98 159
61 96 151
61 96 152
61 97 151
61 97 156
62 98 154
62 97 153
61 97 151
62 97 156
60 96 154
62 97 156
61 97 153
61 97 151
61 96 152
60 95 148
61 96 148
61 97 158
61 96 150
61 97 159
62 98 161
62 98 159
60 95 143
60 96 147
62 97 158
61 97 153
59 94 153
60 94 141
60 95 147
61 96 149
60 95 152
60 95 159
61 96 154
61 95 146
60 95 154
61 95 145
62 97 158
60 95 155
62 96 153
61 96 149
61 96 156
59 93 135
60 94 153
60 95 151
60 95 152
59 91 143
58 91 152
61 95 154
57 89 138
59 92 150
58 90 147
157 177 210
213 231 255
213 231 255
213 231 255
213 231 255
213 231 255
213 231 255
213 231 255
213 231 255
214 231 255
214 231 255
214 231 255
214 231 255
214 231 255
210 227 250
132 132 101
134 131 87
121 120 81
107 108 76
130 128 86
126 124 84
124 124 84
120 121 85
116 116 81
131 131 90
127 127 89
123 122 84
133 133 92
134 134 92
126 127 88
133 134 91
129 130 88
141 140 95
130 129 88
131 131 91
141 139 94
139 138 94
140 138 93
143 141 93
148 147 96
151 150 97
146 145 96
144 143 97
148 146 97
156 153 101
146 144 97
160 156 100
156 154 102
150 149 98
149 147 95
163 160 106
160 157 103
151 148 96
163 159 104
164 161 104
161 159 104
171 167 106
164 161 105
162 159 102
165 162 107
163 160 102
158 155 99
168 164 102
167 163 103
166 161 103
172 167 103
170 166 105
171 166 105
167 164 106
169 165 106
171 166 106
169 164 103
166 162 101
168 165 107
167 163 103
170 165 104
170 164 105
174 168 107
168 163 101
171 166 102
171 166 104
168 164 102
172 166 103
168 163 98
169 164 103
172 166 102
166 161 99
169 164 100
176 170 107
172 166 102
169 164 101
165 160 97
169 164 103
168 162 102
169 164 103
168 162 102
172 167 103
172 166 104
168 163 101
171 166 104
171 165 103
169 164 103
172 167 101
167 161 97
172 167 101
172 167 103
172 166 101
167 162 100
168 162 97
169 163 99
165 161 99
170 163 98
162 157 99
164 158 98
167 162 101
171 164 99
173 167 102
167 161 95
168 162 99
168 163 100
169 164 102
167 162 97
163 158 97
166 161 97
166 161 98
162 156 94
165 159 97
169 163 100
166 159 94
163 158 97
166 161 96
160 154 90
164 159 97
165 160 97
161 156 91
162 157 94
164 157 94
153 147 90
164 158 98
160 154 91
157 152 89
157 151 91
161 155 90
162 157 93
148 143 87
159 154 89
145 141 81
159 154 91
153 147 90
156 150 90
158 152 91
158 152 88
162 156 91
158 154 93
153 148 87
147 142 82
207 228 255
207 227 255
207 227 255
206 227 255
206 227 255
206 227 255
206 227 255
206 227 255
206 227 255
205 227 255
205 227 255
205 227 255
206 227 255
206 227 254
206 227 254
206 227 253
206 227 254
206 227 254
205 226 252
206 227 255
207 227 255
206 227 254
206 227 255
205 227 254
207 227 255
206 227 255
206 227 254
206 227 254
206 227 255
206 227 255
206 227 255
206 227 255
206 227 255
204 225 248
204 226 252
202 224 242
204 225 249
204 225 250
204 226 253
204 226 252
203 225 249
204 226 253
203 225 250
204 226 250
205 226 254
204 226 252
204 226 252
205 226 254
205 227 255
205 226 254
204 226 253
204 226 253
204 225 250
204 226 253
204 226 253
204 226 253
203 225 249
204 226 254
204 226 253
204 225 254
203 225 249
204 226 253
204 226 254
204 226 254
204 226 255
204 226 255
204 226 253
204 226 254
204 226 254
204 226 254
203 225 252
203 225 252
204 226 254
204 226 254
204 226 255
202 225 253
203 226 254
203 225 253
202 225 250
203 225 254
203 226 255
203 225 253
203 225 254
203 225 254
202 224 249
202 225 252
202 225 252
202 225 252
202 224 250
202 225 253
202 225 254
202 225 253
201 224 252
201 224 253
202 225 254
201 225 254
201 224 252
201 224 252
201 224 252
201 224 254
201 224 254
199 223 250
201 224 255
201 224 255
200 223 252
200 224 254
200 223 253
200 224 254
199 223 252
199 223 250
199 223 254
198 223 252
198 222 252
197 221 245
198 222 250
197 222 248
198 223 253
198 223 255
198 223 255
198 223 255
198 222 254
196 222 252
197 222 252
198 223 255
197 222 254
195 221 254
195 221 255
195 221 255
196 221 255
196 222 255
196 222 255
197 222 255
198 223 255
198 223 255
199 223 255
200 224 255
201 224 255
202 225 255
203 225 255
205 226 255
207 228 255
212 230 255
214 231 255
214 231 255
214 231 255
214 231 255
214 231 255
214 231 255
214 231 255
214 231 255
214 231 255
214 231 255
214 231 255
214 231 255
202 220 248
76 108 168
60 96 157
61 98 158
62 98 161
61 98 161
62 98 158
61 97 157
61 97 149
63 98 157
61 96 150
60 96 148
62 98 156
62 98 161
61 97 155
62 98 158
62 98 163
61 97 156
61 97 151
61 97 152
62 98 159
62 97 162
62 97 153
60 94 143
62 98 158
62 98 159
63 98 159
62 98 157
62 98 161
61 96 151
61 96 150
63 98 160
62 97 154
62 97 151
62 97 150
61 96 150
61 96 143
62 98 160
61 97 151
62 98 152
61 97 153
62 98 157
61 97 150
61 97 151
61 97 157
62 98 154
62 97 156
61 96 151
62 97 153
61 97 156
61 96 150
61 97 152
62 98 156
63 98 155
62 97 151
62 98 160
61 96 149
62 98 161
61 97 152
61 96 149
62 98 161
61 96 141
62 97 156
62 98 159
60 95 148
61 96 150
61 97 155
61 97 156
59 93 141
61 96 155
61 96 151
59 93 144
62 97 157
61 96 153
60 94 144
61 96 158
60 95 150
60 94 149
60 94 147
62 97 163
60 95 150
61 95 152
60 94 153
60 94 142
59 93 154
60 95 157
59 93 156
60 94 153
58 91 152
56 88 145
67 96 152
201 219 244
214 231 255
214 231 255
214 231 255
214 231 255
214 231 255
214 231 255
214 231 255
214 231 255
214 231 255
214 231 255
214 231 255
214 231 255
163 172 173
118 116 74
125 124 85
122 122 83
130 129 86
132 130 88
121 122 85
125 125 87
134 134 92
127 127 87
115 116 81
125 125 86
136 135 93
127 128 91
132 133 93
141 140 94
142 141 96
124 124 85
130 130 89
133 133 92
138 138 96
140 140 94
140 140 94
144 143 96
142 140 93
132 131 87
144 142 95
150 148 98
150 149 98
150 148 98
153 151 98
156 154 99
158 156 102
150 148 99
160 157 104
143 142 95
160 156 101
158 154 100
162 158 103
163 159 104
165 161 104
162 159 106
159 155 97
158 155 100
170 166 106
165 161 103
167 162 102
163 159 100
164 160 103
160 157 101
167 163 103
167 163 104
163 159 103
168 162 101
165 161 105
166 162 101
167 163 103
171 166 104
165 161 99
173 168 107
169 164 100
171 166 101
167 162 100
172 167 104
171 167 107
172 167 103
169 165 104
170 165 101
168 162 102
171 166 103
173 167 104
171 166 103
173 167 104
173 167 104
174 168 103
174 168 102
173 167 103
172 167 104
171 165 101
173 167 103
167 163 97
172 166 101
168 163 100
167 161 98
168 164 103
170 165 102
171 166 101
170 165 100
170 164 100
171 166 101
171 165 102
171 165 103
169 164 103
170 165 102
172 166 103
165 160 97
165 160 98
171 165 99
167 161 99
164 159 95
169 163 99
167 161 99
162 157 93
161 156 96
168 163 100
170 164 102
167 162 95
160 155 91
160 154 90
168 162 102
164 158 92
167 161 97
162 158 90
167 161 100
159 154 93
162 157 97
161 155 95
158 153 90
157 151 93
163 157 93
162 157 94
151 146 90
162 156 93
167 162 97
166 160 93
157 152 87
164 158 98
158 153 89
162 157 98
161 156 90
159 153 92
158 153 92
156 151 90
167 162 100
152 147 86
155 151 85
159 154 93
159 154 95
157 152 89
158 151 92
154 149 88
158 152 90
207 228 255
207 228 255
207 228 255
207 228 255
207 228 255
207 227 255
206 227 255
206 227 255
206 227 255
206 227 255
206 227 255
205 226 254
207 228 254
206 227 253
206 227 253
207 227 255
207 227 254
207 227 254
207 228 255
206 227 254
207 228 254
206 227 253
206 227 253
206 227 254
207 228 255
205 226 253
207 228 255
206 227 255
206 227 254
207 228 255
206 227 255
206 227 253
205 227 254
204 226 249
206 227 254
204 226 249
205 226 253
204 226 249
205 226 253
205 226 249
205 226 252
205 226 252
205 226 253
205 227 254
205 226 250
204 225 249
205 227 254
205 227 253
205 226 253
205 226 253
205 226 253
205 227 254
205 227 254
205 226 252
205 226 252
205 227 255
204 226 250
205 226 253
205 226 254
204 226 250
204 225 252
205 226 254
204 226 252
205 226 254
204 226 252
204 226 252
205 226 254
204 226 252
204 225 253
204 226 252
205 226 254
205 226 255
204 226 254
204 226 253
204 226 253
204 225 250
204 226 253
204 226 253
204 226 252
204 226 253
203 225 254
202 224 252
204 226 254
204 226 253
204 226 255
203 225 253
204 226 255
203 225 253
203 225 253
203 225 252
202 224 253
203 225 254
202 225 254
202 225 252
203 225 255
203 225 255
202 225 252
202 224 250
202 225 255
202 225 254
202 225 255
202 225 254
202 225 255
201 224 253
201 224 254
201 224 252
201 224 254
200 224 253
200 224 252
200 224 254
200 224 254
200 223 253
199 223 252
200 223 253
199 223 254
198 222 250
198 222 252
198 223 253
200 224 255
198 223 255
199 223 254
198 222 253
199 223 253
198 223 255
197 222 252
197 222 254
195 221 254
196 222 255
196 222 255
197 222 255
197 222 255
197 222 255
198 223 255
199 223 255
199 223 255
200 224 255
201 224 255
202 225 255
203 225 255
204 226 255
206 227 255
209 229 255
214 231 255
214 232 255
214 232 255
214 232 255
214 232 255
214 232 255
214 232 255
214 232 255
214 231 255
214 231 255
214 231 255
214 231 255
136 158 202
62 99 170
62 98 166
60 96 153
61 97 164
60 96 151
63 99 163
60 96 153
61 96 147
62 98 158
61 97 153
62 98 159
60 96 145
63 98 163
61 97 152
61 97 155
62 98 159
61 97 157
62 98 157
62 98 156
61 97 149
62 98 163
61 97 153
61 97 151
61 96 153
62 98 162
61 97 152
60 96 151
61 97 154
62 98 160
61 96 148
62 98 152
62 98 155
61 97 148
62 98 158
63 98 163
61 97 150
61 97 154
60 96 154
61 97 148
63 98 158
62 98 164
63 99 165
62 97 154
61 97 149
61 97 153
61 97 149
62 98 161
61 96 147
61 97 156
61 96 152
62 97 155
61 97 153
62 98 158
61 97 153
61 96 151
61 97 158
61 97 153
62 98 154
61 96 151
61 96 150
61 96 148
60 96 151
61 97 153
61 97 151
61 97 156
62 97 153
60 95 148
59 94 143
60 94 147
61 97 155
61 96 153
61 96 148
61 96 157
61 95 148
60 95 146
62 97 158
61 96 152
61 95 155
60 93 143
59 92 147
59 93 152
60 94 161
61 95 158
57 89 132
59 92 148
60 93 151
58 92 147
58 90 141
59 92 149
58 91 150
133 154 193
214 231 255
214 231 255
214 231 255
214 231 255
214 232 255
214 232 255
214 232 255
214 232 255
214 232 255
214 232 255
214 232 255
195 209 227
119 116 74
114 112 75
125 124 85
126 125 85
126 125 85
122 122 83
119 119 83
131 130 90
124 125 87
117 117 82
116 118 83
127 128 89
127 128 88
113 115 81
140 139 95
123 124 86
132 133 92
136 136 93
135 135 92
144 144 95
143 141 94
143 142 97
144 143 96
150 148 99
144 143 97
145 143 96
152 150 99
154 152 101
143 142 94
144 143 93
151 149 99
158 154 101
149 147 95
151 149 98
162 158 103
156 153 100
162 158 103
161 157 100
155 152 96
158 156 98
164 160 102
160 157 103
167 163 102
162 159 98
161 157 100
159 156 98
165 160 100
166 162 100
170 166 107
166 162 102
171 166 105
168 164 105
174 169 106
168 163 103
168 164 102
170 163 102
170 164 100
170 165 105
173 168 107
172 167 104
173 169 106
168 165 103
167 163 101
169 164 101
175 168 104
170 165 102
173 167 105
176 171 108
171 165 103
168 164 99
173 168 103
172 166 103
172 166 101
171 166 103
170 165 102
170 165 97
166 161 96
173 168 107
175 169 103
170 164 99
172 167 103
173 167 104
176 170 106
169 164 101
168 163 101
176 170 108
167 162 99
172 166 105
169 163 99
171 165 100
167 161 100
165 160 97
170 165 103
168 163 99
170 164 101
164 158 95
168 162 97
167 162 95
168 162 100
169 164 99
173 166 103
168 162 99
162 156 93
166 162 101
167 161 97
169 164 95
172 166 104
168 161 96
165 161 93
170 164 98
162 157 93
166 160 94
166 160 98
167 161 96
166 160 95
161 157 94
168 162 98
158 153 93
163 156 91
165 160 92
164 159 94
159 154 91
160 156 88
152 147 91
162 157 95
164 159 95
162 156 93
162 155 92
165 158 93
164 159 95
154 150 87
161 156 91
162 157 95
159 152 84
155 150 86
155 149 90
153 147 84
156 152 88
159 153 93
159 153 90
164 157 95
153 149 82
208 228 255
208 228 255
208 228 255
207 228 255
207 228 255
207 228 255
207 228 255
207 228 255
207 228 255
207 227 255
206 227 255
208 228 254
208 228 254
208 228 255
208 228 255
208 228 255
208 228 254
207 228 255
208 228 254
207 227 252
207 228 255
205 226 250
208 228 255
207 227 254
207 228 255
207 228 255
207 228 255
208 228 255
207 228 254
207 228 255
208 228 254
206 227 254
205 226 248
206 227 253
205 226 249
205 226 250
206 227 254
206 227 253
204 225 245
206 227 253
206 227 253
206 227 252
205 226 250
206 227 254
205 226 248
206 227 252
206 227 252
206 227 253
206 227 255
205 226 254
206 227 255
205 226 253
205 226 253
206 227 255
206 227 253
205 226 253
205 226 254
206 227 255
206 227 254
205 226 250
206 227 255
206 227 254
205 226 253
205 226 252
205 226 252
205 226 252
205 226 253
205 226 252
205 227 254
205 227 254
205 226 252
204 226 254
205 227 254
205 226 253
205 226 254
204 226 250
205 226 253
205 226 253
204 226 252
203 224 252
204 225 252
204 226 254
204 226 253
205 226 255
204 226 253
204 226 254
203 225 252
204 226 254
204 226 253
204 226 255
204 226 255
203 225 248
204 226 255
203 225 252
204 226 254
204 226 255
203 225 252
203 225 253
203 226 255
203 225 254
203 225 253
203 225 253
201 224 249
202 225 252
202 224 252
201 223 252
202 225 253
202 225 254
202 225 255
201 224 252
201 224 252
201 224 254
200 223 250
200 223 250
200 223 252
200 224 255
200 223 253
199 223 253
199 222 248
200 224 254
200 224 254
199 223 255
199 223 253
199 223 253
200 224 254
199 223 252
198 223 254
196 222 254
197 222 255
197 222 255
198 223 255
198 223 255
199 223 255
199 223 255
200 224 255
200 224 255
201 224 255
202 225 255
203 225 255
204 226 255
206 227 255
208 228 255
212 230 255
214 232 255
214 232 255
214 232 255
214 232 255
214 232 255
214 232 255
214 232 255
214 232 255
214 232 255
214 232 255
196 214 242
65 100 165
61 97 155
61 96 155
61 97 156
61 97 159
61 97 154
62 98 162
61 97 155
62 98 164
61 97 152
62 97 153
62 98 157
61 97 153
62 98 158
60 96 147
62 97 152
62 98 160
62 97 153
62 98 154
62 97 150
63 98 159
61 96 147
62 98 161
62 97 151
62 98 154
62 97 156
62 97 156
61 97 152
62 98 162
61 96 148
62 97 152
61 96 147
62 98 151
62 97 155
62 98 155
62 97 154
61 96 145
62 98 155
61 96 154
62 97 152
62 98 154
62 97 147
62 97 157
62 97 157
61 97 155
62 98 155
62 98 161
63 99 162
61 97 152
61 97 152
62 98 159
61 97 155
61 97 154
61 97 155
62 97 153
62 97 152
60 96 151
61 97 152
61 95 145
60 95 149
62 97 152
59 93 141
60 95 142
59 93 139
62 97 155
62 96 158
62 98 161
60 94 145
61 97 158
62 98 156
62 96 152
61 96 154
60 94 142
61 97 160
60 95 152
59 94 142
60 94 151
60 95 151
60 94 147
61 95 154
60 93 151
61 95 152
60 94 146
57 90 133
59 93 141
60 93 148
58 90 141
57 89 138
58 91 144
58 90 147
58 91 149
60 91 150
193 211 237
214 232 255
214 232 255
214 232 255
214 232 255
214 232 255
214 232 255
214 232 255
214 232 255
214 232 255
214 231 254
144 148 134
131 129 83
114 114 78
115 114 77
127 126 88
118 118 81
121 122 86
114 114 78
111 113 80
115 117 83
125 125 87
122 123 86
126 127 89
130 129 88
124 124 86
125 126 88
135 135 93
126 127 89
131 131 91
128 129 90
138 137 93
128 129 90
138 137 92
138 137 94
147 146 97
149 148 99
150 148 98
148 145 92
149 147 96
159 157 99
139 137 90
153 150 96
154 152 99
153 151 98
152 150 98
154 151 97
157 155 99
158 155 101
157 154 100
156 154 101
168 163 103
158 154 99
169 164 106
162 159 104
162 159 102
167 163 101
163 159 98
167 163 104
163 159 100
166 161 101
171 165 105
168 163 102
169 164 102
172 167 104
170 165 102
168 163 102
169 165 103
168 163 103
167 163 102
172 167 103
164 160 96
170 165 104
163 159 97
170 165 102
168 163 102
171 166 100
169 164 103
170 165 102
177 170 105
169 164 99
176 170 108
168 163 99
170 164 101
172 167 104
168 163 101
173 167 100
169 165 102
171 166 104
176 170 105
165 160 97
170 164 103
170 165 101
172 166 102
171 166 101
171 165 101
170 165 97
170 164 102
172 166 99
171 165 99
170 165 101
171 164 102
164 159 99
167 161 95
168 162 92
169 163 98
165 160 99
175 169 104
170 164 97
167 162 94
166 162 96
168 161 97
168 163 97
171 164 101
169 164 101
168 161 95
170 165 95
164 158 93
172 166 103
172 166 103
171 166 103
172 165 99
165 159 96
170 163 99
160 154 87
163 158 94
165 160 93
169 163 100
169 162 99
164 158 95
163 157 97
157 152 90
166 159 95
166 159 97
165 160 95
166 160 94
161 155 90
167 160 97
163 157 93
159 154 89
163 158 93
156 151 84
162 157 93
163 157 91
156 152 88
164 157 93
164 158 95
156 150 91
161 155 93
157 152 93
152 146 86
154 148 88
164 158 90
155 150 90
208 228 255
208 228 255
208 228 255
208 228 255
208 228 255
208 228 255
208 228 255
207 228 255
207 228 255
207 228 254
208 228 254
208 228 254
208 228 255
208 228 254
208 228 255
209 228 254
207 228 253
209 229 255
208 228 255
207 228 253
207 228 254
208 228 255
208 228 254
208 228 253
207 227 253
208 228 255
209 229 255
208 228 255
208 228 255
209 229 255
207 228 254
205 226 246
207 228 254
207 228 254
206 227 252
207 227 252
206 227 252
206 226 249
206 226 249
206 227 252
206 227 252
206 227 252
207 228 255
207 227 253
206 226 250
206 227 250
207 227 253
207 227 254
207 227 253
206 226 250
207 228 255
207 228 255
206 227 253
207 227 253
206 227 253
207 227 254
206 227 252
206 227 252
206 227 253
207 227 254
206 227 253
207 227 254
206 227 252
206 227 254
206 227 254
205 226 252
207 227 255
206 227 254
205 226 252
206 227 255
205 226 250
206 227 255
205 226 252
206 227 254
206 227 254
206 227 254
206 227 254
205 227 253
206 227 255
204 225 248
205 226 252
205 226 253
204 225 252
204 226 250
205 226 253
205 226 253
205 226 252
205 226 252
203 225 248
205 226 253
205 226 254
205 226 253
205 226 254
204 226 253
204 226 252
204 225 252
204 226 253
204 226 254
204 226 253
203 225 252
204 226 254
203 225 253
203 225 253
203 225 254
203 225 253
203 226 254
203 225 253
202 225 253
201 224 248
202 224 252
202 224 250
202 225 253
201 224 252
201 224 253
201 224 253
201 224 252
201 224 253
200 223 250
200 223 252
200 223 249
202 225 255
200 224 255
201 224 254
200 224 254
200 223 252
200 224 254
199 223 250
199 223 255
198 223 255
198 223 255
198 223 255
199 223 255
199 223 255
200 224 255
200 224 255
201 224 255
201 225 255
202 225 255
203 225 255
204 226 255
205 227 255
207 228 255
209 229 255
214 231 255
215 232 255
215 232 255
215 232 255
215 232 255
215 232 255
215 232 255
215 232 255
215 232 255
215 232 255
147 168 210
61 97 157
62 98 164
61 97 158
61 97 153
61 96 153
61 96 142
62 98 160
60 95 144
60 96 151
60 96 153
61 97 157
61 97 148
60 96 148
61 97 159
61 97 155
60 96 155
62 97 155
61 97 153
62 98 155
61 97 155
62 97 151
61 97 154
61 97 158
61 97 159
61 96 149
61 96 150
63 98 153
62 98 157
61 96 144
62 97 156
62 98 156
60 95 144
61 96 150
61 97 150
61 98 158
61 97 154
61 96 150
61 97 153
62 97 156
61 97 156
62 98 154
62 97 151
62 97 154
61 96 143
62 97 149
62 97 148
60 96 147
61 97 152
62 98 162
61 96 151
63 98 156
61 96 149
60 96 152
61 96 155
60 95 142
62 98 155
61 97 152
63 98 155
63 98 156
62 98 159
62 97 150
61 96 148
61 95 149
61 96 150
61 96 155
60 94 140
60 95 150
61 96 152
61 96 151
60 95 147
59 93 138
60 95 153
62 96 151
60 95 144
61 95 152
60 95 152
62 97 160
60 95 154
59 93 144
60 95 151
61 95 157
59 93 143
59 93 146
60 93 149
59 93 146
59 93 150
59 93 148
58 91 138
58 90 145
58 91 143
56 87 136
56 88 142
144 163 195
215 232 255
215 232 255
215 232 255
215 232 255
215 232 255
215 232 255
215 232 255
215 232 255
215 232 255
179 190 200
118 116 73
114 112 75
121 119 79
119 119 82
119 119 81
115 116 80
115 116 81
119 120 82
112 113 79
124 125 87
124 125 85
121 122 85
120 121 83
128 129 90
120 122 85
126 126 85
134 134 90
128 129 90
135 135 92
137 137 93
132 132 90
130 130 88
138 137 93
145 144 95
142 142 95
143 142 96
146 143 93
143 142 95
152 150 99
141 141 94
157 154 99
143 142 90
154 151 98
155 152 98
158 155 102
166 163 105
160 156 102
156 153 97
162 158 99
157 155 100
163 159 103
165 162 103
163 159 103
159 155 97
161 158 101
167 162 103
162 158 102
165 161 103
162 158 98
168 164 102
164 159 97
165 162 103
171 166 103
172 167 106
168 164 103
165 161 97
169 163 101
166 162 99
171 166 101
175 170 110
169 164 104
170 166 105
171 166 103
168 164 99
173 168 103
173 167 101
167 161 95
172 167 102
171 167 104
169 164 102
171 165 101
169 166 100
174 170 104
175 169 106
172 166 100
172 166 102
171 166 100
174 167 101
174 168 100
177 170 103
170 164 99
169 164 100
175 169 102
169 164 99
172 167 101
171 165 101
166 160 92
168 163 97
173 168 104
176 169 105
171 165 101
170 164 97
169 164 99
167 163 98
164 159 98
169 163 96
170 164 95
173 166 101
168 163 95
172 165 100
167 161 93
171 165 98
166 160 97
168 162 99
166 161 94
159 154 90
165 159 94
160 155 93
170 164 94
169 163 97
172 165 101
166 160 92
164 159 96
169 163 93
162 156 96
170 164 97
168 162 97
163 158 95
154 149 84
167 161 94
169 162 99
161 156 91
167 161 97
152 147 86
162 156 93
159 153 89
165 160 94
165 158 95
167 161 95
157 152 93
160 155 89
154 150 85
160 155 87
160 155 91
161 156 90
158 153 88
159 153 90
162 156 92
154 148 84
154 149 90
153 147 84
155 149 87
157 151 84
209 229 255
209 229 255
209 229 255
209 228 255
208 228 255
208 228 255
208 228 255
208 228 255
208 228 255
207 227 253
209 228 254
209 229 254
209 229 255
209 229 254
209 228 254
209 229 255
210 229 254
209 229 255
208 228 254
208 228 254
208 228 254
208 228 254
208 228 254
209 228 254
208 228 254
208 228 255
209 229 255
209 229 255
208 228 255
207 227 250
207 227 250
207 227 252
208 228 254
208 228 253
207 227 250
207 227 250
208 228 255
208 228 253
207 227 252
206 227 249
207 227 252
207 227 249
208 228 254
207 227 252
207 228 253
207 228 254
208 228 255
207 228 253
208 228 255
207 227 250
207 227 252
207 227 252
206 226 252
207 228 254
207 228 254
206 226 250
208 228 255
207 227 252
207 227 253
206 227 253
206 227 253
207 227 253
206 227 253
207 228 255
206 227 249
206 227 253
207 228 254
206 227 252
207 227 253
207 228 255
207 227 254
206 227 253
207 227 254
206 227 252
206 227 253
206 227 254
207 227 255
206 227 254
206 227 254
205 226 250
204 225 250
205 226 249
206 227 254
204 225 252
206 227 254
204 225 250
206 227 254
204 225 252
205 226 254
205 226 253
206 227 255
205 226 252
205 226 253
204 225 250
205 227 254
205 226 252
205 226 253
204 225 253
205 227 255
205 226 254
204 226 254
205 226 255
203 225 249
204 225 252
204 226 254
204 225 252
204 226 255
203 225 253
204 226 255
203 225 253
203 225 252
203 225 253
202 224 249
202 225 253
202 225 254
202 225 253
202 225 253
201 224 249
201 224 252
201 225 254
200 223 250
201 224 255
202 225 255
203 225 254
202 225 255
201 224 254
200 224 253
202 225 255
198 221 254
154 179 223
146 171 218
142 168 214
167 192 233
174 198 236
200 223 255
201 225 255
202 225 255
202 225 255
203 226 255
204 226 255
205 227 255
207 227 255
208 228 255
212 230 255
215 232 255
215 232 255
215 232 255
215 232 255
215 232 255
215 232 255
215 232 255
215 232 255
206 223 248
67 101 160
61 97 165
61 97 159
60 96 149
60 96 153
61 97 152
61 97 153
61 97 155
61 96 148
62 97 153
60 95 145
60 96 152
62 98 159
62 97 158
61 96 152
62 97 154
60 96 147
62 98 157
62 98 157
61 97 150
61 96 157
61 96 150
60 95 147
62 97 153
61 97 150
60 95 135
61 97 148
60 95 142
61 96 143
61 96 151
61 96 151
61 96 155
61 97 150
61 97 150
61 97 155
61 96 142
61 97 153
61 96 154
61 96 154
62 97 153
60 95 147
61 96 149
61 97 154
61 97 151
61 96 145
61 97 152
61 97 154
61 96 141
61 97 150
62 98 160
61 97 151
61 97 153
61 97 144
61 96 152
62 98 158
62 97 156
62 97 158
60 95 141
60 95 151
61 96 148
62 97 156
60 96 151
61 96 148
61 97 153
62 96 150
61 96 154
62 97 153
60 95 148
62 97 156
61 96 150
62 97 159
59 94 143
60 95 144
62 96 156
58 92 135
61 95 145
61 96 151
58 91 141
60 95 154
60 95 150
59 92 136
59 93 145
59 93 151
59 92 144
60 94 151
60 93 153
60 94 147
59 91 137
59 91 143
57 90 140
56 88 139
57 88 142
56 87 139
65 93 141
202 219 243
215 232 255
215 232 255
215 232 255
215 232 255
215 232 255
215 232 255
215 232 255
212 229 252
136 137 109
114 114 78
110 110 76
115 114 78
110 111 77
103 105 74
122 121 84
116 117 82
110 111 76
116 116 81
118 120 83
116 118 83
129 129 90
114 116 83
121 122 85
133 133 90
114 116 79
118 118 82
133 132 90
136 136 93
130 130 89
142 142 97
143 143 98
140 139 92
151 148 95
139 137 92
146 145 96
155 152 98
138 139 93
150 147 97
153 150 98
149 147 97
152 149 96
157 154 100
158 154 101
148 145 94
155 151 99
152 149 98
159 155 99
155 152 97
164 160 101
157 154 98
161 158 100
161 156 100
172 167 108
167 162 102
170 164 104
162 158 97
164 159 97
160 156 97
168 164 104
165 161 101
168 164 103
166 161 98
163 159 97
167 163 103
170 165 103
170 165 104
171 166 103
164 160 102
173 167 104
170 164 101
168 163 97
171 166 102
172 167 103
170 165 100
167 162 96
168 162 96
174 167 97
174 167 101
173 167 100
170 165 101
174 168 106
167 162 96
170 164 98
172 167 99
172 166 97
169 163 101
173 168 104
166 162 97
173 167 102
175 168 103
169 164 99
170 164 99
173 168 102
171 165 99
170 164 97
173 168 99
167 161 95
169 164 95
171 164 98
171 165 101
171 166 101
173 166 102
168 163 98
165 161 95
173 167 103
167 161 92
168 162 96
172 165 98
169 163 98
168 162 97
166 161 91
168 162 97
171 165 95
170 163 96
169 163 97
166 160 99
166 160 94
170 164 98
170 164 97
164 158 94
164 159 94
165 159 96
167 161 100
167 162 95
166 161 93
165 159 94
164 157 93
160 155 88
168 162 98
167 161 97
164 159 92
169 163 93
162 157 91
161 155 90
163 157 90
163 157 89
166 160 95
161 156 90
159 154 90
162 156 90
166 159 92
161 155 95
165 158 94
160 154 89
164 157 93
161 155 93
160 153 86
159 153 90
157 152 88
159 154 90
163 157 92
167 160 93
209 229 255
209 229 255
209 229 255
209 229 255
209 229 255
209 229 255
209 229 255
209 229 255
208 228 254
209 229 254
210 229 255
210 229 255
209 229 254
210 229 255
210 229 255
209 229 255
209 229 255
209 229 254
209 229 254
209 229 254
209 229 255
208 228 253
209 229 255
209 229 255
209 229 255
210 229 255
209 228 254
209 229 255
207 227 248
208 228 252
207 227 249
208 228 252
207 227 249
207 228 252
208 228 254
209 229 255
208 228 252
207 227 250
207 227 252
208 228 252
207 227 250
208 228 254
208 228 253
208 228 254
208 228 253
209 229 255
208 228 254
207 227 250
208 228 253
208 228 253
208 228 253
208 228 254
207 227 250
208 228 254
207 227 254
207 228 252
208 228 254
207 227 249
207 227 252
206 226 252
208 228 253
208 228 255
207 227 253
207 227 252
208 228 254
206 227 252
207 227 252
206 226 252
208 228 255
208 228 254
207 228 254
206 226 250
207 227 253
207 227 252
207 228 254
207 227 254
208 228 255
207 228 254
207 228 255
207 227 254
207 227 254
207 228 254
207 227 254
207 227 254
207 227 254
206 227 250
206 227 253
207 227 254
206 227 254
206 227 253
206 227 255
205 226 252
205 226 252
205 226 253
206 227 254
205 227 254
205 226 250
205 226 252
206 227 255
205 226 249
205 227 253
205 227 254
205 226 250
205 227 254
205 226 254
205 226 253
204 226 252
204 226 253
204 226 253
204 226 252
204 226 253
204 226 253
204 225 252
204 226 254
203 225 250
203 225 253
203 225 254
202 224 249
203 225 253
201 224 249
201 224 250
202 224 252
202 225 254
203 225 254
202 225 254
202 225 254
202 225 254
199 222 253
200 223 254
130 155 207
62 99 179
62 98 168
62 99 171
62 99 171
77 110 184
121 147 199
185 208 243
203 225 255
204 226 255
204 226 255
205 227 255
207 227 255
208 228 255
210 229 255
214 232 255
215 232 255
215 232 255
215 232 255
215 232 255
215 232 255
215 232 255
215 232 255
155 175 207
60 95 149
61 96 152
60 96 153
61 97 151
61 96 152
61 97 154
61 96 149
63 98 157
61 96 142
60 95 141
61 97 157
62 97 153
61 97 157
61 97 154
62 98 154
61 97 154
61 97 153
60 95 144
60 96 151
62 97 152
60 96 149
61 96 145
61 96 150
60 95 143
61 96 148
61 96 148
62 97 156
62 97 148
62 97 157
62 97 153
62 97 150
62 97 151
61 97 149
61 96 140
62 97 153
62 97 152
62 98 155
61 96 149
62 97 151
60 96 148
61 96 145
60 96 136
60 96 146
61 96 148
60 95 138
62 97 151
59 94 135
61 97 155
61 97 153
60 95 138
61 97 154
61 96 151
60 95 145
59 94 135
60 95 147
60 95 140
61 96 149
61 96 153
61 97 158
62 97 153
62 98 155
62 97 158
60 95 150
61 96 149
60 95 145
60 95 145
59 94 145
61 97 149
60 95 141
62 97 150
60 96 153
61 96 151
60 94 143
61 96 151
60 95 145
61 96 159
60 94 148
59 93 142
61 96 153
60 94 147
61 95 152
60 95 153
60 94 142
61 95 151
59 93 140
60 93 146
59 93 147
59 93 148
59 93 148
59 91 144
57 89 142
58 91 143
55 86 137
55 86 134
142 160 191
215 232 255
215 232 255
215 232 255
215 232 255
215 232 255
215 232 255
215 232 255
191 204 217
125 122 78
122 120 77
115 114 78
114 114 77
121 122 85
94 97 70
111 113 81
107 109 77
112 114 80
103 106 76
103 106 77
111 114 80
117 119 85
116 118 80
121 121 83
125 126 86
125 125 85
139 139 93
137 135 90
134 133 91
124 125 83
134 133 89
142 141 94
141 140 94
145 144 95
148 146 95
150 148 99
148 146 96
148 145 94
146 144 95
142 140 91
150 148 96
153 150 99
161 157 100
159 156 96
156 153 98
154 151 95
159 155 99
159 154 94
157 153 95
163 158 102
156 153 97
168 163 104
159 155 95
161 157 99
157 154 100
164 160 98
164 160 98
170 165 104
167 163 102
166 162 102
169 164 102
170 165 103
174 168 106
164 160 96
169 164 103
171 166 104
168 163 99
167 162 99
168 163 99
171 166 102
173 167 102
172 167 104
171 165 101
174 168 103
169 164 99
171 166 100
173 168 104
171 165 100
173 167 104
169 163 94
171 165 99
171 165 100
174 168 100
170 165 101
173 166 101
170 164 99
175 169 104
174 168 100
167 162 99
171 164 98
172 166 101
174 168 102
174 167 101
169 163 95
170 164 99
172 166 99
176 169 102
173 166 96
168 162 96
171 165 97
169 164 97
169 163 97
170 164 100
168 162 94
168 163 95
169 163 97
170 163 97
169 163 98
170 164 99
166 161 94
167 161 96
169 163 99
167 161 94
168 162 96
168 162 94
163 158 90
164 160 95
169 163 96
164 159 92
165 159 87
166 160 93
167 161 93
161 156 90
155 150 88
163 158 91
161 155 90
166 160 95
166 161 96
162 156 92
155 150 86
165 159 93
162 158 89
167 161 95
167 161 95
165 159 95
158 152 90
161 156 90
164 158 91
161 156 91
159 154 89
160 155 92
161 155 90
163 157 94
157 151 85
160 154 87
160 155 89
161 154 90
153 147 89
159 153 85
162 156 93
154 149 84
157 151 88
158 152 87
210 229 255
210 229 255
210 229 255
210 229 255
210 229 255
209 229 255
209 229 255
209 229 255
210 229 253
211 230 255
211 230 255
210 229 255
210 229 255
210 229 254
210 229 255
211 230 255
210 229 254
210 229 255
210 229 254
210 229 255
210 229 255
210 229 255
209 229 254
210 229 255
210 229 254
210 229 254
210 229 254
210 229 254
208 228 250
209 228 253
208 228 249
208 228 252
209 228 252
209 228 252
209 229 255
208 228 253
208 228 252
209 228 252
209 229 254
209 228 253
209 229 254
208 228 252
208 228 252
208 228 254
208 228 253
209 229 255
208 228 250
207 227 252
209 229 254
209 229 254
209 229 255
209 228 254
209 229 255
208 228 253
208 228 254
208 228 252
209 228 253
208 228 254
208 228 253
209 229 255
208 228 254
209 229 255
208 228 250
207 227 252
209 229 255
208 228 252
207 227 253
207 226 253
207 227 253
207 227 248
208 228 254
208 228 254
208 228 252
208 228 253
207 227 253
207 227 252
208 228 255
207 227 253
207 227 252
207 227 250
208 228 254
208 228 254
207 227 253
208 228 255
206 226 252
208 228 254
207 227 253
206 226 252
208 228 255
206 226 250
206 227 252
207 227 253
206 226 252
206 226 252
207 228 255
207 228 255
206 227 252
206 226 253
207 227 254
207 227 254
206 227 252
206 227 254
206 227 253
206 227 253
205 226 252
206 227 254
205 226 252
206 227 254
205 226 252
206 227 255
205 226 253
205 226 253
205 226 253
204 225 250
204 226 253
203 225 250
205 226 255
203 225 250
203 225 250
204 226 255
203 225 252
203 226 254
203 225 253
204 226 254
204 226 253
201 223 253
201 223 252
198 221 248
199 221 248
195 217 249
77 109 176
62 98 173
62 98 165
62 98 168
62 98 169
62 99 171
61 98 170
123 149 202
186 208 242
205 226 255
206 227 255
207 227 255
208 228 255
210 229 255
212 231 255
216 232 255
216 232 255
216 232 255
216 232 255
216 232 255
215 232 255
213 230 254
89 117 161
60 96 154
61 97 160
61 97 157
61 97 154
62 97 152
60 96 152
61 97 147
62 97 151
62 98 156
62 98 154
61 96 152
61 96 150
62 98 159
60 95 142
62 98 158
61 96 151
60 96 145
61 97 154
61 97 152
61 96 151
62 98 156
60 95 143
60 95 143
61 97 152
59 95 137
61 96 153
60 95 145
62 97 151
59 94 140
62 97 151
62 98 163
60 96 145
60 96 145
62 97 153
62 98 157
61 96 143
61 97 144
61 97 149
62 97 161
63 98 153
62 98 159
62 97 149
62 98 155
60 95 149
61 95 145
61 96 151
62 97 152
62 97 148
61 96 148
62 97 151
59 94 143
62 97 154
61 96 149
61 96 147
61 96 139
60 95 148
62 98 152
61 96 153
61 97 147
61 96 145
61 96 143
61 96 158
59 93 134
62 98 158
60 95 147
61 96 151
60 95 147
61 96 146
61 96 150
62 97 152
62 97 153
60 95 152
59 93 143
62 97 158
61 97 149
60 94 150
60 94 141
60 94 146
60 93 143
60 95 151
60 94 147
59 93 141
59 93 149
59 92 137
59 92 144
59 91 139
59 93 152
60 94 150
61 94 154
58 90 135
56 88 142
59 92 150
56 88 136
54 84 127
82 107 151
212 229 253
215 232 255
215 232 255
216 232 255
216 232 255
216 232 255
216 232 255
130 131 105
108 106 69
107 107 72
116 115 79
101 102 70
108 110 76
100 101 70
97 100 73
115 115 79
99 102 74
107 110 77
110 111 77
115 117 82
104 107 75
120 121 84
115 116 81
114 114 80
120 121 84
131 130 88
127 128 88
133 134 91
126 127 87
132 131 88
136 135 91
139 139 93
135 136 90
133 133 89
142 141 93
145 143 94
141 140 91
142 141 90
154 152 98
146 144 96
150 148 93
157 153 95
158 154 94
150 149 95
150 148 92
156 153 99
160 156 100
152 150 92
153 150 93
157 154 97
154 151 93
155 152 93
165 161 101
164 160 97
165 160 100
160 156 97
166 162 100
155 152 97
170 164 103
165 161 100
168 163 103
162 158 97
166 162 100
169 165 103
172 167 102
164 160 96
172 166 100
171 166 102
170 164 99
173 167 103
174 168 103
171 165 100
167 163 97
167 162 97
171 166 101
169 164 97
171 165 96
173 167 100
169 163 101
171 166 101
170 165 101
169 164 100
174 168 99
171 166 103
175 168 105
177 170 104
173 166 98
172 167 103
173 167 102
175 169 104
172 166 102
170 165 101
166 161 94
170 165 96
172 167 95
173 167 103
174 168 100
173 167 99
169 164 94
170 164 95
172 166 97
171 166 94
169 164 99
169 164 99
169 162 91
170 164 99
170 165 99
163 158 92
171 165 97
168 163 97
163 157 92
170 163 97
167 163 93
168 161 95
169 163 95
163 158 94
163 158 92
166 160 90
171 164 99
163 158 91
164 158 90
162 157 95
167 161 95
166 161 92
164 158 93
163 157 93
169 162 95
162 158 96
162 157 90
163 157 87
157 152 86
160 154 87
170 165 97
162 156 91
163 158 95
162 156 90
166 159 92
162 156 84
167 160 93
165 159 93
164 158 94
163 158 95
154 148 87
164 158 92
161 155 91
152 146 90
156 151 87
158 151 90
155 150 87
151 146 84
155 150 85
162 156 92
211 230 255
210 230 255
210 229 255
210 229 255
210 229 255
210 229 255
210 229 255
211 230 255
211 230 255
211 230 255
211 229 254
211 229 254
210 229 254
211 230 255
211 230 255
211 229 254
210 229 254
211 230 254
210 229 253
211 230 255
211 229 254
211 230 254
210 229 254
211 230 255
211 230 255
210 229 255
211 230 255
209 229 252
209 229 252
209 228 252
209 228 252
209 228 250
209 228 250
210 229 253
209 229 253
210 229 254
209 228 250
209 228 252
209 228 249
208 228 249
209 229 252
208 227 249
209 228 250
209 228 250
209 228 252
209 229 253
209 229 254
210 229 254
210 229 254
210 229 255
208 228 253
210 229 255
210 229 254
209 229 253
209 228 253
209 229 254
209 229 254
209 228 252
207 227 249
209 228 254
209 229 254
208 228 250
209 229 254
208 227 250
208 228 250
209 229 254
209 228 253
208 228 250
209 228 253
208 227 252
206 226 248
208 227 252
209 228 253
209 229 255
209 229 255
207 227 250
208 227 253
208 228 252
209 229 255
208 227 253
209 228 254
207 227 249
208 228 253
209 229 255
208 228 254
208 228 254
207 227 252
208 228 254
208 228 253
207 227 250
208 228 255
207 227 253
207 227 252
206 227 252
207 227 250
207 227 252
208 228 254
208 228 255
207 227 252
207 227 253
207 228 254
207 227 253
206 227 250
206 227 252
206 227 252
207 227 254
207 227 253
205 226 250
206 227 252
206 227 254
206 227 253
206 227 255
205 227 253
206 227 254
205 227 254
206 227 254
205 227 254
205 226 254
205 226 254
204 226 253
204 226 252
204 226 253
203 225 250
203 225 251
203 225 255
202 223 254
203 225 255
200 221 251
203 225 254
199 222 250
146 170 214
62 98 171
61 98 166
61 98 168
61 97 169
62 98 169
60 96 163
62 98 169
70 104 171
168 191 229
206 227 255
207 228 255
208 228 255
209 229 255
211 230 255
215 232 255
216 233 255
216 233 255
216 233 255
216 232 255
216 232 255
174 193 226
61 97 158
61 97 157
61 97 157
61 97 156
61 97 159
61 96 151
60 96 143
62 97 155
60 96 145
61 97 151
61 96 144
59 95 140
63 98 157
60 96 143
63 98 157
61 97 149
61 96 150
61 97 152
61 96 143
60 96 145
60 95 145
61 96 144
61 97 147
61 96 151
61 96 142
61 96 147
60 95 144
60 95 141
62 98 157
61 97 147
61 97 150
61 96 140
62 98 164
60 95 141
62 97 150
61 96 143
62 98 151
61 96 152
62 97 153
60 95 147
61 97 152
62 97 150
60 95 147
61 97 149
61 96 149
60 96 145
61 97 151
61 97 144
62 97 155
61 95 148
61 97 151
62 97 148
61 96 149
61 97 151
61 96 145
61 96 146
62 97 151
60 95 140
61 96 150
61 96 145
61 97 151
61 96 153
60 94 144
62 97 151
60 95 142
60 95 151
61 96 145
61 97 154
61 96 145
61 96 149
61 96 152
60 94 144
61 96 151
60 94 143
61 95 145
61 96 148
59 93 141
60 94 147
61 96 153
59 93 138
61 97 158
60 95 142
60 94 146
60 94 148
59 93 137
59 93 146
60 95 152
60 93 140
59 93 143
59 93 142
59 91 142
59 93 147
58 91 147
56 87 134
56 86 135
55 85 137
179 196 223
216 232 255
216 232 255
216 233 255
216 233 255
216 233 255
190 203 217
106 104 65
101 101 68
97 97 66
96 97 69
98 101 72
103 104 74
104 106 75
101 104 75
94 97 70
102 105 74
96 99 69
106 109 76
110 112 79
113 114 80
122 123 84
122 124 86
122 124 86
122 123 84
130 129 87
128 129 86
127 128 89
121 122 85
135 135 89
132 133 92
135 135 87
141 139 89
138 137 90
134 134 90
149 147 98
148 145 93
142 140 89
139 138 92
148 147 95
147 144 93
153 149 94
147 145 91
149 146 93
148 147 93
153 151 94
163 159 99
149 146 93
158 154 95
157 154 95
160 156 97
163 158 98
163 159 97
163 160 99
166 162 99
168 163 103
161 157 94
169 165 105
168 164 103
169 163 101
167 162 98
162 157 95
165 161 97
170 164 101
174 168 103
169 164 103
170 165 102
170 165 101
173 167 104
168 163 96
171 165 93
173 167 100
171 166 101
173 167 100
173 167 103
172 167 99
177 170 103
169 164 98
171 166 98
171 165 96
174 168 100
172 166 100
173 167 99
169 164 97
171 166 101
172 166 99
172 166 97
172 166 99
167 162 97
174 169 102
171 165 97
170 164 98
171 166 97
172 165 99
169 165 97
172 166 97
173 166 99
172 167 101
170 164 98
169 164 97
170 164 100
167 162 95
168 162 96
166 161 93
166 161 97
167 161 92
174 168 102
162 156 90
171 165 102
172 166 99
172 166 101
168 162 95
168 163 98
171 165 102
164 157 92
172 165 100
162 156 85
171 164 97
167 162 93
169 164 94
166 160 93
167 161 94
163 158 90
165 159 89
165 159 95
168 162 99
164 159 96
167 160 93
167 161 95
160 154 87
163 156 91
164 158 90
162 156 90
161 155 92
167 161 93
161 155 90
163 157 93
163 157 93
162 156 90
160 154 87
162 156 89
160 154 85
162 156 92
165 158 90
161 154 84
161 155 93
160 154 89
162 154 91
166 160 90
156 150 86
157 151 85
156 150 87
211 230 255
211 230 255
211 230 255
211 230 255
211 230 255
211 230 255
211 230 255
211 230 255
211 230 255
211 230 255
211 230 254
212 230 255
211 230 254
211 230 255
211 230 254
211 230 253
211 230 254
211 230 255
211 230 255
211 229 253
212 230 255
211 230 255
211 230 255
212 231 255
211 230 255
211 230 255
211 230 255
209 228 250
210 229 252
210 229 253
210 229 252
209 228 249
209 228 249
210 229 250
211 230 255
209 228 248
210 229 254
210 229 254
210 229 254
210 229 253
210 229 254
210 229 254
210 229 253
210 229 254
210 229 253
210 229 254
210 229 253
210 229 253
210 229 252
210 229 253
210 229 252
209 228 253
210 229 254
210 229 253
209 229 252
209 228 252
210 229 253
210 229 254
210 229 254
210 229 255
209 229 252
210 229 252
210 229 255
209 228 252
208 228 252
209 228 253
209 228 254
208 227 250
209 229 253
209 228 252
210 229 255
209 228 254
209 228 254
209 229 253
210 229 254
208 228 253
207 227 250
209 228 253
210 229 255
209 228 254
209 228 253
209 228 253
208 228 252
209 229 254
208 228 254
208 227 250
209 228 254
209 229 255
209 229 254
208 228 253
209 228 253
208 228 253
208 227 252
209 228 254
208 228 254
208 227 253
208 227 252
207 227 252
208 228 254
207 227 250
208 228 253
208 228 254
208 228 254
208 228 253
206 226 249
207 228 253
207 227 253
207 227 253
207 227 253
207 228 255
207 227 253
207 228 255
207 227 254
206 227 252
205 226 253
205 226 249
206 227 253
206 227 253
206 227 253
206 227 254
206 227 255
205 226 253
204 225 252
201 223 248
203 225 253
204 225 254
205 226 255
203 225 253
201 223 252
202 224 254
190 212 245
96 124 184
61 97 164
61 97 162
61 98 169
61 97 168
61 97 166
61 97 162
61 97 165
60 97 164
135 159 204
207 228 255
208 228 255
209 229 255
211 230 255
214 232 255
216 233 255
216 233 255
216 233 255
216 233 255
216 233 255
132 153 195
61 97 157
61 97 156
61 96 152
61 96 149
60 96 154
60 96 148
60 96 152
61 97 157
61 97 154
61 96 149
61 96 143
61 97 158
62 98 156
60 96 148
62 98 158
60 96 145
62 97 151
60 95 143
61 96 144
61 96 147
61 97 151
61 96 142
60 95 145
61 97 156
62 97 151
61 96 145
62 97 153
61 97 150
61 96 150
61 97 154
62 98 154
61 97 150
61 97 154
60 95 134
62 97 153
62 98 155
61 96 141
60 95 140
61 97 153
60 95 147
61 96 152
62 98 156
60 95 143
60 95 142
62 98 156
61 96 145
60 95 143
61 96 147
61 96 147
62 97 148
61 97 149
61 96 149
62 97 149
61 97 149
60 95 149
62 97 154
61 96 140
61 96 142
61 96 143
61 96 147
60 96 141
62 97 154
61 95 148
59 93 139
60 95 144
61 96 154
61 95 149
62 97 154
61 95 146
60 94 135
59 93 136
60 95 145
60 94 138
61 96 153
61 96 146
60 94 138
60 95 142
61 96 152
61 95 144
59 93 141
60 94 148
59 93 136
59 93 142
60 94 144
59 93 147
59 92 142
60 93 142
59 92 143
59 92 144
57 88 131
59 92 137
59 91 139
57 88 134
57 87 131
58 90 138
51 78 118
126 145 175
216 233 255
216 233 255
216 233 255
216 233 255
216 233 255
146 150 139
112 111 73
111 110 76
108 108 72
99 101 70
97 100 72
96 99 71
94 96 69
111 112 77
102 106 77
102 104 73
106 108 75
110 112 80
105 108 75
108 111 77
122 123 85
110 113 77
118 120 82
121 122 81
123 124 85
128 128 86
130 130 87
132 132 89
127 127 86
138 137 90
138 137 87
139 139 93
135 133 85
140 139 92
136 135 88
142 140 89
141 139 89
148 145 95
150 147 88
149 147 93
155 152 97
159 155 98
155 152 94
152 151 98
159 155 93
159 156 96
157 152 95
155 151 92
155 152 94
160 157 97
163 158 101
161 157 94
163 159 99
168 163 102
164 160 98
165 160 95
164 160 102
169 164 101
166 161 98
169 163 99
165 161 98
169 164 97
167 163 96
167 162 94
168 164 97
172 166 94
172 167 103
171 165 99
166 161 94
170 165 103
167 162 101
166 161 94
172 167 103
175 169 103
172 165 100
171 165 100
172 166 95
174 168 97
173 166 99
175 168 101
174 167 99
172 166 97
172 166 95
171 165 99
172 166 98
172 166 98
174 168 97
172 166 99
168 163 95
173 166 101
172 166 95
169 164 97
173 167 102
166 161 94
168 163 93
171 165 99
170 165 95
170 165 99
173 167 102
170 164 97
172 166 101
164 159 94
175 169 99
171 165 94
171 165 98
175 169 103
169 163 96
165 159 93
166 161 94
165 159 92
165 160 94
169 163 97
172 166 99
166 160 92
163 157 93
170 164 97
164 158 93
167 161 93
169 162 89
164 159 92
163 157 93
166 160 96
164 160 93
158 152 86
168 162 97
167 160 93
164 158 92
161 154 91
162 156 87
157 153 90
161 155 85
165 157 92
167 161 93
156 150 87
168 162 85
161 156 91
162 156 90
156 151 87
159 154 87
157 152 81
159 154 90
158 152 86
161 155 84
158 152 89
163 158 91
163 157 92
158 152 90
158 153 87
152 146 83
156 151 85
159 154 89
212 230 255
212 230 255
212 230 255
211 230 255
211 230 255
211 230 255
211 229 254
212 230 255
212 230 255
211 230 254
212 230 255
212 230 254
212 231 255
212 230 255
212 230 255
211 230 254
212 230 255
212 230 255
212 230 255
212 230 255
212 230 255
212 230 255
212 230 255
212 230 255
212 230 255
211 230 254
210 229 252
210 229 249
210 229 249
210 229 252
210 229 250
211 230 254
211 230 254
210 229 252
209 228 248
210 229 250
211 229 253
211 230 254
211 229 253
210 229 253
211 230 254
211 230 254
210 229 252
211 230 254
210 229 252
211 230 254
209 228 249
210 229 254
211 229 253
210 229 253
211 230 254
210 229 253
211 230 254
210 229 252
211 230 254
210 229 250
210 229 253
210 229 252
211 229 254
211 229 254
211 229 253
211 230 255
210 229 253
211 229 254
208 227 250
211 230 254
209 228 250
211 230 255
211 230 255
210 229 254
210 229 252
209 228 250
209 228 252
210 229 254
209 228 253
208 227 245
211 230 255
210 230 255
210 229 253
210 229 254
209 229 253
207 226 249
208 227 252
209 229 253
208 228 252
208 228 252
210 229 254
208 227 250
209 229 254
209 229 253
210 229 255
209 229 254
209 229 253
209 229 253
209 229 254
209 228 254
209 229 253
209 228 253
209 228 253
208 228 252
208 228 253
208 228 252
208 228 250
208 228 254
208 228 254
208 228 253
208 228 254
208 228 253
208 228 253
207 228 252
208 228 254
207 227 252
208 228 254
207 228 253
206 226 248
207 228 253
206 227 250
207 227 253
207 227 254
207 227 254
206 227 254
205 226 252
205 226 251
203 225 247
205 226 252
203 224 252
206 226 255
204 225 254
205 226 254
205 226 255
204 225 254
160 183 217
65 100 164
61 97 163
60 96 168
61 97 169
62 98 162
61 98 170
61 98 168
61 97 166
60 96 164
142 165 205
209 229 255
209 229 255
211 230 255
213 231 255
216 233 255
216 233 255
216 233 255
216 233 255
212 229 253
68 101 156
59 95 151
62 98 164
60 96 145
60 95 151
61 96 150
60 96 151
61 96 150
60 96 144
62 97 153
61 96 144
63 99 161
60 95 148
60 95 145
60 95 145
60 96 142
61 96 147
60 95 145
61 96 143
60 95 144
61 97 145
62 97 151
61 97 145
60 96 145
61 97 145
61 96 147
62 97 150
61 96 150
58 93 136
60 95 136
62 97 147
62 97 144
61 96 150
61 97 147
61 97 143
60 95 135
61 97 151
61 96 149
61 96 150
62 98 156
61 96 151
62 97 155
62 97 155
60 95 139
61 96 147
61 96 149
61 97 153
61 96 145
62 97 155
62 97 154
60 95 137
61 96 148
61 97 148
62 97 148
61 96 145
61 96 145
62 98 157
60 95 147
61 96 150
61 95 143
61 95 140
60 95 140
60 94 139
61 96 151
62 97 151
60 95 142
60 95 146
61 97 149
60 95 147
60 95 141
61 96 146
60 94 131
60 95 145
60 94 139
60 94 144
62 97 160
60 94 142
60 94 141
60 94 153
60 94 139
62 97 155
61 95 146
60 95 139
60 93 147
59 93 153
58 91 135
60 94 148
59 92 140
60 94 150
59 92 135
59 92 142
57 89 140
58 91 142
56 88 132
57 88 139
57 89 136
52 80 118
60 86 130
209 226 249
216 233 255
216 233 255
216 233 255
205 220 237
117 114 73
113 113 74
97 98 67
84 85 58
95 96 66
95 98 71
102 104 74
99 100 70
94 98 70
97 100 72
109 111 79
104 105 73
97 102 73
114 116 80
109 112 78
114 115 80
113 115 77
124 126 86
113 114 78
117 119 83
134 134 89
121 122 80
133 133 88
128 128 85
138 136 88
137 136 90
136 134 87
138 136 88
135 135 89
150 147 96
151 149 97
138 137 89
148 146 92
145 142 90
151 150 97
150 147 91
152 149 95
156 154 97
159 156 99
153 150 94
151 148 93
157 154 94
164 160 97
170 164 103
162 159 97
164 160 103
166 161 102
161 157 97
165 161 95
169 164 97
162 157 96
165 160 98
161 157 94
170 164 100
173 167 103
169 164 98
170 165 101
166 161 99
166 160 97
168 162 95
170 165 98
166 161 97
168 163 95
165 160 96
173 167 100
165 160 93
173 167 101
171 165 95
172 166 97
173 168 99
170 165 100
170 164 95
171 165 96
173 166 96
173 166 98
176 169 105
172 167 99
171 165 98
173 167 99
171 166 95
170 165 97
172 166 97
166 161 94
173 167 98
172 166 95
172 167 100
171 166 99
175 168 100
171 165 96
171 165 90
170 163 97
171 166 98
171 165 94
171 165 100
169 163 95
169 163 99
166 160 92
173 167 101
166 160 93
172 165 97
171 165 96
169 163 92
168 162 94
173 167 96
167 161 87
172 167 97
169 164 96
169 162 97
164 159 91
165 159 89
170 163 96
165 160 91
161 156 84
170 163 95
167 161 93
171 165 95
166 161 94
165 160 88
169 162 93
164 158 92
160 155 88
166 159 93
162 157 87
167 161 95
166 160 89
161 156 86
167 160 92
165 159 90
164 158 90
162 155 92
163 157 90
174 167 97
160 154 90
157 151 84
155 149 85
159 152 84
161 154 84
167 160 92
164 158 87
158 152 86
159 153 87
164 158 90
155 149 80
156 150 87
159 152 80
161 156 88
212 231 255
212 230 255
212 230 255
212 230 255
212 230 255
210 228 253
213 231 255
212 231 254
212 230 254
212 230 254
213 231 255
212 230 254
213 231 255
213 231 255
212 230 253
212 230 253
212 230 254
212 230 254
212 231 255
212 230 254
213 231 255
212 231 255
212 231 255
212 231 255
212 230 254
212 231 255
212 230 252
210 229 249
211 229 250
211 229 250
211 229 252
210 229 249
212 230 254
211 230 252
211 230 252
211 229 250
212 230 254
210 229 250
212 230 255
211 230 253
212 230 254
212 230 255
211 229 252
211 230 253
211 229 252
212 230 254
212 230 254
211 230 253
210 229 250
211 230 254
211 229 253
211 230 254
212 230 254
211 229 254
211 230 253
212 230 254
211 230 253
211 229 254
210 229 252
209 228 250
211 230 254
212 230 255
211 229 254
211 230 254
209 228 248
212 230 255
211 230 254
212 230 255
210 229 254
211 230 254
210 229 252
209 227 249
210 229 254
209 228 252
211 230 254
211 230 255
210 229 254
211 229 254
210 229 250
211 230 255
210 229 253
210 229 252
210 229 254
209 228 252
209 228 252
210 229 254
209 228 252
208 227 250
210 229 253
210 229 253
210 229 253
210 229 253
210 229 252
209 228 250
209 229 252
209 228 250
210 229 254
209 229 253
210 229 254
208 227 249
209 228 253
210 229 255
209 229 253
209 229 254
208 228 250
208 228 252
209 229 255
209 228 253
209 229 254
209 229 254
209 229 255
209 228 254
207 227 249
208 228 252
208 228 254
208 228 254
208 228 254
208 228 254
208 228 253
208 228 254
206 227 252
207 227 250
206 227 254
205 226 250
205 226 250
207 227 253
205 226 252
205 226 253
206 226 254
204 225 251
207 227 254
184 205 240
114 140 190
61 98 166
60 96 159
60 96 157
61 97 158
58 94 155
60 97 165
61 97 165
60 97 167
61 97 165
159 181 220
210 229 255
211 230 255
213 231 255
215 232 255
217 233 255
217 233 255
217 233 255
179 197 228
60 96 149
60 95 143
61 96 145
60 96 142
60 95 141
61 96 142
61 96 156
60 96 149
62 97 153
61 96 143
60 96 148
60 95 143
60 95 142
61 97 153
60 95 142
61 97 153
62 97 154
61 96 143
61 96 148
59 94 137
60 95 140
61 97 150
61 96 143
61 97 144
59 94 126
60 95 141
61 96 148
60 95 148
60 96 145
61 97 150
62 97 150
61 96 145
59 94 139
60 95 143
60 96 141
60 95 149
61 96 143
60 95 140
60 94 140
61 97 150
62 97 153
60 95 147
61 97 148
60 95 143
60 96 147
61 96 141
62 97 151
62 98 156
61 97 148
62 97 149
60 95 139
61 96 140
60 95 140
61 96 143
61 96 152
61 96 149
62 98 153
61 95 145
61 96 147
62 97 152
59 93 130
61 95 148
61 96 144
62 97 150
60 95 147
61 96 145
61 96 150
61 95 143
61 96 149
60 94 141
61 96 146
60 94 137
61 96 147
60 95 147
62 97 156
60 94 148
59 93 135
59 94 149
60 95 148
59 92 139
60 94 139
60 95 145
58 92 135
59 93 141
60 95 153
61 95 151
60 93 138
61 96 157
60 93 146
58 90 134
58 91 140
59 92 147
58 91 141
57 89 139
56 86 124
55 85 126
55 85 126
53 82 136
184 200 223
217 233 255
217 233 255
217 233 255
166 173 169
113 110 70
96 95 64
96 97 68
89 91 64
98 100 70
92 95 68
90 93 68
86 90 66
100 103 72
98 101 72
106 108 74
95 98 70
98 101 72
106 109 76
118 119 80
120 122 85
121 121 81
119 121 82
116 117 78
115 117 81
126 126 86
127 128 82
126 126 81
127 128 86
130 130 86
131 131 85
138 138 89
140 138 86
138 137 89
136 134 88
155 152 90
137 136 88
150 148 94
145 144 93
145 143 93
145 144 93
156 153 96
157 153 91
157 153 97
156 152 94
157 154 92
157 153 93
154 151 94
159 154 93
164 159 94
155 152 93
160 155 91
161 157 93
160 155 90
157 154 93
161 157 93
169 164 103
165 161 98
166 162 97
161 157 90
167 162 97
165 161 96
170 165 97
169 163 100
170 165 99
170 165 101
176 169 103
171 165 97
172 166 98
164 160 94
171 165 99
165 161 92
173 166 97
166 162 95
176 169 101
171 166 98
169 163 90
171 165 94
173 167 101
173 167 100
174 167 97
175 169 99
171 165 96
169 164 96
168 163 92
170 165 95
176 168 98
170 165 98
173 166 97
175 169 97
170 165 94
173 166 97
167 162 95
171 166 98
171 164 100
173 166 96
170 164 91
170 164 97
170 165 93
170 163 95
165 159 88
170 163 89
173 166 100
172 166 95
163 158 90
172 166 90
172 166 97
170 164 93
167 161 91
168 163 94
170 164 93
170 164 97
166 159 88
168 162 93
161 155 87
165 159 90
168 161 95
167 160 99
169 162 95
165 159 90
164 158 93
171 163 98
161 156 88
161 156 89
165 159 91
161 157 84
158 153 84
166 160 92
163 159 93
159 154 87
163 158 87
167 161 94
166 160 92
163 156 91
160 154 88
159 154 87
162 156 86
162 157 87
161 154 90
164 158 90
163 156 86
158 153 85
160 154 87
157 151 84
155 149 84
163 157 87
159 153 83
151 146 81
156 151 86
162 156 89
152 146 83
213 231 255
213 231 255
213 231 255
213 231 255
213 231 255
213 231 254
213 231 255
213 231 254
213 231 254
213 231 255
213 231 255
213 231 255
213 231 254
213 231 255
213 231 254
212 230 253
213 231 255
213 231 255
213 231 255
213 231 254
213 231 255
213 231 254
213 231 255
214 231 255
213 231 255
213 231 255
212 230 254
212 230 253
212 230 253
213 231 255
213 231 255
213 231 255
212 230 253
212 230 254
212 230 252
212 230 254
211 229 249
210 228 251
211 229 249
212 230 253
211 230 250
213 231 255
211 229 250
213 231 255
213 231 255
213 231 255
211 230 252
212 230 254
212 230 254
212 230 253
213 231 255
211 229 250
210 228 250
211 230 252
213 231 255
211 229 252
211 230 252
210 229 250
212 230 254
211 229 253
211 230 254
211 230 253
211 230 252
212 231 255
212 230 253
210 228 253
211 229 254
211 230 253
210 229 252
211 229 254
211 229 254
212 230 254
211 229 253
210 229 252
212 230 255
211 230 253
210 229 253
211 229 254
210 228 250
210 229 249
212 230 255
211 230 254
209 228 253
211 230 253
211 230 254
211 230 254
211 229 253
210 229 252
211 230 254
211 229 252
210 229 250
211 230 254
211 229 253
210 229 253
210 229 253
211 230 255
211 230 255
211 230 254
209 228 250
210 229 253
210 229 252
210 229 254
209 228 253
210 229 254
210 229 253
210 229 254
210 229 255
210 229 252
209 228 250
210 229 254
209 228 252
210 229 255
209 229 253
209 229 254
209 229 254
208 228 253
208 227 249
209 229 255
208 228 253
207 227 250
204 224 250
204 224 249
206 226 252
203 224 247
205 225 248
207 227 250
208 227 254
205 225 254
208 228 255
204 224 252
206 226 254
200 220 249
140 163 203
64 99 165
61 97 160
59 95 154
60 96 160
59 95 152
60 95 160
61 98 166
60 96 158
59 95 162
66 101 164
189 209 238
211 230 255
212 231 255
215 232 255
217 233 255
217 233 255
217 233 255
145 165 199
61 96 155
60 96 147
61 96 151
60 95 147
59 94 149
61 96 149
60 95 141
60 95 144
62 97 156
61 96 148
60 95 140
60 96 148
61 96 147
61 97 152
60 96 149
60 95 144
61 95 143
61 96 145
61 96 149
60 95 145
61 97 150
60 96 141
60 95 135
61 96 151
62 97 149
61 97 152
61 96 145
60 96 143
62 97 152
62 98 153
62 97 144
60 95 140
62 97 152
61 97 155
60 96 140
61 96 152
60 95 141
61 96 142
61 96 140
60 95 143
60 95 142
62 97 150
62 97 150
60 95 145
60 95 141
62 97 153
61 97 150
61 96 142
61 97 147
62 97 153
61 96 148
62 97 147
61 96 144
61 97 153
60 95 142
61 96 149
59 93 133
61 96 149
60 95 142
62 97 157
61 96 144
61 95 146
60 95 143
60 94 141
60 95 140
60 95 143
60 95 144
61 96 146
59 93 144
61 95 146
61 96 151
60 95 145
59 93 137
59 93 139
59 94 144
58 92 141
60 95 138
58 92 138
60 94 145
60 95 148
59 92 137
60 93 145
60 93 147
60 94 146
60 93 148
58 92 136
58 91 132
60 93 143
59 92 145
57 90 137
58 90 137
58 91 137
57 89 132
59 92 136
58 90 130
56 87 128
54 83 124
52 80 121
138 155 186
217 233 255
217 233 255
217 233 255
124 126 109
112 110 70
97 97 63
85 87 60
78 81 58
79 81 55
91 94 67
95 98 68
90 93 66
78 83 59
97 101 72
89 93 66
106 108 75
103 106 73
108 109 77
107 109 74
113 114 78
109 111 77
111 113 77
114 115 78
119 120 80
135 134 90
121 121 82
131 131 85
128 129 85
136 135 86
126 126 83
132 132 87
140 139 87
136 135 86
145 143 93
140 138 89
142 140 91
142 140 87
143 141 90
149 146 92
151 147 94
143 141 89
153 150 95
151 148 91
153 150 88
155 151 92
160 156 98
158 154 93
155 151 92
156 153 91
162 157 93
165 161 98
159 156 88
169 164 99
164 159 97
159 155 98
154 151 88
164 160 94
167 163 100
167 163 91
166 160 94
166 161 98
168 162 93
171 165 99
171 166 101
164 159 92
166 161 96
171 166 95
174 168 99
169 163 89
169 164 99
165 160 90
171 166 97
173 167 101
170 163 95
169 164 97
170 164 98
172 166 99
171 166 97
174 168 100
174 168 100
171 165 94
171 166 95
173 167 97
170 165 95
169 163 94
172 166 94
172 165 94
172 167 99
175 169 97
173 166 99
170 164 93
169 163 93
171 166 96
171 165 98
173 166 98
170 164 95
174 167 99
169 164 96
170 164 93
169 163 91
174 167 101
164 159 92
173 166 98
169 163 93
173 166 100
166 161 84
170 165 95
167 163 90
172 166 96
172 166 93
165 159 92
167 160 95
164 158 93
170 164 92
169 163 95
167 161 90
162 156 89
168 162 96
165 159 87
163 158 86
164 158 88
168 162 95
170 164 93
157 152 84
168 162 94
163 158 93
163 158 89
161 155 84
160 154 89
160 155 88
162 157 87
163 157 88
162 157 88
161 155 87
163 156 89
167 161 92
163 157 88
161 154 90
163 157 90
150 144 80
168 162 89
162 157 87
156 149 81
157 152 87
164 157 93
154 149 81
158 152 84
160 154 84
155 149 82
169 163 90
213 231 255
213 231 255
213 231 255
213 231 255
213 231 255
214 231 255
214 231 255
214 231 255
214 231 254
213 231 255
214 231 255
213 231 254
214 232 255
214 231 255
213 231 254
214 231 255
214 231 255
213 231 254
214 231 255
213 231 255
213 231 255
214 231 255
214 231 255
214 231 255
214 231 255
213 231 255
213 231 254
212 230 250
212 230 249
213 230 253
212 230 250
213 230 253
212 230 252
213 230 253
212 230 253
213 230 253
212 230 253
212 230 250
213 230 253
213 230 253
212 230 252
212 230 253
213 231 254
213 231 255
212 230 252
213 231 254
212 230 253
213 231 255
212 229 252
212 230 252
213 231 255
211 229 250
213 231 254
213 231 254
212 230 253
213 231 254
212 230 253
212 230 252
213 231 254
213 231 254
212 230 253
209 227 248
211 229 252
211 229 253
213 231 255
212 230 254
212 231 254
210 228 249
210 228 252
211 229 250
213 231 255
211 229 253
212 230 252
212 230 253
211 229 253
212 230 254
210 228 252
210 228 252
210 228 252
211 229 252
212 230 254
212 230 254
212 230 254
212 230 253
211 229 252
212 230 255
212 230 255
210 228 249
210 228 253
212 230 255
211 230 252
211 230 254
211 230 253
210 228 252
210 229 250
211 229 252
211 230 254
210 229 250
211 229 253
210 229 252
210 228 252
211 229 253
211 230 254
210 229 250
211 230 254
210 229 252
211 230 254
210 229 253
210 229 253
210 229 250
211 230 255
210 229 253
210 229 253
210 229 253
210 229 253
210 229 253
210 229 254
209 228 250
209 228 252
207 226 248
206 226 248
209 229 253
208 227 252
206 225 250
205 224 250
208 228 252
203 223 249
206 225 253
208 228 254
206 226 254
209 229 255
206 226 254
160 181 222
101 128 185
60 96 153
60 96 158
61 97 162
62 98 165
60 96 156
60 96 155
60 96 158
60 96 161
58 94 149
112 136 182
208 226 253
213 231 255
214 232 255
217 233 255
217 233 255
216 232 255
85 114 164
60 95 154
59 94 144
59 95 142
61 96 143
60 95 141
61 96 145
60 95 141
60 96 148
61 97 154
60 95 145
60 96 143
60 95 144
61 96 149
61 97 148
59 94 140
60 94 135
61 97 147
61 96 151
62 97 151
62 97 152
62 97 151
60 95 143
60 95 139
61 96 147
61 97 150
61 96 149
60 96 144
60 95 144
60 95 141
60 96 143
59 94 136
59 94 139
61 96 148
61 96 145
61 97 142
60 95 141
61 96 144
60 95 151
61 96 143
61 96 142
60 96 147
62 98 152
60 95 149
60 95 137
60 95 141
62 97 149
62 97 150
61 96 141
61 96 142
61 96 147
60 95 150
62 97 153
61 96 147
60 94 139
61 97 148
60 94 133
61 96 141
62 96 146
61 96 142
60 96 139
59 94 137
60 95 131
60 95 142
61 96 142
59 94 140
60 94 145
58 92 131
61 96 140
60 94 144
61 95 142
60 95 141
60 95 140
59 93 134
60 94 138
61 96 146
60 95 139
60 95 142
60 94 144
59 93 136
60 94 140
60 94 141
60 94 139
59 92 134
61 96 154
59 93 139
59 91 143
60 93 142
59 93 146
58 91 129
56 88 131
57 89 136
58 91 138
57 88 138
57 89 131
55 86 123
55 84 127
54 83 123
52 81 125
90 110 141
217 233 255
217 233 255
195 208 224
112 111 69
92 92 61
101 101 66
98 97 66
86 88 63
98 100 71
87 90 64
87 91 68
94 97 69
81 84 60
94 99 71
103 105 73
98 101 70
91 96 69
101 103 71
106 109 74
97 100 71
110 112 79
110 112 77
125 125 84
116 117 79
124 124 83
120 121 81
118 119 79
137 136 88
128 127 82
126 126 84
138 136 86
144 141 87
135 134 82
142 140 89
147 145 92
144 141 86
154 150 94
153 150 97
156 152 94
151 148 91
152 149 91
155 152 90
151 148 89
149 146 89
149 147 92
157 153 88
158 155 94
160 156 98
159 156 94
159 155 91
158 154 93
167 162 96
164 160 97
160 157 92
163 159 92
165 160 93
164 160 93
165 161 99
165 161 94
169 164 97
169 164 96
166 161 96
167 162 97
174 168 104
170 164 98
171 166 100
171 165 97
171 165 97
172 166 100
171 166 99
170 164 93
172 166 98
169 163 94
171 165 98
170 165 96
174 167 98
172 167 99
173 167 100
170 164 93
176 169 97
173 167 97
172 166 93
171 166 95
169 163 94
168 163 95
170 164 97
170 165 94
172 165 97
169 164 86
173 167 98
169 163 90
169 163 91
170 163 99
174 167 97
173 166 96
167 161 90
169 164 91
172 165 94
170 164 93
170 164 96
171 165 93
167 162 87
166 160 87
171 164 92
168 162 91
170 164 95
169 164 93
172 165 96
165 159 86
172 164 96
174 167 93
172 165 95
169 163 94
169 163 93
172 164 96
169 163 89
167 161 90
171 164 92
176 169 102
163 157 87
164 158 93
163 157 87
162 157 84
163 159 87
171 164 95
160 155 83
164 160 83
159 153 85
168 162 94
169 161 93
163 158 87
160 155 93
159 153 87
157 152 84
161 154 88
162 156 90
148 143 78
168 161 95
160 154 84
165 158 90
155 150 85
160 154 88
165 159 95
153 148 85
162 156 87
158 152 89
159 153 87
154 148 80
159 153 87
166 160 93
214 232 255
214 231 255
214 231 255
214 231 255
214 232 255
215 232 255
214 231 254
214 232 255
214 232 255
214 232 255
214 231 254
214 232 255
214 232 255
214 232 255
214 231 254
214 232 255
214 232 255
214 232 255
214 232 255
214 232 255
214 232 255
214 232 255
214 231 254
214 231 254
214 232 255
214 231 254
214 231 255
214 231 255
213 231 252
213 231 252
212 230 249
212 230 250
212 230 249
213 231 254
214 231 254
214 231 254
213 231 254
213 231 253
212 230 250
213 231 254
213 231 253
213 231 253
213 231 254
214 231 254
214 231 254
214 231 255
213 231 253
213 231 253
213 230 252
212 230 250
214 231 255
212 230 253
213 231 253
213 231 254
214 231 255
213 230 254
214 231 255
213 231 254
214 231 255
212 230 253
211 229 248
213 231 253
213 231 254
211 228 250
213 231 253
213 230 254
213 231 253
213 231 253
214 231 255
213 231 254
213 231 254
210 228 250
212 230 253
212 230 254
211 229 252
212 230 253
211 229 253
213 231 254
212 230 250
213 231 254
213 231 254
212 230 254
213 231 254
212 230 252
213 231 255
212 230 253
213 231 254
211 229 250
212 230 253
212 231 254
213 231 255
212 230 252
212 230 253
212 230 254
211 230 252
211 229 252
212 231 255
212 231 255
211 230 252
211 229 250
212 230 253
212 230 254
212 230 253
212 230 254
211 229 250
212 230 255
211 229 252
212 230 255
211 230 254
211 230 254
210 229 252
211 230 253
211 230 254
211 229 253
210 229 252
210 229 250
211 230 254
210 229 253
209 228 252
206 225 249
211 229 254
209 228 251
206 226 249
210 229 254
208 227 248
209 228 252
210 229 254
208 227 254
207 226 253
206 225 250
209 228 253
208 227 252
173 193 226
125 149 194
62 97 158
60 96 153
59 95 151
59 94 150
60 96 158
60 96 160
61 96 156
59 94 161
60 96 162
59 95 158
158 179 217
213 231 255
214 232 255
217 233 255
218 234 255
194 211 233
60 95 149
61 97 153
61 97 149
61 96 143
61 96 153
59 94 142
61 96 152
61 96 151
60 95 144
61 96 148
60 95 136
61 96 142
60 95 143
60 95 143
61 96 154
60 95 145
60 95 143
60 96 144
61 97 148
61 96 145
60 95 144
60 95 133
61 97 153
60 95 137
60 95 139
62 97 148
62 97 152
60 95 140
62 97 150
61 96 147
61 96 145
61 97 149
60 95 141
61 96 137
61 96 141
60 95 143
61 97 149
60 95 137
61 97 151
61 97 144
60 95 139
61 96 142
60 95 135
62 97 154
60 95 133
60 95 134
61 97 143
60 95 145
61 97 152
61 95 142
61 97 153
60 95 136
60 95 141
61 96 139
61 96 149
61 96 149
61 96 147
61 96 149
60 95 137
61 96 146
61 95 138
61 96 144
62 97 154
60 94 142
60 95 139
62 97 149
60 95 148
59 94 134
60 94 141
61 96 152
61 96 153
59 94 142
61 96 142
60 94 142
61 95 142
60 94 147
60 95 147
59 93 141
60 94 144
59 93 130
60 94 139
60 93 142
61 96 147
59 93 136
60 94 141
59 92 139
59 93 143
60 94 145
59 92 140
58 91 137
58 92 142
58 91 140
58 89 134
59 91 138
59 91 135
56 88 130
56 87 133
54 84 129
55 85 128
53 82 128
202 218 242
218 233 255
162 170 172
97 96 63
97 97 63
78 80 52
92 93 64
89 92 63
88 91 66
86 90 66
76 80 59
86 90 63
87 91 67
72 77 57
107 110 77
87 92 68
92 96 69
95 97 66
117 119 83
114 117 79
100 103 69
115 116 81
118 119 78
121 121 81
125 125 82
131 130 88
134 134 86
130 130 85
137 135 88
130 129 83
127 127 83
129 129 79
146 144 92
144 142 87
137 136 85
146 144 87
146 143 88
142 140 87
131 130 80
157 153 91
150 148 95
147 143 89
151 147 90
162 157 96
142 140 81
156 152 93
153 150 91
155 152 94
158 154 89
156 152 86
163 159 92
162 157 87
164 159 94
163 159 96
169 164 101
162 157 90
167 162 95
163 158 93
170 165 101
168 164 99
170 165 99
166 162 89
165 159 93
163 159 91
170 163 94
164 159 94
173 166 93
171 165 90
170 165 94
174 168 96
172 165 93
170 165 95
175 168 98
175 169 99
175 169 97
171 165 96
175 168 98
173 166 102
170 165 95
171 166 97
170 164 95
174 167 96
173 167 94
174 167 95
170 164 93
174 167 98
175 168 98
174 168 98
172 166 97
172 165 97
171 164 94
168 162 90
166 160 90
169 164 96
169 164 94
168 162 91
170 163 93
168 163 87
174 168 93
176 170 99
175 168 98
172 166 93
168 163 93
170 164 93
170 165 95
165 160 91
164 158 88
173 166 92
169 162 90
167 161 90
167 162 87
170 163 90
170 163 93
165 160 87
168 162 97
169 162 93
169 162 93
164 158 90
168 162 90
165 160 93
170 163 97
164 158 87
164 158 88
162 157 84
164 158 88
166 159 94
170 163 92
164 158 82
166 160 93
164 159 87
158 151 80
167 160 89
155 150 86
168 161 90
161 155 87
165 159 84
154 149 84
165 159 88
159 153 89
153 149 79
159 154 82
157 152 81
160 153 87
163 158 88
163 157 84
156 150 85
161 155 81
158 153 86
162 156 88
157 152 87
215 232 255
215 232 255
215 232 255
214 232 255
215 232 255
215 232 254
215 232 254
215 232 255
215 232 255
215 232 255
215 232 255
215 232 255
215 232 254
215 232 255
214 231 253
215 232 255
215 232 255
214 231 253
215 232 255
215 232 255
214 231 253
215 232 255
215 232 255
215 232 255
215 232 255
215 232 255
214 232 254
214 232 254
213 231 252
213 231 252
213 230 250
214 231 253
213 230 250
214 232 254
214 232 254
214 231 252
214 231 254
214 231 253
214 231 253
214 231 253
214 231 254
214 231 254
213 231 252
214 231 253
214 231 253
214 231 254
214 231 253
213 230 249
213 231 252
214 231 253
212 230 252
214 231 254
213 231 254
212 230 249
214 231 253
213 230 253
213 230 252
214 231 253
212 230 252
214 231 254
213 230 253
212 230 252
212 229 252
213 230 253
214 232 255
211 228 249
210 227 250
212 230 250
212 230 253
209 227 248
214 231 254
211 229 252
213 231 253
213 230 253
212 230 253
213 230 254
214 231 254
213 230 252
212 230 253
213 230 253
214 231 254
210 228 249
213 231 253
212 230 253
213 231 254
213 231 254
213 231 254
213 230 253
213 231 254
212 230 253
212 230 252
212 230 253
213 231 255
212 230 250
212 230 254
212 230 252
213 230 253
213 231 254
212 230 253
213 231 254
213 231 254
212 230 253
213 231 255
212 230 254
212 230 254
212 230 254
213 231 255
211 230 252
211 229 250
211 230 250
212 230 253
211 230 252
212 230 254
212 230 254
212 230 255
211 229 253
210 229 249
212 230 255
209 228 251
212 230 254
205 224 242
210 229 252
209 228 253
205 224 245
209 228 251
208 227 249
206 226 248
208 226 252
210 229 254
208 227 251
211 230 254
209 228 254
195 215 238
136 158 194
78 108 172
60 96 162
61 97 163
60 95 143
58 93 151
61 97 156
59 94 156
59 94 152
58 94 156
60 96 160
72 104 162
207 225 250
214 232 255
216 233 255
218 234 255
181 198 220
60 95 143
60 95 151
60 96 145
60 96 148
61 97 147
60 96 145
60 96 149
62 97 157
61 96 147
61 97 155
61 97 150
61 96 148
60 96 147
61 96 151
61 96 145
61 96 149
61 96 140
59 94 137
61 96 142
61 96 144
61 97 152
62 97 145
61 96 147
60 95 142
62 97 149
60 95 140
61 96 149
61 96 148
61 96 143
60 95 134
60 95 147
61 97 150
61 96 144
62 97 151
61 96 148
61 96 142
61 96 149
61 97 145
60 95 144
59 93 139
61 96 152
61 96 143
61 96 148
61 95 145
62 97 147
62 97 152
60 95 141
60 95 142
60 95 141
60 94 139
61 96 135
60 94 143
60 95 134
61 96 149
62 97 145
61 96 143
60 94 136
60 95 139
62 97 154
60 95 141
61 96 148
61 96 142
61 97 144
59 94 136
60 95 143
60 94 139
60 95 140
60 95 144
59 94 130
61 96 143
59 93 142
60 94 141
61 96 145
61 96 146
61 96 141
60 94 140
61 96 144
60 94 137
58 91 141
59 93 137
59 92 132
60 94 144
59 93 136
58 91 125
59 93 139
59 93 142
60 93 144
59 93 139
60 94 147
60 92 136
59 92 141
56 89 132
56 87 133
56 86 127
57 87 132
55 85 121
57 88 131
56 87 130
53 82 127
52 80 117
173 189 211
218 234 255
140 147 146
98 97 60
97 96 65
84 86 59
88 90 64
84 86 61
74 78 55
79 83 59
76 79 57
85 90 67
97 100 71
85 88 61
100 103 71
88 92 66
98 101 72
101 103 70
110 112 75
111 112 75
103 105 72
115 116 77
113 114 76
115 117 77
121 121 82
125 125 84
120 120 80
117 119 76
127 126 80
122 122 80
132 132 86
140 138 86
140 138 86
134 132 81
142 139 86
142 139 86
145 143 87
151 148 90
158 155 97
154 150 93
153 150 87
153 150 87
149 145 88
164 159 97
151 148 87
156 152 95
163 159 97
158 155 91
154 150 92
156 151 85
161 156 94
162 158 96
161 157 96
163 159 95
165 160 92
159 154 88
168 163 95
161 156 93
166 161 99
171 165 96
168 162 95
168 163 95
168 163 96
170 164 97
173 167 98
168 164 96
170 164 96
169 163 92
170 165 94
172 166 96
171 165 94
168 163 93
175 168 95
172 167 97
171 165 94
167 162 91
169 164 92
173 166 97
170 164 93
169 164 91
173 166 95
168 163 90
169 164 89
170 165 91
170 164 93
170 164 89
177 169 99
171 164 89
171 165 94
172 166 94
168 163 88
169 163 91
168 161 90
169 163 90
170 164 90
169 163 90
166 161 90
172 165 88
168 162 89
169 163 90
168 163 94
174 167 95
165 160 92
163 159 83
167 161 88
168 161 94
162 157 89
165 159 92
167 160 91
172 166 95
167 161 90
170 163 93
164 158 86
168 162 86
168 160 88
168 162 95
168 162 94
167 161 90
160 153 85
162 157 90
169 163 87
164 158 83
165 158 90
165 158 91
161 156 83
173 165 92
163 157 92
166 160 89
161 155 85
163 156 88
160 153 81
162 156 87
168 161 93
162 156 81
165 158 89
167 161 89
161 155 84
170 163 92
162 157 84
155 150 81
157 151 80
155 149 85
154 148 85
151 146 80
158 152 84
162 155 86
160 154 82
161 154 87
159 153 83
155 149 82
215 232 255
215 232 255
215 232 255
215 232 255
215 232 254
215 232 255
216 232 255
214 232 253
215 232 254
216 232 255
216 233 255
215 232 254
216 232 255
215 232 255
215 232 255
215 232 254
215 232 254
215 232 255
215 232 254
216 232 255
215 232 255
215 232 255
216 232 255
216 232 255
216 232 255
215 232 255
215 232 255
214 231 252
214 231 252
213 231 250
215 232 255
214 231 252
215 232 253
215 232 255
215 232 253
215 232 254
214 231 252
213 230 250
214 231 250
213 230 249
215 232 254
215 232 254
215 232 254
213 231 250
214 231 250
215 232 254
214 231 252
215 232 254
214 231 254
213 230 250
215 232 255
215 232 255
214 231 250
215 232 254
215 232 254
214 231 253
214 231 253
215 232 255
211 228 246
214 231 253
213 231 250
215 232 255
215 232 255
213 230 252
213 230 252
214 231 253
215 232 255
213 231 253
212 230 252
213 230 250
212 228 252
213 230 253
214 232 254
214 231 253
211 228 252
214 231 254
214 231 252
214 231 254
213 231 252
214 231 253
212 230 253
214 231 252
213 231 252
214 231 252
214 231 253
214 231 254
214 231 253
214 232 255
214 231 254
214 231 253
214 231 254
213 230 252
214 231 254
214 231 254
212 230 252
213 231 253
213 230 254
214 231 255
214 231 255
213 230 252
212 230 252
212 230 252
213 231 254
213 230 252
214 231 255
213 231 253
212 230 248
212 230 253
213 231 253
212 230 250
213 231 255
212 230 252
212 230 253
213 230 253
213 231 255
213 231 255
212 230 253
212 230 255
210 229 253
210 228 252
209 227 251
212 230 253
210 228 251
210 229 250
210 228 251
210 228 252
207 226 248
210 229 254
210 229 254
210 229 252
210 228 252
210 229 253
206 225 252
139 160 200
124 147 185
60 95 155
58 93 141
59 94 151
60 95 159
59 94 150
58 93 153
58 93 153
59 94 157
60 95 154
57 91 145
165 184 217
215 232 255
216 233 255
218 234 255
160 178 207
59 94 143
60 95 141
59 94 139
59 94 137
59 94 133
60 95 139
59 94 144
60 96 151
61 96 145
61 96 135
60 96 144
60 95 151
60 96 143
60 95 142
61 97 150
60 95 139
60 95 141
60 95 140
61 96 147
60 95 139
60 96 145
61 97 147
61 97 148
60 95 140
61 96 144
60 95 140
60 95 147
61 96 145
61 97 140
61 97 144
62 97 148
60 95 133
60 94 137
61 96 143
61 96 143
62 97 156
59 94 140
60 95 135
60 95 137
60 95 142
60 95 145
61 97 149
61 96 143
61 96 142
61 96 141
61 96 142
60 96 140
61 97 148
61 97 147
59 93 129
60 93 136
60 95 131
60 95 142
61 96 148
61 95 149
60 95 143
60 95 144
59 94 134
60 95 140
61 96 148
59 94 130
60 95 141
62 97 155
59 94 137
60 95 145
61 95 135
60 95 141
59 93 137
60 95 141
60 95 142
60 94 137
61 95 147
60 95 146
59 93 129
61 95 149
60 95 139
60 95 147
59 93 133
60 94 139
58 91 133
61 96 149
60 94 138
59 94 143
58 91 142
60 93 139
61 94 141
59 93 139
60 92 134
59 94 142
57 88 129
58 92 137
58 91 138
55 87 129
56 89 141
59 92 139
56 86 122
57 89 137
54 85 132
52 81 117
51 78 110
151 168 194
217 232 253
117 116 80
79 79 51
78 79 53
79 80 55
78 79 54
91 94 67
79 83 61
65 71 52
82 85 61
76 81 59
82 85 62
84 88 64
77 82 59
91 96 70
108 111 77
98 101 70
95 99 71
96 99 68
114 116 79
118 118 80
117 118 77
120 121 80
109 111 71
113 115 74
128 128 81
127 127 80
128 127 81
127 126 81
128 127 77
133 132 81
136 135 87
137 136 84
145 142 89
140 139 83
139 138 87
145 143 84
147 145 88
150 147 90
150 147 86
155 152 92
155 152 92
145 143 89
151 148 91
151 148 87
154 151 93
162 157 93
155 151 90
162 157 92
160 155 93
163 158 91
158 154 92
166 160 94
164 159 93
164 159 93
161 155 85
166 161 97
165 160 95
167 161 90
168 163 95
173 167 99
169 164 96
169 164 96
167 162 93
169 164 99
171 166 94
165 161 90
172 165 96
166 160 91
169 164 95
169 164 95
172 167 93
168 162 89
170 164 97
172 165 94
169 163 93
174 168 96
171 165 94
172 165 95
171 165 93
169 163 86
172 166 91
171 165 93
172 166 97
165 160 82
169 163 88
169 164 87
175 168 99
171 165 93
173 167 97
172 166 95
172 166 91
171 165 87
174 167 97
171 164 93
173 166 96
165 159 87
167 161 87
173 166 96
167 161 91
170 163 92
170 163 91
168 162 88
174 167 97
170 164 91
170 164 93
169 163 90
166 161 89
170 164 90
168 161 90
167 160 89
162 156 87
168 162 94
170 163 94
171 164 93
162 156 83
169 162 90
156 150 84
171 164 94
166 160 90
164 159 89
162 156 84
160 154 86
167 160 87
159 153 86
164 158 85
163 157 89
161 155 87
164 158 87
159 154 85
155 151 81
162 157 90
159 153 81
161 155 87
160 154 82
163 156 81
163 156 87
160 154 80
160 154 80
161 155 87
161 154 89
158 153 84
166 160 90
162 155 87
159 153 83
163 157 89
165 158 93
144 139 72
156 151 79
216 232 255
216 232 255
216 232 255
213 229 252
216 233 255
216 233 255
216 233 255
216 233 255
216 232 254
216 232 254
216 233 255
216 233 255
216 233 255
216 232 254
216 233 255
216 232 254
216 232 254
216 233 255
216 233 255
216 233 255
216 233 255
216 232 254
216 233 255
216 233 255
216 233 255
216 233 255
216 233 255
216 233 255
215 232 254
215 232 253
215 232 253
214 231 250
215 232 253
215 232 254
216 232 255
216 232 254
215 232 254
216 232 254
215 232 253
215 232 252
215 231 252
214 231 252
215 232 252
214 231 250
214 231 252
214 231 250
215 232 252
215 232 254
216 232 255
215 232 254
216 232 255
213 230 249
214 231 252
215 232 254
215 232 253
215 232 254
213 230 250
215 231 254
215 232 253
215 232 253
215 232 253
216 232 255
214 231 252
214 231 252
214 231 254
215 232 254
213 230 253
215 232 255
213 230 252
213 229 250
214 231 254
213 230 253
215 232 255
215 232 255
214 231 253
212 229 249
213 231 252
213 230 252
215 232 255
215 232 255
215 232 254
215 232 254
214 232 254
215 232 254
214 231 254
212 229 248
215 232 255
214 231 253
214 231 252
214 231 252
214 231 252
214 231 253
213 231 253
215 232 255
214 232 254
214 231 253
214 231 253
214 231 252
214 231 254
213 231 250
214 231 253
214 231 254
213 231 252
214 231 253
214 231 253
214 231 254
214 232 255
214 231 253
214 231 253
213 231 253
214 232 255
214 231 254
214 231 254
214 232 255
214 231 254
213 231 254
213 231 253
211 228 250
211 228 250
212 230 252
211 229 251
212 230 254
210 228 250
211 229 251
207 225 245
211 229 252
212 230 254
213 231 255
210 228 252
212 230 255
209 228 252
210 228 252
212 230 254
153 174 209
127 149 188
59 94 143
60 95 152
57 91 141
58 93 144
60 95 153
60 95 150
58 93 143
58 93 150
58 93 157
57 91 148
97 124 175
214 231 255
216 233 255
218 234 255
119 141 182
61 96 155
60 96 154
61 97 152
59 94 141
60 96 155
61 97 152
61 95 141
62 97 154
60 95 147
59 94 136
60 95 136
60 94 144
60 95 142
60 95 136
61 96 147
59 93 137
61 97 144
60 95 147
61 97 152
60 96 141
60 96 142
60 96 142
60 96 148
61 96 147
61 97 153
60 95 140
60 95 137
61 96 145
59 94 136
61 97 145
60 95 144
61 96 148
61 96 140
62 97 144
61 96 144
61 96 143
61 96 136
61 97 150
61 96 136
62 97 153
61 96 141
61 96 141
60 94 136
60 95 134
60 95 133
62 96 149
60 95 140
61 96 147
60 95 147
60 94 139
60 94 140
61 95 141
60 95 144
61 95 139
61 96 144
59 94 139
62 96 139
61 96 143
60 95 142
60 94 146
60 95 142
61 96 146
60 95 145
59 93 128
61 96 145
60 95 141
61 95 145
60 95 143
60 95 145
58 91 131
61 96 150
59 93 137
61 95 148
60 94 139
59 92 130
60 94 140
60 95 141
59 93 143
59 92 138
58 91 130
59 93 135
57 90 128
58 91 129
59 93 140
59 93 141
60 94 138
59 92 137
59 93 131
56 88 124
58 91 141
57 89 133
58 91 144
57 90 131
57 89 133
60 92 138
55 86 120
57 90 137
56 86 130
56 85 126
53 80 115
117 134 159
199 212 225
85 85 54
72 73 49
82 84 57
63 65 45
86 88 61
71 74 54
70 75 56
77 80 57
82 88 65
79 83 58
78 82 57
72 77 54
93 96 67
93 95 67
85 91 68
87 91 64
116 117 78
109 111 76
100 103 70
108 110 74
114 115 75
122 122 77
104 107 72
123 124 78
125 124 79
129 128 81
134 133 83
131 129 82
133 133 85
133 132 81
125 125 78
132 131 79
139 137 83
142 141 84
147 145 86
150 147 85
147 145 89
152 149 90
145 143 88
146 143 89
155 151 92
154 151 87
157 153 90
152 150 91
151 148 88
166 161 96
156 152 87
159 154 88
166 161 95
160 155 92
163 159 94
165 161 91
159 154 83
161 157 91
161 157 88
163 158 94
166 162 94
163 158 91
168 162 92
162 157 89
171 165 92
168 163 89
171 165 94
166 161 90
165 160 92
170 164 94
163 158 90
170 164 94
165 160 90
165 160 87
172 165 95
172 166 93
172 165 92
172 166 94
168 163 92
170 164 92
171 165 89
168 162 87
174 167 97
176 168 97
170 165 89
173 166 91
168 162 85
171 164 95
172 165 94
170 163 95
171 164 90
173 166 91
173 167 95
174 168 96
172 166 92
171 164 87
171 165 93
174 167 93
169 163 97
172 166 96
171 165 89
164 159 84
169 163 93
172 165 92
171 164 92
173 166 98
168 161 85
169 163 88
170 164 87
170 163 90
166 160 86
171 164 90
166 160 87
164 159 84
166 160 88
162 155 88
165 160 85
166 158 89
162 156 84
167 161 87
157 152 79
167 161 94
168 162 95
164 158 84
166 161 87
167 160 87
161 155 87
161 155 88
170 163 92
166 159 90
168 162 90
162 156 83
161 155 83
170 163 92
165 158 87
163 157 87
149 143 77
160 154 87
158 152 80
157 151 83
155 149 84
159 152 84
154 149 80
159 153 80
160 153 87
157 151 87
155 149 81
152 146 81
165 158 91
155 149 80
155 150 80
158 153 84
216 233 255
216 233 255
216 233 255
217 233 255
217 233 255
217 233 255
217 233 255
217 233 255
217 233 255
217 233 255
216 233 254
217 233 255
217 233 255
217 233 255
217 233 255
216 233 255
217 233 255
216 233 254
216 233 255
217 233 255
217 233 255
217 233 254
216 233 254
217 233 255
217 233 255
217 233 255
217 233 255
217 233 255
215 232 252
216 232 253
216 233 255
214 231 248
216 233 254
216 232 253
214 231 248
216 232 253
216 233 254
216 233 254
216 233 255
214 231 250
215 232 252
215 232 250
216 233 254
216 232 254
216 232 254
215 232 252
216 232 254
215 232 252
215 232 252
215 232 252
216 232 254
215 232 252
216 232 254
215 232 252
215 231 250
214 231 249
216 232 254
216 232 254
216 232 254
213 230 252
215 231 253
212 229 249
213 230 252
213 229 252
214 231 253
216 233 255
212 228 250
215 231 254
215 232 254
212 228 251
216 233 255
214 230 253
215 232 254
213 229 252
216 233 255
215 232 254
216 232 254
214 231 252
214 231 253
216 233 255
214 231 250
214 230 253
216 233 255
215 232 254
216 233 255
214 231 250
214 231 252
216 232 255
216 232 255
215 232 254
214 231 252
214 231 250
215 232 253
214 231 250
214 231 253
214 231 252
215 232 254
215 232 254
215 232 253
215 232 254
215 232 253
215 232 254
214 232 253
214 231 252
215 232 253
214 231 250
215 232 254
215 232 254
214 231 253
214 231 253
214 232 254
214 231 253
214 232 254
214 232 254
213 231 252
214 232 254
212 230 250
211 229 250
210 228 251
207 225 244
210 227 249
210 227 250
214 231 254
211 229 252
213 231 255
210 228 248
209 227 250
211 229 254
214 231 255
213 230 255
212 230 254
212 229 254
212 229 254
153 173 208
132 153 191
76 107 155
60 95 147
61 96 145
59 95 156
60 95 154
58 93 151
59 94 156
56 90 140
59 94 158
57 92 152
58 93 152
182 199 228
217 233 255
218 234 255
78 108 151
60 96 145
60 95 142
59 94 140
61 95 142
61 97 147
59 94 127
61 96 151
61 96 145
60 95 144
61 97 148
60 95 139
60 95 141
60 95 135
61 96 136
61 97 153
61 96 143
61 96 152
61 96 145
61 96 139
60 94 140
61 97 149
61 96 137
61 96 152
61 96 148
59 94 139
60 95 135
61 96 141
60 95 137
60 95 136
61 96 141
60 95 142
60 94 137
61 96 148
61 96 151
61 96 148
61 96 139
60 94 141
61 97 148
61 96 145
60 95 134
61 95 144
59 93 130
59 94 137
60 95 141
59 94 131
62 97 150
60 96 142
61 96 141
60 94 140
61 96 142
61 96 148
60 95 131
60 95 141
60 95 138
60 95 140
61 96 147
60 95 145
60 95 135
61 97 148
61 95 139
59 94 134
59 93 126
60 94 138
61 96 142
60 96 148
60 95 136
61 96 144
61 96 149
59 94 142
60 93 138
59 94 142
61 96 142
61 95 142
60 95 142
59 93 131
59 93 134
60 94 136
58 92 133
58 92 136
59 93 138
58 90 123
59 92 139
58 91 126
60 94 146
58 91 132
59 92 139
60 93 138
58 90 128
58 91 132
58 90 130
59 92 130
59 92 134
57 89 131
57 88 128
58 90 130
56 87 128
55 85 122
54 84 123
53 81 112
51 79 111
75 95 122
172 180 183
85 84 51
76 76 48
69 72 47
79 82 58
50 56 39
63 68 49
54 60 45
63 68 50
82 85 61
75 79 59
80 85 59
81 86 61
98 100 71
82 85 58
82 86 62
94 97 65
91 95 66
117 117 76
101 104 70
103 104 67
116 118 81
116 116 73
126 125 78
118 118 75
117 118 74
128 128 81
139 137 87
127 126 79
139 138 89
126 127 78
148 145 90
132 132 84
139 137 81
135 134 79
148 145 89
141 140 83
152 148 87
148 145 86
143 141 83
151 148 89
149 145 85
156 153 90
154 150 92
161 156 87
157 153 91
155 151 84
155 151 86
161 156 92
155 151 88
161 156 87
164 159 92
160 156 91
166 161 93
159 154 87
160 156 91
166 161 89
166 162 95
163 158 89
170 164 97
172 165 92
166 161 93
170 164 98
172 165 94
167 161 84
169 163 94
173 166 98
170 164 97
169 163 91
168 162 95
173 166 93
172 166 88
173 167 94
173 167 98
171 166 94
173 166 91
169 163 88
169 163 90
170 164 90
171 165 90
172 166 92
169 162 88
167 162 87
166 162 89
170 163 90
167 161 90
171 164 89
172 166 94
171 165 90
166 161 80
170 163 93
171 166 91
171 164 89
171 166 91
175 168 97
168 161 87
173 166 90
167 161 82
168 161 85
172 166 93
167 160 88
170 164 93
167 161 91
170 163 90
167 161 92
170 164 87
164 159 90
175 167 94
162 157 84
170 164 95
166 160 87
170 164 95
164 158 86
175 168 90
163 158 84
170 163 91
164 157 86
165 158 89
164 157 84
160 154 85
165 159 85
169 163 89
159 153 77
156 151 81
166 159 87
162 157 82
157 151 83
159 154 80
162 157 86
165 159 90
158 152 86
161 155 84
162 157 84
159 152 83
169 163 90
160 154 84
160 155 85
161 155 89
161 155 84
159 153 84
157 151 80
158 152 82
160 154 85
154 148 79
159 152 77
157 151 79
158 152 82
152 146 73
157 151 79
217 233 255
217 233 255
216 232 255
217 233 254
217 233 255
218 233 255
217 233 255
217 233 255
217 233 255
217 233 255
217 233 255
217 233 255
217 233 255
217 233 255
217 233 255
217 233 254
217 233 255
217 233 255
217 233 254
217 233 255
217 233 254
217 233 255
217 233 255
217 233 255
217 233 255
217 233 255
217 233 254
217 233 255
217 233 255
217 233 254
217 233 254
217 233 255
216 233 253
216 232 252
216 232 250
215 231 249
216 232 252
215 232 249
217 233 254
216 232 250
216 233 253
216 232 252
215 231 249
216 233 254
217 233 254
215 232 250
215 232 249
216 233 253
216 232 252
216 232 252
216 232 253
216 232 253
216 232 253
217 233 255
215 232 250
216 233 254
216 233 254
216 233 254
216 233 254
216 233 254
216 232 254
213 230 251
216 232 254
217 233 255
216 232 255
216 232 254
215 231 253
214 230 252
214 230 252
216 232 254
217 233 255
213 229 251
217 233 255
211 227 249
215 232 253
215 232 253
216 232 254
213 230 252
217 233 255
215 231 252
215 232 253
214 231 252
215 231 253
216 233 254
216 233 255
216 232 254
215 232 252
215 231 253
215 232 253
216 232 253
215 231 252
216 232 253
215 231 250
216 233 254
215 232 253
216 232 253
216 232 254
216 232 254
215 231 253
215 232 252
216 233 255
214 231 248
215 232 253
216 232 254
216 233 255
216 233 255
215 232 252
215 232 252
214 231 250
215 232 253
216 232 255
215 231 252
215 232 254
215 232 252
215 232 253
215 232 254
213 230 252
214 231 252
213 230 254
214 231 254
214 231 255
210 227 249
213 230 254
214 231 255
214 231 255
209 227 247
212 229 251
213 230 254
211 228 252
213 230 254
211 228 250
211 229 252
212 229 254
164 183 214
142 162 197
88 116 162
58 93 137
58 93 150
59 94 144
59 93 145
58 93 149
59 93 154
58 93 149
56 90 138
55 88 141
57 91 147
134 154 187
217 233 255
208 224 248
61 96 157
59 94 133
59 93 135
58 92 133
60 95 144
60 95 143
60 95 142
60 95 140
61 96 150
59 94 136
60 96 140
61 97 150
61 96 147
61 97 147
60 95 130
60 94 131
60 94 142
62 97 148
60 94 142
62 97 149
60 95 137
60 95 139
61 96 144
63 98 153
60 95 139
61 96 145
60 95 137
60 94 143
61 96 143
60 95 142
61 95 143
60 96 142
61 96 148
60 95 134
60 95 143
62 97 145
60 95 139
61 96 149
61 96 144
61 96 147
59 93 130
62 97 145
60 95 141
60 95 137
61 96 144
60 95 141
61 96 140
62 97 151
61 96 145
60 95 141
59 94 135
61 96 148
61 95 146
60 95 139
61 96 147
61 96 142
61 96 149
60 95 136
60 95 141
60 95 140
59 94 141
61 95 146
61 96 148
59 93 135
61 96 143
62 96 149
60 94 144
60 95 140
61 96 141
61 96 146
60 95 144
61 96 144
60 95 142
61 95 146
60 94 142
59 93 134
60 95 145
58 92 125
59 92 139
60 94 139
59 93 139
58 92 128
59 92 135
59 92 131
60 93 142
57 90 128
60 93 145
60 93 141
59 92 132
58 90 133
58 92 137
59 91 132
56 89 128
56 86 124
55 86 116
54 84 119
57 89 133
55 86 124
53 83 121
53 82 124
50 77 112
50 75 108
134 138 128
91 90 56
80 81 54
66 68 45
68 70 49
65 68 48
68 71 50
70 74 52
76 80 58
60 65 45
70 76 56
64 70 51
78 83 58
79 85 62
82 88 59
94 96 64
96 100 67
100 103 69
97 100 65
96 100 67
96 99 68
110 112 70
106 106 64
117 118 77
127 126 75
129 128 78
122 121 74
126 126 73
128 127 78
133 132 78
140 138 80
134 134 83
138 137 83
142 140 83
136 134 77
139 137 83
135 133 78
146 143 86
145 142 79
144 141 79
154 151 89
143 140 86
151 148 90
153 150 89
157 154 91
153 149 89
157 152 87
155 151 86
162 157 90
165 160 91
160 155 88
158 154 84
161 156 86
164 159 90
168 163 95
164 159 89
170 164 95
160 155 90
165 161 91
163 158 88
163 159 84
169 163 92
166 161 95
163 159 90
167 162 89
167 162 88
163 159 88
166 161 89
168 163 92
171 165 88
168 162 95
168 162 93
172 166 95
167 162 89
171 164 93
170 164 89
171 165 92
178 170 101
170 163 94
172 166 90
171 165 92
167 161 89
172 165 92
169 164 88
172 165 91
174 168 90
171 164 90
171 164 89
174 167 93
171 164 87
169 163 93
166 160 84
170 163 88
170 163 91
169 162 88
166 160 88
172 165 92
163 157 81
159 154 83
171 164 91
162 156 84
172 165 93
163 157 79
169 163 84
170 164 94
169 162 94
170 163 94
173 166 95
169 162 92
166 160 87
173 167 98
170 164 91
171 164 93
165 159 82
171 164 87
167 161 87
163 158 83
166 160 86
168 163 90
168 161 85
165 159 90
165 158 87
164 157 86
164 157 85
164 159 84
163 156 86
166 160 89
160 155 86
161 155 83
166 159 90
162 157 79
167 160 93
164 158 93
158 153 80
165 158 90
161 155 89
163 157 87
164 157 83
158 151 81
157 151 84
160 155 84
157 151 80
161 154 87
158 152 84
163 157 85
161 155 80
157 151 82
159 153 87
158 152 82
218 233 255
218 233 255
217 232 254
218 234 255
218 234 255
218 234 255
218 234 255
218 234 255
218 234 255
218 234 255
218 234 255
217 233 254
218 234 255
218 234 255
218 234 255
218 234 255
218 234 255
218 234 255
218 234 255
218 234 255
218 234 255
218 234 255
218 234 255
218 234 255
218 234 255
218 234 255
218 234 255
218 234 255
218 234 255
218 234 255
217 233 254
217 233 252
217 233 254
217 233 254
216 232 250
217 233 252
218 234 255
217 233 254
217 233 254
215 231 249
217 233 254
217 233 253
217 233 254
217 233 254
218 233 255
217 233 254
217 233 254
216 232 253
216 232 250
218 233 255
217 233 254
217 233 254
217 233 253
216 232 249
217 233 253
217 233 254
217 233 254
217 233 254
215 231 250
216 232 254
213 229 251
216 232 254
216 232 254
217 233 255
215 231 254
214 230 252
214 230 252
214 230 252
217 233 255
216 232 254
216 232 254
215 231 254
215 231 253
213 229 251
215 231 254
214 230 252
216 232 254
216 232 250
217 233 253
217 233 255
217 233 255
217 233 254
217 233 254
217 233 254
217 233 254
217 233 253
217 233 254
217 233 254
215 231 249
217 233 255
216 232 252
217 233 255
217 233 254
217 233 254
216 232 253
216 232 253
216 232 253
216 233 253
216 232 254
217 233 255
216 233 253
216 233 254
216 232 253
217 233 255
217 233 255
217 233 255
217 233 255
217 233 255
215 232 252
216 233 254
216 232 253
216 233 254
216 233 254
216 232 254
215 232 250
216 233 255
216 232 253
210 227 248
212 229 251
213 230 252
210 227 248
213 230 254
212 229 247
213 230 250
214 231 252
213 230 250
214 230 252
216 232 255
212 228 251
215 232 255
213 230 252
215 231 255
212 228 252
187 205 231
121 143 179
100 124 157
60 95 144
58 93 140
59 94 144
59 93 147
57 91 139
57 92 134
58 93 155
56 90 144
56 90 140
56 89 146
99 124 168
217 233 255
194 210 234
60 95 146
59 93 135
60 94 136
60 95 145
60 95 144
60 96 147
61 96 148
60 95 143
59 94 141
59 94 136
60 95 140
59 94 144
61 96 154
61 97 144
61 96 140
60 95 135
61 96 141
60 95 145
61 96 144
60 95 139
61 96 142
62 97 150
59 93 134
61 96 140
59 93 136
61 97 143
60 94 135
61 96 143
60 94 136
60 96 147
60 95 143
61 96 147
61 96 141
60 95 140
60 95 134
61 96 150
61 97 149
61 96 141
61 96 151
60 94 133
59 94 141
59 93 130
61 97 150
59 93 131
60 95 142
61 96 141
60 95 145
60 94 141
59 93 137
63 98 153
61 96 143
60 95 139
61 96 141
60 95 139
60 95 136
59 94 130
61 96 144
60 95 141
60 94 134
60 95 137
60 94 141
61 96 150
60 95 145
62 97 145
59 94 143
60 95 141
58 92 134
60 95 140
59 93 135
59 94 135
59 93 129
60 94 136
61 95 143
60 93 139
60 95 145
58 93 134
59 94 136
60 95 139
59 93 131
57 91 133
60 94 144
58 92 125
61 95 137
58 90 132
57 90 130
59 93 136
58 91 141
57 90 132
59 93 135
57 89 120
58 90 137
59 91 135
57 89 135
58 91 134
54 84 117
58 89 132
56 86 130
53 82 113
56 87 125
54 83 125
52 80 111
49 76 109
92 96 81
88 87 59
81 80 51
70 73 53
52 56 41
64 69 50
51 57 42
64 70 52
58 65 46
70 76 54
72 77 51
76 80 57
70 76 57
85 91 63
91 94 64
96 99 65
100 104 67
96 99 62
88 91 58
118 119 80
98 101 64
111 113 74
112 113 68
116 117 74
123 122 74
116 116 73
112 113 68
124 124 74
120 120 74
139 136 82
137 135 85
125 125 79
138 135 82
143 140 83
137 136 78
152 149 92
139 137 81
152 148 83
143 141 84
145 142 82
150 147 90
153 149 86
151 147 81
156 152 87
151 148 83
157 152 88
155 151 86
160 156 86
154 150 85
156 152 89
161 157 87
161 156 90
155 151 82
158 154 87
164 159 88
170 164 97
164 159 89
159 155 85
164 159 92
168 162 89
167 161 95
171 165 97
167 161 86
159 154 86
168 163 90
168 162 89
168 162 95
161 156 84
166 161 87
170 164 92
168 162 91
172 166 93
168 163 89
171 164 88
167 162 86
166 160 86
168 162 85
170 163 90
175 168 95
170 164 89
169 163 87
170 163 92
171 166 91
177 169 97
173 166 96
169 163 92
169 163 84
167 162 79
170 164 87
172 165 90
171 165 90
171 165 90
170 163 90
165 159 81
167 162 87
170 163 90
166 161 89
167 161 83
171 164 91
171 165 90
170 164 87
166 160 87
166 160 89
169 162 90
168 162 90
168 161 88
172 164 93
171 164 89
168 161 87
172 165 94
170 163 87
167 161 88
169 162 90
172 165 91
169 163 87
166 159 86
170 163 94
159 153 78
170 163 90
164 157 79
161 155 87
165 158 87
165 159 89
160 154 84
161 156 83
166 158 86
169 162 91
160 154 84
163 156 83
165 158 80
162 156 90
168 161 89
158 152 80
164 157 87
164 158 87
160 154 82
156 149 78
156 150 76
162 155 84
158 151 81
163 157 87
154 149 77
163 156 84
159 153 84
156 150 83
163 156 84
157 151 84
160 153 84
157 152 76
218 234 255
218 234 255
218 234 255
218 234 255
218 234 255
218 234 255
219 234 255
218 234 255
219 234 255
218 234 255
218 234 255
219 234 255
218 234 255
218 234 255
219 234 255
218 234 255
218 234 255
218 234 255
218 234 255
218 234 255
218 234 255
218 234 254
218 234 254
218 234 255
218 234 255
218 234 255
218 234 255
217 233 255
218 234 255
219 234 255
218 234 255
218 234 255
218 234 255
218 234 255
218 234 254
218 234 254
218 234 255
218 233 254
218 234 254
218 234 255
217 233 253
217 233 253
217 233 253
216 232 250
216 232 249
217 233 253
217 233 253
218 233 254
217 233 253
218 233 254
217 233 253
217 233 252
217 233 253
217 233 253
218 233 254
216 232 252
218 234 254
217 233 253
217 233 254
212 228 250
215 231 252
215 231 252
216 232 253
217 233 255
218 234 255
214 230 252
215 231 253
215 231 252
216 232 253
214 230 251
216 232 253
218 234 255
215 231 252
213 229 250
218 234 255
218 234 255
213 229 250
218 234 255
216 232 252
217 232 252
218 234 255
218 234 255
216 232 250
217 233 254
217 233 254
216 232 253
217 233 253
216 233 252
217 233 254
217 233 253
217 233 254
217 233 252
217 233 254
217 233 253
218 234 255
217 233 253
217 233 254
216 232 252
216 232 252
216 233 252
217 233 253
217 233 253
217 233 254
217 233 253
217 233 253
217 233 255
217 233 254
217 233 253
216 232 252
216 232 252
217 233 253
216 232 252
216 232 253
216 232 250
217 233 253
216 232 251
215 231 252
214 230 248
213 229 249
214 230 250
213 229 250
217 233 255
213 229 248
215 231 252
216 232 253
215 232 252
216 232 255
215 231 254
215 231 253
214 230 254
213 230 252
216 233 254
215 231 254
194 211 234
134 154 186
114 136 165
59 93 145
60 95 150
58 93 141
57 92 140
56 91 144
57 91 145
55 89 135
57 91 142
54 87 141
54 88 134
56 89 144
205 221 243
179 196 220
61 97 152
59 93 135
60 95 139
59 94 133
59 93 136
60 95 137
59 94 137
59 94 137
59 94 135
60 94 134
59 95 136
60 95 141
61 96 140
61 96 140
60 94 142
61 97 147
60 94 137
61 96 144
61 96 147
59 93 131
61 96 144
59 94 134
62 97 150
59 94 135
60 94 130
60 95 137
60 95 139
60 95 136
59 93 135
60 95 143
61 96 142
61 96 149
60 95 136
59 93 135
61 95 136
61 96 143
62 97 153
61 96 139
61 96 143
61 96 145
61 96 141
60 95 142
60 95 135
60 95 135
60 95 136
59 93 130
60 95 135
62 96 145
61 96 145
60 95 143
60 94 133
61 96 142
59 94 144
60 95 141
61 96 149
60 94 132
61 96 142
60 95 136
60 95 139
60 95 145
60 95 146
60 95 142
60 95 136
60 94 136
60 94 142
61 95 146
60 95 142
60 95 146
60 94 138
60 94 137
60 95 135
60 93 126
60 95 139
59 93 136
58 92 128
60 93 139
60 94 141
58 91 129
59 92 134
58 91 120
59 94 137
59 93 145
59 93 126
58 92 138
57 90 125
56 88 124
58 91 132
59 93 140
60 93 138
59 91 131
56 88 120
58 89 117
57 89 129
57 89 126
56 87 125
57 88 126
55 84 116
56 87 121
53 81 118
54 83 118
52 79 114
50 76 103
83 89 79
82 81 50
76 76 45
45 48 32
66 69 47
55 59 42
50 55 40
53 59 40
50 57 42
59 65 45
74 78 55
72 78 53
76 80 53
82 87 61
78 81 51
86 90 63
85 89 60
97 100 65
96 100 67
118 119 75
104 104 66
116 116 73
105 107 68
100 103 61
113 115 71
113 114 74
128 126 76
121 120 70
117 117 72
127 126 74
133 132 82
141 138 83
132 131 76
145 142 84
135 133 78
131 129 76
140 139 83
149 146 88
139 137 86
144 141 82
149 146 87
153 149 88
149 146 83
152 148 86
149 145 80
151 148 84
154 151 88
155 152 83
165 159 91
155 151 87
161 156 91
163 157 91
160 155 85
165 159 90
165 160 91
164 159 85
166 161 92
164 159 88
163 158 87
171 165 90
165 160 87
171 165 91
169 164 92
168 163 93
162 158 84
167 161 85
166 160 81
168 162 90
173 167 94
165 159 85
170 164 88
167 161 90
173 166 93
168 163 87
165 160 85
169 164 90
173 166 92
173 166 88
176 169 96
172 165 94
173 167 93
169 163 89
172 165 92
171 165 86
173 165 93
167 161 84
171 165 87
171 165 90
172 165 89
173 166 93
172 165 86
168 162 87
170 163 91
170 163 87
168 162 88
167 160 90
172 165 91
167 162 87
171 165 90
171 164 89
168 161 89
170 164 89
174 167 97
170 163 92
171 165 94
171 165 87
167 160 84
166 160 88
166 161 83
166 160 87
169 163 87
172 165 91
167 160 85
168 162 87
165 159 85
158 153 76
160 154 79
168 162 90
166 160 84
166 160 89
165 159 82
161 155 74
161 156 80
166 159 82
170 163 91
167 160 89
165 159 87
161 155 83
167 160 87
164 157 85
164 157 80
162 156 87
165 158 88
163 157 88
160 153 84
156 151 73
163 156 87
168 162 89
150 145 80
160 154 77
153 147 77
163 157 82
159 153 84
153 148 75
161 154 80
160 154 83
163 157 93
150 145 75
153 147 77
219 234 255
219 234 255
219 234 255
219 234 255
219 234 255
219 234 255
219 234 255
219 234 255
219 234 255
219 234 255
219 234 255
219 234 255
219 234 255
219 234 255
219 234 255
219 234 255
219 234 255
219 234 255
219 234 255
219 234 255
219 234 255
219 234 255
219 234 255
219 234 255
219 234 255
219 234 255
219 234 255
219 234 255
219 234 255
219 234 255
219 234 255
218 233 255
219 234 255
219 234 255
219 234 255
219 234 255
219 234 254
219 234 255
218 233 252
218 234 254
217 232 248
218 233 253
218 233 253
219 234 255
218 234 253
217 233 252
218 233 252
218 233 252
217 233 250
218 234 254
217 233 252
218 233 253
217 233 250
218 234 254
219 234 255
218 234 254
218 233 253
218 233 254
217 232 254
217 232 253
218 233 254
217 232 254
217 232 254
219 234 255
218 233 255
218 233 254
219 234 255
214 229 251
215 230 252
218 233 255
217 232 253
218 233 255
216 231 252
219 234 255
214 229 251
219 234 255
217 232 254
219 234 255
218 233 253
218 234 254
219 234 255
217 233 250
217 233 252
218 233 253
218 234 254
218 234 254
218 233 253
217 233 250
216 232 249
217 233 250
218 234 255
218 233 253
218 234 254
218 234 255
218 234 255
218 234 255
218 233 253
217 233 254
217 233 250
218 234 255
218 234 255
217 233 252
218 234 255
217 233 252
218 234 255
218 233 254
217 232 250
218 234 254
218 234 255
217 233 252
218 233 254
216 232 249
216 232 251
218 233 254
217 233 253
217 233 253
214 230 250
216 232 252
216 232 252
216 231 253
216 232 252
214 230 251
217 233 254
216 232 254
216 232 254
216 232 254
216 232 253
217 233 255
217 233 255
218 234 255
216 232 254
215 231 253
215 231 254
202 218 242
117 139 178
127 148 181
59 93 144
58 93 148
58 93 144
59 93 146
57 91 140
57 91 125
56 90 143
56 90 141
55 88 143
54 87 136
55 88 145
185 202 225
167 184 209
59 94 143
58 93 135
59 94 134
60 95 141
60 95 139
60 95 140
59 94 134
58 93 142
61 96 147
60 95 137
60 95 142
60 94 135
59 94 141
60 94 136
62 97 147
60 95 139
61 96 144
60 95 136
59 94 135
60 94 137
61 96 147
61 96 145
60 95 133
60 95 130
61 97 149
61 95 133
60 95 139
59 94 133
58 92 133
60 94 130
62 97 150
61 95 141
59 93 124
59 94 127
61 96 145
60 95 135
60 94 143
61 96 144
60 95 136
60 95 142
60 94 135
60 94 127
61 96 145
61 96 140
60 95 141
61 96 147
59 93 135
60 95 136
59 94 133
59 94 139
60 95 141
60 95 140
61 96 141
61 96 143
61 96 140
59 94 140
60 95 143
60 94 138
60 94 134
61 95 142
62 96 143
60 94 137
60 95 136
60 95 140
60 93 133
59 93 135
60 95 136
60 95 140
61 95 139
61 96 140
61 96 140
59 94 135
60 94 138
59 93 127
60 94 140
60 94 140
58 92 132
59 92 140
60 94 134
60 94 146
60 93 128
58 91 126
60 95 143
60 94 143
57 90 130
58 91 137
58 91 135
58 90 130
57 90 122
58 90 125
58 91 129
58 90 131
54 85 116
55 86 113
56 87 127
56 87 128
55 85 117
55 85 120
55 85 120
52 79 109
52 80 109
50 76 107
80 85 65
75 74 43
49 51 33
60 60 39
49 52 35
62 65 47
58 62 43
49 56 44
50 57 41
65 70 49
65 71 49
49 56 42
74 80 55
80 85 59
81 86 55
77 82 51
95 98 62
87 89 55
89 92 55
105 107 70
106 107 69
98 100 60
100 102 64
106 109 66
115 116 69
127 127 77
124 123 73
114 115 71
129 128 81
124 123 71
130 128 78
116 116 68
125 125 70
136 135 79
135 133 77
143 140 85
144 141 82
142 140 79
140 137 71
149 144 78
154 149 87
139 137 71
152 149 80
155 151 83
149 145 79
152 149 85
148 145 74
163 157 87
157 153 86
155 150 80
155 152 89
155 151 82
158 154 85
159 155 87
162 156 89
162 157 86
161 156 86
162 157 88
165 160 91
168 162 96
171 164 90
163 158 86
166 160 87
166 160 85
169 163 92
167 163 92
160 157 84
172 165 93
170 164 92
169 163 89
172 166 89
169 164 90
170 164 89
164 158 84
171 165 91
169 163 87
171 165 85
170 164 94
165 160 84
168 161 86
170 164 90
174 167 95
173 166 89
174 167 91
169 163 83
171 163 83
170 164 92
172 164 88
168 162 90
170 164 85
169 162 84
168 161 82
171 164 90
171 165 90
168 162 91
169 162 87
172 166 93
167 161 83
165 160 84
164 158 86
173 166 90
169 162 90
172 166 90
171 163 95
163 158 82
161 155 80
167 160 84
169 163 90
171 165 84
169 163 87
167 161 88
168 162 92
162 157 81
157 151 71
170 163 90
165 159 84
169 163 88
163 156 82
163 157 82
168 161 86
163 157 80
161 155 79
158 153 81
166 160 87
167 160 91
162 156 86
159 153 82
158 152 81
161 154 82
154 148 75
157 151 80
159 153 83
164 158 87
161 155 84
167 160 88
160 154 78
163 157 84
162 155 82
165 158 84
169 162 88
158 152 80
152 147 77
165 159 87
159 152 79
157 151 77
161 155 80
158 152 80
157 151 81
158 151 80
219 235 255
219 234 255
220 235 255
220 235 255
220 235 255
219 235 255
219 235 255
220 235 255
220 235 255
220 235 255
220 235 255
219 235 255
220 235 255
220 235 255
220 235 255
219 235 255
219 235 255
220 235 255
219 235 255
218 233 254
220 235 255
219 235 255
220 235 255
220 235 255
220 235 255
220 235 255
219 235 255
220 235 255
219 235 255
219 235 255
219 235 255
220 235 255
219 235 255
220 235 255
220 235 255
219 235 255
219 235 255
219 235 255
220 235 255
220 235 255
219 235 255
219 234 254
220 235 255
220 235 255
219 234 254
219 235 255
219 234 253
219 234 254
219 234 254
219 234 254
219 235 255
219 234 254
219 234 254
219 234 254
218 234 253
219 234 253
218 233 252
218 233 254
216 232 254
217 232 254
218 234 255
218 234 255
219 234 255
215 230 252
218 234 255
219 234 255
215 231 252
217 232 253
216 231 252
215 230 251
218 233 254
217 232 253
215 230 251
218 233 254
219 234 255
219 234 255
219 234 255
219 234 255
219 234 255
218 233 252
219 234 254
217 233 249
218 234 253
218 233 252
218 234 253
218 233 252
219 234 255
218 234 253
218 234 253
218 234 253
218 234 253
217 233 249
218 234 253
219 234 254
219 234 255
218 234 253
219 234 254
218 234 253
219 234 255
218 234 253
218 233 252
219 234 255
219 234 254
219 234 255
218 233 252
218 234 253
217 233 250
217 233 250
219 234 255
219 234 255
219 234 255
217 233 250
218 234 254
218 233 253
217 232 251
216 231 250
216 232 252
217 232 252
214 230 246
213 229 250
215 231 251
216 231 252
213 228 250
215 230 252
216 231 252
216 231 252
219 234 255
217 233 255
215 230 252
215 231 253
217 232 254
216 232 254
215 231 253
206 222 243
124 145 181
136 155 189
59 93 145
58 92 138
58 93 155
58 92 136
55 88 128
58 93 155
52 83 135
55 88 140
54 87 136
52 84 136
55 88 137
176 194 223
170 188 216
58 92 129
59 94 135
60 95 145
60 96 155
59 94 140
59 93 135
61 96 140
58 92 133
59 94 125
59 94 134
59 93 129
60 95 137
61 97 141
61 96 140
60 94 135
60 95 136
61 96 141
60 94 130
60 95 136
60 96 143
61 96 150
59 94 131
60 95 139
59 94 134
60 94 134
60 96 149
59 94 124
60 95 136
60 95 137
59 93 124
60 94 140
60 95 139
60 94 137
61 96 141
60 95 136
61 96 144
62 98 150
60 95 139
61 96 141
60 95 141
60 95 142
60 94 135
60 94 137
60 94 133
60 94 137
60 95 140
60 94 143
61 95 139
59 94 136
60 95 140
60 94 140
61 96 145
61 96 146
61 96 141
59 92 132
58 92 135
59 94 134
61 95 136
60 94 132
60 95 136
59 93 129
58 92 129
61 96 140
60 95 137
61 95 144
59 94 136
59 94 136
60 94 134
61 96 143
60 95 143
60 95 139
60 94 133
62 97 154
59 92 125
60 95 142
60 94 131
59 93 137
59 92 134
59 92 131
61 94 145
59 93 132
59 92 126
59 93 136
59 93 140
60 93 137
60 95 148
57 89 122
57 90 126
59 91 129
57 88 124
57 90 126
58 90 132
59 92 133
57 88 124
56 87 131
56 87 122
57 89 127
54 85 124
55 85 129
56 87 124
53 80 114
52 79 112
70 78 71
66 65 42
53 55 40
60 61 40
36 42 31
51 57 40
52 57 38
54 60 36
62 66 45
42 48 33
55 61 41
60 67 48
55 62 45
76 80 54
78 82 51
84 88 58
88 91 59
88 92 60
107 108 66
110 111 66
114 114 68
118 118 69
105 106 63
116 117 72
125 124 75
121 122 79
122 122 73
129 128 74
126 125 76
118 118 72
130 129 78
134 132 77
139 136 81
133 133 76
126 125 74
140 139 83
144 141 77
139 136 81
136 135 74
141 138 77
145 142 75
149 146 81
158 154 90
150 146 83
145 142 84
149 146 78
148 145 78
158 153 83
151 148 76
155 151 85
155 151 81
157 152 82
165 158 89
166 161 87
162 157 94
159 155 84
164 159 90
165 159 88
164 159 91
167 161 91
169 163 91
165 159 87
169 163 88
167 161 90
169 162 85
167 161 87
163 159 82
173 166 95
168 161 87
165 160 86
169 163 85
169 163 87
171 163 86
169 163 88
166 161 83
166 160 86
171 165 92
175 167 93
166 160 81
165 159 79
165 159 82
168 162 82
170 163 95
169 164 86
169 162 84
168 162 82
170 164 92
172 165 87
169 162 84
168 162 84
165 158 84
170 164 86
170 163 90
169 163 83
164 158 76
166 160 85
167 161 84
167 159 85
166 160 88
164 157 80
167 161 87
167 161 86
170 163 87
169 163 86
170 164 87
169 162 85
170 164 85
167 160 86
166 160 84
167 161 82
167 160 90
163 156 86
167 161 84
166 158 88
166 161 83
167 160 87
164 158 83
169 163 87
165 159 83
166 159 84
161 155 78
164 158 86
163 157 84
165 159 84
165 159 89
168 161 85
169 162 91
162 155 86
161 156 81
159 153 78
164 158 84
158 152 77
157 151 79
155 149 75
158 151 84
157 152 80
156 151 79
162 156 85
162 155 79
164 157 81
162 156 80
154 149 80
156 150 80
158 152 80
156 150 81
160 153 84
155 149 76
159 153 80
155 148 85
220 235 255
219 234 254
220 235 255
220 235 255
220 235 255
220 235 255
220 235 255
220 235 255
220 235 255
220 235 255
220 235 255
220 235 255
220 235 255
220 235 255
220 235 255
220 235 255
220 235 255
220 235 255
220 235 255
220 235 255
220 235 255
220 235 255
220 235 255
220 235 255
220 235 255
220 235 255
220 235 255
220 235 255
220 235 255
220 235 255
220 235 255
220 235 255
220 235 255
220 235 255
220 235 255
220 235 255
220 235 255
219 234 255
220 235 255
220 235 255
220 235 255
220 235 255
220 235 255
220 235 255
220 235 255
220 235 255
220 235 255
220 235 255
220 235 255
220 235 255
220 235 255
220 235 255
220 235 255
220 235 255
220 235 255
220 234 254
220 235 255
219 234 255
219 234 254
219 234 255
219 234 255
218 233 253
217 232 252
218 233 253
218 233 254
218 233 254
215 229 249
216 230 252
219 234 254
218 233 254
218 233 254
220 235 255
220 235 255
219 234 254
217 232 252
217 232 254
216 231 251
220 235 255
219 234 254
219 234 254
219 234 253
218 233 250
220 234 254
219 234 254
219 234 252
219 234 254
219 234 254
219 234 253
219 234 254
220 235 255
219 234 252
219 234 252
219 234 254
220 235 255
218 234 252
219 234 254
219 234 254
220 235 255
220 235 255
219 234 254
219 234 254
219 234 253
219 234 254
219 234 253
218 234 252
219 234 253
219 234 254
219 234 254
219 234 254
220 235 255
219 234 254
219 234 254
219 234 253
220 235 255
216 231 252
219 234 254
220 235 255
219 234 255
217 232 254
216 231 252
218 233 254
220 235 255
218 234 255
218 233 254
215 231 252
214 230 252
218 233 254
219 235 255
219 235 255
217 232 253
218 234 255
217 233 254
215 231 252
215 230 250
111 133 169
120 141 176
60 93 131
55 88 131
58 93 137
58 93 133
57 90 133
56 89 133
56 89 135
56 89 138
54 86 128
50 82 124
52 84 136
150 167 196
160 177 205
60 95 141
58 93 134
58 93 141
60 95 136
59 95 137
59 94 134
59 94 137
59 93 122
60 94 141
61 95 136
61 96 143
59 93 135
60 94 130
60 94 133
62 97 151
59 94 131
61 96 135
60 95 134
61 96 137
60 95 151
59 93 129
60 95 143
60 95 139
59 93 133
59 93 127
59 93 135
60 94 129
60 94 137
61 97 147
59 94 137
60 95 141
59 94 137
61 95 139
60 95 133
60 95 131
60 94 137
59 94 135
60 95 135
60 94 134
60 95 136
59 94 131
60 94 131
60 95 139
60 94 136
61 96 143
59 94 133
60 95 136
60 95 142
61 96 142
60 94 141
60 94 136
61 95 143
60 96 140
60 95 135
59 94 139
59 94 139
60 94 140
60 95 136
60 94 134
59 94 134
60 94 136
60 95 142
60 94 130
60 95 140
59 93 134
61 96 146
60 93 131
60 95 142
60 94 136
57 90 128
59 93 141
60 94 135
61 95 140
59 92 133
59 93 131
59 93 129
59 93 127
58 91 118
60 94 142
59 93 132
58 91 127
60 94 138
60 94 136
58 92 129
58 91 127
57 89 121
58 91 132
59 91 130
58 91 128
57 89 135
57 89 128
57 90 125
57 89 125
56 87 120
58 89 126
56 86 120
55 85 121
56 85 122
52 80 106
51 78 103
54 83 119
51 78 109
65 72 65
65 65 36
53 53 33
48 51 31
63 64 41
40 45 31
46 53 39
56 61 40
52 57 37
45 54 39
65 70 50
71 77 50
65 71 49
84 89 60
80 86 55
82 86 55
82 86 60
86 91 62
83 87 54
96 98 62
99 102 65
106 108 69
106 107 67
102 104 60
119 118 68
114 115 71
117 117 71
121 122 74
118 117 66
120 119 69
123 123 69
139 136 77
138 136 76
139 137 79
135 134 78
156 151 88
146 143 82
144 141 81
147 143 85
139 136 74
150 146 86
150 146 88
150 146 78
143 140 77
148 144 77
151 147 79
153 149 83
158 153 85
149 146 76
155 151 80
157 151 85
159 154 87
161 156 85
161 156 87
159 155 77
164 159 90
157 153 78
160 155 86
165 160 86
163 157 89
168 162 88
163 158 86
165 160 89
164 159 81
168 162 86
163 158 83
164 158 84
169 163 82
171 164 89
166 160 80
170 164 89
167 162 87
170 164 88
165 159 80
168 162 83
171 165 90
172 165 91
173 166 93
172 164 87
167 160 85
173 166 92
174 167 90
170 164 89
170 164 87
170 164 89
171 164 90
167 161 79
169 162 80
169 163 87
172 164 88
169 163 90
170 164 87
167 161 84
170 163 87
168 162 81
168 162 92
171 164 84
168 162 84
164 158 82
164 157 80
168 162 86
166 160 79
171 163 92
171 164 95
167 160 85
168 162 84
168 162 83
163 157 85
168 162 87
168 162 85
165 158 88
165 158 84
162 156 78
166 159 84
168 161 84
168 161 92
169 161 92
170 163 81
167 159 80
165 159 80
159 153 79
164 157 80
161 155 77
161 155 79
167 160 83
156 152 75
164 157 83
159 153 81
167 161 86
161 155 78
164 157 81
161 154 76
161 156 75
156 150 75
153 148 72
163 156 84
163 156 77
163 157 84
167 160 85
158 152 80
163 157 77
163 157 87
161 154 83
158 153 83
161 154 88
158 151 76
158 152 76
158 151 81
159 152 79
221 235 255
221 235 255
221 235 255
221 235 255
221 235 255
221 235 255
221 235 255
221 235 255
221 235 255
221 235 255
221 235 255
221 235 255
221 235 255
221 235 255
221 235 255
221 235 255
221 235 255
221 235 255
221 235 255
221 235 255
221 235 255
221 235 255
221 235 255
221 235 255
221 235 255
221 235 255
221 235 255
221 235 255
221 235 255
221 235 255
221 235 255
220 234 255
221 235 255
221 235 255
221 235 255
221 235 255
221 235 255
221 235 255
221 235 255
221 235 255
221 235 255
221 235 255
221 235 255
221 235 255
221 235 255
221 235 255
221 235 255
221 235 255
221 235 255
221 235 255
221 235 255
221 235 255
221 235 255
221 235 255
221 235 255
221 235 255
221 235 255
219 233 254
220 234 254
219 234 254
219 233 254
221 235 255
220 234 254
217 232 252
220 234 255
220 234 255
220 234 254
221 235 255
221 235 255
221 235 255
220 234 255
218 233 254
219 233 254
214 229 250
221 235 255
221 235 255
218 233 254
217 232 253
220 234 254
221 235 255
221 235 255
221 235 255
221 235 255
221 235 255
221 235 255
221 235 255
221 235 255
221 235 255
221 235 255
221 235 255
221 235 255
221 235 255
221 235 255
221 235 255
221 235 255
221 235 255
221 235 255
220 235 255
220 235 255
221 235 255
221 235 255
221 235 255
220 235 255
221 235 255
220 235 255
221 235 255
220 235 255
221 235 255
221 235 255
220 235 255
220 235 255
221 235 255
220 235 255
220 235 255
220 234 254
219 234 254
220 235 255
216 231 252
217 232 252
217 232 253
218 233 254
217 232 252
218 233 254
219 234 255
216 231 252
218 233 254
218 233 254
218 233 254
218 233 254
218 233 254
219 234 254
218 233 254
218 233 253
211 226 248
101 125 162
148 166 194
66 98 140
56 90 129
58 92 130
59 93 145
57 90 132
58 92 142
56 90 127
54 87 137
50 81 125
53 84 124
51 83 133
151 168 194
143 162 188
58 93 134
58 93 134
59 94 130
59 94 137
60 95 142
59 94 140
60 94 141
60 95 136
58 93 127
60 95 136
61 96 139
60 95 137
60 94 134
60 96 143
60 94 134
60 94 133
60 95 137
61 95 140
60 95 136
60 96 136
62 97 147
61 96 142
59 94 133
59 94 135
61 95 137
60 94 133
60 95 142
61 96 142
60 95 137
61 96 145
60 95 130
60 94 131
59 94 135
60 95 137
60 95 143
59 94 126
60 95 141
60 94 137
60 95 139
61 96 142
60 95 135
60 94 127
61 96 141
60 95 131
59 94 130
60 94 135
60 95 139
60 95 142
59 94 135
60 95 137
60 94 133
59 94 122
61 95 142
59 94 133
58 92 126
58 92 129
60 95 143
60 95 132
60 93 131
62 97 151
60 95 143
61 96 145
60 95 134
60 94 139
60 94 130
59 93 131
59 93 136
60 94 133
59 93 135
60 94 144
60 94 131
60 95 139
60 94 141
58 91 124
59 92 131
58 92 130
59 93 129
58 90 125
59 93 134
60 95 142
60 93 134
56 88 124
60 93 134
59 92 132
57 89 130
60 94 145
57 88 115
58 90 127
57 90 132
56 89 125
57 89 126
54 86 119
54 84 114
55 86 120
57 88 117
55 86 121
55 86 126
52 80 109
50 77 107
52 79 106
48 73 96
50 76 101
66 74 71
65 65 34
58 58 33
63 64 39
47 51 32
36 42 31
42 49 36
52 59 43
45 52 34
49 55 35
56 61 45
55 63 45
62 68 47
59 65 39
81 84 51
71 76 48
91 94 58
95 98 61
93 96 61
82 86 49
102 104 68
109 109 60
106 107 63
116 115 63
110 110 69
111 112 67
128 126 70
120 119 69
123 122 73
124 124 67
137 135 76
133 131 77
135 134 72
144 141 80
139 136 76
142 139 76
140 137 78
141 139 75
141 138 74
145 143 75
147 143 75
150 147 83
148 145 80
157 152 89
150 146 78
152 149 86
160 154 89
147 144 82
155 150 85
156 152 81
153 149 80
161 156 89
155 150 84
164 159 87
160 155 81
156 152 79
158 153 83
156 151 75
165 160 85
166 161 87
162 157 84
166 159 87
163 158 87
169 163 91
163 158 86
170 164 84
168 162 89
164 158 80
168 162 87
169 162 86
165 159 86
167 161 88
168 162 86
161 156 82
169 162 84
172 166 89
169 163 87
172 165 93
172 165 93
162 157 79
170 163 93
171 164 88
167 161 81
170 164 88
166 160 82
170 164 85
169 163 86
166 160 80
168 162 84
165 159 81
171 164 90
171 164 85
169 162 87
167 161 80
168 162 83
166 160 87
168 162 83
168 161 85
164 158 82
169 162 87
168 161 86
170 163 81
170 163 85
169 164 93
168 160 80
169 161 82
167 161 80
164 159 80
166 159 84
168 160 86
160 155 80
169 162 84
173 165 87
165 158 81
162 157 84
163 157 82
164 157 84
163 156 81
171 164 87
168 160 87
164 158 77
168 161 88
166 159 80
162 156 82
165 158 88
164 158 84
158 152 75
163 157 87
161 155 82
163 156 82
153 148 78
165 159 82
158 152 81
166 160 84
165 159 86
160 153 84
161 155 80
159 153 80
161 153 87
160 154 82
159 153 83
160 154 81
154 148 76
157 152 75
153 146 77
150 145 77
159 154 80
155 149 75
158 151 83
221 236 255
221 236 255
221 236 255
221 236 255
221 236 255
221 236 255
221 236 255
221 236 255
221 236 255
221 236 255
221 236 255
221 236 255
221 236 255
221 236 255
221 236 255
221 236 255
221 235 255
221 236 255
221 236 255
221 236 255
221 236 255
221 236 255
221 236 255
221 236 255
221 236 255
221 236 255
221 236 255
221 236 255
221 236 255
221 236 255
221 236 255
221 236 255
221 236 255
221 236 255
221 236 255
221 236 255
221 236 255
221 236 255
221 236 255
221 236 255
221 236 255
221 236 255
221 236 255
221 236 255
221 236 255
221 236 255
221 236 255
221 236 255
221 236 255
221 236 255
221 236 255
221 236 255
221 236 255
221 236 255
221 236 255
221 236 255
220 235 255
217 231 252
221 236 255
219 234 254
216 231 252
219 233 253
220 235 255
219 233 253
220 235 255
221 236 255
216 231 252
216 230 250
221 236 255
220 235 254
219 233 253
216 231 252
219 233 254
221 236 255
219 233 253
221 236 255
221 236 255
220 234 254
221 236 255
221 236 255
221 236 255
221 236 255
221 236 255
221 236 255
221 236 255
221 236 255
221 236 255
221 236 255
221 236 255
221 236 255
221 236 255
221 236 255
221 236 255
221 236 255
221 236 255
221 236 255
221 236 255
221 236 255
221 236 255
221 236 255
221 236 255
221 236 255
221 236 255
221 236 255
221 236 255
221 236 255
221 236 255
221 236 255
221 236 255
221 236 255
221 236 255
221 236 255
221 236 255
220 234 254
219 233 252
220 234 252
218 233 254
219 234 254
219 234 254
221 236 255
217 232 252
220 235 255
219 234 254
219 233 253
221 236 255
219 234 254
219 234 254
217 232 252
219 234 254
221 236 255
221 236 255
220 235 254
219 233 253
217 232 252
121 141 170
130 148 178
77 105 139
57 90 132
59 93 145
57 91 121
56 89 130
55 88 127
54 86 129
55 88 130
53 85 128
50 81 131
53 84 126
137 155 177
157 175 197
58 93 132
60 95 141
59 93 124
59 94 141
60 95 140
60 95 137
60 94 131
59 94 137
59 93 127
59 93 136
59 94 134
59 93 131
60 94 136
60 94 126
59 94 133
61 95 139
60 95 134
60 94 136
60 95 136
60 95 135
61 96 139
60 95 136
59 93 140
59 94 133
60 95 136
61 96 141
61 96 139
60 94 136
60 94 135
59 94 137
61 95 144
60 94 136
60 95 142
59 94 127
60 95 141
60 95 140
60 95 135
62 97 147
60 95 135
57 91 113
59 93 127
61 97 141
61 97 142
61 96 147
61 95 140
59 94 134
61 96 143
61 96 141
61 95 139
61 95 137
60 95 131
60 95 137
59 94 142
60 94 139
58 93 133
60 95 139
59 93 130
59 93 132
61 95 143
59 93 133
60 94 136
60 94 140
60 94 134
59 92 131
60 94 132
60 95 139
60 94 132
61 95 142
60 94 143
58 91 132
60 94 138
60 94 131
59 92 138
60 93 134
59 93 132
58 93 134
59 92 127
59 93 124
59 93 131
60 95 146
58 92 131
58 92 134
60 93 134
59 92 131
58 90 131
57 89 130
58 90 132
58 92 140
58 91 127
58 91 127
56 87 126
57 90 121
55 85 120
57 88 124
56 88 125
53 83 108
56 87 119
55 84 119
53 82 113
53 81 108
51 78 110
48 74 94
63 75 74
65 64 29
64 65 37
50 51 31
50 52 32
41 45 24
44 49 30
45 51 33
38 49 38
49 55 34
55 62 41
62 66 40
70 74 46
75 80 55
71 77 49
83 86 55
103 104 63
91 94 60
99 101 59
104 105 61
107 109 68
109 111 65
112 113 64
99 102 64
117 117 71
119 118 67
120 119 72
126 124 74
132 130 79
127 125 70
138 135 76
124 124 66
130 129 65
135 132 71
141 138 77
129 128 70
138 135 75
145 140 75
146 142 81
142 140 75
142 139 77
148 144 83
148 144 75
154 151 86
149 145 78
156 151 82
151 147 79
148 144 77
147 144 77
150 147 75
157 152 82
163 158 87
160 155 82
157 152 82
160 155 84
158 153 78
156 153 74
164 159 85
163 157 86
159 155 80
169 163 87
168 162 86
163 158 82
165 159 83
161 157 81
167 161 89
166 160 88
165 159 79
165 160 82
159 154 75
167 160 84
168 162 84
169 162 80
169 162 87
159 155 75
168 162 85
165 160 81
165 159 80
170 163 86
169 162 86
168 162 84
167 160 84
165 159 78
164 159 82
169 163 86
169 162 85
169 162 83
168 162 82
168 161 81
168 161 76
169 163 82
169 162 77
165 159 81
169 164 87
166 160 84
163 157 82
166 160 76
168 162 86
165 158 80
167 161 83
162 156 84
166 160 78
164 158 80
165 160 83
163 157 79
163 157 77
164 157 81
171 163 83
164 158 80
166 159 84
165 158 88
172 165 87
164 158 80
168 161 86
169 161 87
162 155 76
165 158 84
171 164 91
171 164 91
165 158 84
158 152 78
170 163 90
169 161 87
161 156 77
167 160 85
165 159 81
164 157 84
155 150 80
162 155 81
160 154 84
166 159 85
168 160 87
157 151 77
162 155 84
160 153 77
158 153 75
165 158 84
160 154 81
165 159 81
153 147 78
159 153 80
157 151 75
156 150 75
166 158 84
155 150 75
153 147 76
164 157 87
156 150 78
152 146 70
222 236 255
222 236 255
222 236 255
222 236 255
222 236 255
222 236 255
222 236 255
222 236 255
222 236 255
222 236 255
222 236 255
222 236 255
222 236 255
222 236 255
222 236 255
222 236 255
222 236 255
221 235 254
222 236 255
222 236 255
222 236 255
222 236 255
222 236 255
222 236 255
222 236 255
222 236 255
222 236 255
222 236 255
222 236 255
222 236 255
222 236 255
222 236 255
222 236 255
222 236 255
222 236 255
222 236 255
222 236 255
222 236 255
222 236 255
222 236 255
222 236 255
222 236 255
222 236 255
222 236 255
222 236 255
222 236 255
222 236 255
222 236 255
222 236 255
222 236 255
222 236 255
222 236 255
222 236 255
222 236 255
222 236 255
222 236 255
221 235 255
219 233 253
222 236 255
219 233 253
219 233 252
222 236 255
221 235 254
218 232 252
219 233 253
218 232 252
220 234 254
222 236 255
221 235 255
218 232 252
217 231 252
220 234 254
221 235 255
220 234 254
216 230 250
221 235 255
220 234 254
218 232 252
222 236 255
222 236 255
222 236 255
222 236 255
222 236 255
222 236 255
222 236 255
222 236 255
222 236 255
222 236 255
222 236 255
222 236 255
222 236 255
222 236 255
222 236 255
222 236 255
222 236 255
222 236 255
222 236 255
222 236 255
222 236 255
222 236 255
222 236 255
222 236 255
222 236 255
222 236 255
222 236 255
222 236 255
221 235 254
222 236 255
222 236 255
222 236 255
222 236 255
222 236 255
222 236 255
222 236 255
221 235 254
221 235 254
218 232 252
221 235 254
221 235 254
219 233 253
220 234 254
221 235 254
217 231 250
222 236 255
221 235 254
222 236 255
221 235 254
218 232 252
219 233 254
220 234 253
220 234 254
221 235 254
221 235 254
221 235 254
104 126 150
118 138 170
69 100 140
55 88 124
56 90 136
56 89 126
57 91 134
56 89 133
56 89 128
53 85 126
54 87 125
54 86 125
53 84 127
158 175 201
160 177 199
59 93 130
60 95 139
58 92 121
61 95 141
58 92 125
59 93 131
59 94 129
60 95 141
59 93 133
60 95 135
61 96 140
60 95 136
59 94 124
59 93 122
59 94 130
60 95 139
60 95 135
60 94 136
60 95 139
59 93 133
60 94 135
58 93 130
61 96 144
60 94 142
60 95 137
58 93 130
59 94 131
60 95 135
59 94 133
60 95 141
61 96 145
61 95 144
61 95 137
60 94 134
61 95 134
60 95 139
60 95 142
60 94 131
61 95 139
60 95 143
61 95 135
61 96 139
58 92 129
60 95 141
59 94 129
59 93 133
60 94 133
59 93 130
59 93 140
60 95 135
58 92 125
60 95 140
59 93 130
60 94 130
60 95 134
59 93 126
62 97 145
60 95 136
58 92 129
59 93 131
59 94 133
58 92 133
58 92 128
59 93 134
61 96 143
59 93 134
59 94 138
59 94 135
59 92 120
61 95 143
58 92 130
59 94 125
59 93 131
59 93 130
58 92 120
60 94 139
59 93 139
57 89 123
58 91 131
59 93 132
58 90 126
59 93 139
58 91 134
58 90 124
58 91 128
58 92 132
58 91 126
57 89 128
58 90 127
56 88 118
58 91 132
56 87 115
57 88 126
55 86 117
56 86 123
57 87 118
55 84 114
54 82 114
54 84 115
50 76 99
51 79 103
50 77 102
48 60 66
75 75 40
44 45 27
51 53 27
37 41 21
40 47 33
38 44 31
46 52 34
38 45 29
51 59 34
48 56 40
67 73 46
74 76 44
63 69 47
82 85 52
83 87 57
85 87 54
84 87 54
93 95 50
96 98 55
102 104 58
113 113 64
111 110 61
122 122 72
110 111 55
111 110 64
131 129 77
121 120 68
125 124 65
119 119 71
129 129 76
119 119 61
130 129 64
136 134 72
133 131 75
143 139 73
141 137 72
147 144 81
135 134 74
145 141 77
146 143 83
146 143 70
145 142 78
148 145 79
153 149 75
153 148 78
147 144 83
149 145 76
153 149 76
152 148 78
154 150 78
149 146 67
151 147 74
164 158 85
154 150 79
148 144 73
156 153 80
160 156 82
161 155 80
159 154 82
160 154 78
168 162 86
164 159 84
171 164 84
166 161 90
167 160 89
164 159 80
167 161 82
166 161 87
163 157 78
167 161 79
165 160 75
168 161 86
167 161 80
165 159 78
167 160 83
173 166 89
167 160 86
168 163 81
169 162 85
164 157 81
168 162 86
167 162 84
166 159 84
164 158 81
172 165 85
166 160 80
163 157 77
167 160 84
172 165 82
170 163 88
169 163 84
165 158 82
166 160 83
169 162 87
171 163 87
168 161 84
161 154 77
167 160 78
163 157 77
164 158 84
164 157 79
170 164 85
167 162 89
168 162 85
167 160 87
168 162 79
158 153 79
171 164 84
169 162 86
166 159 81
162 156 81
165 158 79
166 159 80
169 162 81
168 161 90
161 155 79
167 160 84
162 156 80
168 161 86
171 163 91
161 155 80
169 162 88
158 152 75
161 155 80
158 152 76
165 159 80
166 159 84
157 151 80
163 156 82
154 148 78
162 155 78
155 149 66
159 153 77
167 160 84
159 154 77
161 153 75
153 147 75
156 150 77
157 151 77
159 154 75
153 147 70
159 153 80
155 149 75
161 155 81
157 152 80
162 156 84
153 147 75
158 151 79
222 236 255
222 236 255
222 236 255
222 236 255
222 236 255
222 236 255
222 236 255
222 236 255
222 236 255
222 236 255
222 236 255
222 236 255
222 236 255
222 236 255
222 236 255
222 236 255
222 236 255
222 236 255
222 236 255
222 236 255
222 236 255
222 236 255
222 236 255
222 236 255
222 236 255
222 236 255
222 236 255
222 236 255
222 236 255
222 236 255
222 236 255
222 236 255
222 236 255
222 236 255
222 236 255
222 236 255
222 236 255
222 236 255
222 236 255
222 236 255
222 236 255
222 236 255
222 236 255
222 236 255
222 236 255
222 236 255
222 236 255
222 236 255
222 236 255
222 236 255
222 236 255
222 236 255
222 236 255
222 236 255
222 236 255
222 236 255
220 234 254
220 234 254
219 233 253
219 233 253
221 235 255
219 233 254
221 235 254
220 234 254
222 236 255
219 233 254
221 235 255
221 235 255
218 232 251
220 234 253
222 236 254
220 234 254
218 232 252
222 236 254
221 235 255
219 233 253
219 233 253
221 235 255
223 236 255
222 236 255
222 236 255
222 236 255
222 236 255
222 236 255
222 236 255
222 236 255
222 236 255
222 236 255
222 236 255
222 236 255
223 236 255
222 236 255
222 236 255
222 236 255
222 236 255
223 236 255
222 236 255
222 236 255
223 236 255
223 236 255
222 236 255
223 236 255
223 236 255
223 236 255
222 236 255
222 236 255
223 236 255
222 236 255
223 236 255
223 236 255
223 236 255
223 236 255
223 236 255
222 235 254
222 235 254
219 232 251
218 232 251
222 235 254
223 236 255
219 232 252
220 233 253
222 235 255
218 231 251
218 231 251
223 236 255
222 236 255
222 235 254
222 235 254
222 235 254
220 234 253
220 233 252
220 234 252
219 232 252
219 232 250
114 135 162
120 139 164
73 103 144
58 92 133
56 89 118
56 89 125
54 86 126
54 88 129
56 89 127
56 89 118
53 85 110
54 86 129
52 83 122
157 173 199
149 167 192
59 94 138
59 93 127
59 94 135
58 92 125
61 96 137
59 93 131
57 90 115
59 93 124
60 95 141
60 94 131
61 96 144
60 94 129
59 94 134
60 94 134
60 95 137
60 95 125
60 94 139
59 94 133
59 94 136
59 93 121
59 94 135
60 95 135
60 94 137
60 95 136
61 96 144
58 92 114
60 94 133
60 94 130
62 97 141
61 96 144
60 94 139
60 94 133
60 95 137
61 95 143
61 96 141
59 93 136
59 93 131
58 92 124
59 93 130
60 95 130
61 95 141
60 95 137
61 95 130
58 92 127
61 96 137
60 94 135
61 95 139
61 96 144
58 93 134
59 93 130
61 95 140
60 95 139
60 94 131
59 93 129
59 93 133
60 94 133
60 95 140
60 94 134
59 94 129
61 96 143
59 93 135
58 91 121
59 94 131
58 92 130
59 93 127
59 93 135
58 91 125
57 90 130
60 94 135
59 93 133
58 92 125
58 92 133
60 93 140
60 94 138
59 94 124
59 92 135
58 92 127
60 94 129
60 94 137
59 93 136
59 92 133
58 90 119
59 92 125
58 91 129
57 90 127
58 91 125
59 91 137
56 86 116
57 89 132
57 90 130
58 90 134
57 88 128
57 89 128
56 87 119
55 85 114
54 85 122
56 86 112
54 82 111
54 82 106
53 80 118
50 76 104
52 78 109
59 66 57
72 71 34
59 60 33
44 47 23
40 45 27
40 45 27
40 45 22
47 53 34
54 59 34
51 58 40
59 64 38
65 68 44
70 73 42
70 73 39
74 78 44
73 77 49
69 74 48
93 96 59
89 92 50
107 108 64
95 98 53
109 109 61
103 105 66
116 116 62
107 108 60
116 116 62
122 122 73
109 108 62
116 116 65
123 122 65
125 125 60
132 130 66
141 138 79
136 134 69
138 137 72
139 137 72
139 136 69
153 148 85
143 140 78
148 144 76
147 143 79
138 135 72
150 146 86
155 150 82
151 146 78
148 144 76
152 148 79
157 151 83
153 148 78
155 151 79
161 156 85
152 148 78
160 155 80
159 153 76
157 151 77
157 152 77
156 151 77
166 160 85
165 159 86
159 153 77
160 155 83
164 158 78
160 156 81
163 158 82
165 160 82
165 160 83
163 157 78
165 158 78
166 160 83
164 158 80
170 163 82
161 155 78
167 161 85
167 159 83
165 159 81
166 160 78
169 163 82
167 162 82
171 165 83
172 165 87
167 161 84
173 165 85
168 161 86
165 158 75
168 161 85
171 165 87
170 163 87
167 162 85
170 163 85
170 163 82
166 159 82
170 163 83
172 164 90
165 159 77
166 159 80
170 163 86
171 164 91
165 159 86
166 160 84
170 164 84
169 162 90
165 159 84
169 162 84
168 161 82
164 158 75
165 158 84
170 163 88
167 160 75
167 161 79
162 156 83
168 162 83
165 159 77
166 159 82
164 157 83
165 160 82
156 151 72
162 156 79
163 156 80
166 158 80
164 157 78
165 158 82
162 156 76
156 151 76
158 152 80
164 158 79
161 156 77
161 154 86
160 154 75
165 158 80
162 156 80
161 154 79
165 158 80
165 159 84
157 150 75
157 152 77
157 151 78
156 151 71
161 155 75
159 152 79
158 152 76
152 147 75
158 153 75
154 148 72
152 146 75
154 147 73
165 159 83
154 149 77
159 152 77
157 152 74
223 237 255
223 237 255
223 236 255
223 236 255
223 236 255
223 236 255
223 236 255
223 236 255
223 236 255
223 236 255
223 236 255
223 236 255
223 236 255
223 236 255
223 236 255
223 236 255
223 236 255
223 236 255
223 236 255
223 236 255
223 237 255
223 237 255
223 236 255
223 236 255
223 236 255
223 236 255
223 236 255
223 236 255
223 236 255
223 236 255
223 237 255
222 235 254
223 236 255
223 236 255
223 237 255
223 236 255
223 236 255
223 236 255
223 236 255
223 237 255
223 236 255
223 236 255
223 236 255
223 236 255
223 236 255
223 236 255
223 236 255
223 236 255
223 237 255
223 237 255
223 236 255
223 236 255
223 237 255
223 236 255
223 236 255
223 236 255
223 236 255
221 235 254
222 236 254
222 236 255
221 235 254
219 233 250
220 234 254
219 233 252
220 234 254
222 236 254
221 234 254
223 237 255
222 236 254
221 235 254
221 234 254
222 236 254
222 236 255
223 237 255
221 235 254
220 234 253
220 234 253
221 235 254
223 236 255
222 236 254
223 237 255
223 237 255
223 237 255
223 236 255
223 237 255
223 236 255
223 237 255
223 236 254
223 236 254
223 237 255
223 237 255
222 236 253
222 236 253
222 236 254
223 237 255
223 237 255
223 236 254
222 236 253
223 236 254
222 236 253
222 236 253
223 236 253
222 236 254
223 237 255
223 237 255
223 237 255
223 236 254
223 236 254
223 237 255
222 236 252
223 236 254
223 236 254
222 236 252
222 236 253
220 233 250
221 234 252
222 235 254
224 237 255
222 236 254
222 236 254
217 231 250
222 235 254
223 236 254
224 237 255
223 236 255
222 235 254
222 235 254
223 236 255
223 236 254
223 236 254
222 235 254
223 236 255
222 235 253
205 220 232
116 136 160
129 147 170
57 91 123
56 91 135
55 88 120
57 90 121
55 88 127
54 87 119
54 86 119
55 87 129
53 85 122
49 79 108
50 81 113
164 180 200
154 172 199
59 93 133
57 91 126
59 93 134
59 93 127
59 93 129
60 94 134
59 93 130
60 94 134
59 93 127
60 94 140
58 93 135
59 93 131
58 93 121
61 96 141
59 93 131
60 95 137
61 96 141
59 94 139
59 94 134
60 94 133
60 95 135
59 94 125
60 94 129
59 93 120
59 93 129
59 94 131
61 95 136
60 94 139
61 95 134
61 96 143
61 97 147
60 94 127
59 93 130
60 94 131
59 93 129
60 95 137
60 94 131
60 94 129
59 94 135
59 94 126
62 97 145
60 95 133
60 94 131
60 95 134
60 94 131
60 95 137
60 94 139
60 94 127
61 96 143
60 94 136
59 94 123
60 95 145
60 95 136
59 93 127
59 94 126
58 91 113
60 94 129
58 93 118
61 95 140
59 93 132
59 94 133
58 92 129
59 93 135
59 93 125
59 93 138
58 92 116
59 92 132
60 94 131
58 92 128
59 93 130
59 93 130
58 92 128
60 94 134
60 94 133
60 93 127
59 92 130
58 91 126
59 93 134
57 90 124
60 95 138
57 90 123
60 95 142
56 88 108
58 89 131
56 88 118
58 92 131
59 92 127
60 93 139
58 90 134
56 87 112
57 89 124
56 87 119
56 87 127
57 89 122
55 85 113
55 85 102
58 90 129
54 83 112
53 82 111
54 83 117
53 81 117
45 67 86
64 71 52
51 52 26
44 44 24
34 38 20
47 47 20
46 50 25
27 36 25
37 45 27
39 45 21
52 58 35
61 68 41
74 78 39
58 63 36
64 70 43
72 75 43
73 77 46
79 83 52
97 99 60
99 99 60
96 98 57
95 95 54
89 92 57
104 105 57
104 105 57
104 105 54
121 120 64
110 110 54
130 128 73
120 120 67
120 119 64
122 121 65
130 128 70
123 123 61
142 139 76
134 131 70
138 136 76
141 137 74
139 135 73
146 143 76
143 139 78
154 150 83
147 143 72
144 140 75
141 139 66
159 153 80
157 152 78
155 150 79
153 149 66
154 150 78
153 149 67
158 153 83
161 156 80
163 157 78
152 148 76
158 152 74
154 150 73
163 157 84
160 154 78
160 156 73
160 155 77
161 156 80
162 156 77
161 156 78
163 158 76
166 161 77
162 156 79
167 161 85
164 158 79
162 156 75
163 158 78
165 160 80
166 160 83
166 160 77
167 162 81
170 164 90
166 160 82
165 159 81
165 159 74
169 161 81
165 159 79
170 162 82
172 165 86
172 165 88
167 160 75
163 157 77
168 161 84
165 160 80
165 159 82
168 161 82
165 159 77
170 163 80
166 160 77
165 159 87
167 160 83
167 160 84
173 166 93
171 163 85
168 161 80
167 161 80
165 158 82
165 159 80
166 159 81
167 161 82
170 163 84
165 160 79
164 157 80
166 161 83
164 158 80
166 159 80
165 158 78
165 158 80
165 159 78
166 159 79
161 155 75
166 160 83
162 156 78
163 156 76
163 156 85
163 157 75
164 158 84
163 157 75
161 155 79
160 154 77
159 153 80
163 156 81
165 159 77
163 157 78
158 152 78
161 154 80
161 154 78
158 152 80
163 158 80
162 155 86
157 151 75
163 157 79
157 151 78
156 149 76
157 150 80
155 149 75
160 154 80
158 152 78
150 145 75
163 157 87
162 156 75
154 148 73
157 151 75
158 150 78
161 154 80
154 148 80
224 237 255
224 237 255
223 237 255
223 237 255
223 237 255
223 237 255
223 237 255
223 237 255
223 237 255
223 237 255
223 237 255
223 237 255
224 237 255
224 237 255
223 237 255
223 237 255
223 237 255
223 237 255
223 237 255
223 237 255
223 237 255
223 237 255
223 237 255
223 237 255
224 237 255
223 237 255
223 237 255
224 237 255
223 237 255
223 237 255
223 237 255
223 237 255
223 237 255
223 237 255
223 237 255
223 237 255
223 237 255
223 237 255
223 237 255
223 237 255
223 237 255
223 237 255
223 237 255
224 237 255
223 237 255
223 237 255
223 237 255
223 237 254
224 237 255
223 236 254
224 237 255
223 237 255
224 237 255
223 237 255
223 237 255
223 237 255
223 236 253
221 234 252
219 233 250
223 236 254
222 235 252
220 234 252
222 235 253
222 235 254
221 234 252
218 232 252
222 236 253
216 230 249
221 235 253
222 236 252
224 237 255
219 233 250
221 234 251
221 235 253
223 236 252
218 231 248
219 233 248
223 236 254
222 235 250
223 236 253
222 236 252
223 236 253
224 237 255
224 237 255
222 236 252
223 236 253
223 236 254
222 236 252
223 236 253
223 236 254
223 236 253
223 236 253
224 237 255
222 236 250
221 235 249
223 236 253
223 236 253
223 237 254
224 237 255
223 236 253
223 236 254
223 236 253
223 236 252
223 236 252
223 236 253
223 236 253
224 237 254
224 237 255
222 235 249
223 236 253
224 237 254
224 237 255
224 237 255
223 236 252
222 235 252
223 236 253
222 235 253
224 237 255
224 237 254
219 233 244
214 229 232
212 227 224
211 226 219
205 221 199
205 220 210
200 217 186
206 222 196
194 213 167
191 210 149
188 208 147
190 209 144
177 199 108
184 205 113
173 195 121
129 147 162
131 149 159
56 90 119
56 89 117
56 89 122
57 91 133
55 88 119
56 89 134
53 85 120
53 85 108
49 80 103
53 85 121
51 82 106
198 213 233
184 199 220
58 92 125
58 92 139
58 92 122
58 92 120
59 93 137
59 93 130
60 95 133
58 93 131
59 94 125
59 94 130
58 92 120
59 93 129
59 93 122
59 94 133
60 94 134
60 94 136
59 93 125
60 95 133
58 92 118
59 94 131
59 93 130
60 95 134
61 96 137
59 94 129
59 93 135
60 95 141
58 91 118
60 94 130
58 92 127
60 95 136
59 92 121
60 95 135
61 95 136
60 94 133
60 94 141
60 95 134
58 92 133
60 95 136
58 92 127
61 95 141
59 93 131
58 92 125
60 95 133
60 94 137
59 94 130
58 92 115
58 93 125
60 94 125
60 95 133
61 95 135
61 95 141
60 95 137
60 94 131
58 92 126
60 95 133
60 94 136
61 95 137
59 93 131
59 94 134
58 92 129
60 95 136
60 95 139
59 94 129
58 91 124
58 92 125
59 93 128
59 93 134
59 93 134
59 94 129
60 95 129
58 92 120
58 92 121
56 89 127
59 93 130
58 92 134
56 89 122
57 89 121
57 90 123
57 90 124
58 91 134
60 93 138
57 90 122
59 92 128
59 91 135
59 92 132
57 89 120
55 86 117
56 87 120
58 90 119
57 88 130
58 91 122
57 88 118
58 90 135
58 90 128
55 85 113
55 85 115
55 85 119
55 85 118
54 84 110
52 79 97
50 77 111
48 73 88
60 67 57
58 58 30
65 64 29
42 45 23
41 44 22
34 38 22
41 44 19
51 55 25
43 49 31
49 53 27
53 58 31
51 58 32
69 73 37
72 76 43
65 70 35
81 84 44
92 94 52
81 83 48
85 87 49
78 83 44
89 93 51
104 103 54
100 102 55
105 105 50
104 104 54
113 112 60
108 108 52
112 111 67
113 112 63
121 120 66
126 125 61
122 120 56
118 118 63
135 133 69
133 132 63
133 130 64
145 140 74
145 140 77
133 132 73
136 133 63
147 144 76
151 147 78
149 144 74
145 141 72
151 147 72
148 144 71
145 142 75
157 151 80
157 152 80
153 149 78
155 149 78
155 150 84
155 150 79
150 146 73
159 155 78
154 149 83
157 153 74
161 156 75
158 154 75
161 155 82
157 151 73
161 156 78
162 157 80
163 158 75
165 158 77
163 158 84
161 155 80
167 161 87
164 158 78
165 159 80
166 160 81
169 162 82
171 163 86
164 157 78
158 152 78
161 155 77
167 160 75
168 161 86
163 158 77
161 156 70
167 161 78
167 160 80
164 158 78
169 162 78
169 162 80
163 157 75
163 157 78
165 159 77
166 161 81
169 162 80
172 164 86
161 156 72
165 159 79
167 160 84
165 160 81
168 160 84
167 161 79
165 159 81
165 159 80
160 154 77
167 161 82
162 156 79
168 161 85
167 160 86
162 156 76
166 159 83
163 157 79
160 154 79
165 159 74
166 159 78
160 154 75
165 158 82
163 157 77
154 149 73
162 156 76
164 158 74
169 161 87
167 160 87
161 154 79
166 159 79
161 154 76
161 154 80
163 155 78
156 150 77
156 151 68
162 155 77
156 151 72
163 157 80
169 162 89
161 154 79
163 156 80
163 156 84
163 157 86
163 157 79
159 153 79
166 160 80
165 158 82
161 155 75
163 157 81
155 149 80
163 158 80
156 150 77
154 148 70
157 150 76
157 151 76
155 150 78
152 146 69
154 147 70
147 142 71
224 237 255
224 237 255
224 237 255
224 237 255
224 237 255
224 237 255
224 237 255
224 237 255
224 237 255
224 237 255
224 237 255
224 237 255
224 237 255
224 237 255
224 237 255
224 237 255
224 237 255
224 237 255
224 237 255
224 237 255
224 237 255
224 237 255
224 237 255
223 237 254
224 237 255
224 237 255
223 237 254
224 237 255
224 237 255
223 237 254
224 237 255
224 237 255
223 236 253
224 237 255
223 236 253
222 236 250
223 236 253
223 236 252
220 234 246
223 236 252
224 237 254
224 237 254
224 237 254
223 237 254
224 237 254
222 236 250
223 236 252
223 237 254
223 236 253
222 236 253
222 235 249
223 236 250
224 237 254
223 236 252
224 237 254
224 237 255
222 235 248
222 235 248
219 232 247
218 232 251
218 232 247
222 236 252
221 235 252
220 234 249
221 234 250
222 235 253
220 234 250
218 232 244
220 233 249
221 235 250
223 236 250
222 236 252
218 232 250
224 237 255
218 232 250
222 235 252
224 237 254
223 236 253
223 236 252
224 237 254
223 236 253
224 237 254
223 236 253
223 236 252
222 236 249
224 237 253
224 237 255
222 235 249
223 236 252
223 236 252
223 236 252
224 237 253
223 237 253
221 234 245
221 234 245
219 233 241
217 231 234
215 230 230
213 228 221
211 227 217
210 226 212
212 227 215
210 226 212
206 223 201
204 221 191
207 223 203
199 216 175
196 215 165
202 219 184
195 214 159
193 213 157
192 212 147
188 209 133
188 208 125
180 202 76
182 204 95
178 201 67
173 196 51
175 198 44
175 198 51
174 197 40
173 196 36
172 195 44
176 198 47
172 195 18
172 196 36
174 197 65
171 196 40
174 197 65
178 201 78
176 199 62
177 199 70
181 203 76
162 185 92
107 130 134
101 124 117
58 92 131
56 90 120
56 90 122
56 89 129
56 89 121
58 91 123
54 85 115
52 84 108
49 78 101
53 85 113
52 83 100
213 227 236
179 194 215
57 90 115
59 94 129
58 91 125
59 94 130
59 93 122
58 92 117
59 93 120
59 93 125
58 92 115
59 93 137
60 94 131
60 95 144
59 93 134
60 95 136
58 92 114
60 95 143
60 95 135
57 91 121
59 94 131
60 95 140
59 93 129
61 96 144
60 95 133
62 97 137
57 91 117
59 93 127
59 94 124
60 95 141
59 93 126
60 95 135
58 91 120
59 93 129
61 95 135
60 94 134
60 95 140
58 92 113
60 94 129
59 93 125
61 95 137
60 94 131
60 94 135
58 92 135
60 95 136
59 93 122
60 95 137
59 93 135
59 93 120
60 95 131
59 94 137
61 96 147
59 93 121
58 92 133
59 94 133
59 93 134
60 95 135
59 93 127
60 95 135
59 93 134
59 94 135
61 95 139
58 92 120
58 92 126
60 94 139
60 93 137
60 93 129
58 92 127
59 92 128
60 94 135
60 94 133
58 92 124
58 92 124
61 96 142
60 93 138
58 92 124
58 92 124
59 92 134
60 95 145
58 91 125
58 91 129
58 91 132
58 91 125
58 92 120
58 92 124
58 90 125
57 90 125
56 88 115
55 87 125
58 90 115
57 89 121
56 88 108
57 89 121
55 85 114
56 87 115
55 84 115
54 84 107
55 84 112
55 85 117
53 82 106
52 80 101
50 78 98
54 83 111
45 68 67
64 67 48
79 76 35
56 57 19
48 47 19
42 44 15
34 40 23
34 41 22
38 44 23
41 49 28
47 55 31
60 65 35
61 65 30
53 57 30
61 67 39
79 81 41
84 86 47
75 79 44
85 87 49
81 84 51
87 89 50
106 105 57
98 98 59
95 96 47
116 117 61
108 109 61
117 116 61
112 112 54
116 117 64
117 116 63
121 120 61
122 122 63
135 133 71
124 123 64
130 127 68
135 133 68
134 133 63
137 134 75
134 132 65
140 137 73
145 142 72
143 140 69
144 141 71
146 142 76
151 147 71
147 143 71
141 139 75
148 144 77
147 143 71
151 148 78
148 144 75
153 148 77
155 150 80
155 149 73
155 151 77
159 154 74
160 154 80
155 150 71
157 152 75
153 148 71
156 151 71
159 154 74
159 154 81
162 156 75
163 158 84
164 158 75
165 160 78
163 158 69
164 158 76
165 159 75
162 156 82
163 157 79
166 159 76
165 158 82
162 157 78
166 160 82
168 161 85
162 158 73
164 159 73
171 162 84
163 157 77
170 163 78
163 156 75
161 156 76
167 162 79
167 161 81
164 158 74
166 160 75
164 158 79
161 156 75
167 160 80
168 162 84
164 158 75
165 158 72
166 161 80
164 158 75
171 164 84
161 156 72
158 152 71
164 158 78
169 162 84
167 161 83
166 160 78
160 153 74
166 160 79
163 157 75
164 157 76
162 156 75
161 154 74
166 159 78
166 159 76
167 160 81
159 155 75
164 157 83
163 157 78
158 152 78
159 153 72
152 146 72
160 154 73
165 159 80
163 155 78
163 157 80
161 154 76
159 153 75
159 152 74
163 157 85
165 158 76
158 152 75
161 155 76
156 150 73
165 159 85
160 154 80
160 153 77
163 156 80
162 156 77
158 152 77
159 152 75
153 147 75
163 156 72
162 154 82
159 153 74
165 158 82
160 154 78
162 156 85
156 150 72
155 149 73
163 156 81
157 150 75
156 150 77
155 148 75
225 238 255
225 238 255
224 237 254
224 237 254
223 236 250
224 237 254
225 237 255
224 237 254
224 237 255
224 237 255
224 237 255
225 237 255
224 237 253
224 237 254
224 237 254
224 237 253
224 237 253
223 236 250
224 237 254
224 237 254
224 237 253
224 237 253
224 237 253
223 236 252
223 236 252
223 236 252
224 237 254
223 236 249
224 237 254
224 237 253
224 237 254
222 236 252
224 237 254
224 237 253
224 237 254
224 237 254
224 237 254
223 237 253
225 237 255
224 237 254
224 237 254
224 237 253
224 237 254
224 237 253
224 237 253
224 237 252
225 237 255
224 237 254
222 236 249
223 236 252
223 236 252
224 237 254
222 236 249
223 236 250
219 233 240
218 233 238
218 232 234
221 234 245
216 231 231
216 230 232
216 230 233
213 227 226
214 228 223
212 227 220
213 228 227
209 224 212
209 224 208
207 222 202
205 221 199
203 220 194
207 223 206
207 223 204
202 219 187
201 218 188
203 220 189
200 217 180
197 215 165
203 220 186
200 217 175
195 214 161
195 214 161
193 212 153
185 206 108
193 212 149
187 208 130
187 207 120
187 208 125
185 206 111
180 202 95
177 200 62
180 202 72
176 199 44
176 199 44
175 198 44
176 199 36
174 198 25
175 198 0
176 199 36
175 198 44
175 199 44
175 199 36
175 198 0
175 198 0
177 200 51
177 200 67
174 198 36
175 199 51
176 199 44
175 198 51
176 199 51
175 199 51
174 197 31
175 197 25
177 199 44
174 198 25
174 197 25
176 199 44
177 200 51
174 197 0
174 197 40
175 198 62
169 193 51
172 195 51
173 196 40
174 197 40
172 195 47
174 197 51
172 196 40
176 198 44
175 198 57
176 199 62
174 197 60
177 199 92
151 173 108
105 128 106
79 106 129
55 88 101
56 88 122
55 88 116
56 89 122
57 90 127
52 84 107
54 87 120
54 86 112
53 85 113
53 84 113
86 112 105
191 211 140
196 210 232
58 92 124
58 92 125
56 89 114
58 92 126
58 91 124
58 93 126
58 92 126
58 91 122
58 92 122
60 95 136
58 93 125
58 93 130
60 94 130
60 95 137
57 91 120
58 91 118
58 92 120
60 94 140
58 92 129
59 94 127
61 96 140
59 94 124
60 95 131
59 93 125
60 94 137
59 94 130
60 95 143
58 93 122
60 95 136
58 92 126
59 93 135
60 95 137
59 94 127
59 94 122
60 94 133
60 95 139
59 94 135
61 96 142
59 94 131
58 93 118
58 92 135
60 94 131
60 95 139
61 96 142
59 94 129
61 96 137
59 93 124
58 92 125
60 95 133
60 94 134
58 92 125
59 92 121
59 94 136
59 93 133
60 93 125
59 93 130
60 94 134
60 95 134
58 92 124
60 94 133
60 94 127
58 92 125
58 92 131
59 93 134
59 92 129
61 95 138
59 93 130
60 94 130
58 91 131
58 92 127
58 91 118
58 92 125
57 91 121
58 92 126
61 95 143
59 92 128
59 93 120
58 91 123
60 94 139
57 90 121
59 92 135
57 90 124
56 88 119
55 88 118
59 91 132
58 91 127
58 90 120
60 93 132
58 91 130
55 86 115
56 87 119
56 87 116
55 86 126
57 88 126
57 87 111
55 85 118
54 82 110
53 82 111
55 86 113
51 77 100
51 77 101
47 69 79
94 96 67
68 67 35
40 43 18
67 66 31
54 55 18
42 46 24
46 51 23
53 55 22
42 49 31
43 48 21
44 51 24
52 57 28
67 74 44
62 67 31
75 80 44
62 67 37
71 74 41
83 86 43
86 88 54
98 100 46
100 101 57
97 100 54
90 93 53
100 101 52
111 111 62
112 113 58
116 115 58
111 110 56
123 122 66
121 120 62
114 113 56
119 119 54
123 122 62
125 123 62
126 124 53
122 121 63
145 142 70
137 133 67
134 132 64
141 138 75
143 139 73
145 141 73
140 136 70
147 144 69
147 144 71
154 149 82
146 142 70
155 150 76
152 147 78
149 145 78
147 143 71
149 145 71
145 142 68
160 153 81
153 148 72
155 150 80
160 155 75
158 152 81
156 150 73
161 156 81
157 153 78
164 158 80
156 151 75
162 156 78
166 160 82
161 155 71
161 156 75
161 156 76
160 155 79
157 152 68
162 155 77
167 160 78
164 159 75
162 157 75
163 157 74
161 156 72
168 161 80
165 158 75
164 158 75
168 162 80
164 159 74
168 161 83
167 160 79
163 157 74
170 163 83
167 159 79
166 159 79
166 159 75
171 163 87
169 161 81
164 158 78
161 156 78
163 157 71
167 161 79
158 152 67
163 157 79
164 158 80
163 155 78
165 159 81
165 158 81
166 158 80
165 158 78
166 160 80
165 158 81
164 157 80
168 161 79
166 159 84
159 152 70
168 160 83
163 157 76
163 156 77
165 157 78
161 156 72
165 158 79
162 155 78
162 156 78
160 153 73
153 148 73
162 157 75
161 154 72
164 157 74
157 151 65
161 155 80
164 158 77
160 153 79
162 156 75
159 154 75
160 154 75
158 152 75
166 159 86
159 153 75
155 150 74
153 146 75
158 151 75
165 158 80
154 147 71
161 153 80
154 149 72
155 149 73
155 150 67
163 156 82
160 153 79
147 141 68
159 154 73
160 154 80
159 152 75
151 146 69
148 141 73
155 149 74
184 205 102
178 200 57
179 201 84
193 212 151
190 210 133
189 210 137
189 209 133
188 209 135
190 210 137
184 206 114
186 207 125
181 203 92
182 204 92
186 206 111
191 211 144
185 206 114
189 209 130
187 207 122
187 208 125
188 208 125
187 208 125
189 208 125
189 209 127
189 209 135
185 206 111
189 209 135
184 205 111
188 208 130
189 209 127
185 206 108
188 208 125
187 207 122
183 204 95
188 208 122
187 207 120
184 205 108
182 203 92
185 206 111
187 207 117
180 202 80
179 201 78
186 206 105
178 201 72
181 203 95
182 203 80
182 203 95
179 202 76
179 201 76
176 199 36
178 200 44
174 198 25
177 199 36
173 198 36
176 199 25
175 199 51
173 197 25
175 198 36
176 199 51
176 199 44
173 197 0
176 198 40
175 198 18
175 198 0
175 198 0
170 194 31
173 197 18
172 196 25
172 196 25
172 195 31
172 196 25
173 197 18
173 196 31
175 198 18
172 195 51
175 198 18
175 198 25
175 198 25
176 199 44
175 198 0
175 198 44
174 198 25
177 199 25
174 198 36
174 198 44
177 199 25
176 199 0
173 198 36
174 198 0
174 197 25
173 197 0
175 198 25
174 198 25
177 200 57
175 199 25
174 198 36
174 198 25
175 198 0
173 197 25
175 198 36
173 197 25
173 197 51
174 197 25
176 200 62
174 197 25
174 197 25
175 198 25
172 196 0
175 198 36
176 199 25
175 198 44
177 200 51
174 198 25
175 198 25
176 198 36
175 199 57
175 198 44
176 199 57
176 199 51
174 197 57
176 199 51
174 196 36
176 200 62
173 197 18
173 197 40
175 198 51
170 193 40
173 196 62
176 199 57
171 194 31
177 199 84
175 198 57
177 199 84
179 200 88
144 165 86
117 139 103
89 115 113
57 90 117
56 89 113
54 85 114
56 89 122
54 87 108
53 85 108
52 83 107
51 82 113
54 86 113
53 84 112
113 138 88
175 198 0
210 225 229
57 90 113
57 91 124
59 93 129
58 92 122
58 92 121
58 92 125
58 92 113
60 94 122
58 92 115
58 92 127
60 94 130
59 93 129
58 92 122
59 93 130
59 94 131
60 95 130
60 95 135
59 93 127
59 94 126
58 92 124
58 92 124
61 96 139
59 93 126
60 95 139
58 92 129
59 93 126
59 93 133
61 96 136
59 93 124
60 95 131
59 93 131
59 93 137
58 92 120
58 92 120
59 92 130
59 93 127
61 96 137
58 93 120
59 93 121
60 94 136
59 93 130
60 94 131
59 94 135
60 95 133
57 91 118
61 96 134
60 94 137
59 93 124
60 94 130
59 93 127
59 93 130
59 93 124
59 92 121
58 91 122
61 95 131
59 92 131
60 94 135
59 93 129
61 96 141
59 93 126
59 94 123
57 90 117
58 92 127
59 93 129
58 91 117
57 90 113
59 93 130
57 90 114
59 93 126
58 92 125
58 92 127
59 93 131
60 94 136
59 94 128
58 92 136
61 96 139
59 93 131
57 90 125
58 91 124
61 95 135
57 90 119
58 91 128
58 91 127
59 92 130
56 89 110
57 89 130
58 90 125
54 85 113
56 86 116
58 90 127
56 87 110
56 86 115
57 87 118
56 88 116
55 85 113
54 83 112
54 84 109
52 80 111
50 76 97
49 75 87
49 75 91
41 62 69
139 145 135
79 78 31
74 73 27
62 62 23
52 53 23
48 51 14
52 54 21
43 47 23
55 59 28
51 56 29
55 61 29
69 72 34
52 60 35
70 74 36
69 72 38
69 73 36
86 88 47
82 84 43
88 91 42
95 95 49
105 107 52
92 94 45
90 92 49
107 107 58
108 107 56
113 111 57
120 118 64
120 119 59
114 112 58
122 121 64
118 117 58
127 125 65
124 124 60
127 125 62
134 131 71
130 127 62
138 134 66
126 125 52
136 133 63
139 136 67
139 135 70
139 136 66
144 141 71
146 142 75
141 137 68
149 145 74
141 137 69
147 142 71
150 146 74
159 154 80
148 144 79
156 151 69
147 144 66
154 151 68
151 145 67
154 150 72
161 155 75
163 158 80
158 152 76
158 152 71
157 151 71
159 154 75
158 151 75
160 155 76
157 152 69
161 155 70
167 160 76
163 158 81
158 153 71
161 156 71
163 157 75
165 159 78
166 159 75
164 158 77
165 159 78
160 154 74
163 157 78
165 159 80
167 161 79
164 159 75
163 157 72
164 158 75
172 164 84
165 159 76
167 161 80
167 160 80
165 160 76
162 157 74
164 158 71
169 161 83
167 161 80
159 152 72
165 159 80
167 160 80
163 157 70
164 156 75
160 155 72
163 156 72
164 158 67
170 163 81
167 161 79
159 153 75
166 160 77
162 156 82
164 158 82
164 158 75
162 156 77
164 157 77
163 156 72
159 153 77
162 156 77
166 159 77
165 158 81
164 157 81
164 157 78
163 157 73
159 153 74
166 160 82
165 158 76
154 148 67
161 154 75
162 155 74
162 156 75
158 152 73
156 151 68
160 153 75
159 153 73
160 154 72
158 151 76
160 154 75
153 147 75
163 156 79
154 149 67
152 147 67
157 152 79
161 153 78
159 153 80
160 153 76
153 148 74
165 157 83
155 149 75
163 157 76
159 153 73
155 149 72
163 155 75
160 153 76
155 149 75
156 150 71
154 148 77
173 197 0
174 198 0
176 199 51
184 205 108
182 204 99
185 206 117
189 209 125
188 209 130
184 205 108
186 207 122
180 202 88
182 204 92
179 202 84
182 204 95
181 203 88
178 200 57
178 201 72
176 199 51
177 199 36
176 199 44
177 200 57
176 199 51
177 200 51
174 198 36
178 201 67
177 200 51
175 198 36
175 199 36
176 199 25
177 199 44
174 198 25
175 199 44
175 199 44
173 197 0
173 197 40
177 199 36
173 197 0
175 198 0
176 199 36
177 199 36
175 199 44
176 199 51
175 199 44
175 199 51
175 199 44
175 199 36
172 197 0
176 199 36
176 199 36
175 198 25
175 199 36
174 198 25
176 199 44
175 199 36
176 199 36
175 198 25
176 199 57
175 198 0
175 198 36
176 199 25
177 200 57
175 198 25
174 197 31
173 196 47
175 198 25
172 196 25
172 196 31
174 198 0
172 195 31
175 198 18
176 199 0
174 198 25
176 199 25
176 199 25
175 198 36
176 199 51
176 199 51
175 198 25
176 199 36
174 198 25
175 198 44
174 197 0
174 198 25
174 198 36
177 200 57
175 199 44
175 198 0
175 198 36
175 198 0
174 198 44
173 197 36
173 197 25
174 197 25
174 198 25
175 199 51
175 198 25
175 199 44
174 198 51
175 198 36
175 198 25
174 198 25
175 199 51
175 199 44
173 197 25
175 198 25
175 199 62
176 199 44
173 196 0
174 197 0
176 199 44
175 198 25
175 199 57
176 199 25
174 197 25
176 199 44
173 196 44
175 197 36
174 197 44
175 198 47
174 197 0
172 196 44
174 197 36
174 197 44
173 196 44
174 198 36
174 197 36
172 195 40
174 197 44
171 194 47
175 197 65
178 201 86
177 198 105
170 193 65
129 152 98
108 132 103
65 94 104
56 89 113
57 89 125
56 90 120
54 87 113
55 88 107
55 87 99
54 86 102
54 86 115
53 85 110
53 84 100
150 174 63
174 198 0
215 230 228
81 108 135
57 90 118
60 94 139
58 93 124
60 94 125
59 93 129
60 94 131
58 92 126
59 94 130
59 93 124
59 93 126
58 92 129
59 94 130
57 91 113
59 93 124
59 94 120
62 97 145
59 94 131
58 92 122
59 93 129
59 93 121
59 93 125
60 94 134
59 93 121
60 94 130
58 92 121
58 91 124
58 92 124
61 96 141
59 93 125
60 94 127
60 95 140
59 94 127
59 93 127
59 93 125
60 94 127
61 95 136
59 93 134
60 95 129
60 95 134
61 95 143
57 90 124
59 93 117
60 94 136
58 92 124
60 94 131
59 93 134
59 94 131
59 93 126
59 93 124
59 93 134
58 92 126
60 94 136
60 95 136
60 95 134
60 94 141
59 93 124
59 93 126
58 93 125
60 94 140
60 95 137
58 92 135
58 91 129
59 93 121
58 92 124
58 92 130
58 92 125
58 91 113
58 91 132
61 96 137
59 92 124
57 90 116
58 91 120
59 93 134
58 91 128
59 93 127
59 92 123
59 93 135
58 92 125
60 93 133
57 90 124
59 92 125
58 91 117
57 89 121
56 89 106
56 88 118
56 88 121
57 90 132
57 89 115
55 86 108
54 85 113
55 86 115
57 89 112
54 86 117
55 84 104
53 82 102
54 83 114
55 85 104
49 76 97
47 72 93
49 75 103
61 80 93
180 187 188
92 90 36
73 72 33
60 61 20
33 37 12
36 40 17
49 53 20
40 43 11
60 63 22
41 48 27
56 60 21
65 69 33
49 56 30
68 70 35
70 73 35
70 73 37
77 79 38
87 89 40
85 86 37
100 101 49
94 96 47
101 102 51
101 102 47
110 110 51
102 104 53
113 112 55
109 109 54
111 109 53
114 114 58
115 115 55
119 118 57
119 119 62
126 124 59
131 129 70
139 135 63
126 125 52
139 135 65
140 136 74
134 132 61
131 129 60
141 138 64
146 141 74
145 141 72
140 137 65
145 141 65
143 140 59
147 144 65
153 147 73
150 146 68
148 143 70
160 155 75
154 149 73
152 148 75
160 154 78
154 150 79
162 157 75
163 157 79
160 154 73
158 153 73
161 155 78
155 150 63
157 152 74
162 157 75
156 151 74
165 158 75
160 155 74
160 154 77
154 149 62
161 155 76
157 152 77
164 158 76
164 158 75
166 161 79
163 156 78
166 159 79
168 162 73
164 158 76
161 155 74
165 159 74
160 154 71
167 160 79
167 161 78
166 159 78
166 161 82
168 161 80
163 157 79
163 157 78
164 157 74
164 158 80
166 160 76
166 159 76
163 157 74
163 157 79
164 158 80
163 156 77
162 156 75
168 161 81
163 157 79
163 157 75
159 153 70
164 157 73
163 156 77
167 161 80
165 157 75
165 158 79
162 157 79
168 160 85
164 156 73
167 160 77
168 161 79
155 150 62
162 155 76
161 154 77
166 159 77
158 152 65
159 153 75
165 158 79
165 158 84
165 159 78
158 152 67
160 154 75
164 156 76
161 155 70
166 160 78
159 153 75
163 156 78
157 151 73
160 155 66
162 155 80
166 159 79
164 158 81
159 153 72
163 156 77
161 155 80
155 149 75
156 151 72
157 150 80
156 150 75
159 152 77
160 154 75
156 150 73
156 149 72
158 152 79
148 142 67
154 147 74
153 147 68
155 149 75
162 156 79
161 153 78
175 198 0
175 198 0
175 198 0
179 202 76
179 201 80
180 203 88
179 202 72
185 205 105
185 206 114
187 207 120
182 203 92
183 204 95
177 200 72
178 201 67
177 200 67
181 203 92
180 202 67
177 200 62
180 202 80
178 200 51
178 201 57
176 199 57
179 201 72
177 199 36
174 198 36
175 198 0
179 201 51
176 199 25
174 198 36
176 199 51
176 199 51
175 198 36
176 199 25
177 199 36
178 200 62
175 198 51
176 199 44
175 198 25
174 198 25
176 199 44
177 200 62
174 198 36
174 198 25
175 198 25
175 199 51
175 198 44
174 198 36
174 197 0
175 199 51
175 198 25
174 197 0
176 199 36
176 199 44
174 198 36
175 198 0
174 198 36
176 199 44
173 197 25
176 200 72
174 198 0
174 197 25
173 197 36
174 198 44
175 199 44
176 199 44
175 198 25
175 198 25
173 197 25
174 198 60
175 198 25
176 199 25
174 198 44
176 199 25
175 198 36
175 198 36
175 198 25
174 198 25
176 198 25
174 198 44
174 198 44
174 198 36
175 198 44
175 198 25
173 197 36
176 199 36
173 197 25
174 197 25
176 199 57
174 198 36
175 198 36
175 198 36
175 198 44
175 198 36
175 198 51
173 196 25
176 199 36
175 199 51
175 198 25
172 197 44
175 198 36
173 197 0
176 199 36
175 199 44
175 198 44
175 198 36
173 197 36
175 197 36
172 196 0
173 197 0
174 197 25
173 196 25
175 198 0
174 197 36
172 195 44
173 197 36
172 196 0
172 195 25
174 198 25
168 191 40
175 197 36
171 195 44
173 197 0
173 196 18
173 196 25
173 196 57
171 194 25
172 196 51
170 193 54
173 195 47
173 196 51
167 191 57
178 200 84
170 193 44
130 152 112
117 140 116
54 86 94
56 89 112
57 90 118
54 86 115
53 86 115
55 87 115
54 85 115
52 83 99
53 85 99
51 82 98
77 105 104
173 196 0
173 197 0
217 232 237
112 132 150
59 93 124
58 91 116
59 93 133
58 91 118
58 93 118
58 92 114
57 91 121
57 91 118
58 92 124
58 91 125
61 95 136
58 92 124
58 92 122
58 92 117
59 94 130
60 94 124
58 92 120
60 95 133
58 92 121
60 95 127
58 92 114
59 93 131
59 94 126
59 92 122
58 91 122
59 93 126
59 93 127
58 91 121
58 92 113
58 92 121
58 92 125
60 94 143
59 93 124
60 95 125
58 92 125
60 94 126
57 91 111
58 92 120
58 92 124
60 94 129
58 92 122
59 93 125
59 93 127
59 93 118
59 93 130
60 93 126
59 93 130
60 94 129
59 93 125
57 91 122
58 92 120
60 94 126
60 94 136
59 92 118
60 95 129
57 90 120
60 95 139
56 89 121
60 95 136
59 93 129
59 94 130
58 91 131
59 93 135
58 92 129
58 91 121
59 93 122
58 92 120
57 90 118
59 93 130
57 91 125
60 94 126
59 93 123
56 89 113
60 94 133
56 88 120
58 92 126
57 89 121
58 91 121
57 90 121
58 91 120
58 92 129
60 94 134
59 93 136
58 92 124
55 86 116
55 86 106
57 89 124
57 89 117
57 89 123
55 86 112
56 86 115
55 87 116
55 85 114
55 85 118
54 84 110
52 80 101
55 86 123
49 75 93
49 75 92
47 71 91
104 116 124
186 197 210
94 92 44
57 59 22
73 73 28
68 67 9
52 55 11
49 51 17
39 43 18
54 58 25
45 51 16
55 61 29
49 55 28
63 67 28
55 63 35
66 69 32
68 71 40
77 80 38
85 85 41
81 82 42
83 85 41
85 87 35
88 90 45
97 97 50
104 103 53
107 106 52
97 99 56
104 104 52
115 115 56
127 124 61
119 118 59
117 117 57
116 116 54
126 124 54
120 120 55
128 125 67
133 132 64
136 133 66
130 127 64
136 133 62
135 132 64
132 131 56
143 139 68
140 136 73
139 136 55
135 132 68
143 139 66
142 138 62
150 145 73
148 144 70
149 145 61
153 149 70
151 146 70
150 144 67
152 148 67
155 150 72
148 144 62
159 153 75
153 148 69
151 146 71
160 154 73
151 147 71
154 149 74
163 156 78
160 154 78
155 149 69
163 157 73
156 151 66
161 154 73
157 152 62
169 162 79
167 160 80
166 159 79
157 152 64
159 153 66
167 161 79
166 159 75
163 158 77
166 160 80
169 162 80
161 154 77
162 156 67
166 159 78
162 155 75
162 155 71
161 154 71
166 159 77
166 159 80
162 156 77
158 152 70
161 154 67
167 160 76
166 159 80
158 153 63
157 152 70
165 159 80
165 158 76
165 159 76
168 161 82
165 159 75
166 160 75
164 158 78
165 160 76
160 154 71
161 154 76
160 154 78
162 155 79
166 159 80
157 151 74
161 154 67
161 155 78
165 158 74
165 159 80
161 156 72
157 152 66
161 156 72
161 155 69
160 152 75
160 153 70
160 153 75
153 148 75
161 154 76
167 160 76
158 153 75
162 155 75
162 156 75
160 153 78
162 155 78
159 154 77
157 149 76
160 154 79
152 146 63
160 153 75
155 148 75
153 146 64
160 155 77
152 147 63
161 153 76
151 146 69
159 153 75
157 151 71
157 151 73
146 140 66
149 143 64
155 149 73
156 150 70
157 151 79
146 141 67
155 149 72
151 146 67
176 198 0
174 198 0
174 197 0
174 198 44
178 200 67
180 202 84
180 202 80
176 199 57
181 203 84
184 205 111
180 202 84
182 204 95
179 201 76
181 203 92
177 200 57
177 200 72
180 202 80
177 199 51
175 199 44
178 201 67
177 200 51
176 199 44
177 199 44
175 199 36
175 199 44
174 198 36
178 201 67
175 198 36
176 199 25
175 198 25
175 198 36
177 199 36
176 199 44
177 200 44
175 198 25
176 199 51
176 199 36
177 199 25
174 198 25
175 198 0
175 198 36
174 198 25
177 199 36
174 197 0
175 198 25
176 199 44
175 198 51
175 199 36
175 198 25
175 198 44
177 199 36
175 198 25
177 200 51
176 199 44
175 198 36
175 198 36
175 198 25
174 198 36
174 198 36
173 197 0
176 199 25
173 197 0
175 198 57
175 198 25
174 198 0
176 199 44
176 199 51
175 198 25
176 199 44
174 197 0
175 198 25
175 198 36
175 198 51
174 198 44
175 198 44
176 199 44
175 198 44
174 197 0
175 198 36
176 199 44
175 198 0
175 198 36
173 197 36
176 199 57
173 197 57
174 197 25
173 197 51
175 198 36
175 198 36
174 198 36
175 198 0
175 198 25
175 198 25
174 197 25
175 198 51
174 198 25
176 199 36
176 199 25
174 198 44
174 198 44
175 198 0
176 199 44
174 197 25
174 198 36
174 198 25
175 198 44
176 199 62
176 199 0
174 197 44
172 196 44
174 197 0
174 197 25
171 195 25
175 198 51
172 195 25
175 197 44
173 196 36
174 198 36
172 196 51
171 195 25
175 197 44
172 195 25
173 197 47
174 197 36
173 196 40
175 198 36
170 193 54
174 197 57
172 194 62
176 198 78
174 196 84
167 191 44
168 191 31
122 144 97
89 115 99
57 90 114
56 89 112
55 86 113
56 88 106
55 87 103
52 84 99
54 86 99
53 85 103
52 84 103
55 87 101
130 153 73
173 197 0
174 197 0
222 235 249
148 165 182
58 91 127
58 91 120
56 90 122
58 93 122
59 93 120
58 92 133
58 92 120
59 93 124
57 91 120
59 94 127
60 94 127
59 93 124
59 93 118
58 92 122
58 92 127
59 93 129
59 93 125
60 94 124
59 92 125
59 94 135
57 90 117
59 93 120
57 91 110
59 93 126
59 93 122
59 93 133
59 94 131
60 94 131
60 94 127
58 92 124
58 92 122
61 96 136
60 95 137
60 94 127
59 93 126
59 94 122
60 93 131
59 93 126
59 93 124
56 90 125
59 93 130
58 92 129
60 95 139
60 94 129
57 90 118
58 91 118
59 93 127
60 94 127
56 90 114
58 92 113
58 91 121
59 93 126
59 92 121
57 91 120
61 96 135
58 92 118
59 93 124
58 92 127
59 93 127
59 92 126
58 91 118
56 89 120
59 92 128
59 93 125
59 92 131
61 95 140
58 91 128
58 91 121
57 90 117
58 91 129
58 92 124
60 94 125
59 92 128
58 92 121
59 92 129
59 92 123
56 87 119
58 91 123
57 89 113
57 90 123
57 90 125
56 88 124
58 90 125
58 90 124
57 88 115
56 88 118
56 87 119
56 88 123
54 85 116
56 88 112
55 84 103
53 83 102
56 86 124
55 84 113
55 86 118
53 82 109
52 80 100
53 80 100
51 78 93
48 72 83
149 163 177
220 233 250
72 71 37
80 79 36
65 65 16
65 65 22
46 50 8
60 62 21
50 51 18
39 44 19
54 58 23
49 54 21
57 61 23
56 62 28
65 68 28
75 78 31
67 71 28
75 80 33
80 83 33
87 88 35
65 71 32
91 92 48
95 96 44
87 90 43
100 100 42
101 102 51
119 118 54
105 105 52
101 101 51
114 113 56
116 114 60
119 118 53
112 112 50
124 123 57
131 129 64
136 132 61
130 126 58
137 133 64
124 122 60
127 126 54
141 137 64
143 140 65
144 140 68
137 133 65
137 133 65
138 136 63
148 144 65
149 143 69
145 141 68
150 145 63
153 147 72
153 148 63
148 143 65
153 148 71
147 143 67
156 151 70
158 153 71
151 147 69
157 152 69
155 150 74
157 151 68
154 149 75
159 154 71
156 151 73
156 151 70
159 154 78
156 151 71
158 152 67
159 154 75
157 152 71
163 157 74
162 156 75
160 154 71
167 160 77
164 158 80
166 159 78
168 161 81
165 159 75
164 157 76
161 155 66
169 162 81
162 155 71
165 158 77
163 156 75
161 155 71
167 161 75
165 158 75
167 159 81
165 159 78
164 158 76
159 154 67
157 151 68
165 159 84
164 157 75
164 158 75
162 156 72
160 155 62
161 156 66
162 156 72
164 158 75
169 163 80
167 160 73
164 158 76
164 158 74
161 155 74
158 152 71
161 156 73
163 156 76
159 154 68
168 160 79
161 155 75
154 148 74
162 156 76
163 156 77
161 154 74
161 154 77
158 151 72
163 155 80
160 153 75
168 160 75
164 156 74
159 153 72
157 152 73
160 153 72
152 147 69
165 157 76
153 148 70
162 154 82
160 153 75
158 152 75
162 155 75
155 148 70
155 150 76
155 149 74
161 154 78
160 154 77
160 154 77
154 148 72
166 159 79
165 157 85
158 151 77
146 140 60
159 152 76
155 148 69
160 153 76
156 148 75
150 145 73
149 143 70
158 152 72
158 151 70
173 197 0
173 197 0
175 198 0
175 198 51
179 201 84
179 201 67
178 200 67
180 202 72
176 199 62
179 201 67
177 200 67
182 203 95
180 202 80
180 202 72
180 202 84
179 202 76
176 199 44
176 199 51
177 200 62
177 200 51
179 202 80
177 200 57
178 200 51
176 199 44
175 199 44
177 200 51
176 199 57
176 199 36
179 201 72
175 198 25
176 199 44
173 197 25
175 199 36
175 199 36
175 199 51
175 199 51
175 198 25
174 198 25
175 198 25
177 200 62
175 198 25
175 198 36
175 199 25
174 198 44
175 199 51
176 199 25
176 199 57
175 199 36
174 198 25
176 199 25
175 198 36
173 197 25
176 199 44
175 198 44
176 199 25
175 198 36
174 198 36
173 197 0
176 199 36
175 199 44
174 198 25
174 198 25
174 198 51
175 198 44
175 198 25
173 197 36
176 199 44
175 198 51
174 198 36
173 197 51
176 199 36
176 199 25
174 198 0
174 198 44
175 198 51
175 198 0
174 198 57
176 199 57
175 198 25
174 198 36
172 196 0
175 198 51
175 199 51
173 197 0
175 198 25
175 198 36
174 198 0
176 199 25
174 197 25
173 198 44
175 199 44
173 196 0
177 199 36
174 197 36
175 198 25
173 196 0
174 197 25
173 196 0
177 199 44
175 198 44
172 196 0
173 197 57
173 196 57
173 196 25
173 196 44
173 197 0
173 196 0
174 197 25
170 193 44
175 198 36
173 197 25
173 197 36
173 197 44
172 196 25
175 198 44
175 198 51
173 196 57
170 193 25
173 196 36
171 195 25
170 193 18
170 193 57
172 196 44
169 192 44
169 192 36
171 195 36
172 195 40
166 189 31
173 196 51
172 194 82
169 191 57
167 191 31
152 175 67
117 141 94
70 99 107
55 87 111
54 86 113
55 88 103
52 84 97
54 86 93
53 84 99
52 83 99
54 85 114
52 84 94
63 92 88
168 192 25
174 197 0
184 206 111
217 231 233
167 183 181
54 86 113
57 90 114
59 93 129
57 91 113
57 91 111
59 93 129
59 93 126
60 94 131
60 95 131
59 93 129
59 93 118
59 92 132
58 92 117
59 92 122
58 91 113
60 94 133
60 95 136
59 93 127
59 93 125
59 93 127
58 92 121
59 93 131
59 93 130
59 92 125
59 93 129
58 92 127
58 93 121
58 92 125
59 93 136
59 93 120
59 93 120
59 93 130
59 93 126
58 91 117
58 92 126
59 93 127
58 92 118
60 95 137
59 93 131
58 92 125
59 93 122
59 93 127
59 94 124
59 93 127
58 92 129
58 92 121
59 93 124
59 92 114
58 91 114
59 93 124
60 94 134
59 92 122
59 93 121
58 91 121
58 92 125
57 90 107
59 94 128
59 93 122
57 90 120
59 93 121
56 89 117
59 93 131
60 94 133
59 93 133
59 93 125
58 91 120
59 93 129
59 92 123
59 93 130
59 92 129
60 94 117
58 91 117
55 87 111
58 92 120
58 91 124
57 90 120
58 92 125
58 91 125
58 91 119
59 93 131
59 92 130
59 92 121
59 92 124
58 90 118
56 88 119
58 89 119
55 85 115
55 86 114
55 86 113
56 87 116
55 85 108
53 83 113
52 82 95
55 86 107
54 84 114
53 82 110
51 78 96
50 77 91
52 78 104
49 75 89
179 193 191
214 229 226
127 131 100
74 73 28
76 73 25
67 66 22
63 64 15
55 57 19
55 59 16
66 65 17
61 63 16
52 57 17
47 51 22
58 64 23
60 64 26
64 69 26
71 76 42
73 75 34
78 81 37
88 89 34
79 81 37
92 93 41
100 100 44
86 89 44
110 109 52
110 108 56
108 107 51
114 114 55
116 116 51
117 115 56
119 116 52
113 111 46
121 120 49
124 122 57
121 118 55
134 131 65
121 120 55
129 127 61
128 125 61
144 139 65
138 134 54
142 139 65
144 140 61
141 138 62
143 139 64
134 131 54
145 141 63
153 147 73
142 138 62
142 139 63
146 142 67
146 143 61
151 146 67
152 147 67
151 146 72
155 150 71
155 149 69
155 150 70
149 145 60
151 147 66
160 154 75
161 155 72
152 147 64
160 154 74
159 153 69
156 150 68
164 157 71
156 151 67
164 158 75
158 153 67
161 154 76
160 154 67
157 153 65
162 156 71
162 155 75
166 158 74
163 156 77
158 152 64
166 160 78
160 154 70
164 159 72
164 158 73
163 158 70
160 154 69
166 160 73
163 157 67
159 155 63
165 158 75
166 159 71
164 157 74
166 158 78
163 158 69
165 158 78
161 155 68
159 153 68
162 156 71
160 155 65
163 158 74
160 154 64
166 158 74
166 159 68
158 151 67
163 157 70
163 157 74
167 160 77
160 153 75
163 156 75
159 153 66
158 153 59
163 156 78
159 153 68
160 153 70
159 153 75
159 153 73
153 147 67
163 156 82
154 148 67
166 160 75
158 151 68
163 156 75
161 155 70
163 157 74
157 150 69
160 154 70
157 151 72
166 159 80
157 150 67
160 153 73
160 153 73
162 157 79
163 157 74
157 151 74
155 149 65
160 154 70
158 152 77
154 148 67
154 148 66
157 152 70
156 150 78
158 152 70
154 148 65
159 153 68
152 147 62
157 151 73
162 157 76
151 145 64
150 144 68
147 141 67
152 146 72
157 150 74
175 198 0
173 197 0
176 198 0
172 196 0
174 197 44
176 199 44
178 200 57
179 201 76
179 201 67
176 199 44
177 200 62
183 204 99
182 204 105
182 204 95
183 204 102
174 198 57
177 200 62
180 202 80
178 200 62
177 200 62
176 199 65
173 197 25
177 200 67
176 199 44
177 200 62
176 199 36
176 199 51
176 199 44
174 198 0
173 197 0
176 199 44
173 197 47
175 198 25
176 199 57
174 197 0
175 198 36
174 198 25
175 198 36
175 198 36
175 198 44
175 198 44
174 197 36
176 199 44
176 198 25
174 198 25
174 197 0
174 198 0
175 199 51
175 198 0
173 197 25
175 199 36
174 198 0
174 198 25
175 198 36
176 199 36
175 198 36
173 197 25
174 198 36
176 199 44
174 198 36
176 199 25
175 199 57
176 199 25
175 198 44
173 197 25
175 199 44
174 198 25
174 197 25
174 197 25
174 198 44
173 197 51
174 198 36
175 198 25
175 198 25
172 196 25
174 197 36
173 197 51
175 198 36
173 197 25
173 197 25
176 199 36
174 197 36
175 198 36
173 196 25
173 197 25
175 199 51
173 197 25
175 199 57
174 197 25
172 196 44
174 198 44
174 197 25
175 198 25
174 198 25
174 198 36
174 197 0
172 196 0
173 197 51
175 198 44
173 197 25
173 196 25
173 197 44
174 197 44
173 197 57
174 197 25
172 195 36
176 199 36
173 197 51
175 198 25
173 197 25
172 195 0
173 197 44
173 196 44
174 198 44
173 197 36
171 194 44
175 198 25
170 193 36
172 194 25
174 198 57
172 195 44
169 193 31
171 194 44
171 194 65
170 194 44
172 196 44
171 195 65
175 198 57
171 193 74
171 193 74
170 193 57
165 188 51
134 157 44
117 140 82
55 88 104
53 85 100
56 88 104
54 86 88
55 87 94
54 86 107
57 90 108
53 85 91
50 80 73
55 88 96
134 157 67
170 194 0
171 195 0
174 197 0
174 198 0
163 186 36
57 91 114
57 91 124
55 87 100
57 91 121
57 90 110
58 91 118
58 92 125
58 92 121
59 93 134
57 91 118
60 94 133
58 91 115
59 93 121
58 92 118
59 94 125
58 92 129
60 94 127
59 94 126
58 92 114
58 92 115
59 94 127
58 92 115
58 92 110
59 93 126
59 93 120
57 90 111
59 93 124
59 94 122
58 91 120
57 90 114
60 94 136
58 92 126
58 92 134
59 93 125
58 93 115
60 94 130
59 92 124
59 93 125
59 93 129
59 92 120
57 91 129
59 93 129
60 94 125
58 91 118
58 92 126
57 90 127
59 94 120
58 92 120
60 94 129
58 92 117
60 95 129
59 93 125
58 92 120
58 92 125
59 92 121
60 93 131
57 91 122
59 94 132
58 92 114
58 91 124
59 93 129
59 92 128
60 94 130
59 93 130
57 90 120
59 92 133
59 92 124
59 93 127
59 93 120
59 93 137
58 93 128
59 93 130
59 92 123
58 91 130
58 92 129
57 90 110
57 89 120
57 90 116
58 90 126
58 90 122
58 91 126
56 89 112
57 89 125
58 91 121
57 89 115
58 90 129
57 89 120
56 87 100
57 88 117
54 84 100
57 88 113
56 87 118
54 84 103
52 81 98
52 82 105
52 81 103
52 81 105
52 81 98
46 70 85
44 67 78
165 188 21
175 198 0
135 150 27
83 81 38
80 77 29
65 65 14
58 60 10
55 58 19
56 58 20
49 53 16
63 65 20
46 52 22
56 58 12
72 74 24
57 63 27
67 71 31
76 79 32
71 76 37
78 81 33
80 82 32
90 93 38
88 90 45
86 88 40
96 95 43
109 107 47
99 99 42
103 103 48
109 108 51
98 99 43
118 117 50
110 110 55
123 122 58
116 114 57
127 124 57
117 115 46
123 121 50
126 125 52
123 121 54
136 133 54
133 131 62
123 121 48
138 135 58
144 140 66
131 128 58
143 139 67
145 141 62
149 144 64
142 137 63
141 138 68
147 144 66
147 142 73
150 144 74
151 147 65
148 145 67
146 142 63
142 139 62
146 141 65
155 149 60
161 155 70
156 150 66
161 155 73
150 146 66
152 148 63
157 151 68
155 150 59
157 152 69
158 153 74
161 154 71
156 151 71
161 155 66
160 154 64
159 154 69
158 152 69
156 151 68
159 154 61
163 156 71
161 155 69
166 159 75
163 156 71
165 158 73
166 159 72
165 158 69
159 153 66
161 155 68
164 158 72
157 152 65
166 159 75
160 154 67
161 155 71
165 159 76
165 158 76
167 160 78
162 156 74
159 153 68
161 156 70
162 154 66
163 156 75
159 152 64
159 154 62
161 155 63
158 152 72
166 160 75
159 152 69
159 153 69
165 157 75
162 156 66
165 157 76
153 148 58
166 160 75
157 152 70
160 154 67
159 153 70
162 156 74
159 152 64
159 154 72
163 156 75
162 156 75
160 153 79
158 151 69
163 156 79
160 154 78
150 145 70
157 151 67
158 152 75
156 150 69
161 155 73
162 155 75
160 153 75
163 155 73
157 151 74
163 156 78
161 155 71
159 153 76
161 155 75
150 143 66
158 152 68
156 149 72
147 141 67
160 154 73
161 154 75
152 147 67
154 147 72
153 147 76
165 158 79
158 152 76
151 146 68
158 151 76
148 143 64
151 144 67
150 144 63
174 198 0
174 198 0
174 198 0
175 198 0
175 198 25
179 201 57
179 201 72
177 200 62
177 199 62
180 202 76
176 199 44
177 200 51
179 202 80
183 204 99
178 201 76
177 200 57
180 202 84
176 200 57
180 202 76
179 201 80
177 200 62
176 199 57
177 200 57
177 200 44
178 201 67
177 199 25
175 199 51
175 199 57
176 199 44
177 199 44
178 200 51
175 198 51
175 198 25
175 198 25
176 199 25
175 199 44
177 200 51
176 199 51
176 199 44
173 197 25
176 199 51
176 199 36
175 199 36
176 199 57
175 199 44
175 198 25
176 200 67
175 198 36
173 196 36
175 198 0
175 198 25
175 199 36
175 198 25
177 200 44
173 197 25
175 198 25
174 198 25
173 197 25
174 198 36
173 197 25
176 199 44
175 198 36
174 198 25
175 198 25
174 197 36
175 198 36
174 198 57
174 197 25
173 197 25
173 197 25
174 198 44
175 198 25
171 195 0
173 196 0
174 198 25
174 197 44
173 197 25
176 199 36
173 197 44
174 197 25
175 198 44
174 198 36
174 197 51
172 196 0
175 198 51
173 197 44
176 199 36
173 197 25
173 198 57
171 195 25
172 196 44
174 197 25
173 197 25
173 197 44
173 197 25
172 196 44
174 198 51
172 196 36
171 196 57
173 197 44
172 196 36
171 195 25
170 194 25
171 194 36
174 197 0
173 197 25
168 192 25
171 195 44
174 197 44
172 196 25
172 195 0
173 196 25
171 194 0
172 195 51
172 196 44
171 194 0
173 197 25
172 196 0
170 193 36
170 193 40
170 194 51
169 193 54
168 192 0
168 191 36
171 195 57
170 194 40
169 192 36
167 189 25
164 187 82
172 194 76
167 190 0
157 178 60
113 136 73
81 108 84
54 86 99
53 85 81
51 83 90
57 90 118
55 88 108
56 89 102
54 87 99
55 86 96
52 82 84
72 100 95
169 193 18
173 196 0
173 196 0
173 197 0
174 198 0
174 198 0
73 103 105
58 92 125
56 89 107
57 91 120
58 91 118
57 91 120
57 91 115
59 93 122
59 92 124
57 91 120
57 91 126
56 89 115
58 91 122
57 90 117
58 92 121
58 92 122
59 93 127
58 92 120
59 93 125
60 95 126
61 95 129
58 92 121
60 94 133
57 91 115
60 95 127
59 93 126
58 92 118
58 91 127
59 93 126
58 92 126
58 93 124
59 93 125
57 91 117
59 94 133
59 94 126
58 92 121
59 92 126
59 92 124
60 94 125
59 94 136
59 93 125
57 90 118
59 93 129
59 93 122
58 92 120
58 93 121
58 92 133
59 93 134
59 94 127
59 93 125
60 94 126
59 93 121
61 95 136
59 93 120
58 92 130
57 91 120
57 91 111
59 92 127
58 92 124
57 90 111
57 90 118
58 92 136
58 91 121
59 92 122
58 90 121
57 90 113
57 90 121
59 93 130
55 87 117
58 92 123
58 91 121
57 89 123
57 90 124
59 93 133
58 91 120
57 90 114
58 91 124
57 90 114
58 90 124
58 90 117
58 90 117
57 89 115
58 91 125
57 89 119
56 88 115
57 89 123
58 90 129
57 88 121
58 90 123
55 85 112
55 84 113
55 86 113
54 86 119
55 85 112
53 81 96
52 80 102
51 79 95
50 77 82
50 76 92
71 92 70
175 198 0
175 198 0
164 184 25
78 76 36
76 75 30
55 54 3
65 65 23
69 68 21
50 52 21
61 62 21
52 55 13
61 65 23
64 66 20
59 60 25
66 68 23
64 67 18
73 73 30
78 80 28
90 90 42
81 83 31
78 79 30
89 91 38
88 90 35
89 90 41
101 100 38
101 102 42
98 97 42
109 107 50
125 122 55
114 114 48
121 118 46
110 109 50
118 117 58
116 115 48
118 117 54
127 125 59
131 129 57
131 127 54
136 132 59
135 132 63
141 136 61
133 130 54
135 131 55
138 135 58
133 130 58
141 137 52
147 143 56
133 130 51
145 140 60
143 139 64
143 139 60
153 147 70
146 142 60
150 146 59
146 142 61
154 148 71
159 153 66
144 141 66
158 152 69
151 145 62
156 151 67
156 150 64
155 148 65
155 149 67
161 155 70
161 154 71
155 150 58
157 151 63
158 153 64
154 150 69
162 156 75
161 154 64
153 148 58
160 154 71
160 154 71
159 153 70
163 157 71
161 156 71
161 154 70
164 158 71
159 154 67
167 160 75
160 154 66
161 155 73
163 157 73
160 154 72
161 155 72
167 160 73
158 152 67
158 153 74
163 157 73
163 157 67
160 154 74
165 158 74
162 155 74
160 154 76
162 155 66
163 157 69
162 156 66
169 162 80
164 157 75
162 155 72
162 155 72
161 155 73
153 147 67
161 154 73
161 155 71
160 154 75
157 151 66
166 159 79
157 151 70
160 154 67
158 151 73
162 156 70
162 156 78
160 154 71
158 152 70
156 150 68
160 153 68
158 151 66
160 154 69
164 158 78
161 154 74
162 156 78
161 155 70
162 156 75
155 150 70
158 151 71
151 145 62
159 152 71
162 156 75
160 153 73
156 150 74
153 147 63
151 145 59
159 153 74
153 148 65
162 156 75
159 153 72
157 150 73
152 145 63
155 149 68
152 145 67
155 149 70
152 145 72
149 144 67
160 153 77
150 144 64
158 152 75
154 147 65
175 198 0
172 196 0
173 196 0
175 197 0
175 198 25
176 199 36
178 201 76
177 200 57
179 201 76
178 200 67
176 199 51
176 199 44
175 198 25
178 200 67
181 203 92
178 201 67
175 199 51
180 202 88
179 202 80
177 199 62
177 200 62
175 198 25
176 199 44
178 200 62
174 198 36
177 200 62
176 199 51
175 198 51
175 198 44
175 199 36
174 198 25
176 199 36
176 199 44
173 197 40
176 199 36
175 199 36
175 198 36
176 199 44
176 199 44
177 199 44
174 198 36
174 197 36
174 198 36
176 199 44
175 198 31
177 200 44
174 198 0
175 198 44
175 198 0
175 198 0
175 198 0
174 198 25
173 197 36
176 199 51
174 198 36
175 198 25
175 198 36
173 197 25
173 197 25
174 198 51
175 199 44
176 199 51
176 199 36
176 199 36
175 197 36
175 198 36
175 198 36
175 198 44
175 198 0
173 197 25
174 198 36
176 199 44
175 198 44
173 197 36
172 197 44
173 197 25
174 197 25
174 197 0
176 199 25
173 197 25
172 197 36
174 198 36
175 198 36
175 198 44
173 197 0
173 197 51
175 198 36
175 198 25
173 197 44
171 195 44
172 197 44
174 198 44
172 196 0
173 197 0
174 198 36
174 198 36
173 197 51
174 197 36
174 198 51
173 198 44
173 197 44
173 197 36
172 196 36
172 196 25
166 190 25
171 195 36
171 195 57
170 194 0
174 198 57
172 196 44
171 195 44
173 196 36
171 194 0
171 195 25
170 194 25
174 197 57
173 196 44
169 192 36
170 193 36
172 196 25
168 191 36
171 194 44
172 196 44
163 187 25
163 187 40
170 193 44
163 186 51
167 190 76
168 189 92
160 183 0
163 186 36
158 180 51
103 126 77
55 88 108
52 84 103
55 87 88
55 87 97
53 85 93
53 85 93
54 86 94
53 84 97
54 86 88
57 86 70
151 175 51
170 194 0
172 196 0
172 196 0
175 198 0
174 197 0
173 197 0
113 138 72
54 87 100
58 91 117
57 91 124
57 91 117
58 92 115
58 91 121
56 88 110
60 94 131
59 93 129
56 90 102
59 94 134
59 93 129
60 94 125
57 91 124
58 92 124
59 93 120
59 93 121
59 93 126
57 90 114
58 92 126
59 92 124
58 91 118
58 92 125
60 95 136
56 90 108
60 94 134
59 92 124
58 92 117
59 93 135
58 92 120
59 93 129
60 94 136
58 91 113
58 92 125
59 94 124
58 92 120
59 93 130
60 94 120
57 90 113
58 92 122
59 92 115
58 91 108
60 93 135
57 91 118
59 92 125
58 91 121
58 91 114
59 93 130
59 93 130
60 94 124
59 93 131
57 90 120
57 91 118
58 91 124
57 90 117
57 90 118
58 92 124
59 92 122
59 93 122
56 89 114
58 92 118
60 95 133
58 91 121
58 91 122
58 91 126
58 92 122
58 91 113
59 92 125
59 93 127
58 90 120
58 92 123
58 91 133
59 92 118
57 89 116
56 89 112
58 90 117
59 92 128
58 91 123
58 90 126
59 93 134
55 86 110
56 88 115
57 89 127
54 84 108
57 88 117
55 86 103
56 87 111
55 86 106
55 85 108
55 85 113
52 80 92
54 83 109
52 80 99
54 84 108
52 79 100
51 79 90
51 79 100
45 69 72
105 125 42
173 196 0
175 198 0
173 197 0
107 109 28
82 81 30
76 76 15
76 74 18
62 62 22
56 57 19
62 64 16
67 69 15
62 64 20
63 65 15
65 68 20
57 61 27
69 70 28
69 71 29
81 82 29
84 86 32
80 82 39
80 82 35
99 97 37
87 88 39
95 94 39
99 100 46
95 96 46
102 103 38
101 102 43
102 103 45
110 110 46
117 114 46
131 129 63
117 116 38
120 119 50
117 116 49
125 123 53
126 123 54
124 122 52
123 123 41
138 135 61
128 123 53
136 132 58
140 137 53
134 132 53
144 139 61
145 140 64
138 134 57
140 136 56
144 140 60
143 139 62
143 139 65
143 138 63
143 140 55
146 142 62
146 142 59
155 150 65
146 142 60
156 151 69
154 148 62
152 147 62
155 150 63
151 145 67
153 148 66
152 147 57
154 149 66
161 155 73
156 152 72
164 157 70
160 154 66
153 147 68
162 156 71
156 151 74
159 152 74
153 148 63
168 160 79
162 156 65
159 153 64
160 154 62
161 154 71
164 157 69
166 159 74
165 159 75
161 156 72
159 154 63
157 152 67
168 160 78
156 151 60
160 154 69
162 156 73
158 152 65
161 156 68
159 153 63
157 151 66
163 157 71
160 153 70
159 153 68
161 156 71
162 155 72
160 155 72
166 160 73
162 155 71
157 151 72
164 157 76
161 155 71
158 152 67
167 160 83
167 161 70
161 155 69
159 153 66
154 148 62
164 158 75
165 158 75
156 150 66
162 155 71
164 156 74
150 146 54
162 154 74
152 146 63
161 155 77
160 154 72
153 148 66
159 152 69
167 160 77
154 149 63
156 149 63
165 158 79
155 148 66
156 149 70
158 151 68
150 145 59
154 148 60
147 142 61
153 147 66
151 145 64
159 153 74
158 152 72
154 148 67
159 154 70
151 144 72
155 149 72
147 142 61
161 155 75
151 146 65
155 150 67
148 141 67
150 143 67
153 148 62
150 144 69
152 146 67
142 137 63
175 198 0
175 198 0
173 197 0
176 198 0
176 199 0
177 200 51
180 202 80
175 199 57
176 200 67
177 200 51
178 200 62
174 197 0
175 198 44
176 199 36
177 200 76
180 202 88
183 204 92
178 201 67
180 202 76
178 200 62
180 202 72
176 199 51
176 199 51
177 199 51
177 200 62
175 198 44
178 201 76
174 198 25
177 200 62
175 198 36
173 196 44
175 198 51
177 199 25
175 198 36
176 199 25
176 199 44
176 199 44
174 197 31
173 197 0
176 199 25
173 197 51
173 197 44
173 197 25
177 200 51
175 198 62
176 199 36
175 198 51
174 197 0
174 198 25
174 197 25
176 199 57
175 198 36
173 196 36
174 198 44
175 199 36
173 197 36
174 198 0
176 199 51
176 199 36
175 198 44
174 197 0
171 196 36
174 198 51
174 197 0
173 196 0
174 198 44
176 199 25
174 197 25
174 197 25
173 197 0
175 198 25
174 198 0
173 197 0
174 198 36
174 198 44
171 195 36
174 197 25
174 197 0
175 198 36
172 196 36
173 197 44
173 197 0
174 198 0
174 198 25
174 198 36
174 198 36
172 196 36
171 195 0
174 198 44
171 196 25
172 195 36
173 197 44
174 197 36
172 196 36
171 195 25
173 196 25
175 198 25
173 198 51
173 197 36
172 196 44
172 196 0
172 196 0
173 196 51
170 195 44
174 197 44
173 197 57
171 195 0
171 195 36
171 195 25
171 195 25
170 193 25
171 195 25
167 191 51
172 196 25
172 195 36
170 194 36
172 195 36
174 196 36
171 194 44
171 194 0
165 188 62
166 190 36
167 191 57
164 187 18
168 192 47
175 197 80
160 182 44
162 186 70
166 189 54
163 186 25
162 185 47
149 170 65
82 109 80
52 84 80
52 84 78
56 88 95
53 84 92
55 88 96
52 83 91
56 89 108
51 81 84
54 85 95
120 144 62
170 193 0
167 191 0
167 191 0
174 197 0
175 198 0
174 197 0
174 198 0
150 174 57
56 89 107
58 91 110
56 89 113
59 93 128
58 92 125
58 92 117
56 89 108
59 94 125
58 92 122
58 92 125
59 93 120
58 92 124
57 90 108
56 89 115
59 93 124
59 93 121
60 94 131
58 92 111
58 92 108
57 91 114
58 92 113
58 91 115
58 92 121
58 91 120
59 92 125
57 91 117
57 91 115
57 91 121
60 94 122
59 93 124
58 92 124
59 93 122
59 93 122
59 93 125
58 92 124
57 90 124
59 93 117
59 93 118
58 92 120
59 93 129
57 90 117
56 90 108
58 92 117
58 92 120
57 90 127
60 94 131
59 92 126
58 92 110
57 91 120
57 91 113
59 93 125
58 93 121
59 93 127
58 92 125
58 92 117
58 91 116
58 91 113
58 92 117
58 92 122
60 93 130
56 89 111
59 92 126
57 91 114
57 91 118
58 91 113
58 91 120
58 92 121
58 92 124
60 93 133
59 93 114
58 92 111
56 88 105
56 89 115
58 91 128
57 90 118
57 90 116
58 92 126
58 91 125
56 87 111
57 89 120
59 92 134
55 86 112
56 88 115
57 89 116
56 88 113
57 89 113
53 84 110
55 86 116
58 90 129
57 88 113
55 86 112
53 82 109
53 83 102
52 80 108
51 80 98
50 78 97
49 75 90
45 68 76
143 165 34
174 197 0
172 196 0
173 197 0
143 156 28
93 91 44
74 72 23
69 69 23
69 69 12
52 55 12
59 60 22
57 60 17
54 58 17
68 69 14
66 68 22
64 67 18
61 64 21
76 79 28
67 70 26
73 75 23
70 73 26
79 82 37
92 94 33
90 91 32
104 103 46
94 95 41
107 106 46
107 107 45
109 108 45
114 112 41
107 106 44
120 118 49
113 112 43
117 115 54
111 111 40
116 115 53
123 121 51
123 121 53
131 127 52
128 126 54
132 128 52
131 128 58
129 126 41
134 132 58
144 139 61
133 130 45
134 131 52
144 139 64
138 134 60
139 135 59
146 141 60
146 141 67
146 141 62
138 134 55
147 141 61
148 143 61
154 149 65
149 145 69
153 148 62
147 143 60
148 145 57
151 147 62
152 147 66
154 148 66
155 149 64
157 149 70
154 148 62
154 149 65
162 155 71
154 148 66
161 155 64
156 151 68
156 150 67
158 152 62
156 150 61
157 152 65
156 150 57
163 157 65
159 152 66
158 152 70
160 153 64
164 157 73
163 156 70
164 158 71
156 150 66
159 153 66
156 149 58
161 154 65
164 158 73
164 156 72
161 155 65
160 154 64
165 158 75
162 155 71
163 156 73
159 153 68
160 154 66
163 157 72
159 152 67
163 157 73
156 151 67
162 155 68
165 159 71
159 153 67
159 153 70
165 159 71
157 152 61
155 149 68
160 154 72
165 158 74
163 156 75
158 153 66
159 151 65
159 152 73
161 155 71
159 152 70
163 156 75
158 152 68
162 156 76
156 149 68
158 152 68
157 152 71
154 148 61
158 152 70
156 150 66
154 148 70
163 157 80
158 151 66
161 155 68
164 157 79
158 151 76
156 148 69
148 142 67
152 147 63
152 144 66
153 148 66
151 146 62
154 147 71
157 151 69
156 149 66
150 143 68
145 139 52
146 141 59
154 148 70
159 152 80
155 149 66
144 139 60
152 145 69
145 139 68
146 140 60
159 152 75
174 197 0
173 197 0
174 197 0
175 198 0
173 197 0
175 198 0
173 197 25
178 201 67
177 200 57
177 200 62
175 198 57
175 198 51
176 199 44
174 198 36
175 198 25
180 202 76
181 203 88
179 201 76
178 200 57
179 201 76
179 201 62
177 200 67
176 200 67
174 198 36
178 200 57
177 200 51
175 198 36
175 199 44
175 199 44
175 198 44
175 199 44
177 199 51
175 198 36
178 200 36
175 198 25
174 198 25
177 200 76
175 199 44
175 198 25
174 198 36
173 197 25
173 197 36
173 197 54
175 198 25
174 197 25
176 199 57
173 197 25
174 198 0
174 197 36
174 198 25
177 200 44
171 196 25
173 197 36
173 197 0
175 198 25
173 197 0
173 197 25
173 197 36
174 198 36
175 198 0
171 196 0
174 198 57
174 198 44
173 197 36
176 200 62
175 199 51
173 197 25
175 198 36
173 196 44
174 197 0
175 198 25
174 197 36
175 198 25
174 197 25
174 198 44
171 194 36
172 196 44
175 198 25
174 198 0
174 197 25
174 197 25
173 197 0
172 195 0
172 196 25
174 198 51
172 197 44
173 197 44
172 196 44
172 196 25
173 197 25
172 196 0
171 195 36
172 196 25
173 197 25
172 197 51
173 197 51
174 197 25
172 196 0
173 197 36
171 195 36
171 195 51
173 197 51
173 197 44
172 196 36
168 192 0
172 195 25
170 193 51
169 193 36
172 195 25
168 192 25
171 195 25
172 195 44
170 194 36
172 196 44
169 192 25
171 194 51
172 196 25
168 192 44
170 193 25
166 190 25
166 190 25
166 189 36
160 183 65
165 188 62
163 186 36
165 187 84
170 192 84
160 182 60
163 186 36
153 177 54
149 171 47
110 133 74
58 90 88
51 81 76
54 86 80
53 85 88
54 85 94
54 87 94
54 85 95
51 82 84
52 83 83
125 147 47
166 189 0
167 191 0
171 194 0
173 196 0
173 197 0
174 198 0
174 197 0
174 197 0
167 191 25
64 94 104
57 90 110
55 88 102
56 89 114
58 91 127
57 90 114
58 91 113
59 93 125
57 90 118
58 91 111
57 90 113
57 91 117
57 91 111
57 91 120
60 94 127
57 90 122
60 94 124
59 92 120
59 94 136
59 93 124
58 91 118
59 93 122
58 92 127
57 91 122
57 91 103
59 93 124
57 91 120
58 92 115
59 92 117
59 93 122
57 91 118
58 92 122
58 92 120
58 92 117
59 92 118
59 93 130
59 92 117
58 92 118
59 94 124
58 91 111
58 92 111
57 89 121
58 92 118
58 91 122
59 93 122
59 93 129
58 91 114
57 90 117
58 91 121
58 92 118
58 92 120
59 93 121
58 92 124
57 91 126
59 93 125
57 90 115
58 92 120
60 94 126
58 91 122
58 91 118
58 91 118
58 92 117
58 91 115
56 88 99
57 90 113
58 92 121
59 92 124
55 88 107
58 91 123
56 87 109
56 88 113
59 93 125
58 91 123
58 91 115
57 89 115
56 89 112
57 89 118
57 89 118
55 87 115
55 87 109
57 90 118
55 87 107
56 87 112
55 85 108
57 88 105
57 89 127
55 85 113
54 84 105
54 84 111
55 85 103
54 85 104
55 85 109
51 79 100
51 78 99
52 80 99
50 77 92
47 74 92
59 78 78
168 190 18
174 197 0
174 197 0
173 196 0
162 183 11
102 99 38
77 75 30
89 86 30
69 69 15
67 69 18
57 60 15
58 59 14
73 74 18
61 62 5
67 69 18
63 65 13
70 74 29
64 67 23
87 85 29
79 81 24
83 84 26
87 89 33
96 95 39
95 96 36
103 103 41
96 96 44
104 103 40
105 105 39
115 112 46
105 105 46
110 109 42
112 111 45
114 113 48
117 116 48
118 117 44
111 109 41
122 119 43
122 120 54
128 124 54
128 125 59
128 125 53
135 132 59
122 118 51
131 128 56
135 132 57
137 133 57
139 134 61
136 132 50
143 139 64
143 139 53
143 138 57
147 142 55
141 135 57
142 139 58
148 143 62
147 142 59
148 143 56
153 147 62
148 143 56
154 149 62
156 150 63
144 140 55
151 147 64
156 151 64
154 147 65
153 147 62
155 149 59
147 143 61
163 157 66
153 147 57
159 153 72
160 154 74
152 146 66
156 151 63
157 151 63
157 150 72
155 149 57
162 155 73
155 149 65
157 151 66
153 147 65
160 153 66
156 150 65
163 156 69
159 152 72
160 154 64
167 160 78
159 153 71
158 152 65
158 152 64
161 156 64
166 159 76
160 155 65
154 148 62
159 153 69
159 154 65
156 151 68
160 153 67
159 153 57
155 148 61
165 158 69
161 154 71
164 156 72
165 158 68
160 154 72
161 154 68
163 156 74
152 146 60
155 148 69
162 156 66
162 156 68
157 151 67
162 155 71
157 150 69
153 147 68
162 154 72
156 150 68
159 153 71
156 149 69
156 149 68
154 149 61
159 152 73
158 151 65
153 147 68
158 151 71
163 156 73
161 155 67
155 150 66
157 151 68
160 154 74
159 153 71
150 144 59
157 151 72
155 148 61
154 149 61
161 154 75
153 147 62
158 152 74
160 153 71
152 145 67
155 149 68
152 145 71
155 149 66
158 151 69
159 153 74
148 143 66
157 151 74
146 140 63
146 141 59
153 147 61
152 146 71
174 198 0
172 195 0
175 198 0
172 196 0
175 198 0
173 197 0
173 197 0
177 199 57
174 198 0
177 200 51
175 197 51
175 198 25
175 198 25
173 196 25
176 199 25
176 199 44
178 201 72
176 200 62
180 202 80
178 200 62
178 201 76
176 199 51
177 200 57
177 200 57
179 201 80
175 198 36
179 201 72
173 197 36
176 199 44
175 199 44
176 199 51
177 200 51
173 197 25
174 197 25
174 198 0
176 199 57
175 198 44
173 197 0
174 197 25
175 198 25
175 198 51
176 199 62
174 198 36
173 197 25
174 198 44
172 196 25
174 197 44
174 197 44
173 197 25
175 199 44
175 198 44
175 199 44
175 198 36
174 198 44
173 197 36
175 198 51
174 197 36
175 198 25
174 198 51
173 197 36
173 197 25
175 198 25
173 198 44
171 195 25
174 198 36
174 198 25
174 198 36
171 195 51
175 198 44
174 198 51
175 198 36
174 197 25
173 196 25
173 197 0
175 199 51
172 196 44
172 196 51
176 199 57
171 195 0
173 197 25
172 196 44
173 197 0
175 199 36
172 196 25
176 199 25
172 196 36
172 196 25
175 198 36
173 197 51
171 195 25
171 194 44
172 196 0
173 196 25
170 194 25
173 196 51
174 197 36
171 195 25
171 195 44
171 195 36
172 196 51
174 196 36
171 194 25
173 196 0
172 195 44
172 195 0
167 192 36
171 195 44
172 195 0
169 192 25
170 194 36
171 194 36
165 188 25
172 196 67
168 192 36
170 194 67
170 193 25
166 190 25
169 192 25
166 189 72
172 195 44
169 191 44
168 191 25
169 192 25
164 187 36
159 182 25
163 185 60
162 184 62
158 181 51
162 184 57
153 174 57
128 150 18
77 104 78
53 84 94
54 85 84
50 80 78
51 81 78
54 87 80
53 84 85
52 84 81
53 85 84
108 131 51
156 179 0
161 184 0
163 187 0
171 194 0
172 196 0
175 197 0
174 197 0
175 198 0
174 197 0
173 197 0
101 126 76
54 86 99
57 91 107
58 91 114
57 91 115
56 90 103
57 91 111
58 92 120
59 93 121
56 89 102
58 91 125
57 90 111
57 89 111
58 92 115
58 91 115
57 91 118
57 90 110
58 91 107
57 91 117
57 91 107
58 92 124
59 93 122
58 92 122
58 92 118
58 92 111
56 89 118
60 94 135
59 92 134
57 91 118
58 92 120
59 93 130
58 92 122
58 92 117
58 91 118
58 92 126
59 93 120
58 92 129
56 90 105
58 92 122
59 92 121
58 92 122
57 90 113
58 90 118
59 92 129
58 91 111
60 94 127
58 90 120
57 91 114
58 92 117
57 91 121
58 92 126
59 93 122
57 91 117
58 91 114
59 92 122
58 91 125
58 91 125
57 90 114
58 92 120
58 91 118
59 92 131
57 90 117
58 91 117
59 93 132
57 90 110
56 89 114
57 89 114
55 87 108
56 89 98
59 93 128
58 91 116
57 90 124
58 91 124
57 90 113
56 88 102
57 89 113
57 90 111
56 89 112
55 87 109
56 88 104
57 90 120
55 86 115
56 87 115
57 88 119
54 85 105
56 88 117
56 87 115
54 84 109
56 87 113
54 83 110
53 81 88
53 83 111
55 85 112
52 81 96
49 77 97
48 73 77
47 71 84
98 118 62
174 197 0
174 196 0
174 197 0
174 198 0
175 198 0
125 132 36
76 74 29
80 78 16
58 58 14
76 77 25
61 62 9
60 62 22
71 71 20
73 74 24
61 64 24
65 68 18
80 81 23
81 82 20
75 75 22
74 76 21
81 82 27
85 86 32
94 93 34
90 91 38
92 91 29
93 93 37
93 93 40
89 91 38
102 103 38
105 104 42
93 93 33
103 101 30
113 111 42
119 116 44
132 128 53
113 113 47
128 125 53
116 115 46
127 124 44
123 121 49
117 116 39
133 129 48
130 126 55
146 141 60
135 131 48
131 128 44
137 135 60
137 133 53
142 138 57
141 137 53
145 140 57
145 141 55
138 133 58
147 141 62
137 133 55
146 142 53
151 146 67
147 142 57
142 138 56
145 141 53
158 153 65
152 145 63
157 151 67
156 150 65
148 143 51
157 152 66
149 142 61
155 150 65
161 155 67
156 150 70
160 154 64
160 154 71
156 150 62
154 149 61
158 152 63
156 151 61
157 151 61
153 148 58
160 154 74
157 151 64
158 152 63
157 151 63
156 150 61
157 151 67
163 156 68
158 151 65
161 155 65
159 152 61
157 151 59
164 157 77
160 153 70
158 153 63
158 153 64
155 150 63
158 151 59
158 153 67
163 157 73
163 155 67
159 152 64
157 153 59
163 157 71
160 154 72
158 152 59
164 157 73
158 152 64
161 154 70
155 150 63
159 153 69
162 155 69
160 154 65
161 154 71
161 154 66
163 155 73
154 148 64
158 153 67
160 154 65
157 150 63
156 148 73
151 145 63
165 158 75
150 145 62
162 156 69
151 146 51
158 152 67
154 148 67
151 145 64
157 151 69
162 156 73
155 148 68
152 147 57
149 144 56
162 155 76
155 148 66
160 153 68
159 152 75
152 145 65
149 143 64
159 152 71
154 148 71
158 151 74
157 151 67
160 153 74
160 153 73
155 148 69
155 149 67
152 146 67
159 152 70
148 142 66
155 148 67
151 145 63
141 136 58
175 198 0
169 194 0
173 196 0
172 197 0
172 195 0
175 198 0
174 197 0
174 198 25
177 200 57
177 199 67
174 198 0
179 201 80
178 200 57
178 201 72
177 200 62
175 198 36
173 197 36
178 201 76
179 201 80
178 200 67
180 202 80
178 200 62
176 199 51
178 201 62
176 199 51
174 198 36
175 198 44
179 201 62
176 199 51
176 199 44
176 199 57
175 199 57
175 198 0
175 198 44
175 198 36
175 199 36
175 199 57
174 197 25
174 198 25
175 198 0
175 198 25
173 197 0
174 198 44
175 199 44
173 197 44
174 198 25
176 199 51
173 197 36
175 198 25
172 196 51
174 198 25
174 197 25
171 196 36
172 196 44
172 196 44
172 196 44
173 197 0
173 197 36
174 198 0
173 197 25
175 198 25
174 198 25
173 196 0
174 198 25
174 198 57
175 198 0
174 197 36
174 197 0
173 197 25
173 197 36
172 196 25
172 197 36
172 196 36
173 197 36
172 196 0
173 197 51
172 196 0
173 197 44
173 197 44
175 198 44
171 194 25
174 198 51
172 196 25
172 195 36
171 195 36
173 196 44
172 196 36
174 198 0
175 198 36
173 197 0
174 198 44
175 197 51
173 197 36
170 194 51
172 197 62
172 196 0
172 196 36
171 195 51
173 196 36
172 196 25
169 193 25
169 192 36
168 193 25
173 196 0
170 194 44
170 194 0
171 194 36
167 191 36
170 194 0
170 194 36
168 192 44
166 189 36
171 194 51
171 195 44
166 190 36
169 192 44
165 188 44
166 189 25
170 193 51
160 185 36
167 190 0
162 185 51
168 191 51
163 186 25
164 187 25
158 180 54
162 184 44
151 175 36
151 173 54
145 165 57
125 147 60
53 84 88
54 86 80
53 85 94
52 83 94
54 85 80
53 84 73
53 84 88
54 83 78
125 147 44
149 171 0
159 182 0
162 185 0
162 186 0
167 191 0
175 198 0
176 199 0
174 197 0
175 198 0
172 196 0
172 196 0
144 167 60
57 91 108
57 90 105
57 91 103
58 92 120
57 90 110
58 92 114
57 90 122
58 92 114
60 94 122
58 92 115
56 89 108
59 93 122
59 93 117
56 89 100
56 89 111
58 93 124
57 91 119
56 89 114
60 95 134
57 90 114
57 90 114
59 93 129
57 91 115
58 92 110
58 91 122
59 94 133
58 92 121
59 93 126
59 93 122
58 92 117
58 92 125
58 91 113
59 93 124
57 91 121
57 91 113
59 93 118
58 92 125
60 94 133
58 92 115
59 93 115
57 90 120
58 92 120
59 93 129
59 92 126
58 92 114
57 90 122
58 91 118
60 94 130
57 90 115
59 93 118
59 93 124
58 91 120
57 91 111
59 94 124
54 85 97
58 91 120
57 90 117
58 91 121
58 91 111
59 93 124
56 89 99
57 90 122
58 91 116
59 93 124
56 89 116
58 92 118
56 89 117
57 90 119
57 90 117
58 92 124
57 91 120
55 87 108
57 90 108
55 87 115
55 87 117
58 90 130
58 91 127
55 86 112
58 91 119
57 89 118
58 91 126
56 88 108
54 85 113
53 83 96
54 84 100
53 84 103
55 85 106
52 80 98
52 82 105
54 84 101
52 80 95
54 83 102
50 76 87
48 74 83
48 73 78
47 71 75
142 162 44
172 195 0
174 197 0
175 197 0
172 196 0
173 197 0
156 174 25
85 82 30
84 82 34
72 72 22
59 61 15
71 69 18
75 74 15
62 64 14
62 62 17
71 71 21
72 73 20
82 82 14
73 74 12
75 77 25
86 87 22
86 86 27
87 89 28
83 84 40
84 86 29
79 82 39
89 89 19
92 91 38
101 101 26
100 100 36
98 99 26
107 107 38
107 106 40
112 109 47
121 118 49
108 106 42
114 113 51
130 126 49
117 116 47
130 127 54
126 123 40
127 126 51
133 129 56
120 116 43
130 127 54
131 126 50
136 133 57
143 138 62
141 137 56
136 132 57
141 136 56
143 137 49
131 128 45
143 138 58
141 138 56
149 145 56
140 134 61
147 142 61
150 145 64
150 145 53
153 149 57
156 149 69
155 149 61
151 145 61
147 142 66
143 137 54
153 148 64
155 149 60
149 144 58
144 140 57
149 144 60
146 142 51
151 147 60
155 148 65
159 153 65
162 155 74
155 149 66
161 154 68
155 149 64
155 150 64
150 145 57
153 147 59
162 155 71
154 148 65
157 152 67
157 152 62
161 154 64
156 150 56
159 152 72
158 153 61
160 153 69
160 154 62
161 154 69
151 146 59
160 152 62
152 146 62
159 153 63
162 155 70
157 152 66
159 153 67
154 148 62
157 150 63
160 152 69
161 155 66
157 151 67
163 157 75
159 152 76
156 150 68
161 154 68
155 149 65
152 146 67
160 154 64
155 148 67
155 150 65
154 148 60
160 152 70
163 156 75
158 151 76
164 157 67
157 151 64
152 146 62
154 148 59
158 151 70
146 142 53
157 151 73
158 152 68
152 146 60
155 148 67
156 150 66
158 151 71
154 148 59
151 145 61
153 148 60
153 148 68
158 151 71
152 146 59
145 139 54
144 139 51
153 146 62
153 147 62
159 152 75
148 142 63
148 142 66
150 145 68
148 143 60
156 149 69
157 150 68
146 141 65
157 151 67
151 145 65
149 144 64
152 145 69
173 197 0
175 198 0
174 197 0
173 197 0
172 195 0
175 198 0
172 196 0
174 198 0
175 198 51
176 199 51
176 199 44
175 198 36
176 199 67
176 199 57
173 197 0
175 198 25
174 197 0
176 199 51
179 201 72
181 203 88
173 197 36
175 199 67
176 199 44
176 200 57
176 199 44
176 199 44
175 198 36
176 199 25
173 197 44
173 197 25
173 197 0
176 199 51
176 199 36
176 199 44
174 198 36
172 195 0
175 198 36
176 199 44
175 198 25
175 199 51
174 197 25
174 197 25
175 198 44
173 197 51
175 198 0
173 197 44
174 198 36
173 197 25
173 197 0
174 198 51
176 199 51
176 199 36
173 197 25
173 197 36
173 197 25
175 198 36
173 197 36
176 198 25
171 196 0
174 197 25
172 196 36
172 195 25
173 196 44
176 199 36
175 198 44
174 198 51
172 196 0
172 196 25
173 197 36
173 197 0
172 196 36
175 198 36
176 199 25
172 195 44
174 197 25
171 195 36
174 197 44
171 195 36
174 198 44
171 195 36
173 197 36
170 194 0
171 195 36
172 196 0
171 195 36
174 198 36
173 196 51
172 196 0
171 194 36
171 195 51
172 196 0
174 198 25
171 196 36
172 196 51
169 194 36
169 193 25
172 195 36
172 195 25
171 196 44
170 194 51
172 195 51
168 192 0
167 191 44
173 197 51
170 193 25
168 192 0
173 196 25
172 195 51
170 193 0
171 195 25
168 192 36
168 192 44
171 194 57
163 187 0
167 190 0
167 190 36
167 191 0
159 182 0
163 185 57
163 187 36
161 184 36
168 190 44
165 187 57
161 184 57
162 185 51
161 184 57
150 174 0
151 173 31
149 170 51
135 155 65
56 84 74
51 81 76
49 79 72
50 80 67
48 77 67
50 80 78
52 82 60
83 106 74
128 149 18
146 167 0
156 178 0
151 173 0
165 188 0
166 189 0
173 197 0
174 198 0
173 196 0
174 198 0
174 197 0
172 195 0
173 197 0
172 195 0
78 106 84
58 91 111
58 92 117
55 88 100
56 89 110
57 90 113
58 92 117
58 91 115
58 92 113
57 91 115
57 91 105
57 90 110
57 91 114
57 89 118
58 92 125
59 93 114
57 90 111
58 91 115
57 90 108
58 92 118
58 91 115
59 93 129
60 94 129
59 93 118
58 92 120
59 93 126
57 90 127
58 92 117
59 92 121
58 92 125
58 91 117
57 91 117
56 90 100
59 93 121
57 90 111
57 89 108
57 90 111
59 94 127
58 92 110
58 91 117
58 92 121
59 93 124
58 91 118
56 90 113
57 90 103
58 92 118
58 91 125
56 89 107
57 90 114
60 94 135
56 89 111
57 90 108
59 93 129
59 93 129
59 92 122
57 91 120
59 93 117
59 93 124
56 88 116
57 90 113
58 91 121
58 91 124
58 91 118
56 88 110
59 93 120
59 92 126
57 89 113
56 88 114
56 89 104
57 88 108
56 89 113
58 91 119
57 89 113
57 90 118
55 86 108
57 88 110
56 88 107
58 91 123
55 85 112
56 89 120
56 88 109
57 88 115
54 85 107
56 87 110
55 85 112
53 84 102
55 85 109
53 83 102
52 81 90
53 82 100
52 81 100
50 77 86
50 76 89
48 75 84
48 72 71
68 88 58
168 191 0
174 197 0
174 198 0
173 197 0
172 196 0
173 196 0
173 196 0
111 113 36
72 70 24
75 74 21
68 69 8
76 75 17
63 65 12
78 79 10
81 81 23
74 73 15
72 72 14
72 73 9
75 76 20
70 72 23
88 88 31
74 76 26
80 83 28
88 87 23
101 99 30
95 94 20
85 86 29
89 90 29
91 91 29
105 104 38
111 108 37
113 110 51
111 109 42
113 111 41
118 116 39
111 109 43
119 117 41
120 117 42
125 122 45
122 122 45
114 112 35
125 122 45
131 128 57
134 131 53
131 127 53
132 128 53
139 133 51
145 140 53
140 137 50
139 135 49
137 133 54
146 142 60
137 133 54
147 142 60
144 139 53
151 146 53
146 141 57
145 139 65
142 138 56
143 138 47
149 143 58
152 146 60
148 143 53
151 147 54
144 138 50
152 147 57
150 144 57
151 145 57
149 144 53
148 143 61
152 146 63
159 151 65
153 148 57
159 153 61
151 147 53
156 150 62
162 155 65
155 150 60
156 150 66
155 149 56
152 146 58
155 149 68
158 153 67
160 154 64
151 146 59
159 153 61
155 149 65
154 148 59
163 157 66
158 151 67
158 151 61
161 154 65
157 152 60
155 148 61
161 153 69
162 154 68
161 154 67
155 150 59
159 153 67
155 149 60
157 150 70
152 146 58
161 153 71
156 150 64
163 155 71
155 148 66
157 150 67
153 148 63
153 147 67
151 146 56
154 148 68
161 155 66
153 147 66
160 153 73
155 150 61
151 145 49
158 152 69
159 153 66
158 151 65
150 144 56
159 152 72
160 154 67
152 146 59
162 156 75
156 151 58
154 148 63
150 144 62
165 158 73
152 146 63
156 149 69
158 152 69
151 145 64
152 145 66
151 144 64
153 146 72
156 149 66
153 146 63
148 142 65
156 149 71
143 138 59
153 147 66
156 150 68
154 148 67
146 140 59
152 145 68
152 146 64
149 143 66
145 138 58
147 141 62
152 145 69
147 141 62
155 148 75
173 197 0
173 196 0
173 196 0
174 197 0
174 197 0
176 198 0
176 198 0
175 198 0
175 198 25
173 197 0
176 200 62
177 200 57
176 199 36
177 199 51
178 200 51
175 198 0
174 197 44
173 197 36
177 200 62
180 202 72
178 201 67
175 199 51
177 200 72
179 201 67
176 199 44
174 198 25
178 200 72
177 200 51
175 199 57
175 199 51
175 199 51
174 197 25
175 199 51
175 198 44
175 199 36
174 197 25
173 197 51
175 198 44
174 198 25
175 198 51
174 198 36
175 198 36
173 197 25
175 198 36
173 197 18
174 198 36
174 197 36
174 197 36
175 198 44
172 196 25
175 198 44
174 197 25
175 198 44
174 198 44
174 198 25
175 198 0
173 198 57
174 197 36
172 196 51
175 197 0
174 198 51
175 199 36
175 198 25
173 197 44
172 197 0
174 198 44
172 196 25
173 197 51
175 198 44
172 195 44
174 198 44
174 197 36
175 198 36
172 195 51
175 198 25
173 197 36
175 198 0
175 198 25
173 197 36
172 196 36
171 194 0
174 198 25
175 198 25
172 195 36
172 196 44
174 197 36
173 196 25
173 196 25
173 196 25
171 195 44
173 197 25
173 197 25
170 193 25
172 195 25
168 192 36
171 195 36
173 196 57
173 197 25
170 194 44
172 195 0
166 190 25
173 196 25
169 193 36
168 192 36
172 196 51
170 193 44
172 195 44
167 190 25
165 188 36
172 195 25
167 190 36
168 191 44
163 187 0
169 192 44
161 184 36
164 187 36
163 185 36
166 189 36
166 189 25
158 181 0
157 179 0
165 186 76
167 189 67
159 180 72
159 181 51
158 180 0
153 175 36
148 169 47
135 156 40
69 95 76
51 81 67
48 77 67
50 80 62
48 78 51
54 81 72
76 101 51
95 114 25
131 151 0
138 160 0
143 166 0
159 181 0
157 180 0
160 184 0
168 191 0
172 195 0
171 196 0
174 197 0
174 197 0
173 196 0
173 197 0
174 198 0
173 196 0
125 149 72
56 88 115
56 89 100
56 89 100
55 86 92
58 92 114
60 94 124
56 89 103
56 89 107
59 93 118
55 87 97
57 89 110
58 91 108
59 93 113
57 89 97
58 92 125
58 92 111
57 90 108
57 90 113
57 90 107
58 92 120
56 89 118
59 93 114
58 91 125
58 92 115
58 92 115
57 90 111
57 91 122
58 92 125
58 92 117
57 91 111
57 90 108
58 92 114
59 93 130
57 91 111
57 91 117
59 93 125
58 91 124
57 90 113
57 90 111
58 92 125
57 90 115
60 94 126
58 91 118
59 93 114
58 92 125
58 92 124
58 92 122
58 91 115
56 88 111
57 90 107
58 91 117
59 92 122
59 93 118
56 90 113
57 91 118
56 88 107
58 92 113
58 91 121
60 93 130
55 87 97
58 91 124
57 90 113
58 91 120
57 90 120
58 92 121
58 90 118
56 88 110
57 90 108
56 88 114
54 85 110
58 91 124
56 87 114
55 85 106
56 88 116
57 89 118
55 87 103
55 86 111
54 84 110
54 85 111
56 86 110
54 85 102
53 83 104
54 85 105
55 86 107
53 83 99
56 87 97
55 86 107
53 83 99
52 81 96
49 76 97
52 80 97
53 81 96
48 74 92
47 72 82
129 149 42
173 196 0
170 193 0
172 196 0
173 196 0
176 198 0
174 197 0
172 195 0
145 160 22
95 92 36
92 89 27
80 79 26
79 78 18
73 72 9
75 75 20
73 72 21
78 78 18
74 75 16
68 69 13
69 70 20
76 77 22
88 88 21
81 82 23
88 89 25
83 83 34
91 91 23
95 95 35
88 89 30
94 94 22
105 105 37
96 96 31
105 103 36
112 110 46
107 105 44
106 105 36
123 119 41
110 111 35
119 116 38
118 117 38
118 115 43
123 120 45
127 123 39
127 123 45
125 121 53
132 128 48
134 131 49
137 133 55
120 119 43
126 124 50
134 130 48
130 126 47
143 138 54
149 144 54
142 137 51
139 134 53
139 134 54
143 138 51
152 146 66
147 142 57
144 140 50
149 142 56
154 148 66
136 133 48
148 141 62
139 134 51
153 147 62
148 143 58
151 146 57
146 141 51
156 151 59
146 140 54
156 149 60
145 141 56
154 148 67
157 150 58
152 146 56
157 150 69
151 146 58
153 148 62
158 152 60
153 147 65
153 148 58
157 151 62
156 150 62
152 147 58
153 147 61
155 149 60
157 151 62
158 152 62
153 147 53
151 145 57
162 154 71
159 152 66
156 149 62
152 147 61
162 156 66
156 150 60
156 149 62
156 150 65
152 147 49
155 149 65
154 149 53
162 155 66
161 154 63
157 151 62
163 156 66
159 153 65
162 155 64
157 151 62
164 157 71
166 159 75
159 152 65
154 149 54
157 149 67
161 155 70
150 145 56
155 148 58
149 145 60
157 151 71
160 154 68
153 147 69
154 149 60
157 151 68
151 143 64
148 142 56
159 152 71
150 144 64
158 152 70
155 149 66
157 151 71
155 149 69
153 147 67
157 150 66
158 151 71
157 151 64
157 151 68
148 143 64
152 145 63
149 143 67
152 146 64
155 149 65
149 144 62
147 140 62
158 152 67
154 147 72
149 143 61
149 143 67
141 135 57
143 138 60
149 143 61
150 146 64
147 141 58
157 151 67
173 196 0
174 197 0
174 197 0
172 195 0
172 196 0
173 197 0
172 195 0
172 195 0
175 198 0
174 198 44
174 198 25
175 198 51
177 200 62
175 198 36
178 200 76
174 197 25
176 199 36
175 198 25
174 198 0
173 196 36
178 200 67
177 199 67
181 203 88
177 200 57
177 200 62
176 199 57
176 199 44
175 199 44
174 198 36
175 199 51
175 199 51
176 199 72
176 199 44
175 199 44
173 197 0
176 200 62
176 199 62
174 197 25
176 200 62
175 198 25
174 198 44
176 199 51
174 198 25
174 198 36
174 198 44
174 198 25
177 200 80
173 197 44
173 196 36
174 197 51
174 198 36
175 198 36
174 197 44
173 196 36
173 197 36
173 197 44
173 197 36
173 197 44
175 198 0
173 196 25
174 197 36
174 198 36
173 197 25
172 196 44
174 198 36
172 197 44
173 197 25
172 196 36
172 196 51
173 197 25
173 197 36
172 196 25
175 198 36
174 198 0
173 196 36
173 197 36
172 196 57
171 196 25
171 195 25
171 196 0
174 197 25
172 195 36
172 196 25
171 194 25
173 197 44
174 197 25
174 196 0
174 197 44
171 195 36
171 195 36
170 193 36
173 196 51
173 197 25
173 197 51
171 195 44
173 196 25
172 195 25
174 197 25
172 195 44
171 195 57
168 192 25
170 195 44
165 188 51
167 191 44
171 195 25
169 192 0
170 193 25
170 193 25
170 193 0
168 191 25
173 195 25
168 191 36
167 190 62
165 187 25
164 186 0
169 192 57
162 185 25
164 187 36
166 188 57
166 188 51
157 179 57
163 185 62
166 188 62
163 185 62
152 174 25
148 170 25
147 167 51
146 168 36
127 145 25
74 93 47
63 80 25
61 80 44
64 85 18
94 112 25
96 113 18
109 128 0
111 129 0
139 158 0
147 168 0
153 176 0
152 176 0
161 183 0
168 191 0
164 187 0
174 197 0
173 197 0
173 195 0
172 196 0
170 194 0
171 195 0
172 196 0
172 196 0
165 188 38
55 87 76
56 88 100
56 88 100
57 90 113
58 92 115
54 86 82
54 86 99
57 90 97
55 88 100
56 89 110
57 90 115
57 90 117
57 90 107
57 90 124
58 92 120
56 89 100
57 90 107
58 92 121
57 90 120
56 89 111
57 90 122
58 92 126
58 91 111
57 89 117
56 88 108
56 89 111
57 90 114
56 89 108
57 90 111
58 92 120
59 92 121
57 90 115
59 92 110
58 92 117
57 90 120
55 88 100
57 91 113
58 92 113
57 90 111
59 92 124
58 91 122
57 91 102
57 89 121
56 89 113
56 89 103
59 93 117
59 94 129
58 91 121
56 89 108
58 91 120
58 92 124
58 91 121
57 90 113
58 91 115
56 89 113
56 89 124
58 91 122
58 91 124
57 90 121
56 88 108
58 91 123
59 92 117
58 91 120
56 88 107
56 88 117
57 89 114
57 89 115
57 89 110
57 90 118
55 88 99
56 87 109
56 88 109
56 88 113
56 88 101
55 86 103
56 87 104
57 90 109
57 90 119
58 90 122
55 87 108
55 86 106
53 83 101
56 88 113
56 87 112
56 86 113
53 82 103
55 85 99
54 85 103
50 77 91
51 79 87
47 72 81
48 73 84
47 72 76
51 74 77
168 191 18
170 193 0
171 194 0
171 194 0
170 193 0
172 195 0
174 197 0
174 196 0
170 192 16
106 110 24
80 78 30
75 74 20
82 80 25
66 66 14
73 73 13
72 74 14
66 66 4
71 71 18
70 69 13
80 82 16
77 77 22
87 88 26
80 80 24
80 81 20
85 86 32
95 96 31
82 83 27
101 99 32
100 98 34
106 105 38
102 100 24
104 103 42
97 97 32
106 106 39
101 100 33
112 110 42
116 112 39
113 112 42
112 111 39
115 113 45
120 119 47
119 117 37
124 121 50
122 119 34
127 123 46
124 121 41
128 123 44
134 131 43
123 119 51
133 129 51
134 130 51
130 127 40
139 134 49
140 136 51
138 134 46
146 141 56
141 138 53
138 133 53
143 138 53
139 135 45
144 140 52
138 133 51
144 139 47
148 143 63
146 140 59
143 139 47
145 140 60
150 144 54
144 140 47
148 143 52
153 147 56
148 142 56
150 145 58
144 140 45
152 146 62
155 150 62
150 145 54
159 152 64
156 150 64
152 146 57
155 149 60
154 148 64
155 148 58
152 147 53
153 147 56
157 150 63
154 148 59
155 150 65
154 147 60
153 146 57
156 150 61
160 154 66
153 147 60
156 149 60
153 148 53
154 147 57
149 145 48
156 150 57
145 140 47
152 146 60
156 151 58
150 144 57
153 147 57
156 150 61
154 148 60
159 153 64
158 152 54
151 145 60
151 145 54
150 145 52
158 151 66
155 148 62
155 148 59
155 148 62
155 148 63
155 150 58
156 150 70
159 153 65
159 152 71
153 145 59
162 155 72
160 153 67
146 140 56
154 148 63
148 142 62
155 149 58
154 147 59
158 151 66
161 154 74
156 150 63
153 148 62
150 145 63
149 143 65
158 150 72
150 144 67
158 150 68
154 148 66
152 144 60
156 149 63
153 147 62
148 141 66
152 146 62
147 141 59
151 145 65
149 142 66
154 148 62
147 140 60
143 136 64
151 145 62
160 152 74
142 136 56
150 144 66
145 139 65
174 197 0
174 197 0
174 197 0
172 196 0
173 196 0
173 197 0
173 197 0
173 196 0
172 196 0
173 196 0
173 197 36
173 196 25
174 198 44
175 198 0
178 200 57
173 197 44
173 197 51
178 201 67
175 197 36
173 197 25
174 197 36
178 201 80
179 201 88
175 198 51
178 200 67
177 200 76
175 198 57
176 200 76
176 199 25
177 200 72
175 198 57
177 200 62
174 197 57
173 196 44
175 198 44
174 198 25
175 198 44
174 197 36
177 200 57
175 199 51
176 199 51
173 197 0
173 197 25
174 197 36
173 197 25
176 199 44
175 198 51
173 197 0
171 195 0
175 199 36
172 196 25
175 198 36
174 197 36
172 195 36
175 198 51
173 196 25
173 197 25
174 198 25
174 198 44
174 197 51
172 196 36
174 197 36
169 193 0
174 198 44
175 198 44
172 196 25
171 196 44
173 196 36
175 198 44
172 195 51
175 197 25
174 197 25
173 196 25
175 197 0
173 197 0
171 195 0
173 196 0
170 193 0
174 197 25
173 197 44
172 196 44
176 199 51
172 195 44
170 193 44
174 198 57
175 198 36
173 195 0
170 193 36
169 193 25
171 195 25
172 195 25
174 197 0
175 198 25
168 192 51
174 196 25
170 193 25
171 194 36
173 196 44
172 196 36
172 196 51
174 197 25
171 194 25
171 194 36
168 191 44
168 192 36
171 194 25
168 191 25
170 192 57
166 189 36
170 193 25
164 188 25
165 188 67
172 194 44
166 188 25
167 190 51
162 185 36
160 183 44
154 175 51
162 185 44
165 187 57
159 181 67
158 179 57
158 180 44
163 185 0
150 171 25
149 171 25
152 173 36
137 156 36
87 102 0
82 97 0
91 105 0
90 105 0
106 122 0
98 116 0
106 124 0
117 136 0
138 158 0
132 152 0
148 171 0
145 167 0
152 175 0
161 184 0
168 192 0
171 195 0
174 198 0
172 196 0
170 194 0
172 195 0
173 197 0
173 196 0
173 196 0
173 196 0
172 196 0
105 130 73
52 82 88
54 86 84
57 90 103
57 90 118
56 89 105
57 90 102
56 88 103
57 90 108
55 88 94
55 88 102
57 90 120
57 91 118
57 91 111
56 89 113
56 89 113
55 88 108
54 86 103
58 91 118
55 87 107
57 90 117
57 91 118
57 89 114
59 93 121
57 90 110
58 91 111
57 90 118
57 90 110
56 88 114
58 91 115
59 93 120
59 93 122
58 92 124
59 93 121
57 90 118
59 93 125
58 92 113
57 90 111
58 91 117
57 90 114
57 91 111
57 90 108
57 90 113
58 92 124
57 90 111
59 92 133
56 88 103
57 90 113
56 89 110
58 91 111
57 89 114
56 89 105
57 91 113
57 90 108
56 89 114
57 90 105
57 90 108
56 88 108
55 88 102
57 91 122
57 90 118
56 88 108
58 91 120
58 91 117
58 91 118
57 90 121
55 87 104
57 90 108
55 87 104
54 86 107
55 87 111
57 89 121
54 85 103
57 89 118
58 91 121
54 86 103
54 85 101
56 88 108
57 88 117
56 87 113
57 88 112
53 83 100
55 86 111
57 89 114
56 87 112
54 85 98
53 82 98
54 83 104
52 80 98
49 76 88
51 80 87
48 74 81
47 71 72
109 127 51
167 190 0
169 192 0
170 194 0
170 193 0
172 194 0
171 194 0
173 196 0
171 195 0
173 197 0
150 164 23
89 86 32
97 94 27
82 80 14
70 69 11
76 76 17
71 70 15
83 79 16
67 68 16
77 77 17
77 77 18
80 79 17
85 85 16
85 84 27
84 84 20
80 81 29
96 95 18
81 82 22
86 87 25
94 93 25
105 101 38
93 91 29
102 101 27
116 112 31
115 113 34
104 104 36
120 118 39
123 121 43
114 112 36
112 110 36
115 112 38
118 116 48
124 121 42
129 124 47
120 118 39
120 117 41
123 121 43
138 133 51
133 130 45
136 130 54
131 127 46
138 132 43
139 134 51
145 140 59
142 138 47
136 133 51
136 133 50
137 134 47
134 129 45
153 147 64
145 141 48
149 144 62
141 137 49
147 141 57
143 138 56
146 139 51
147 142 54
149 143 56
146 142 46
147 142 54
143 138 41
146 141 51
149 143 54
152 146 53
160 153 64
156 150 62
149 144 56
148 143 53
152 147 51
155 149 59
153 148 61
156 150 62
155 147 52
157 151 67
154 148 63
153 148 53
161 154 65
151 147 58
154 149 61
154 149 56
153 147 60
155 150 59
147 142 52
155 149 53
150 143 54
165 157 65
155 149 62
152 146 60
157 150 63
157 150 60
157 151 62
159 153 62
158 151 65
155 148 61
166 159 67
155 149 63
154 148 61
159 153 65
166 159 75
157 150 64
156 150 60
155 150 59
153 147 61
156 149 69
155 149 61
158 151 64
156 149 61
151 145 59
155 149 65
152 147 59
152 146 56
156 149 61
153 148 64
157 150 65
160 154 69
147 142 60
151 146 62
150 143 59
150 144 61
148 142 60
153 148 61
151 144 60
157 150 72
148 142 62
151 146 53
145 140 51
150 145 62
154 148 68
151 146 54
153 147 65
151 146 61
151 145 65
147 141 58
147 140 54
149 141 64
154 146 63
146 140 56
150 144 69
153 147 71
152 144 63
155 149 68
149 142 61
148 143 59
142 136 62
174 197 0
171 195 0
172 196 0
172 196 0
173 196 0
172 196 0
173 196 0
172 196 0
174 198 0
172 196 0
175 198 25
175 198 36
176 199 44
174 198 44
177 200 62
174 198 36
175 199 62
174 198 51
174 198 44
175 198 25
173 197 0
174 198 25
177 199 57
175 198 67
175 199 67
174 197 57
178 200 67
177 200 57
177 199 72
176 198 57
176 199 44
176 199 76
177 200 67
174 197 51
176 199 51
175 198 44
176 199 44
170 194 36
174 197 44
174 198 36
175 198 36
171 196 36
176 199 51
173 196 44
171 194 25
175 198 51
175 198 44
175 199 36
175 198 25
173 196 36
174 197 25
173 197 0
173 197 57
172 196 36
175 198 25
173 197 44
176 198 25
174 197 36
175 198 36
175 198 25
173 197 25
174 197 36
171 194 36
174 198 51
173 197 36
173 197 44
174 197 44
172 196 0
172 195 0
174 197 0
172 195 62
173 197 36
168 192 36
173 197 25
174 197 36
172 195 25
173 197 36
172 196 25
172 195 57
173 197 36
172 196 36
173 197 44
173 195 25
172 195 25
171 195 0
172 196 0
171 194 25
173 196 36
170 193 25
174 197 25
174 197 51
168 192 0
173 197 51
173 195 0
172 195 36
171 193 0
170 193 0
172 195 44
171 194 0
171 194 36
173 195 25
170 193 36
168 191 44
169 191 25
171 194 44
167 190 0
168 191 36
170 192 25
168 190 0
167 190 44
171 193 67
169 191 44
159 181 0
164 186 51
159 181 51
160 182 25
161 183 51
164 186 67
161 183 57
161 183 51
159 181 62
153 174 57
157 180 25
146 167 44
142 163 44
143 164 0
141 160 36
101 120 0
93 109 0
92 107 0
105 121 0
92 108 0
98 116 0
119 138 0
118 137 0
117 137 0
134 155 0
140 161 0
148 170 0
160 181 0
155 178 0
161 184 0
170 193 0
173 196 0
171 195 0
173 197 0
172 196 0
169 192 0
175 198 0
172 195 0
171 195 0
172 196 0
171 195 0
159 182 47
58 90 94
56 88 100
55 87 94
57 91 108
56 89 100
56 89 97
58 91 105
57 90 111
55 87 102
53 85 92
56 89 99
55 87 102
55 87 110
56 89 107
58 91 117
56 88 111
56 88 107
57 90 118
56 88 108
56 88 113
58 92 107
56 89 107
57 91 117
58 91 115
56 88 108
57 90 115
58 91 114
57 91 114
58 92 120
58 91 111
56 87 111
57 91 114
58 92 121
56 88 102
58 92 121
57 90 107
60 93 129
59 93 124
58 92 120
58 92 107
57 90 105
58 91 110
55 88 95
57 90 122
56 89 113
57 90 115
56 89 113
55 87 94
58 91 114
57 90 111
59 93 130
57 90 114
56 89 113
57 90 110
57 90 110
56 90 105
57 91 117
58 91 113
57 91 115
56 90 111
55 87 98
58 90 113
57 89 115
56 89 118
54 85 103
55 86 111
58 91 121
56 87 116
55 87 103
58 91 118
55 87 107
56 88 108
56 88 115
56 89 110
54 85 101
54 85 102
54 85 92
53 83 87
53 83 95
54 84 106
54 85 102
53 83 102
54 85 112
54 84 100
52 82 100
50 79 93
50 79 99
50 77 86
53 82 97
47 72 78
50 77 101
48 72 71
153 174 18
169 192 0
169 192 0
171 194 0
171 193 0
170 195 0
172 195 0
169 192 0
170 194 0
174 196 0
172 195 0
106 113 28
99 96 38
71 68 19
75 74 23
88 88 12
87 84 18
65 68 14
68 69 14
77 76 13
73 73 13
73 72 11
85 85 16
75 76 18
88 89 18
88 86 9
93 92 26
86 86 17
84 85 21
85 85 24
106 104 28
97 96 24
88 90 26
96 96 33
119 116 38
102 100 31
107 105 33
114 113 37
110 108 27
113 110 34
117 114 29
115 112 39
119 117 34
128 124 40
120 117 36
125 122 48
124 120 37
138 134 54
131 126 44
128 124 38
132 129 54
131 129 42
134 131 40
131 128 45
133 131 45
136 132 47
143 138 48
141 137 49
139 135 51
139 135 51
142 138 42
144 138 49
143 138 42
138 134 50
144 139 50
147 144 47
144 137 56
146 140 56
154 149 52
141 137 41
145 140 49
147 141 58
155 149 63
153 147 56
151 146 55
151 145 53
154 148 57
158 151 57
150 144 58
147 142 52
153 147 49
157 151 59
159 152 60
146 142 48
153 148 54
156 149 61
156 149 57
152 145 54
160 154 63
154 148 59
159 153 62
153 146 53
149 142 49
159 152 59
158 151 58
156 151 60
156 150 56
151 145 54
143 138 45
159 153 60
150 144 56
154 148 58
157 151 62
155 149 61
149 143 64
155 149 56
159 152 62
157 150 66
155 148 64
156 149 65
153 147 57
148 142 59
152 147 57
159 153 69
159 153 61
156 150 62
153 147 61
153 147 60
148 143 54
159 153 71
158 152 64
155 149 63
159 152 66
154 148 59
154 148 62
152 145 62
156 149 60
151 145 56
149 144 57
156 150 64
157 151 67
151 145 59
154 146 67
152 145 61
152 145 63
152 147 57
154 147 70
156 149 65
149 143 61
150 142 61
150 143 62
142 137 56
150 143 63
145 140 57
149 143 59
151 144 60
147 140 59
150 144 65
154 147 70
149 143 61
146 141 62
144 139 54
152 146 65
141 136 59
175 198 0
173 197 0
173 195 0
171 194 0
172 195 0
175 198 0
172 195 0
173 197 0
173 196 0
172 197 0
171 196 0
171 196 0
174 198 44
173 197 36
175 198 51
172 196 25
174 197 36
173 197 51
177 200 44
175 199 51
175 198 36
172 196 0
172 196 25
174 198 51
181 203 92
177 200 62
177 199 62
177 200 57
176 199 67
176 200 67
176 199 51
176 199 57
176 199 51
174 198 51
175 198 44
175 198 51
175 198 44
177 200 51
175 198 44
175 198 44
174 197 44
175 198 51
176 199 51
174 198 57
175 198 62
174 198 44
174 197 44
174 197 51
174 197 36
173 196 36
174 197 25
172 195 0
171 195 36
173 196 25
174 198 0
174 198 0
174 197 0
174 197 0
172 196 25
176 199 51
174 197 36
170 193 25
173 196 25
173 196 44
174 197 25
172 196 51
172 195 25
173 195 44
173 196 57
173 196 36
175 197 44
171 194 25
173 196 0
175 198 44
173 196 25
174 198 57
176 198 36
175 198 36
174 196 0
171 195 44
176 198 25
171 195 25
170 192 36
174 197 44
173 197 36
172 195 25
170 193 44
169 192 25
172 194 57
173 196 44
172 194 36
171 194 25
167 190 44
171 193 0
175 197 25
169 191 36
168 191 57
172 194 36
170 193 25
168 190 0
170 193 25
164 185 25
168 190 25
173 195 44
169 192 51
172 194 36
169 191 25
168 191 44
168 189 44
163 185 44
167 188 57
168 190 51
164 187 51
161 183 36
166 187 36
167 189 62
165 187 67
168 190 57
160 180 36
155 176 57
164 185 57
151 172 36
155 176 25
140 162 44
146 166 44
149 171 36
121 140 36
119 137 0
104 120 0
111 128 0
112 131 0
113 131 0
120 137 0
120 137 0
113 132 0
122 141 0
137 158 0
135 157 0
153 175 0
155 177 0
160 183 0
163 187 0
170 194 0
169 193 0
170 194 0
174 197 0
174 197 0
170 194 0
169 193 0
168 193 0
173 196 0
171 195 0
173 196 0
172 195 0
111 135 67
56 89 108
53 85 94
55 87 94
56 89 107
56 88 102
57 90 113
56 89 105
57 90 108
57 90 108
56 89 111
57 90 110
56 89 113
57 91 86
56 89 99
58 91 110
56 89 107
57 90 117
57 90 113
57 90 108
58 92 117
57 91 105
57 90 114
57 91 111
56 88 110
57 90 103
58 91 113
57 90 110
57 91 117
57 91 121
57 90 113
58 92 114
58 92 111
57 90 111
57 89 108
58 91 121
57 89 115
57 90 108
57 90 111
58 91 117
58 91 111
57 90 111
56 89 100
55 88 111
57 90 113
57 90 105
59 94 122
57 90 121
56 89 113
57 91 121
58 91 114
57 91 115
56 89 114
55 88 110
57 90 114
58 90 121
56 90 107
56 89 114
57 90 114
57 89 120
56 89 114
57 90 125
57 89 108
57 89 112
58 91 121
58 91 120
55 86 109
53 84 99
56 89 111
55 85 110
54 85 105
54 85 105
58 90 119
54 85 100
55 86 103
55 85 102
56 88 103
54 85 100
56 87 109
53 83 99
54 84 98
54 85 109
54 85 108
53 83 105
54 83 97
53 83 95
56 87 111
49 76 84
51 80 87
49 76 80
47 73 77
119 137 53
169 191 0
170 193 0
171 194 0
171 194 0
171 195 0
169 192 0
170 192 0
171 194 0
171 194 0
172 193 0
173 196 0
159 178 19
108 106 38
80 78 23
85 80 28
93 89 24
91 89 18
73 72 2
77 76 11
78 77 14
73 74 8
89 89 22
89 87 12
82 82 16
78 78 21
73 73 23
91 90 22
85 85 26
87 85 29
95 94 25
90 88 29
88 87 27
102 100 29
115 112 32
100 98 39
99 99 24
118 115 33
107 106 37
120 118 43
110 109 21
117 115 40
123 119 32
115 112 40
124 122 37
111 109 34
122 119 38
125 122 33
134 131 40
134 130 47
134 129 38
140 136 43
129 127 38
125 123 38
131 126 45
130 126 37
131 128 46
141 137 43
144 139 49
145 139 53
143 137 45
132 128 44
131 128 36
138 134 45
138 134 39
143 139 47
147 141 50
140 136 45
157 152 52
144 139 46
147 142 54
144 139 49
150 143 57
153 147 58
150 144 57
154 149 49
153 147 63
149 142 54
144 140 54
153 146 56
154 149 57
146 141 45
151 146 48
150 145 52
146 140 52
147 142 49
155 149 53
157 151 58
151 146 51
146 142 44
150 144 53
153 147 60
158 152 63
148 142 51
155 149 47
147 142 51
151 145 56
162 155 66
156 150 60
157 152 60
159 154 63
150 144 58
159 151 66
155 149 57
155 149 62
151 144 57
157 149 67
156 150 61
150 145 61
153 148 53
151 146 48
153 148 58
152 146 57
154 148 62
153 147 66
159 153 63
157 150 60
148 142 59
153 147 56
152 146 60
153 147 61
146 140 64
147 141 60
161 154 64
143 138 52
152 146 63
154 148 64
149 143 66
147 142 57
153 146 62
149 142 63
153 147 62
149 142 54
162 156 74
150 144 63
156 149 68
150 143 62
149 144 52
151 145 58
157 150 70
152 146 62
146 140 56
150 142 59
154 148 62
152 146 65
163 156 68
145 139 67
144 140 58
144 139 54
149 143 62
137 132 52
145 139 54
151 144 59
144 139 53
151 145 59
173 196 0
171 195 0
172 196 0
173 196 0
174 198 0
175 198 0
170 194 0
175 198 0
173 196 0
172 196 0
174 198 0
174 197 0
174 197 0
175 198 25
174 197 44
175 198 25
175 198 36
175 198 0
178 200 72
177 200 62
177 199 36
177 199 44
174 198 25
174 198 25
176 199 44
178 201 72
181 203 88
176 199 51
177 199 72
176 199 51
175 198 36
176 199 25
177 200 57
175 198 51
177 200 51
175 198 36
175 198 57
174 197 25
178 200 62
174 197 44
176 199 62
176 199 62
174 197 51
174 197 0
175 198 51
176 199 62
174 198 36
174 198 44
173 197 36
171 195 25
175 198 0
175 198 51
176 198 0
173 197 44
174 197 0
174 197 25
173 196 25
173 197 51
174 197 25
175 198 25
173 196 25
172 195 0
175 198 36
174 197 0
174 197 36
173 196 25
174 198 57
175 198 25
171 195 44
173 196 36
174 197 44
172 195 25
174 196 25
174 196 51
169 193 25
175 198 36
171 194 25
174 196 36
172 195 25
175 197 25
175 198 57
173 196 36
176 198 25
176 198 0
174 197 51
171 194 25
175 198 25
172 194 44
173 195 36
172 194 25
171 193 25
171 194 25
173 194 0
169 191 25
173 195 44
173 195 51
174 196 36
170 192 36
174 196 44
168 190 25
170 192 25
171 193 57
172 195 36
168 190 0
168 190 36
166 188 36
169 191 44
167 188 44
167 189 57
166 187 0
167 187 25
164 185 44
164 185 25
162 183 36
169 190 57
165 186 51
163 184 72
161 183 62
152 173 62
156 177 44
151 172 0
155 177 44
150 172 44
145 166 36
151 171 25
125 143 0
106 124 0
113 131 0
127 146 0
110 127 0
108 127 0
112 130 0
127 145 0
117 137 0
138 157 0
126 147 0
140 162 0
143 164 0
151 173 0
154 177 0
152 176 0
164 188 0
172 195 0
169 193 0
174 197 0
173 196 0
168 192 0
172 195 0
169 193 0
172 194 0
170 194 0
168 191 0
172 195 0
172 195 0
155 179 40
58 90 100
54 86 99
53 85 99
56 90 99
57 90 108
53 85 90
57 90 108
58 91 113
57 90 111
57 90 117
55 88 99
56 89 108
56 89 105
55 88 108
55 87 94
56 89 108
57 90 102
56 89 105
57 90 115
59 93 122
55 88 113
57 91 108
56 90 103
57 91 115
58 91 117
58 91 113
56 89 105
55 87 99
57 90 110
57 89 113
58 92 117
58 91 120
56 89 103
59 93 122
55 87 99
55 87 97
57 90 107
58 92 114
56 89 113
56 89 114
58 91 117
56 89 111
55 88 107
55 87 103
57 91 113
56 89 111
57 90 114
58 91 117
56 89 103
57 91 115
56 89 99
58 91 118
57 89 122
56 88 111
57 90 115
57 90 110
57 89 110
57 90 111
56 89 104
55 87 110
54 85 100
57 90 114
56 88 112
56 88 105
58 90 113
55 86 106
56 88 107
56 87 107
56 89 113
55 86 108
54 85 112
56 88 118
55 87 117
54 84 101
54 84 103
55 86 103
54 85 103
55 86 114
53 83 94
55 86 107
53 84 102
55 86 108
55 86 113
52 81 100
50 78 76
52 81 98
51 79 89
49 75 87
48 74 81
55 78 56
160 181 27
172 194 0
169 192 0
169 192 0
169 192 0
167 189 0
170 192 0
165 187 0
172 194 0
168 190 0
169 193 0
169 193 0
167 190 0
133 145 25
99 95 34
74 73 25
71 71 12
87 84 24
79 79 17
78 79 14
76 75 19
72 71 16
83 82 8
73 73 14
76 74 16
88 88 25
78 79 16
78 77 25
81 82 17
81 82 17
96 94 22
87 87 27
96 95 27
114 110 36
108 103 30
97 96 29
105 103 30
112 108 34
99 99 34
106 104 33
108 107 29
113 111 39
113 111 25
113 110 30
123 119 34
122 119 45
123 119 32
115 114 32
130 125 42
126 121 39
121 119 42
132 127 38
131 126 48
129 126 40
131 126 39
139 134 53
144 139 49
140 137 43
131 126 38
144 138 51
135 131 42
138 134 52
140 137 51
139 135 46
147 142 51
141 136 44
147 141 54
145 140 44
139 134 43
143 137 49
143 137 47
147 140 60
145 139 54
151 146 50
145 139 46
154 148 60
146 140 49
150 144 53
155 150 57
148 143 52
152 147 54
148 143 50
148 144 47
154 148 49
147 141 48
145 140 45
156 150 60
146 140 52
148 144 47
148 143 44
149 143 52
156 149 49
150 145 49
155 149 54
154 148 61
149 142 60
159 153 61
151 145 62
147 142 53
156 150 61
153 147 53
151 145 51
148 142 57
153 146 58
153 145 58
148 143 54
154 148 65
146 140 52
155 148 58
152 146 59
153 147 56
155 148 56
150 144 59
153 147 54
156 149 56
156 149 62
149 143 44
156 150 66
148 142 52
152 146 56
154 148 52
149 144 58
147 142 57
154 148 59
152 146 57
152 147 56
147 141 56
151 146 54
139 135 44
158 151 64
149 143 59
153 147 54
152 146 61
147 141 57
153 146 64
148 142 64
147 141 61
147 140 59
157 150 71
151 145 54
153 146 64
141 135 57
151 145 64
148 141 62
152 144 62
141 136 54
145 139 59
144 138 54
151 144 68
148 141 65
149 143 60
147 141 66
148 142 62
139 134 53
147 141 59
171 195 0
173 197 0
174 197 0
174 197 0
171 195 0
173 197 0
175 198 0
174 197 0
169 193 0
173 197 0
171 195 0
171 195 0
172 196 0
171 195 25
176 199 57
173 196 44
175 198 25
174 197 36
175 198 51
173 196 36
171 194 25
174 197 51
172 196 25
173 196 0
172 196 25
173 197 36
176 199 51
180 202 80
171 195 57
173 197 36
173 197 57
175 198 57
177 199 44
177 199 62
176 199 44
172 196 44
179 201 72
174 198 44
175 198 44
176 199 51
173 196 25
174 197 25
172 195 25
173 197 51
175 198 0
172 195 0
176 199 36
175 198 51
174 197 44
173 196 25
175 198 0
175 197 25
174 197 36
176 199 67
175 198 0
171 194 36
174 197 36
174 197 0
174 197 36
173 196 51
175 198 57
175 198 0
177 199 36
175 198 25
170 194 36
173 196 44
175 198 36
175 197 25
174 197 51
175 197 36
173 196 25
176 198 36
172 194 0
171 194 36
174 196 25
172 195 25
173 196 44
171 194 0
175 197 25
173 195 25
174 196 44
177 198 44
170 193 25
172 194 25
173 195 0
171 193 51
174 196 0
175 197 25
173 195 36
173 196 36
168 191 44
171 192 25
175 197 44
176 197 36
171 193 36
170 191 25
168 190 0
169 191 44
171 193 57
171 193 36
176 197 51
169 190 25
173 194 36
169 190 44
172 193 44
168 189 36
166 188 57
169 190 51
167 187 25
168 189 36
165 186 25
166 187 44
160 182 44
159 181 62
159 180 51
161 182 67
162 183 67
157 176 57
157 178 36
147 170 0
145 167 36
146 167 25
144 165 44
144 165 25
136 155 25
117 134 0
129 149 0
120 137 0
117 135 0
128 146 0
120 139 0
122 142 0
117 136 0
130 149 0
132 152 0
141 162 0
144 165 0
145 167 0
145 168 0
161 183 0
162 186 0
172 197 0
170 194 0
172 196 0
174 196 0
169 192 0
170 194 0
171 195 0
169 193 0
170 194 0
170 194 0
170 193 0
169 192 0
169 193 0
170 194 0
128 151 67
54 86 90
55 87 95
53 84 90
58 91 117
54 86 90
57 90 110
57 91 113
55 88 100
56 88 97
56 89 108
57 90 115
56 89 97
56 88 100
54 86 92
56 89 108
57 90 103
56 89 114
57 89 115
57 91 118
56 88 95
56 89 107
56 88 100
58 91 117
55 87 100
57 91 118
57 90 110
58 91 120
57 90 108
57 91 110
55 87 103
56 89 108
57 90 105
55 88 95
56 89 102
58 91 121
57 91 107
56 89 114
57 90 113
56 89 115
55 87 102
54 86 100
58 92 113
57 91 115
58 91 110
58 91 121
56 88 113
57 90 111
57 90 113
58 91 114
58 91 117
57 91 117
57 90 118
58 90 111
58 90 117
56 89 108
57 89 118
57 89 121
58 91 120
56 89 103
53 84 99
55 87 106
59 92 121
56 88 102
56 89 108
53 84 103
57 90 114
54 85 111
55 87 102
55 87 102
58 90 120
54 85 97
55 86 110
55 87 105
54 85 98
53 83 96
56 88 96
54 85 99
53 83 99
53 83 101
52 81 93
53 82 93
53 82 96
50 77 86
47 74 81
54 84 106
48 73 83
46 72 71
46 71 71
124 145 33
167 190 0
168 190 0
170 193 0
165 188 0
168 189 0
168 191 0
170 192 0
166 187 0
168 190 0
173 196 0
172 195 0
166 189 0
169 190 0
164 184 11
99 102 32
98 94 25
91 88 26
74 71 24
89 87 22
83 80 20
74 74 14
96 93 8
69 70 16
71 70 8
73 73 8
84 83 16
89 89 20
86 86 14
104 101 21
86 84 14
92 91 16
87 87 24
104 101 31
100 99 30
101 101 19
98 98 35
105 103 25
113 111 34
105 101 25
120 118 35
112 110 23
112 108 43
110 108 22
120 117 29
123 120 44
117 115 45
117 115 36
132 126 45
131 127 38
132 128 44
129 124 47
124 121 37
129 125 44
133 129 45
125 121 30
133 128 47
130 124 44
135 131 48
129 124 44
130 125 34
141 137 45
131 128 45
133 129 41
146 140 49
139 135 37
149 144 42
142 138 44
142 137 47
146 140 57
149 144 53
147 143 50
143 137 47
148 141 57
144 138 51
144 139 45
141 136 48
150 143 52
144 139 44
152 145 46
143 138 41
147 141 53
152 146 52
146 140 41
150 144 48
152 144 54
151 145 54
147 141 57
156 149 53
152 147 48
159 152 68
148 142 52
149 144 47
146 140 44
149 144 51
149 143 49
154 148 59
158 151 62
149 144 47
149 144 54
152 145 58
149 144 47
158 150 58
155 149 61
157 151 66
152 147 48
150 145 61
150 144 49
150 145 61
154 147 63
149 143 52
159 152 59
156 150 58
150 145 51
143 138 42
157 150 59
148 142 49
155 148 59
157 150 66
150 145 48
156 151 61
152 145 60
146 142 49
153 146 63
151 145 57
157 150 59
147 143 48
149 142 57
151 145 53
150 145 52
150 143 62
159 151 63
154 148 62
149 144 59
148 141 57
156 149 63
145 140 51
155 148 71
147 140 57
149 144 62
151 145 61
149 144 58
153 147 61
154 147 66
140 135 47
156 149 68
151 143 61
146 141 58
143 137 56
144 138 60
149 144 60
145 139 61
148 142 60
146 140 60
146 140 52
146 140 63
173 197 0
174 197 0
174 198 0
171 194 0
171 194 0
170 195 0
173 197 0
170 194 0
172 195 0
173 197 0
172 195 0
169 193 0
174 198 0
174 197 0
174 197 25
173 196 36
175 198 51
175 198 44
174 197 25
175 198 44
176 199 67
177 200 67
173 196 36
174 197 0
173 197 25
176 199 25
176 199 36
174 197 51
178 200 62
180 202 80
178 201 72
178 200 67
173 196 51
174 197 25
173 196 44
176 199 51
177 199 57
176 198 36
174 197 0
174 196 44
176 199 36
174 197 25
175 198 36
174 198 44
175 198 72
172 195 25
174 198 62
176 197 25
174 197 0
175 197 25
177 199 67
175 198 44
172 195 25
175 197 44
174 197 0
176 198 25
171 193 0
174 197 25
171 193 0
171 194 25
172 196 36
177 199 51
172 194 0
175 198 51
173 196 36
175 198 25
173 197 44
174 197 44
175 197 25
176 198 51
171 194 36
175 197 44
175 196 36
173 195 36
174 196 36
175 197 25
174 196 25
172 194 36
175 198 62
174 196 36
173 194 25
169 192 25
173 196 36
174 196 36
174 196 51
172 194 0
176 197 25
175 196 25
173 194 25
174 196 0
168 189 25
174 196 25
174 195 44
171 192 51
172 193 36
168 190 44
172 193 0
170 191 0
173 193 25
174 195 0
172 193 25
166 187 25
172 193 44
172 194 36
168 188 51
164 185 36
168 189 51
173 194 44
168 188 36
165 186 51
167 188 51
158 179 25
161 183 44
162 183 57
156 177 80
151 172 51
166 187 76
157 179 0
155 176 0
157 179 25
145 166 36
145 165 57
143 165 25
130 151 0
123 142 0
128 147 0
120 140 0
133 152 0
119 139 0
124 143 0
132 151 0
121 139 0
125 146 0
136 156 0
141 161 0
134 155 0
151 172 0
151 173 0
160 183 0
167 189 0
167 191 0
171 195 0
169 193 0
170 193 0
172 195 0
172 196 0
166 190 0
167 190 0
166 189 0
172 196 0
166 189 0
167 191 0
168 192 0
167 191 0
172 195 0
167 190 0
85 112 88
56 88 110
53 84 82
55 87 100
56 89 99
56 89 111
57 90 105
56 89 107
57 91 102
59 93 124
55 87 88
53 85 94
56 88 102
54 86 90
58 91 108
57 90 114
55 88 108
57 90 105
57 90 110
57 90 105
55 87 105
57 90 122
56 89 113
57 90 105
56 88 107
57 91 111
55 88 105
58 92 117
55 87 97
56 89 103
56 89 108
55 88 105
57 90 117
56 89 103
57 90 111
56 89 114
57 89 115
57 90 115
54 85 92
56 89 103
57 90 115
57 89 107
58 92 121
57 89 107
57 90 113
57 90 108
55 88 103
58 92 118
56 88 110
56 88 102
58 92 126
57 91 105
54 86 92
54 85 100
58 92 117
56 88 115
56 88 107
56 89 113
55 87 104
56 89 115
56 88 107
57 90 111
56 88 111
55 87 113
54 85 100
56 88 113
54 85 103
55 86 106
55 86 100
55 87 104
56 87 112
56 88 111
55 86 106
54 85 105
55 86 98
55 86 110
53 83 93
52 82 90
51 79 85
53 83 85
51 79 85
52 81 91
52 81 101
53 82 94
50 78 93
49 76 82
48 73 85
71 92 56
160 183 25
170 193 0
168 189 0
166 188 0
165 187 0
169 191 0
168 191 0
169 191 0
167 189 0
169 192 0
170 193 0
169 192 0
170 193 0
169 192 0
170 193 0
148 165 19
96 92 37
99 95 37
87 84 22
77 75 11
77 74 16
79 78 8
81 79 8
83 83 16
79 78 14
92 90 18
87 86 14
94 92 16
87 87 26
85 85 26
93 91 23
82 83 18
88 87 14
88 89 23
101 98 32
98 97 25
100 100 18
105 104 25
109 107 26
103 100 22
109 107 25
109 107 26
112 109 29
120 115 32
116 111 32
117 113 37
118 115 21
126 123 46
123 121 32
126 122 37
131 127 42
113 110 32
129 125 38
120 117 33
126 122 36
121 116 36
121 118 38
131 127 42
136 131 34
126 123 30
142 137 43
140 135 53
136 133 40
135 131 45
143 137 47
142 137 46
135 131 40
131 126 47
138 132 48
145 139 41
149 143 45
138 133 42
139 134 37
138 135 42
150 143 58
143 138 47
146 140 45
139 135 42
145 140 57
150 145 48
151 146 47
154 148 57
148 142 49
144 139 52
148 142 51
150 144 54
145 140 54
145 140 45
149 144 44
146 141 44
149 143 47
155 148 58
151 146 52
155 148 52
146 141 47
150 144 47
149 142 52
156 150 53
155 148 59
155 149 56
155 148 58
153 147 57
155 148 62
153 147 57
154 148 62
150 144 57
150 146 51
148 143 51
150 145 56
154 147 53
144 137 54
152 145 52
143 139 51
147 141 56
154 147 56
150 145 52
146 140 48
146 141 48
153 148 52
147 141 51
156 148 64
148 143 51
153 146 57
145 140 56
152 145 54
156 149 59
156 149 58
149 143 53
159 152 57
159 153 58
151 145 57
152 147 58
153 147 63
150 145 60
147 142 59
144 139 53
145 139 51
156 150 62
150 143 62
146 140 59
147 141 63
148 143 58
151 143 62
144 138 54
151 144 62
157 150 66
156 148 65
144 138 56
144 139 57
143 138 54
139 134 51
147 141 53
151 144 58
142 136 56
146 140 58
145 139 59
174 198 0
172 196 0
173 197 0
173 196 0
173 196 0
172 196 0
171 194 0
174 198 0
174 197 0
171 195 0
173 196 0
172 195 0
172 195 0
172 195 0
172 195 0
172 196 0
175 198 25
174 197 36
173 197 44
173 197 36
174 197 25
174 197 44
176 199 51
175 198 0
175 198 0
174 197 25
172 196 36
173 196 0
175 198 25
176 199 62
171 195 36
173 196 0
175 198 51
176 199 44
175 197 67
177 200 76
173 197 36
175 198 44
175 198 51
175 197 36
177 198 51
175 198 0
174 197 25
175 199 44
176 198 57
174 197 51
174 197 36
174 197 36
174 197 44
174 197 44
174 197 57
175 198 36
174 196 25
174 197 44
174 197 25
174 196 51
173 196 36
172 194 25
175 197 36
172 195 36
174 197 36
175 197 36
173 196 0
174 197 0
174 197 25
175 198 44
174 196 51
174 197 25
173 195 0
172 194 25
175 197 0
172 194 25
175 197 44
172 194 36
175 197 36
178 200 44
172 194 25
171 193 0
173 195 25
175 196 25
172 194 0
174 196 44
176 198 44
171 192 25
172 194 57
175 196 44
173 194 25
177 198 36
177 197 25
171 192 51
174 195 36
171 192 25
175 196 25
172 192 36
168 189 25
171 193 57
174 194 25
173 193 36
169 189 25
170 191 36
166 186 44
168 190 44
169 189 36
167 189 36
171 192 51
173 193 57
170 190 51
168 188 25
163 183 0
166 185 36
166 187 51
163 183 62
159 179 62
158 178 25
161 181 51
151 170 44
155 176 0
158 179 0
153 173 25
146 167 25
153 174 36
142 161 44
133 154 0
129 149 0
126 144 0
132 153 0
134 154 0
121 140 0
126 146 0
121 139 0
130 150 0
135 154 0
136 156 0
134 154 0
141 163 0
147 168 0
153 175 0
153 176 0
160 184 0
165 189 0
170 194 0
171 195 0
172 195 0
170 193 0
172 195 0
167 191 0
167 191 0
163 187 0
167 190 0
170 194 0
166 190 0
168 192 0
168 192 0
169 192 0
169 192 0
169 192 0
140 163 47
53 85 80
56 88 102
54 86 94
55 88 97
56 89 105
58 92 105
53 85 92
55 87 102
55 89 99
53 85 90
54 86 90
55 87 107
58 92 117
57 90 105
56 88 94
57 90 115
58 92 108
57 91 103
57 89 111
58 91 122
58 92 110
55 87 105
57 89 107
55 86 110
57 90 108
54 86 107
54 86 97
55 88 102
56 88 107
58 91 121
57 90 114
57 90 108
57 90 105
56 89 108
55 87 97
59 92 115
56 89 102
58 91 105
57 90 114
57 90 115
56 89 100
57 89 114
56 89 105
57 90 113
56 89 99
57 89 110
54 87 94
56 89 113
58 90 116
56 89 102
55 88 100
57 90 99
56 89 108
55 86 104
55 86 99
53 84 94
54 86 107
56 88 102
56 88 107
53 84 101
55 86 95
55 86 102
55 86 104
56 88 114
55 88 103
55 87 111
54 86 106
58 90 119
54 86 101
54 85 105
55 86 108
56 88 106
54 84 106
55 86 108
53 84 94
54 83 100
55 85 101
54 84 93
53 83 96
54 84 87
52 81 102
49 77 78
50 78 86
48 73 71
51 79 91
46 72 63
142 161 31
168 190 0
168 191 0
167 188 0
166 187 0
166 188 0
168 191 0
167 189 0
165 188 0
167 189 0
170 191 0
165 186 0
164 187 0
169 191 0
164 186 0
167 190 0
168 188 0
129 142 18
98 94 31
89 85 20
77 75 18
83 79 24
91 88 24
79 78 11
79 78 8
87 84 8
73 74 19
85 82 20
74 74 11
86 85 9
80 77 12
101 99 18
93 90 16
94 91 21
107 104 16
94 91 19
102 101 16
115 110 30
110 109 16
99 97 19
110 109 26
114 111 31
106 104 25
103 100 24
115 112 21
108 106 29
109 107 18
121 119 33
114 112 18
122 118 32
121 119 40
122 118 31
124 120 44
119 115 31
122 118 37
128 124 34
126 123 34
134 129 44
119 117 24
132 128 38
138 133 47
142 137 44
135 132 38
132 128 43
130 126 38
140 134 51
129 125 33
137 132 32
148 142 45
143 138 42
137 133 44
140 135 50
138 133 42
146 141 48
146 141 54
139 135 39
145 139 49
146 140 45
146 141 45
150 144 48
155 149 57
143 138 39
145 140 42
142 137 49
150 144 49
145 140 39
143 137 39
144 139 49
153 148 47
149 144 51
147 142 48
148 142 53
148 143 49
145 139 47
144 139 54
149 144 47
147 143 36
147 142 48
151 146 54
152 146 57
146 141 47
148 142 45
152 146 45
147 141 52
143 137 51
151 145 57
150 145 53
153 147 54
158 152 60
152 146 56
153 147 59
150 144 54
154 148 61
155 149 57
147 141 49
153 147 60
148 143 47
155 148 54
144 138 47
147 142 48
142 136 47
138 132 45
150 143 56
149 143 51
147 141 53
153 147 57
145 138 49
154 150 60
156 149 65
153 147 57
151 144 61
152 145 59
146 140 57
148 143 57
144 139 52
141 137 51
144 138 58
144 138 58
155 150 63
146 141 56
148 141 57
143 137 57
137 132 49
143 137 47
142 136 54
142 137 52
150 144 57
143 136 53
152 145 60
149 141 60
147 141 63
149 143 58
144 138 54
146 138 60
152 146 66
142 137 61
152 145 66
172 195 0
173 197 0
171 195 0
172 195 0
169 193 0
171 194 0
171 195 0
174 197 0
172 195 0
174 197 0
173 196 0
171 194 0
173 197 0
175 198 0
173 196 0
169 193 0
170 194 0
173 195 25
177 199 67
175 198 36
172 196 36
175 198 36
174 197 36
170 194 36
175 198 57
175 198 62
171 195 25
175 198 25
173 196 44
175 197 25
179 201 67
178 201 67
178 200 80
175 197 44
173 196 36
175 198 57
178 200 51
175 198 36
175 199 62
175 197 57
176 199 57
177 200 62
174 198 51
173 196 57
173 196 51
175 198 44
176 199 67
177 199 57
176 199 51
175 197 25
174 197 36
175 198 67
176 198 51
175 198 36
173 196 36
173 195 36
173 196 25
175 198 36
175 197 36
175 198 36
174 197 51
173 196 36
173 195 44
175 196 44
176 199 0
173 196 36
173 195 36
173 195 44
174 196 36
174 197 51
176 197 44
175 197 25
175 197 0
172 195 51
172 194 25
173 195 44
178 199 57
173 194 44
175 196 0
175 197 44
175 195 0
173 193 36
173 195 44
176 197 44
176 196 36
169 190 36
177 198 25
177 197 36
173 195 36
170 191 36
172 192 44
170 191 36
174 194 0
170 190 25
173 193 36
169 189 0
169 191 44
172 191 0
170 191 25
163 184 0
167 187 51
167 187 36
166 187 25
171 192 51
162 182 44
163 183 62
163 184 51
164 185 44
168 187 72
160 180 44
165 185 25
166 186 36
157 176 67
164 184 76
154 174 25
157 178 0
155 175 44
152 173 25
157 178 25
144 164 36
151 172 25
141 161 0
143 163 0
135 156 0
123 142 0
122 142 0
140 160 0
123 142 0
138 157 0
128 148 0
139 159 0
141 160 0
128 148 0
150 170 0
141 162 0
141 162 0
143 165 0
155 178 0
161 185 0
173 197 0
165 189 0
163 186 0
167 191 0
168 191 0
168 192 0
171 195 0
173 195 0
168 192 0
168 192 0
167 191 0
171 194 0
164 187 0
169 192 0
167 191 0
165 189 0
168 191 0
167 191 0
110 134 65
53 84 82
54 86 92
51 83 82
54 86 105
54 86 94
55 87 97
54 86 86
55 88 94
55 88 97
54 85 92
57 89 102
56 88 103
56 88 99
56 89 107
55 87 99
55 87 97
55 88 111
55 88 105
56 88 103
55 88 100
56 88 99
56 88 97
54 86 97
55 88 107
57 90 111
58 91 118
56 88 100
55 87 94
56 89 105
57 89 118
56 89 107
57 90 107
57 90 115
56 89 115
57 90 111
56 89 95
58 92 110
56 89 99
54 87 99
56 88 100
57 90 114
55 88 107
56 89 100
58 90 114
56 89 110
56 88 110
58 91 117
57 90 110
56 88 108
54 85 107
56 88 110
56 88 107
54 86 107
54 85 105
56 88 103
53 85 99
53 85 92
57 89 111
56 88 117
56 88 102
54 86 94
55 87 114
56 88 105
55 86 106
55 87 108
54 84 98
54 86 100
57 90 114
53 83 97
54 85 94
54 84 90
53 84 94
52 81 87
50 79 80
52 82 96
55 86 99
51 80 83
49 77 83
52 81 90
52 80 102
51 79 92
51 79 87
49 76 78
41 64 60
103 125 56
164 185 0
158 179 0
167 188 0
167 190 0
165 187 0
163 186 0
163 186 0
168 189 0
168 189 0
172 195 0
168 191 0
167 189 0
167 189 0
163 185 0
165 185 0
164 185 0
164 185 0
163 184 0
115 120 23
80 77 25
86 82 21
79 77 19
77 75 21
83 81 11
78 76 16
88 83 19
86 84 3
86 83 18
75 75 9
88 87 16
90 87 12
83 81 12
104 101 18
73 73 12
95 91 0
85 85 14
101 98 20
100 97 26
100 95 18
116 112 38
100 98 28
107 105 25
101 99 18
104 101 34
114 110 26
125 119 37
119 115 23
118 115 28
111 108 32
133 127 41
117 115 21
128 123 36
133 128 41
129 124 47
125 122 23
127 123 32
129 123 31
132 129 32
134 130 34
124 121 37
134 130 44
138 132 37
139 134 37
138 133 37
135 130 42
143 137 44
143 135 47
141 137 36
141 135 39
145 139 42
137 132 42
131 126 35
143 138 47
140 134 39
140 135 45
136 131 34
145 140 37
148 142 49
143 138 51
148 142 51
143 138 46
144 138 39
145 139 42
145 140 37
149 141 57
147 141 45
151 145 52
146 140 48
145 140 44
139 133 38
147 141 44
150 143 45
147 141 48
152 145 58
145 139 47
144 137 49
149 143 52
150 143 51
153 147 59
151 144 56
146 142 45
151 145 53
144 139 42
148 143 49
149 144 53
156 151 61
154 146 60
157 150 59
151 145 53
146 140 53
158 151 61
153 147 59
151 145 51
148 142 47
144 139 49
148 142 48
154 147 60
146 140 54
151 145 57
148 142 53
147 141 54
148 143 51
150 145 52
152 146 48
154 147 57
155 148 63
147 142 52
155 148 58
153 146 53
152 146 62
147 142 60
145 139 54
149 142 59
142 136 51
146 139 57
141 135 47
154 148 66
147 141 53
159 152 64
151 144 63
151 144 61
145 139 57
147 142 60
143 138 49
148 142 59
150 144 64
142 137 53
151 144 58
145 139 65
147 142 52
142 136 54
146 142 45
141 136 48
150 145 56
147 142 53
146 140 60
149 143 64
174 197 0
170 194 0
172 195 0
173 196 0
173 196 0
174 197 0
170 194 0
171 194 0
172 196 0
173 197 0
172 195 0
173 196 0
172 196 0
172 195 0
170 194 0
174 197 0
168 193 0
171 194 0
174 197 44
174 197 51
177 200 67
174 197 36
173 196 25
171 195 36
173 196 57
175 198 25
171 195 25
174 197 36
172 196 36
174 198 0
174 198 25
176 198 25
177 199 57
178 201 76
179 201 80
179 201 67
175 197 51
174 197 36
175 198 44
173 197 57
175 198 51
175 198 62
176 199 67
174 197 44
172 195 51
172 195 36
175 197 57
176 199 72
173 197 57
177 198 51
176 198 36
175 197 36
172 195 44
174 197 36
177 199 51
176 198 51
171 194 44
173 195 25
175 197 57
176 198 36
173 195 25
175 197 0
175 196 36
176 198 44
175 196 36
173 196 25
175 197 44
172 195 44
174 196 44
172 193 0
175 196 36
177 198 44
174 196 36
175 196 36
178 199 51
176 198 44
174 196 36
178 199 57
172 193 36
175 195 25
173 195 36
177 198 44
175 196 36
174 194 25
174 194 36
174 194 36
174 194 25
174 195 44
173 194 36
175 196 36
171 192 36
167 187 44
165 186 36
169 189 36
173 193 36
172 192 62
172 192 36
171 191 36
165 186 44
165 185 44
166 185 44
170 190 36
166 187 62
165 184 36
169 189 62
168 188 44
167 187 36
164 184 67
155 176 0
163 183 44
164 182 57
167 187 76
152 172 44
158 179 25
156 176 0
155 175 25
150 171 36
144 165 25
143 163 36
143 163 36
141 161 0
134 154 0
141 161 0
138 157 0
141 160 0
133 152 0
129 150 0
127 146 0
139 159 0
130 150 0
132 153 0
138 159 0
138 159 0
148 169 0
143 164 0
146 167 0
155 178 0
164 186 0
174 196 0
168 192 0
168 190 0
170 194 0
170 193 0
167 190 0
168 192 0
169 192 0
169 192 0
166 188 0
166 189 0
162 185 0
167 190 0
163 186 0
168 191 0
167 191 0
168 192 0
168 192 0
169 192 0
159 183 18
89 116 95
55 87 94
53 85 90
53 84 88
54 86 94
57 90 102
53 85 90
53 85 95
57 90 114
57 90 102
56 89 100
57 90 108
55 88 94
55 87 99
56 89 113
56 89 105
56 88 99
56 89 110
56 89 100
54 85 94
57 90 100
57 90 110
54 86 97
52 83 72
54 86 100
56 89 105
55 88 88
55 88 108
58 92 111
55 87 115
58 91 105
56 88 120
56 88 102
56 89 100
54 85 102
57 90 110
57 90 114
55 87 108
56 89 115
58 91 117
54 86 97
54 86 102
56 88 99
56 88 115
54 86 100
56 88 111
56 88 103
56 88 110
58 91 120
56 89 110
56 88 113
55 86 105
58 91 117
54 86 104
57 90 104
56 88 108
54 85 108
54 86 94
56 88 89
57 89 111
53 84 101
53 83 96
53 84 104
55 87 94
54 86 108
53 83 87
54 86 96
55 87 102
53 84 90
52 81 89
54 85 96
53 83 85
53 83 91
53 83 80
50 79 73
52 81 99
54 85 96
52 82 91
49 76 65
51 78 82
45 71 77
47 72 75
45 69 60
63 85 61
155 177 19
166 188 0
165 186 0
162 184 0
160 181 0
164 185 0
166 188 0
164 186 0
164 186 0
162 184 0
167 189 0
165 187 0
161 182 0
162 182 0
159 181 0
169 190 0
162 183 0
169 191 0
161 182 0
157 176 11
104 105 25
94 89 32
95 92 25
95 90 21
77 73 14
86 85 8
76 74 12
77 74 12
84 84 9
85 83 0
90 87 14
87 86 11
76 75 12
96 95 12
88 85 12
87 84 16
102 99 21
95 94 16
98 97 11
102 99 24
97 94 24
109 105 32
108 105 24
104 101 20
114 111 19
107 104 18
123 119 36
121 118 30
112 110 26
113 111 28
121 117 30
112 110 31
116 113 18
122 119 22
117 114 30
128 125 28
125 121 37
131 127 35
141 135 40
123 118 24
133 127 48
117 114 21
125 122 31
135 130 42
126 122 29
134 129 41
138 134 37
137 133 43
132 127 39
139 134 39
136 130 44
137 132 44
134 128 42
140 135 36
144 138 42
138 133 40
143 137 45
143 139 39
144 138 51
138 133 36
141 136 42
149 142 42
145 139 39
141 137 42
149 143 44
144 139 42
148 143 42
151 144 48
148 142 45
149 144 44
143 137 51
142 137 45
151 145 47
149 144 44
150 144 48
148 142 42
150 143 54
148 143 39
152 147 52
145 138 41
150 145 49
144 140 42
148 142 49
147 142 44
146 140 47
148 140 45
147 141 45
151 145 56
148 143 52
156 149 58
150 143 52
148 141 52
153 146 57
146 141 52
144 139 45
146 140 49
151 145 59
148 141 56
146 140 51
151 144 54
143 137 42
145 140 52
146 142 41
154 146 66
144 139 54
149 143 54
144 139 45
154 148 57
150 145 44
150 142 61
145 138 57
154 148 66
145 140 53
147 141 61
145 139 53
149 143 59
143 136 56
147 140 58
140 136 49
153 146 61
148 142 48
142 136 53
148 142 56
144 138 49
148 142 53
147 143 57
152 146 61
143 136 53
149 143 56
145 139 54
154 147 60
137 131 49
151 144 52
146 139 57
139 133 48
144 138 51
143 137 62
144 137 57
174 196 0
171 195 0
174 197 0
174 197 0
170 194 0
172 196 0
170 193 0
172 196 0
168 192 0
172 195 0
171 194 0
172 195 0
172 196 0
170 194 0
173 197 0
172 196 0
174 197 0
172 195 0
173 196 0
172 196 0
176 199 57
175 198 36
176 198 62
175 197 62
171 195 0
175 197 36
172 196 36
173 197 36
173 196 36
174 197 25
173 196 25
173 196 0
173 196 25
174 198 36
176 198 67
174 197 51
176 198 72
176 199 84
174 197 44
175 198 62
174 197 51
176 198 44
178 200 72
174 197 44
171 195 44
174 197 36
175 196 36
173 196 36
173 196 62
175 198 51
177 199 51
177 199 44
175 197 51
175 197 44
172 195 36
177 199 25
174 195 36
176 198 44
174 195 0
173 194 0
173 196 44
174 196 0
174 196 36
177 197 36
177 198 25
175 197 36
173 194 57
175 196 0
175 196 51
174 195 25
178 199 25
174 195 44
174 194 36
170 191 44
176 196 51
176 196 25
173 194 57
174 194 36
174 195 51
174 195 51
174 195 44
172 193 51
176 196 36
174 195 62
171 191 51
172 193 36
172 192 25
171 191 36
172 191 44
167 188 51
176 194 25
169 189 0
168 187 57
166 185 44
172 192 44
165 186 0
169 188 44
169 189 25
164 183 0
166 185 62
172 192 57
168 187 51
168 187 44
159 179 44
166 185 36
166 186 57
164 184 57
160 180 51
153 171 57
166 185 67
159 179 62
157 177 25
162 182 0
157 178 44
160 180 36
151 170 36
152 173 36
156 177 57
140 160 25
132 152 0
139 160 0
135 155 0
135 155 0
130 150 0
142 162 0
141 161 0
144 164 0
133 155 0
132 152 0
129 148 0
136 156 0
139 160 0
140 162 0
142 163 0
139 161 0
163 184 0
156 179 0
169 192 0
170 193 0
170 194 0
169 192 0
168 192 0
169 192 0
166 190 0
162 186 0
171 194 0
165 188 0
164 187 0
165 188 0
165 188 0
163 186 0
164 188 0
159 183 0
161 184 0
165 189 0
161 184 0
161 184 0
164 186 0
146 169 31
56 87 82
54 85 102
53 83 90
56 89 99
53 84 74
54 86 95
53 84 88
52 84 82
55 87 97
54 86 92
56 88 95
54 86 95
55 88 108
54 86 95
55 87 102
56 88 108
57 91 107
56 89 105
57 90 99
54 86 107
56 88 108
56 89 107
53 85 94
56 89 111
57 90 117
55 87 107
54 86 99
57 90 113
55 87 113
54 86 105
55 88 103
57 90 111
55 88 108
56 89 103
55 87 102
55 88 99
57 90 113
55 86 105
57 89 103
54 85 78
57 90 105
56 88 105
54 85 99
54 85 85
57 89 103
57 90 115
57 90 107
57 89 97
56 89 111
56 88 113
55 87 102
57 90 108
58 90 116
55 88 110
56 88 99
54 85 99
56 88 107
54 85 100
55 86 101
56 87 111
53 84 96
55 85 105
52 83 84
56 89 108
53 83 106
53 84 108
53 84 104
52 83 94
53 84 94
53 84 87
53 82 96
54 84 96
51 80 87
53 82 91
53 82 91
52 81 95
50 78 84
51 80 77
49 76 75
49 75 77
48 74 75
56 80 65
146 167 44
160 180 0
160 182 0
160 181 0
160 181 0
161 183 0
163 186 0
165 187 0
159 180 0
162 184 0
158 180 0
157 177 0
163 184 0
161 182 0
164 186 0
161 183 0
163 184 0
163 184 0
164 185 0
160 182 0
164 185 0
148 163 20
86 84 18
98 94 23
93 89 18
86 83 24
92 88 11
94 92 14
93 89 25
83 80 21
83 82 16
86 84 8
88 86 3
90 88 11
94 91 16
92 89 18
91 90 3
87 84 20
97 94 14
95 95 21
92 88 12
97 94 19
99 96 18
101 98 25
109 106 29
93 92 30
99 97 21
110 108 28
120 115 36
117 114 25
114 110 31
115 112 24
128 124 36
117 114 33
120 118 26
121 117 30
132 126 34
117 114 21
127 122 38
124 120 26
128 122 39
133 129 41
124 120 34
131 127 33
137 134 24
134 129 37
132 127 33
135 129 34
140 134 39
132 128 45
139 135 39
140 135 38
137 131 42
141 136 45
139 135 45
144 137 40
140 134 45
140 135 42
133 128 30
139 136 36
142 136 42
152 146 48
140 134 37
147 141 44
144 138 45
141 136 42
150 144 49
141 137 42
140 134 37
141 136 41
139 134 42
141 137 45
145 139 48
144 139 42
146 142 47
149 144 47
143 138 48
139 134 39
149 143 53
147 142 44
153 146 58
152 147 56
152 144 53
149 142 44
147 141 47
149 143 58
149 142 52
140 134 42
158 151 57
152 144 63
148 141 51
152 146 57
145 139 49
154 148 58
146 139 61
145 139 45
147 141 47
149 142 45
151 145 52
145 139 44
145 138 47
146 141 52
144 138 47
150 144 60
151 144 57
149 143 51
147 142 44
146 140 52
150 145 49
149 143 47
150 144 53
149 142 54
150 143 54
147 142 56
147 140 57
146 140 58
146 141 52
140 135 49
140 133 52
149 143 52
145 138 51
150 143 65
140 135 49
144 139 48
149 144 59
146 142 49
143 137 51
144 138 57
138 133 58
146 140 56
149 143 54
145 140 51
152 145 64
144 137 56
146 141 56
133 127 49
139 134 47
146 140 61
138 133 53
173 196 0
172 197 0
172 195 0
171 195 0
170 194 0
172 196 0
173 196 0
171 195 0
173 196 0
173 196 0
171 195 0
173 197 0
172 196 0
170 193 0
173 196 0
175 198 0
173 196 0
173 196 0
169 193 0
173 196 0
173 196 0
172 195 36
169 192 0
172 195 44
174 198 36
174 197 0
173 197 0
173 197 44
176 198 57
175 197 25
174 197 25
175 198 44
175 197 36
174 197 0
173 196 36
173 196 25
175 198 57
174 196 62
180 201 76
176 199 62
177 199 44
173 196 36
176 199 62
177 200 57
175 197 36
177 199 57
173 196 51
176 197 51
174 197 44
176 198 25
174 197 36
174 196 25
175 198 25
175 196 44
176 198 51
178 199 51
173 195 51
174 195 44
176 197 51
174 196 25
176 197 25
180 201 62
172 194 0
176 197 25
176 197 44
177 198 44
175 197 51
174 195 44
172 194 51
177 197 25
177 198 44
173 194 62
172 192 0
170 191 51
173 193 0
172 193 36
170 191 25
174 194 44
172 192 0
173 193 44
173 193 36
172 192 44
171 192 36
169 189 25
170 191 36
170 190 36
173 193 51
175 194 44
171 191 44
168 188 25
168 188 36
170 189 44
172 192 36
170 190 51
163 183 36
167 187 25
169 188 44
165 184 51
164 184 44
170 190 57
166 186 62
167 186 36
163 183 57
163 182 57
161 181 36
157 177 62
158 178 57
157 177 62
164 183 76
158 178 36
154 173 0
157 176 25
159 179 36
153 173 51
153 172 25
158 177 36
148 168 36
146 166 0
144 165 0
132 153 0
138 158 0
138 159 0
126 147 0
127 147 0
140 161 0
136 156 0
141 162 0
146 166 0
138 158 0
142 162 0
147 167 0
139 160 0
134 154 0
145 166 0
152 174 0
157 180 0
168 191 0
170 193 0
165 188 0
166 190 0
168 192 0
166 190 0
163 186 0
165 188 0
162 184 0
162 186 0
169 192 0
169 193 0
168 191 0
170 193 0
167 190 0
163 187 0
166 189 0
163 187 0
163 187 0
157 181 0
167 189 0
164 188 0
162 185 0
125 149 72
55 87 95
54 86 103
54 86 80
54 86 102
54 85 88
56 89 111
55 87 99
54 86 99
56 88 102
55 87 94
53 84 94
55 87 94
55 87 95
55 88 105
53 84 99
57 89 110
56 89 110
57 90 111
55 87 107
56 89 108
56 89 103
55 87 95
54 86 88
54 87 100
54 86 92
55 87 100
53 83 103
55 88 99
56 89 102
56 90 110
56 89 107
57 89 108
55 87 102
57 91 107
57 90 107
58 91 115
58 91 111
53 85 84
54 86 95
54 85 102
55 86 105
58 92 117
56 88 107
55 87 105
55 86 107
57 89 115
56 89 108
54 86 90
56 89 115
51 81 78
55 87 95
54 86 104
54 86 94
57 89 105
53 84 105
54 85 103
56 89 117
54 85 97
53 84 97
55 87 97
56 88 109
56 88 107
54 84 100
53 83 90
51 81 89
53 83 94
53 82 87
53 84 89
53 83 102
53 82 99
52 82 96
52 80 87
52 81 86
49 77 68
49 78 83
49 77 91
48 77 72
46 71 60
48 74 73
47 72 78
125 145 37
161 182 0
155 177 0
156 178 0
160 178 0
158 179 0
158 179 0
155 173 0
162 181 0
158 177 0
159 180 0
159 180 0
161 181 0
156 175 0
161 181 0
161 182 0
160 178 0
164 185 0
165 184 0
157 175 0
160 179 0
165 185 0
164 185 0
138 152 11
90 87 24
89 84 28
87 83 16
74 72 18
87 83 14
88 87 18
94 93 23
78 76 8
84 81 0
81 79 8
93 91 8
94 90 18
84 82 14
94 91 8
91 89 14
101 98 22
95 94 3
96 93 20
102 98 27
104 100 18
105 103 29
108 105 18
105 103 18
114 111 22
109 106 23
120 115 19
110 107 24
113 108 28
114 110 21
111 105 19
119 116 26
126 122 31
117 113 18
124 121 33
125 120 26
122 118 29
132 126 29
132 126 37
131 127 34
126 122 26
125 122 36
128 124 36
132 127 31
138 133 38
132 126 35
135 131 19
129 126 30
138 132 39
136 131 28
139 133 43
130 126 36
134 129 42
137 132 32
139 133 41
138 132 44
143 138 39
137 133 30
135 130 33
137 132 41
140 134 39
138 133 41
135 129 34
142 136 45
145 139 51
147 141 48
136 131 34
144 139 39
141 136 36
141 135 45
148 144 41
146 140 49
141 137 39
147 141 47
149 142 48
142 137 39
150 145 39
148 142 52
151 145 47
141 135 48
145 138 48
149 143 53
150 144 42
148 143 45
148 142 42
147 141 53
142 137 42
152 147 54
147 140 52
147 140 54
154 146 57
148 141 51
148 142 52
141 134 54
142 137 45
152 145 53
146 139 48
144 138 53
149 143 47
151 145 59
148 142 51
151 144 63
151 143 58
146 139 52
151 144 56
147 141 54
146 139 49
155 147 62
148 141 52
143 138 53
151 145 54
146 140 47
146 141 48
143 138 53
154 147 57
146 140 56
146 140 58
148 143 56
142 137 48
147 140 48
143 136 56
146 140 57
148 141 53
151 144 56
139 132 49
141 136 54
140 135 44
149 142 61
150 143 53
144 139 52
151 144 58
143 137 48
142 137 45
137 132 53
140 133 54
134 128 37
144 138 60
173 196 0
171 195 0
171 195 0
170 194 0
171 195 0
172 195 0
174 198 0
172 195 0
172 195 0
171 196 0
173 196 0
171 195 0
172 196 0
175 198 0
171 194 0
171 195 0
173 197 0
172 195 0
172 195 0
173 196 0
172 195 0
174 196 0
168 191 25
174 197 57
176 199 62
172 195 0
175 198 51
174 196 25
174 197 51
174 197 44
172 195 36
176 198 25
174 197 36
173 195 25
174 197 25
173 195 25
175 198 25
177 199 51
175 197 51
179 200 67
175 198 51
174 195 57
178 200 72
175 197 62
175 197 36
174 197 57
176 197 25
178 199 62
174 196 44
176 198 57
177 199 67
176 197 36
174 196 36
176 198 51
172 193 44
177 198 36
173 194 51
174 196 62
175 196 44
177 198 44
173 193 36
176 197 0
174 195 25
172 194 25
175 196 0
176 197 57
175 196 51
173 193 0
175 196 25
172 193 57
174 194 0
174 194 44
169 189 25
174 194 36
174 194 0
171 191 36
172 192 25
171 191 36
170 190 25
173 193 25
170 190 36
169 189 36
172 191 51
167 187 36
167 187 36
168 188 25
170 190 25
169 189 0
168 187 36
166 186 36
168 187 44
167 186 51
164 183 25
164 184 51
168 188 51
168 187 0
167 186 72
164 184 44
163 182 44
163 183 0
166 185 57
159 178 44
156 176 0
165 185 25
161 181 51
162 180 51
159 179 51
154 174 0
155 174 25
155 174 25
154 174 25
151 172 25
155 175 25
161 181 36
145 165 36
152 173 25
128 149 0
141 163 0
151 172 0
144 165 0
135 155 0
144 165 0
143 163 0
148 169 0
143 163 0
141 160 0
136 157 0
141 161 0
141 161 0
137 158 0
144 163 0
145 165 0
139 159 0
153 175 0
160 183 0
159 183 0
168 191 0
164 188 0
163 187 0
169 191 0
169 192 0
170 193 0
165 188 0
159 183 0
162 186 0
163 187 0
163 186 0
165 188 0
165 189 0
161 184 0
161 184 0
164 187 0
163 186 0
161 184 0
163 186 0
163 187 0
159 182 0
163 186 0
164 187 0
159 183 0
105 128 62
54 86 76
51 82 80
54 86 86
56 88 102
54 86 82
56 89 95
53 85 94
55 87 100
53 84 97
56 89 103
56 89 92
56 88 90
56 89 105
54 87 102
55 87 100
54 85 95
54 86 86
55 88 97
55 87 99
54 85 105
56 89 105
55 87 105
54 86 99
55 88 95
55 88 103
56 89 114
58 91 113
54 86 100
54 87 94
55 87 107
55 87 102
55 87 97
56 88 99
54 86 107
54 85 99
55 87 102
56 89 103
56 89 101
56 89 100
55 88 108
55 87 103
56 88 95
54 85 97
53 84 92
53 85 103
57 89 117
55 87 101
56 87 103
53 83 102
53 84 105
55 86 95
56 88 108
56 89 110
54 87 95
54 84 96
55 87 99
51 81 81
52 83 97
54 84 92
52 83 94
52 83 107
54 85 94
54 85 99
52 82 87
53 84 97
54 85 104
54 85 107
52 81 87
50 79 92
52 81 97
51 80 92
52 82 87
50 79 96
50 77 83
50 78 87
50 78 94
48 74 77
45 69 60
96 113 49
156 174 0
156 176 0
158 178 0
158 179 0
157 176 0
155 175 0
157 175 0
152 171 0
161 181 0
157 175 0
158 178 0
160 182 0
157 178 0
153 174 0
162 182 0
159 178 0
156 176 0
156 174 0
164 184 0
160 181 0
165 185 0
161 182 0
159 179 0
162 182 0
129 140 25
83 78 31
86 81 23
90 88 28
90 86 18
84 79 11
83 80 11
85 83 18
77 75 9
90 87 14
78 75 0
92 90 11
97 94 14
94 92 12
82 82 11
105 101 14
97 93 16
106 103 14
95 92 12
102 101 14
100 97 22
111 108 29
114 110 19
108 104 24
111 106 21
107 104 21
108 104 26
95 93 0
106 104 16
107 104 0
114 111 24
115 110 14
120 117 19
118 114 21
120 115 31
117 113 14
129 123 36
135 129 41
124 119 38
122 120 22
123 120 21
136 129 37
134 129 41
127 124 31
138 134 28
131 126 34
129 124 28
141 133 45
136 132 32
130 126 36
133 128 24
131 127 31
125 120 36
144 138 45
142 138 34
139 133 43
132 127 41
136 132 39
140 134 42
131 126 28
143 138 36
140 136 44
139 133 42
145 139 39
143 138 49
140 136 39
142 138 37
136 131 42
153 147 52
140 135 49
148 143 47
144 140 42
139 134 36
142 136 37
149 144 41
141 136 42
147 142 42
143 137 45
150 145 45
142 137 45
146 142 42
152 147 41
147 142 41
143 137 49
148 141 44
148 142 49
152 146 51
151 145 41
147 142 45
147 141 47
148 142 51
138 133 37
140 135 48
146 140 42
144 139 51
148 141 52
147 142 53
140 135 44
146 140 48
139 133 45
140 135 41
142 136 51
146 140 41
152 146 52
146 140 51
143 137 47
149 143 49
141 135 44
143 137 49
146 140 53
149 143 52
139 133 48
144 138 47
145 140 52
147 141 48
145 139 57
130 126 37
153 147 60
148 142 54
144 138 56
143 137 56
144 138 53
145 140 54
144 138 59
145 139 58
148 143 53
148 143 49
140 133 56
149 144 53
144 138 52
143 138 52
138 131 52
137 131 54
137 132 47
137 132 49
141 135 58
174 198 0
172 195 0
174 196 0
172 196 0
172 195 0
171 195 0
173 196 0
172 195 0
171 194 0
171 194 0
171 195 0
174 196 0
172 195 0
169 192 0
172 194 0
173 196 0
172 195 0
171 194 0
172 196 0
171 195 0
174 197 0
169 192 0
172 196 0
172 195 25
174 197 0
173 196 0
174 197 0
177 199 57
174 197 25
171 194 25
175 198 44
175 197 51
174 196 44
172 194 25
175 198 0
174 197 25
176 198 25
176 198 44
169 191 0
171 194 0
177 199 62
177 200 72
179 200 72
175 197 57
176 198 67
178 199 67
177 197 44
177 199 62
175 197 51
174 196 25
176 197 57
176 197 51
179 201 57
176 197 51
175 195 25
173 194 57
174 196 36
176 197 62
175 196 0
175 195 72
173 194 51
175 196 36
179 200 57
170 191 36
177 198 62
176 196 51
173 194 36
177 196 36
176 196 44
173 193 51
174 194 44
172 192 36
175 195 44
174 194 44
174 194 57
169 189 57
170 189 36
164 184 36
173 193 36
169 188 44
168 188 44
168 187 44
163 184 44
167 187 36
174 193 51
169 190 51
163 183 44
167 187 44
164 183 36
166 186 36
162 181 44
163 182 44
162 183 44
160 180 51
158 177 51
164 183 44
164 183 62
167 187 51
162 182 36
170 188 57
157 176 51
164 183 62
161 180 44
161 181 44
169 189 62
156 176 36
154 173 0
164 184 36
158 178 0
150 170 44
150 170 36
157 176 51
158 178 57
151 172 0
140 162 0
144 164 0
145 167 0
139 158 0
139 161 0
139 160 0
142 162 0
140 159 0
137 157 0
146 167 0
146 166 0
138 158 0
141 161 0
142 162 0
137 157 0
150 171 0
149 170 0
143 164 0
156 178 0
156 178 0
161 184 0
170 193 0
163 187 0
167 189 0
166 190 0
163 186 0
166 189 0
167 189 0
166 189 0
166 190 0
165 187 0
163 186 0
161 184 0
162 185 0
166 189 0
161 185 0
162 185 0
159 183 0
159 181 0
160 182 0
159 183 0
155 178 0
155 178 0
159 182 0
158 182 0
164 186 0
159 181 0
94 117 65
50 80 65
53 85 86
52 83 80
52 83 92
55 87 80
51 83 74
56 89 97
56 88 92
51 82 80
54 86 88
55 87 95
50 80 86
54 86 94
52 83 90
56 89 105
54 86 102
52 83 82
56 89 111
54 85 94
55 88 100
54 86 95
54 85 105
53 85 90
55 87 94
56 89 105
55 87 97
56 89 102
56 88 103
55 87 107
55 87 90
53 84 94
53 85 84
55 88 103
56 88 113
55 87 105
57 90 99
55 87 103
52 83 92
55 88 103
52 83 82
55 88 108
55 87 100
55 87 107
56 87 99
53 84 95
56 89 105
54 85 97
53 84 87
53 84 94
55 87 97
53 84 103
53 84 97
56 88 108
55 86 108
53 84 92
53 83 95
56 88 100
56 87 104
54 86 99
53 84 90
55 86 92
52 81 95
54 84 101
52 81 80
52 82 92
53 83 97
53 82 90
50 80 80
49 77 81
50 78 87
51 79 83
51 79 83
47 74 75
48 75 66
47 73 73
48 74 70
98 118 37
149 168 0
156 177 0
148 166 0
156 173 0
149 166 0
154 173 0
149 167 0
156 175 0
154 174 0
160 179 0
156 176 0
148 170 0
155 174 0
157 174 0
158 178 0
155 174 0
160 180 0
162 182 0
152 167 0
152 171 0
158 178 0
155 173 0
162 180 0
164 182 0
160 180 0
163 182 0
132 142 22
87 81 16
84 81 18
89 84 28
87 81 21
79 78 19
79 77 0
85 82 18
91 87 14
83 81 0
93 90 8
90 87 16
90 85 0
98 93 21
85 82 0
97 94 8
93 90 14
90 86 8
99 94 19
105 101 16
93 92 3
108 103 19
104 100 18
104 102 14
102 98 14
110 106 21
100 97 18
110 108 18
107 105 25
118 112 16
112 107 24
129 124 22
122 118 18
122 118 30
128 123 34
120 114 31
123 118 28
123 119 26
126 121 33
136 131 31
132 127 22
137 132 36
135 129 39
124 120 22
129 123 31
131 125 22
134 130 32
136 130 39
133 129 37
135 129 37
131 126 31
134 129 36
130 126 36
141 136 39
133 128 34
136 131 32
144 138 37
139 135 34
138 133 34
130 126 28
140 135 33
130 124 30
140 134 43
137 132 30
142 135 41
148 142 48
142 136 30
143 138 41
148 141 45
136 131 37
148 140 47
138 132 41
140 135 34
142 137 41
137 131 36
145 139 45
139 134 34
137 131 44
145 139 42
149 143 44
140 135 45
143 136 49
142 136 41
143 139 39
149 142 53
140 134 44
145 139 48
144 137 36
150 143 51
152 146 58
144 138 45
156 150 57
149 143 54
146 140 59
144 139 49
141 135 39
147 140 47
143 136 44
145 141 41
145 139 49
145 140 51
147 141 48
147 139 53
144 137 51
146 139 56
139 133 45
143 136 47
147 139 60
153 145 59
141 134 48
140 134 44
146 140 52
148 142 56
140 135 48
148 142 52
150 143 57
150 144 60
146 139 60
148 142 51
133 127 49
148 140 59
146 140 57
140 135 39
136 131 47
143 137 53
144 139 54
140 134 52
141 135 57
140 136 48
144 137 51
143 137 54
142 135 56
139 133 51
129 124 34
144 139 51
171 195 0
173 197 0
171 195 0
174 197 0
174 197 0
173 196 0
173 196 0
173 196 0
173 197 0
170 193 0
174 197 0
173 196 0
173 196 0
174 198 0
171 195 0
173 195 0
169 193 0
169 192 0
173 197 0
174 196 0
170 194 0
170 194 0
173 196 0
170 193 0
172 196 0
174 197 0
170 194 25
170 193 36
175 197 51
176 198 36
172 195 0
173 196 25
174 197 67
175 198 36
176 199 57
171 194 25
174 197 0
173 196 44
171 195 25
173 196 25
176 197 25
171 194 25
174 197 0
176 198 62
180 201 80
180 200 62
176 198 57
176 198 67
177 198 51
178 198 51
174 195 44
174 196 62
177 199 57
179 199 67
177 199 72
178 198 67
177 198 44
178 199 72
176 196 36
176 196 57
173 193 25
172 193 51
176 195 36
175 196 51
177 198 51
175 195 36
175 195 51
173 193 72
175 195 36
173 194 51
177 197 44
172 192 25
171 191 44
174 193 25
170 190 36
168 188 36
171 191 0
169 188 44
168 187 36
170 190 51
171 191 36
167 187 51
169 188 36
163 183 25
163 183 25
162 183 0
161 181 36
157 176 36
160 180 25
164 184 51
167 186 51
155 175 44
164 184 36
164 183 0
165 185 57
158 178 36
159 179 62
162 180 67
158 178 51
162 181 67
157 176 57
167 185 67
154 174 25
154 175 0
156 175 36
164 184 0
156 176 0
159 178 36
165 185 36
158 178 44
157 177 36
152 172 25
136 156 0
134 156 0
139 159 0
144 165 0
143 164 0
151 171 0
140 161 0
145 165 0
143 164 0
142 162 0
150 172 0
143 164 0
141 161 0
154 175 0
138 157 0
138 159 0
141 162 0
145 165 0
151 172 0
154 175 0
156 177 0
155 178 0
163 187 0
168 191 0
166 189 0
168 191 0
162 186 0
164 187 0
165 188 0
161 184 0
168 191 0
161 184 0
156 179 0
158 181 0
164 188 0
164 187 0
163 187 0
162 185 0
159 183 0
161 184 0
161 184 0
159 182 0
159 183 0
155 178 0
161 184 0
158 181 0
155 179 0
152 175 0
157 179 0
157 180 0
71 97 62
52 82 88
52 83 92
54 85 90
51 81 65
50 81 78
54 85 97
55 87 97
54 85 102
53 84 86
52 84 90
52 83 90
54 86 94
55 88 94
54 86 92
55 88 99
56 89 100
55 88 102
51 82 72
54 86 84
54 86 95
55 87 94
52 83 72
55 87 105
56 88 108
54 86 90
53 85 90
55 88 94
53 84 97
53 85 97
55 87 95
56 88 95
54 86 100
56 88 105
55 86 105
54 86 99
55 87 108
54 85 95
53 85 94
55 88 113
57 89 110
50 80 80
57 89 108
54 86 99
53 85 88
51 81 92
54 84 95
55 87 104
54 86 90
51 81 90
51 81 87
53 83 101
54 85 97
54 85 94
53 83 88
53 83 86
55 86 92
53 83 92
54 85 102
53 83 85
53 84 103
53 83 89
53 84 97
52 81 87
54 84 98
51 81 73
51 80 90
53 83 92
51 79 92
51 79 85
51 79 89
47 74 80
50 78 78
48 75 68
44 68 66
75 97 60
141 160 25
152 173 0
143 160 0
153 170 0
154 174 0
149 169 0
149 168 0
153 170 0
154 173 0
154 174 0
149 169 0
145 163 0
156 176 0
150 171 0
156 174 0
151 168 0
149 167 0
146 163 0
155 173 0
156 176 0
158 176 0
158 176 0
152 170 0
156 175 0
154 171 0
158 176 0
162 181 0
150 168 0
127 134 28
94 89 30
97 92 26
84 81 19
90 87 22
84 79 18
90 88 8
91 86 5
79 77 0
92 88 8
92 90 12
101 97 11
98 94 14
90 87 11
100 96 14
95 90 8
93 89 14
101 99 11
101 99 8
101 99 18
106 104 14
95 92 11
113 109 16
110 107 8
114 111 14
112 109 14
116 112 25
118 113 14
111 108 16
121 117 21
119 115 14
125 120 31
128 124 32
130 126 21
123 121 18
122 119 28
130 126 16
120 118 21
121 117 28
123 119 25
129 123 28
129 125 22
133 128 28
128 123 29
129 124 34
127 123 22
135 131 33
138 133 32
135 130 30
139 132 41
138 133 37
136 128 36
140 135 36
137 131 34
131 127 37
133 128 36
138 132 32
139 133 28
148 142 39
137 133 28
143 135 42
146 140 39
139 133 36
139 134 30
136 130 36
142 137 41
137 132 32
138 134 28
145 139 42
143 135 42
139 133 45
148 141 39
140 135 30
138 134 37
145 141 36
142 137 44
143 137 47
138 132 37
142 136 45
148 142 41
140 134 45
149 143 47
141 135 41
141 136 41
137 133 34
144 138 34
150 144 47
146 141 52
146 141 49
139 134 51
148 141 48
145 138 44
144 137 42
137 132 37
145 139 47
148 141 54
144 138 44
153 146 51
144 138 48
145 140 51
147 140 52
147 141 51
143 136 45
152 146 48
145 139 51
146 141 51
139 134 42
145 139 47
153 147 51
140 133 48
145 140 52
142 135 56
142 136 51
150 144 53
148 142 53
144 139 45
128 123 42
143 138 47
140 134 48
132 127 49
147 142 57
145 138 52
142 137 49
147 140 58
149 143 56
137 131 49
141 135 51
139 134 47
143 136 48
143 135 49
132 126 52
140 133 57
147 141 59
139 134 56
169 193 0
174 198 0
172 196 0
171 196 0
171 195 0
172 196 0
170 194 0
173 196 0
171 194 0
171 194 0
170 194 0
172 196 0
172 195 0
170 195 0
171 194 0
173 196 0
171 194 0
173 196 0
171 194 0
169 193 0
171 195 0
174 197 0
169 192 0
171 194 0
171 194 0
170 193 0
169 192 0
171 194 0
170 193 0
175 197 57
171 194 0
172 194 25
175 198 62
173 196 36
176 198 36
175 197 62
176 198 51
175 197 62
173 195 25
174 197 0
175 197 0
175 197 0
173 196 25
175 197 0
174 197 25
176 197 36
177 198 51
178 199 84
177 198 80
176 197 44
175 197 51
175 196 57
177 198 57
176 197 62
173 194 51
176 197 57
179 200 57
176 196 36
176 197 25
174 196 51
176 196 44
176 196 62
171 192 51
175 195 51
173 194 51
173 193 51
174 195 44
176 196 57
172 192 67
173 192 25
171 192 57
168 188 36
168 187 25
170 190 44
165 185 44
171 190 44
168 187 67
168 187 44
172 191 36
164 183 25
166 186 44
164 183 51
166 185 36
164 184 72
163 183 36
158 178 36
163 182 51
164 183 36
164 185 36
164 183 36
161 181 0
157 177 51
160 180 57
159 179 25
167 186 76
165 185 76
163 183 62
161 180 67
162 181 76
161 180 57
159 179 36
158 178 0
156 175 36
165 185 0
163 184 44
158 177 44
163 182 57
140 161 25
153 173 0
159 180 51
139 160 0
146 167 0
148 169 0
144 165 0
141 162 0
151 172 0
151 171 0
150 170 0
140 161 0
145 167 0
142 163 0
145 166 0
142 163 0
152 173 0
145 165 0
157 177 0
146 166 0
146 166 0
147 168 0
143 164 0
156 176 0
149 170 0
158 180 0
162 185 0
163 186 0
164 187 0
167 190 0
163 185 0
161 184 0
165 188 0
166 189 0
164 187 0
161 184 0
166 189 0
160 183 0
159 182 0
165 188 0
158 180 0
166 189 0
152 174 0
154 177 0
160 184 0
161 183 0
158 181 0
161 184 0
159 181 0
157 179 0
155 177 0
153 175 0
151 174 0
160 183 0
149 171 0
143 166 31
73 100 72
49 80 67
52 83 67
54 86 80
54 86 94
53 85 97
53 84 88
53 85 80
55 87 92
55 87 97
53 85 90
55 87 95
55 87 99
55 87 99
55 87 97
56 88 103
51 81 84
55 87 95
54 86 90
55 87 100
55 87 95
54 87 99
53 84 88
54 86 99
55 87 102
56 88 103
52 83 82
55 87 105
56 88 94
55 87 103
55 88 105
55 88 102
55 86 90
56 88 111
55 87 94
55 87 110
56 87 105
55 87 95
56 88 103
53 84 86
55 87 94
54 86 95
55 87 99
57 89 117
55 86 95
55 87 99
55 87 99
54 84 92
52 82 99
56 88 108
53 83 97
52 82 86
53 85 96
53 83 91
53 83 94
53 83 85
53 83 99
49 78 63
51 81 81
52 82 90
53 84 105
50 79 83
48 76 66
54 85 99
50 78 87
51 80 85
49 77 83
52 82 93
49 78 81
48 74 79
46 70 74
48 74 82
47 74 76
69 89 54
137 157 18
132 150 0
144 162 0
145 164 0
148 167 0
150 169 0
148 167 0
147 166 0
148 167 0
156 174 0
140 157 0
145 163 0
151 169 0
150 166 0
144 161 0
157 175 0
147 165 0
150 169 0
151 169 0
148 165 0
156 175 0
150 170 0
154 172 0
150 169 0
152 168 0
157 175 0
149 166 0
155 171 0
154 173 0
151 165 0
127 135 11
89 83 28
83 79 22
85 80 21
77 74 11
76 75 0
85 80 16
78 76 8
92 89 12
92 89 8
82 80 0
93 89 8
98 94 11
95 91 0
89 87 8
96 93 11
92 90 16
99 96 9
98 95 16
102 99 18
97 96 8
105 100 11
104 101 14
111 106 11
115 111 11
105 101 21
111 108 16
114 108 16
114 109 14
115 112 16
108 104 28
117 113 29
128 124 26
122 118 16
129 125 31
123 117 25
125 121 22
126 122 25
118 113 33
123 119 22
126 122 16
130 125 29
124 119 26
126 120 11
130 126 28
126 121 32
132 126 30
123 119 22
129 124 30
138 133 28
124 119 28
139 134 30
136 129 37
137 132 34
144 138 37
133 128 32
134 131 28
139 133 42
138 132 37
137 133 28
138 131 28
143 137 34
140 134 36
141 136 36
137 132 37
144 137 39
144 137 41
140 134 41
141 136 34
141 135 39
141 136 51
130 126 32
135 131 36
140 134 37
142 137 45
135 129 32
142 136 47
140 134 45
154 146 56
137 132 39
145 140 47
144 138 42
144 137 44
145 139 51
151 144 48
144 137 51
142 135 36
148 142 49
141 135 44
145 139 48
142 136 44
140 133 51
144 138 42
141 135 42
140 135 34
141 136 44
150 143 53
143 139 48
146 140 52
143 137 51
151 145 48
137 132 36
144 138 53
144 138 49
151 145 54
147 141 51
144 137 52
139 134 45
142 135 48
146 140 44
141 136 42
146 139 47
137 130 49
140 133 53
134 128 37
141 136 54
146 140 53
138 132 48
144 138 47
148 141 57
145 139 53
133 127 45
132 127 42
132 127 42
151 144 53
139 133 53
143 138 45
142 136 52
144 137 58
142 135 56
143 136 56
138 132 42
139 133 47
171 195 0
169 192 0
170 193 0
171 194 0
174 197 0
173 196 0
172 197 0
172 196 0
170 194 0
170 193 0
174 198 0
171 194 0
172 196 0
172 195 0
173 196 0
170 194 0
171 195 0
171 194 0
170 193 0
172 195 0
171 195 0
171 195 0
172 196 0
170 193 0
172 195 0
171 194 0
170 192 0
170 192 0
167 191 0
172 195 0
173 196 51
176 198 57
174 197 44
177 198 0
174 197 62
173 195 0
176 198 51
173 195 57
176 197 36
176 198 44
170 193 0
174 196 36
177 198 36
175 196 0
173 194 25
174 196 25
178 199 25
176 197 25
174 196 44
175 196 51
174 195 67
175 197 62
178 199 67
177 198 67
172 193 67
174 194 44
176 197 51
173 195 0
178 198 67
172 191 51
175 195 44
176 196 57
174 194 36
178 198 72
175 195 44
176 196 51
173 193 51
173 193 62
174 195 72
175 194 67
173 193 36
169 189 57
171 190 36
175 194 67
167 187 25
168 189 51
171 191 44
169 188 44
171 190 51
171 192 62
166 186 36
162 182 25
163 182 44
167 187 57
159 178 44
159 178 44
158 178 51
162 182 44
163 183 62
163 182 51
163 183 67
165 185 76
161 181 51
160 178 67
168 187 67
165 184 57
160 181 25
156 176 36
163 183 0
164 185 25
164 184 36
156 176 25
161 180 25
156 175 36
161 181 36
159 179 25
156 176 36
154 175 36
150 171 0
152 174 0
145 167 0
148 170 0
140 162 0
157 177 0
148 170 0
140 159 0
145 166 0
145 167 0
151 171 0
136 157 0
151 171 0
144 165 0
150 171 0
149 168 0
147 168 0
153 174 0
145 166 0
137 157 0
153 175 0
152 173 0
155 176 0
166 187 0
163 186 0
160 182 0
169 192 0
166 189 0
160 183 0
164 187 0
161 183 0
162 185 0
166 187 0
156 178 0
158 180 0
166 189 0
160 182 0
153 176 0
161 184 0
163 187 0
157 180 0
158 181 0
159 182 0
159 181 0
157 179 0
155 177 0
158 181 0
154 176 0
154 176 0
153 176 0
151 174 0
154 176 0
149 171 0
155 177 0
159 180 0
148 171 0
82 107 78
53 84 92
52 82 82
52 82 80
52 83 80
52 83 94
54 86 95
53 84 88
52 83 88
50 80 80
52 83 90
54 86 105
55 88 102
54 86 86
51 82 82
55 87 110
56 87 102
55 87 94
54 86 95
53 84 76
53 84 74
55 88 92
54 85 92
54 86 92
55 88 88
56 88 97
53 84 82
55 87 97
54 85 90
54 85 100
55 87 110
52 84 92
53 85 95
53 85 95
55 87 95
54 85 102
55 88 102
55 87 102
54 86 102
52 84 82
52 84 86
51 82 80
56 88 113
53 83 90
54 86 105
53 84 90
51 82 86
54 84 103
52 82 86
54 85 103
52 83 97
51 81 86
53 83 94
55 87 104
52 82 84
54 85 97
50 80 79
52 82 86
54 85 96
50 78 82
49 78 92
51 79 91
52 81 86
51 80 80
51 80 82
45 71 63
50 78 88
48 75 83
50 78 70
50 77 73
49 75 73
77 96 63
140 157 8
148 168 0
129 148 0
142 161 0
145 163 0
141 158 0
144 163 0
147 165 0
150 169 0
145 161 0
157 175 0
142 160 0
149 166 0
147 166 0
145 162 0
157 176 0
143 159 0
144 160 0
155 173 0
153 171 0
148 162 0
153 169 0
149 167 0
148 164 0
145 160 0
154 171 0
154 170 0
150 166 0
154 169 0
146 163 0
146 161 0
147 163 11
120 127 19
95 90 26
82 77 21
88 83 21
82 77 11
79 73 16
84 80 16
103 100 11
82 79 8
93 89 11
96 94 8
89 84 0
92 88 0
92 88 16
88 84 0
101 99 12
95 91 0
92 88 11
103 100 0
103 97 11
100 97 11
99 95 19
101 96 16
114 111 3
105 102 14
115 110 21
114 109 18
124 120 24
114 107 21
117 113 30
111 108 25
108 105 12
119 113 19
125 120 27
117 112 8
120 115 25
117 112 18
120 116 0
133 126 36
124 119 28
121 117 25
123 118 19
132 129 30
121 118 22
124 120 16
127 122 25
130 125 32
135 130 32
125 121 28
132 126 35
127 123 32
136 131 32
134 130 32
135 130 37
131 127 30
135 129 30
132 127 34
140 135 34
128 122 36
140 136 36
144 139 39
140 134 37
133 127 28
137 130 39
137 132 30
136 130 28
142 135 36
141 135 39
152 143 48
145 140 37
135 130 37
142 136 37
136 130 39
146 141 41
135 130 32
150 143 45
144 138 52
135 129 36
137 132 32
147 141 37
147 140 45
144 138 34
146 140 47
140 134 42
146 139 52
143 137 37
138 133 44
134 129 34
139 134 34
144 139 32
148 141 48
139 133 44
144 138 44
146 138 52
131 126 41
146 140 41
142 137 47
141 134 42
139 134 45
141 135 47
140 135 45
144 138 44
144 137 48
142 136 49
144 139 47
140 135 45
137 130 44
139 132 48
143 138 44
151 146 59
145 139 52
146 141 49
150 143 53
151 144 53
141 134 47
139 133 53
144 138 48
140 134 41
141 135 53
141 136 44
141 136 45
141 137 45
145 139 49
144 137 60
141 134 48
140 136 47
131 124 49
142 136 47
132 127 56
142 136 52
136 129 45
144 137 49
172 195 0
172 196 0
174 197 0
171 195 0
173 197 0
172 195 0
173 196 0
171 194 0
171 195 0
172 196 0
169 192 0
172 195 0
172 196 0
171 195 0
171 195 0
172 195 0
172 194 0
174 196 0
171 194 0
171 195 0
173 196 0
170 194 0
171 194 0
173 196 0
164 187 0
173 196 0
171 193 0
170 193 0
172 195 0
168 190 0
171 193 0
167 189 0
169 192 25
174 196 0
170 193 36
176 198 25
175 196 36
174 197 25
176 198 36
175 197 51
176 198 51
175 197 36
173 195 51
175 197 36
175 197 57
176 198 0
173 195 0
172 193 0
167 189 0
171 193 44
174 196 25
177 198 36
175 196 25
179 199 51
180 201 72
180 199 67
175 195 51
176 196 57
174 193 44
171 191 51
174 195 36
176 196 44
178 197 72
173 193 44
175 195 36
175 195 57
174 194 44
172 191 51
168 188 36
166 186 36
169 189 57
169 189 51
168 187 67
171 190 36
167 186 62
167 186 57
168 186 44
170 189 44
170 189 51
160 180 36
167 187 57
159 178 72
164 184 51
163 181 62
163 183 62
159 178 25
164 184 84
162 181 67
161 181 51
156 176 25
163 182 67
160 179 25
166 184 57
162 182 0
157 176 25
159 179 25
156 176 44
157 177 36
157 177 36
162 181 51
161 180 51
160 180 44
157 178 44
155 175 25
152 172 25
155 175 25
150 171 0
149 171 0
148 169 0
150 171 0
150 172 0
151 172 0
148 169 0
152 171 0
146 166 0
153 174 0
148 169 0
151 171 0
140 161 0
149 169 0
142 162 0
149 169 0
148 169 0
148 168 0
150 170 0
149 169 0
147 167 0
143 162 0
153 174 0
150 169 0
169 189 0
165 187 0
164 186 0
158 181 0
158 181 0
160 182 0
163 185 0
164 186 0
161 183 0
159 182 0
159 181 0
160 182 0
165 188 0
157 180 0
161 184 0
160 182 0
161 182 0
159 180 0
156 178 0
149 171 0
156 179 0
151 173 0
154 177 0
148 171 0
150 172 0
158 180 0
149 170 0
153 174 0
152 174 0
139 161 0
151 173 0
145 168 0
140 163 0
146 169 0
141 162 18
95 118 72
47 76 70
49 79 78
53 84 86
52 83 86
53 84 97
50 80 65
52 83 88
52 83 100
53 84 88
51 81 90
51 82 90
55 87 95
55 87 95
52 84 86
53 84 97
52 82 84
52 82 86
55 87 95
53 84 92
55 87 103
55 86 99
51 82 78
50 80 82
54 86 86
53 84 94
52 82 84
51 82 82
53 84 88
52 83 88
53 84 84
54 85 94
52 83 95
55 88 103
55 87 99
54 86 95
54 86 107
54 85 97
54 85 92
55 88 94
52 83 92
54 85 84
54 86 90
55 86 92
52 83 80
51 80 86
54 84 100
53 84 94
53 84 103
51 82 94
53 84 94
53 85 97
54 85 94
51 80 87
54 85 105
53 83 92
53 84 92
50 79 83
51 80 91
48 76 81
50 78 92
49 77 68
48 77 77
50 79 70
50 78 86
48 76 78
49 78 85
48 76 62
46 72 72
75 95 65
134 153 0
129 147 0
144 162 0
135 154 0
134 153 0
133 151 0
149 167 0
140 155 0
137 153 0
147 163 0
142 156 0
139 156 0
135 152 0
142 157 0
136 154 0
145 164 0
145 163 0
143 160 0
137 153 0
150 165 0
141 157 0
133 148 0
144 157 0
155 170 0
145 159 0
140 155 0
156 174 0
145 161 0
146 162 0
150 163 0
148 163 0
153 169 0
153 169 0
156 171 0
125 133 18
82 77 25
85 81 11
88 80 11
94 88 16
97 93 16
87 82 0
89 85 0
80 76 11
83 83 8
86 82 0
87 83 0
85 81 0
98 95 14
97 94 14
90 88 8
96 92 14
100 96 0
101 95 8
91 89 0
114 109 0
103 98 21
87 85 14
107 104 8
95 94 11
116 111 22
116 110 11
113 107 22
109 105 21
116 111 18
121 117 11
117 111 19
121 116 23
115 111 14
126 121 19
123 118 19
131 126 11
127 121 26
118 114 16
123 118 18
119 114 19
125 120 21
124 121 16
119 114 16
131 127 22
134 129 19
134 129 19
133 128 26
128 123 30
130 126 25
133 128 30
135 129 34
132 126 25
140 135 32
130 127 34
133 127 30
131 125 22
137 133 22
133 128 28
134 127 22
140 134 44
145 140 41
133 128 22
143 137 36
126 121 19
139 134 34
133 127 30
137 131 37
142 134 30
132 127 32
140 135 28
143 139 34
139 134 41
141 136 37
138 133 25
135 130 39
136 130 39
138 133 39
132 126 36
145 139 41
144 137 48
138 132 36
142 136 48
136 129 37
137 131 37
141 137 34
147 140 47
143 138 39
134 127 37
146 138 39
136 131 49
146 140 47
135 130 44
143 136 47
148 141 56
143 137 44
141 135 45
139 134 36
141 134 44
142 135 41
134 130 39
132 125 36
140 134 42
139 132 41
144 138 44
141 135 49
133 126 41
144 138 49
138 132 51
137 132 48
137 131 54
143 136 52
138 132 48
143 137 49
138 133 45
143 137 49
142 135 41
134 129 42
138 132 44
144 136 51
145 138 54
148 140 57
138 132 49
143 136 45
138 132 47
135 130 45
136 129 49
140 134 44
139 134 53
140 134 52
147 140 59
173 197 0
174 198 0
172 196 0
172 196 0
171 194 0
172 196 0
173 196 0
172 196 0
173 197 0
174 197 0
173 197 0
172 195 0
172 196 0
169 191 0
174 197 0
173 197 0
173 197 0
173 196 0
169 192 0
167 190 0
172 195 0
172 195 0
169 193 0
169 192 0
171 194 0
172 194 0
172 194 0
170 193 0
169 192 0
171 194 0
173 196 0
171 194 0
170 193 0
172 195 0
175 198 51
176 199 57
173 196 0
175 197 25
174 197 44
177 198 44
177 198 36
175 196 51
178 199 72
172 195 25
174 196 51
176 197 51
179 198 25
176 197 51
175 197 0
175 196 36
172 192 44
172 193 25
172 193 44
174 195 25
175 195 25
176 197 51
178 197 57
179 199 57
175 194 57
176 196 44
175 194 76
174 194 51
172 191 80
173 193 72
175 194 84
175 195 36
177 196 62
172 191 51
175 194 80
170 189 51
174 194 51
175 195 67
166 186 25
172 192 72
168 188 0
164 184 44
165 185 25
169 188 57
165 184 51
166 186 67
167 186 44
163 182 80
169 188 80
167 187 51
165 184 62
158 177 72
158 177 57
164 183 44
167 187 57
160 180 36
160 179 0
163 182 0
160 180 51
161 181 36
161 181 25
166 185 25
158 178 25
157 176 0
157 177 44
164 184 36
161 182 57
159 180 36
156 176 25
146 167 0
161 182 36
155 175 0
150 171 0
151 172 0
146 167 0
158 179 0
136 157 0
149 169 0
151 172 0
145 166 0
146 167 0
147 168 0
144 164 0
145 167 0
152 173 0
150 169 0
143 163 0
146 167 0
138 157 0
152 172 0
142 162 0
147 167 0
154 175 0
154 174 0
154 176 0
163 186 0
163 185 0
165 188 0
163 185 0
164 186 0
165 187 0
164 187 0
161 183 0
161 183 0
163 186 0
166 187 0
158 181 0
154 176 0
166 189 0
155 176 0
155 178 0
161 183 0
152 174 0
151 173 0
160 183 0
156 179 0
154 176 0
151 173 0
152 174 0
149 172 0
145 167 0
151 173 0
158 180 0
155 177 0
155 178 0
154 176 0
146 168 0
145 168 0
138 160 0
143 165 0
141 162 0
137 159 25
83 109 65
51 81 70
53 84 82
50 80 72
50 79 74
52 83 74
50 80 84
52 82 84
53 84 95
54 86 94
49 80 74
54 87 88
54 85 100
49 79 76
55 87 102
54 86 97
54 86 97
54 86 84
51 82 86
54 85 99
52 83 82
52 82 86
54 86 92
54 85 95
54 85 97
52 84 82
52 83 95
51 82 90
53 84 82
54 85 97
53 83 88
51 81 86
52 82 88
55 86 97
55 87 105
50 80 86
55 86 110
52 83 94
54 86 99
55 87 92
50 79 86
50 80 85
53 84 95
52 83 80
51 81 88
51 82 80
52 83 85
54 85 90
51 81 94
54 85 92
52 82 94
50 80 80
52 82 84
50 80 75
52 83 96
52 81 91
50 80 70
49 78 85
50 79 80
48 76 85
48 75 79
50 79 87
52 81 85
50 79 82
50 78 81
45 71 68
44 68 61
84 101 47
135 153 0
134 153 0
133 147 0
135 153 0
126 141 0
137 153 0
130 147 0
141 157 0
143 161 0
125 138 0
141 158 0
142 157 0
151 168 0
140 156 0
139 155 0
134 151 0
139 154 0
147 163 0
135 153 0
145 160 0
142 159 0
140 156 0
137 149 0
134 147 0
150 166 0
146 160 0
145 160 0
148 163 0
142 154 0
138 151 0
145 158 0
143 156 0
141 153 0
138 151 0
144 156 0
145 158 0
130 140 11
98 93 25
85 79 16
92 86 26
85 81 14
84 80 18
83 78 18
74 71 11
81 80 11
89 86 14
98 94 0
84 81 0
98 92 0
96 91 0
88 84 11
97 92 11
97 93 0
102 97 8
100 95 14
105 100 11
112 107 11
104 100 3
111 108 14
105 102 0
111 105 0
106 99 8
112 106 11
116 112 11
122 117 8
109 104 18
118 114 0
117 113 18
126 122 26
121 115 21
115 110 16
117 113 19
114 109 19
126 121 18
128 124 19
130 125 19
122 119 19
120 116 24
129 126 19
134 129 34
125 120 19
129 124 19
134 129 28
124 120 19
131 126 26
128 125 20
131 125 28
124 120 11
123 118 16
140 135 30
129 125 11
131 126 22
131 125 30
135 130 30
140 134 42
136 130 39
140 134 28
143 136 37
131 126 19
137 130 36
131 127 22
135 129 36
136 132 39
135 130 32
128 123 30
137 132 41
141 135 44
143 138 44
135 130 32
138 133 30
134 129 30
139 133 41
137 130 37
133 127 39
137 132 42
142 137 44
141 136 37
144 138 42
139 134 34
132 126 39
146 140 51
143 137 48
142 136 41
134 127 37
132 126 34
143 137 41
140 133 39
143 136 49
144 137 42
140 134 44
139 134 36
139 132 41
145 139 44
141 136 41
145 138 48
141 136 39
141 134 51
145 139 49
140 134 37
141 135 42
143 135 54
133 128 45
138 132 44
140 134 48
136 130 39
143 136 44
136 130 45
136 130 42
135 129 49
143 138 49
140 134 52
143 137 51
136 131 47
132 126 47
133 127 44
141 137 49
138 133 48
137 131 51
135 129 44
135 128 48
136 131 47
137 130 48
131 126 42
141 136 51
136 131 48
139 133 41
172 195 0
172 196 0
173 196 0
172 196 0
170 194 0
167 191 0
172 196 0
169 193 0
168 192 0
173 196 0
172 196 0
169 192 0
172 196 0
173 196 0
173 197 0
171 194 0
172 196 0
175 198 0
171 195 0
169 192 0
171 195 0
172 196 0
172 195 0
172 194 0
168 191 0
171 194 0
169 192 0
166 190 0
169 192 0
167 191 0
170 193 0
167 190 0
168 191 0
170 193 0
166 189 0
170 192 0
171 194 0
174 196 36
171 192 36
175 197 62
170 191 36
174 196 44
176 198 51
174 196 0
173 195 44
175 196 51
173 194 25
175 196 51
175 196 51
173 193 25
175 196 0
172 193 36
174 195 44
168 190 25
174 195 0
175 196 25
173 194 25
171 192 36
173 194 44
174 195 0
175 194 36
171 192 0
174 194 25
173 193 25
172 191 51
175 195 44
170 190 51
175 195 51
180 199 72
173 192 51
171 190 44
177 196 36
170 189 51
163 182 44
169 188 51
167 186 51
173 191 44
168 188 51
163 183 44
170 190 57
164 184 51
161 181 57
164 183 25
165 185 25
161 181 0
164 184 0
168 188 36
163 182 25
166 185 0
163 183 25
154 174 36
164 184 36
160 178 36
160 179 25
168 188 67
153 173 62
152 172 25
159 179 25
161 181 36
161 180 44
163 183 44
151 172 25
152 174 0
154 176 0
148 169 0
152 174 0
151 173 0
154 175 0
154 175 0
151 172 0
148 168 0
149 171 0
153 173 0
154 175 0
148 169 0
148 169 0
143 163 0
155 175 0
143 163 0
148 168 0
147 167 0
144 165 0
149 169 0
146 166 0
157 177 0
157 177 0
143 162 0
154 175 0
159 181 0
158 180 0
163 184 0
159 181 0
159 180 0
162 184 0
160 181 0
156 178 0
158 180 0
159 180 0
162 184 0
157 179 0
159 180 0
152 175 0
151 173 0
157 178 0
164 185 0
152 175 0
150 172 0
157 180 0
159 180 0
153 175 0
157 179 0
151 173 0
151 173 0
154 177 0
149 171 0
151 174 0
146 167 0
149 170 0
145 167 0
146 167 0
140 162 0
145 167 0
141 162 0
142 163 0
136 157 0
129 151 0
133 154 0
96 117 31
52 82 76
49 78 70
50 80 60
51 81 80
54 85 90
51 81 82
49 79 72
53 84 86
53 85 84
50 80 84
50 79 80
52 83 90
52 82 84
53 84 78
52 83 90
55 87 94
52 83 78
54 86 92
54 85 78
55 87 86
56 88 108
55 88 99
53 84 97
52 82 86
54 86 94
53 84 90
55 87 97
52 83 88
53 84 94
55 88 107
52 83 82
56 88 102
56 88 99
50 80 84
55 86 103
52 83 94
52 83 94
53 84 94
54 85 92
52 82 92
54 86 92
51 82 70
51 81 92
51 81 82
54 85 92
52 82 97
52 83 96
51 80 90
51 80 90
49 78 82
51 81 80
52 82 94
52 82 70
52 82 92
47 74 74
48 76 79
47 75 78
50 78 81
48 76 79
51 80 86
49 78 78
48 76 78
47 73 75
46 72 62
91 109 37
132 149 0
132 150 0
132 148 0
135 152 0
135 152 0
129 145 0
131 146 0
127 142 0
130 148 0
140 159 0
125 140 0
135 149 0
133 149 0
134 149 0
135 150 0
132 146 0
137 151 0
133 147 0
145 160 0
137 150 0
141 157 0
143 158 0
145 158 0
146 161 0
139 153 0
140 155 0
144 155 0
141 154 0
140 154 0
146 159 0
128 142 0
136 149 0
142 152 0
143 157 0
131 143 0
140 155 0
148 160 0
153 165 0
130 138 11
101 99 22
100 94 25
86 81 25
99 92 26
85 81 16
91 84 11
94 89 11
91 87 16
90 85 0
90 87 14
95 91 0
95 90 8
95 89 14
103 98 0
94 91 8
96 93 8
89 86 14
97 93 0
99 94 0
100 97 14
111 104 11
107 103 11
103 100 0
106 102 16
117 113 11
102 97 8
119 115 8
115 111 18
120 114 16
100 95 21
124 119 22
119 114 11
119 114 14
123 117 22
120 115 19
121 115 11
125 120 28
127 123 16
124 117 18
117 112 0
128 122 22
132 127 22
114 110 22
130 126 16
127 122 14
122 118 19
126 121 19
131 126 19
126 123 16
129 124 28
132 128 25
135 130 37
123 117 11
133 126 32
137 131 36
127 122 22
130 124 30
128 122 28
136 129 30
139 134 36
135 128 28
135 130 32
133 128 34
136 131 34
137 131 36
134 128 28
134 129 28
138 132 41
129 125 25
129 125 22
136 131 25
139 134 41
142 135 41
140 133 39
146 139 41
132 127 32
139 132 34
137 131 39
138 133 34
143 135 39
149 144 41
140 134 36
142 136 41
142 136 48
134 128 41
143 138 42
139 133 41
141 135 37
140 134 42
143 137 45
132 127 32
141 134 42
140 135 39
131 127 39
139 133 42
141 134 51
133 127 42
138 132 37
142 135 44
135 130 39
138 133 49
147 141 49
138 133 44
139 134 39
138 132 44
137 130 49
142 135 41
138 132 48
135 128 39
133 127 36
140 133 48
137 132 49
136 130 44
134 128 44
142 136 49
147 140 54
144 137 47
131 125 39
136 130 44
133 126 42
142 135 54
143 138 52
135 129 44
132 127 44
150 143 57
137 131 44
139 133 59
136 131 45
171 195 0
172 195 0
171 195 0
171 195 0
170 194 0
171 194 0
171 194 0
171 195 0
171 194 0
173 197 0
174 197 0
171 194 0
171 194 0
171 194 0
171 194 0
170 193 0
174 197 0
172 196 0
173 196 0
173 196 0
171 195 0
171 194 0
171 195 0
168 192 0
171 194 0
170 192 0
171 194 0
171 195 0
171 193 0
169 193 0
170 193 0
170 193 0
173 196 0
171 194 0
173 196 0
164 188 0
170 193 0
171 194 0
165 189 0
172 195 36
175 197 44
173 195 0
176 197 44
174 196 51
172 194 0
171 194 0
171 192 25
171 192 44
176 196 44
174 196 36
172 194 44
176 197 25
174 196 36
170 189 36
170 191 36
174 196 36
176 196 44
172 192 25
174 195 36
174 194 25
172 192 0
170 191 25
171 191 0
174 194 51
166 187 25
171 191 36
170 190 25
167 188 0
171 192 0
167 187 25
172 191 0
172 192 44
168 188 0
166 186 25
169 189 36
169 189 0
164 185 36
169 189 36
164 184 25
166 185 0
163 182 25
159 179 36
164 183 25
160 180 25
171 190 51
165 185 36
168 188 25
164 183 36
167 187 36
162 181 44
159 180 36
160 180 36
159 178 44
160 180 25
159 178 25
153 173 36
156 176 25
155 176 0
158 179 25
155 175 0
160 182 0
155 176 0
156 177 0
147 168 0
154 175 0
155 176 0
149 171 0
145 166 0
153 174 0
152 173 0
148 169 0
144 165 0
150 171 0
150 171 0
148 168 0
146 167 0
143 163 0
147 167 0
137 156 0
143 163 0
141 162 0
155 176 0
154 174 0
150 170 0
152 173 0
152 171 0
151 172 0
162 182 0
158 179 0
165 186 0
166 187 0
166 187 0
163 185 0
161 182 0
158 180 0
163 184 0
156 177 0
154 175 0
161 183 0
158 179 0
155 176 0
151 174 0
159 180 0
153 174 0
161 183 0
153 175 0
148 170 0
157 178 0
144 165 0
151 173 0
152 173 0
157 178 0
148 170 0
139 161 0
144 166 0
149 171 0
144 167 0
147 169 0
143 163 0
136 158 0
142 164 0
143 163 0
141 162 0
135 156 0
131 152 0
135 156 0
134 154 0
129 150 0
114 136 36
51 79 62
50 79 62
52 82 84
50 80 65
49 79 70
53 84 84
51 81 76
51 82 76
54 86 82
55 87 95
52 83 82
50 81 80
54 86 86
52 84 90
51 81 78
52 83 78
52 83 84
53 83 80
51 82 94
54 85 95
54 86 88
52 82 76
52 82 84
52 84 80
54 85 99
53 84 95
52 83 88
51 82 95
51 82 88
53 84 94
52 83 80
53 84 92
52 82 82
49 79 78
53 84 100
50 80 88
52 83 86
52 82 78
55 87 108
51 81 94
51 81 84
51 81 90
51 81 82
52 82 90
49 78 83
48 77 65
51 81 90
50 79 74
51 81 82
52 81 92
51 81 92
46 73 67
47 76 76
51 80 70
48 77 70
49 77 89
48 76 70
49 76 78
47 74 65
47 73 67
45 71 68
56 78 60
94 112 41
122 138 0
132 148 0
128 145 0
121 135 0
124 140 0
133 149 0
126 143 0
125 141 0
127 143 0
131 145 0
133 150 0
124 138 0
125 142 0
131 146 0
133 149 0
133 148 0
136 150 0
138 154 0
132 146 0
136 150 0
124 140 0
131 146 0
136 150 0
137 151 0
130 146 0
135 148 0
141 155 0
143 158 0
133 146 0
145 157 0
130 144 0
143 153 0
133 145 0
147 161 0
138 150 0
144 155 0
141 154 0
138 150 0
145 153 0
136 146 0
142 153 0
102 102 19
88 83 18
86 81 16
85 79 18
85 81 22
98 92 16
84 79 11
90 87 0
95 89 0
83 78 0
90 84 0
95 90 8
89 85 8
94 90 8
100 95 11
101 97 0
97 94 11
101 97 8
92 89 8
103 101 0
103 100 0
105 100 14
116 112 14
114 107 0
109 103 16
112 109 11
114 108 14
118 112 0
116 110 0
111 105 0
119 115 18
115 111 8
126 118 16
119 112 21
122 117 19
120 115 11
118 111 16
112 109 11
124 119 19
124 119 18
112 109 19
119 113 22
120 115 19
126 121 19
129 124 22
122 117 25
127 122 19
136 130 30
129 121 19
129 123 28
134 128 28
128 123 22
121 117 16
136 131 25
123 117 25
135 130 25
134 126 34
133 126 19
133 128 22
139 132 34
128 124 16
135 130 28
137 131 30
134 128 28
137 131 30
143 136 34
127 122 32
137 131 34
133 126 34
142 136 44
133 128 36
145 138 42
136 131 39
140 133 42
139 132 30
133 128 30
138 131 32
143 136 34
137 132 32
146 140 41
140 133 39
139 132 37
145 139 41
137 132 34
128 124 25
133 127 44
142 136 39
137 132 42
139 134 39
130 124 41
141 134 41
141 134 34
141 135 41
140 135 48
143 137 49
143 135 52
141 135 41
139 134 36
136 131 41
131 124 39
139 133 37
135 129 39
130 125 39
133 127 42
136 130 37
135 129 44
135 129 44
136 131 41
148 142 51
136 131 42
138 132 44
139 132 49
130 124 44
140 134 41
134 128 39
137 131 44
135 130 45
130 123 39
143 137 48
135 129 45
138 133 49
144 136 51
136 129 47
133 127 47
125 119 42
129 123 49
140 133 48
174 196 0
174 198 0
173 197 0
174 197 0
173 196 0
174 197 0
175 198 0
172 195 0
172 196 0
170 193 0
172 195 0
172 196 0
172 195 0
171 194 0
171 194 0
173 196 0
169 192 0
171 195 0
172 195 0
172 195 0
172 194 0
173 196 0
174 197 0
168 191 0
171 194 0
173 195 0
173 195 0
172 195 0
169 192 0
171 195 0
171 194 0
170 193 0
172 195 0
167 190 0
165 188 0
170 193 0
168 190 0
170 193 0
171 194 0
169 192 0
170 192 0
168 191 0
171 194 25
170 191 36
174 195 25
172 193 0
175 196 25
175 197 44
175 197 25
169 191 36
171 192 0
173 194 36
176 197 51
174 195 36
173 194 25
178 198 57
175 196 44
175 195 25
174 194 51
167 187 0
176 197 44
171 192 44
171 192 0
171 192 25
169 190 36
172 193 36
172 192 44
169 190 25
173 193 25
174 193 36
174 194 25
168 188 0
167 188 57
168 188 36
170 190 0
165 185 44
169 190 51
166 186 44
167 187 36
161 181 25
162 182 0
168 187 0
166 186 25
159 178 36
167 187 44
160 180 25
164 183 25
168 187 25
163 184 25
163 183 36
162 183 36
158 178 36
162 182 36
162 183 25
157 178 0
157 179 25
161 183 0
152 173 0
161 181 0
150 171 0
155 176 0
152 174 0
150 170 0
160 180 0
156 177 0
155 175 0
153 174 0
142 164 0
152 174 0
141 161 0
153 174 0
150 171 0
148 168 0
150 171 0
152 171 0
149 170 0
138 158 0
144 166 0
144 165 0
147 167 0
148 168 0
142 161 0
154 174 0
145 164 0
150 170 0
155 176 0
164 185 0
167 188 0
167 187 0
163 184 0
157 178 0
160 181 0
158 179 0
164 186 0
166 188 0
161 182 0
157 178 0
156 177 0
157 179 0
156 177 0
162 184 0
159 181 0
141 162 0
150 171 0
155 177 0
158 179 0
151 173 0
153 174 0
155 177 0
140 162 0
145 166 0
151 171 0
149 170 0
155 176 0
149 171 0
146 167 0
146 167 0
138 158 0
131 152 0
135 155 0
145 165 0
127 148 0
140 160 0
138 159 0
134 154 0
127 148 0
137 158 0
128 147 0
126 146 0
115 136 31
67 90 62
51 81 74
51 81 76
49 80 74
51 81 86
52 83 86
51 82 78
46 74 54
52 82 82
51 81 78
51 81 78
52 82 95
51 82 86
52 83 80
55 87 105
50 80 86
53 84 82
52 84 82
54 86 90
54 86 92
52 83 82
55 86 99
51 81 76
53 85 90
51 80 76
52 83 78
51 81 82
52 83 86
54 86 88
53 84 84
51 81 82
50 79 84
51 81 95
53 84 102
52 83 97
53 85 84
51 82 80
51 81 82
51 80 74
52 82 80
49 77 65
49 78 82
49 78 72
52 82 84
53 84 90
52 82 87
54 85 98
48 77 80
47 75 74
50 78 75
49 78 81
51 80 80
50 79 82
52 81 89
46 74 67
50 79 88
47 74 77
48 75 87
45 72 63
68 89 63
107 122 18
110 124 0
107 121 0
128 142 0
111 127 0
119 134 0
117 132 0
127 143 0
122 138 0
132 148 0
132 145 0
127 141 0
134 151 0
130 147 0
119 134 0
138 153 0
138 151 0
125 138 0
130 144 0
138 153 0
125 140 0
142 157 0
130 144 0
134 148 0
131 144 0
128 140 0
133 145 0
141 157 0
141 154 0
132 144 0
134 148 0
142 156 0
133 144 0
131 144 0
131 144 0
126 136 0
141 149 0
146 158 0
139 148 0
141 151 0
137 146 0
139 148 0
133 143 0
140 146 0
98 98 22
79 76 26
83 77 14
78 74 0
93 88 20
92 87 0
86 81 14
85 80 14
98 91 11
85 79 0
107 102 11
93 87 0
90 86 8
94 89 0
89 85 0
105 97 14
110 104 11
107 102 0
96 93 0
100 96 0
101 95 8
99 96 16
104 98 0
110 105 0
110 104 0
106 102 0
100 97 11
119 113 0
111 105 11
114 108 11
111 106 0
112 107 16
110 105 8
124 120 0
120 113 16
123 116 11
122 114 19
127 122 19
124 118 11
126 121 16
118 113 16
115 112 14
124 119 11
128 122 11
134 129 19
125 120 19
122 116 19
124 118 14
124 119 26
127 122 11
125 120 16
126 121 32
133 128 25
133 127 32
128 123 25
131 126 25
133 127 28
134 127 30
124 121 16
134 128 22
135 128 37
129 122 28
132 126 32
137 130 37
135 129 34
128 122 32
136 129 30
135 129 28
129 122 34
130 124 32
130 126 30
127 120 36
145 138 47
135 129 34
136 131 34
132 125 34
128 124 25
131 127 30
138 133 36
133 127 39
136 131 42
141 135 37
142 137 34
137 133 37
150 144 39
141 133 32
137 132 39
126 120 28
141 134 42
130 124 34
135 129 36
141 134 41
137 130 36
138 132 37
128 123 28
143 137 42
148 141 54
136 130 34
139 132 39
140 134 39
148 140 51
132 126 37
135 129 30
131 125 44
135 128 45
129 124 34
133 127 44
143 138 54
133 126 47
133 130 39
139 133 44
138 131 48
141 135 47
131 126 39
129 123 42
132 126 41
134 128 44
141 135 52
143 137 49
133 129 39
134 128 39
137 131 53
138 131 48
127 119 49
134 127 49
137 131 47
171 194 0
173 196 0
175 198 0
174 197 0
171 195 0
174 197 0
170 194 0
173 196 0
174 197 0
172 195 0
170 193 0
171 195 0
173 195 0
171 194 0
172 195 0
176 198 0
170 194 0
172 195 0
169 192 0
173 195 0
173 197 0
174 197 0
173 195 0
168 191 0
169 192 0
171 194 0
170 193 0
170 193 0
169 192 0
169 192 0
169 193 0
171 195 0
174 196 0
168 191 0
168 191 0
171 194 0
170 193 0
164 186 0
168 191 0
173 196 0
167 190 0
171 194 0
165 188 0
170 193 0
166 188 0
168 189 0
171 193 25
167 189 36
173 194 25
172 193 25
175 197 44
173 194 36
174 194 25
174 196 25
173 194 36
173 193 36
171 191 25
173 194 0
171 190 25
169 189 44
172 192 25
173 195 0
177 196 51
175 194 36
170 190 57
171 191 44
168 188 44
173 194 62
168 188 44
169 189 0
171 191 51
174 195 51
167 187 36
175 194 36
170 190 51
169 189 36
168 188 44
172 191 36
164 183 36
168 188 44
168 187 36
164 184 36
162 181 51
163 184 25
164 183 0
164 184 57
165 185 36
168 188 36
162 181 44
164 184 25
160 179 36
152 173 0
157 177 0
162 183 0
161 182 0
161 182 0
159 180 0
149 171 0
152 174 0
158 179 0
161 182 0
154 175 0
150 171 0
156 177 0
144 164 0
157 179 0
156 176 0
156 176 0
140 161 0
152 172 0
156 176 0
147 167 0
144 164 0
146 167 0
150 170 0
154 174 0
153 174 0
147 166 0
148 167 0
147 165 0
153 173 0
146 166 0
155 175 0
155 175 0
164 185 0
163 184 0
166 187 0
166 187 0
162 182 0
161 181 0
156 178 0
156 177 0
160 182 0
156 177 0
156 177 0
167 188 0
151 172 0
152 173 0
152 174 0
148 170 0
145 166 0
156 177 0
159 180 0
159 180 0
156 178 0
149 171 0
158 179 0
146 167 0
149 171 0
142 163 0
148 169 0
148 169 0
146 167 0
144 165 0
147 168 0
145 166 0
147 169 0
139 160 0
138 159 0
145 166 0
147 168 0
129 150 0
134 155 0
140 160 0
128 148 0
135 155 0
132 152 0
136 156 0
129 148 0
122 141 0
120 139 0
91 112 40
52 80 67
48 77 82
50 80 67
51 81 70
51 81 70
49 79 74
50 79 80
51 82 90
52 83 95
51 82 80
51 83 72
52 82 88
53 83 82
52 83 84
51 82 88
53 83 86
54 85 84
51 81 82
52 81 84
50 80 80
52 83 78
51 82 78
50 80 86
52 83 94
52 83 88
52 82 84
54 85 94
50 79 80
50 80 86
50 80 78
51 81 82
52 83 82
51 82 88
50 79 84
49 78 74
49 79 76
52 83 81
52 83 90
50 80 72
51 81 78
51 81 84
53 83 90
52 82 96
47 75 67
47 74 79
51 80 77
50 79 75
51 79 92
50 79 88
50 78 90
47 75 65
46 73 48
45 71 67
46 72 72
43 68 70
42 67 54
84 101 36
99 114 18
108 124 0
114 127 0
113 127 0
133 150 0
114 127 0
126 141 0
114 129 0
119 135 0
120 134 0
113 128 0
123 138 0
129 147 0
125 139 0
137 154 0
121 135 0
128 144 0
118 132 0
127 141 0
128 144 0
131 146 0
128 142 0
126 139 0
116 128 0
123 137 0
128 144 0
135 147 0
130 143 0
126 136 0
133 146 0
140 154 0
141 153 0
135 146 0
125 136 0
127 139 0
139 150 0
139 152 0
135 143 0
134 143 0
134 140 0
132 140 0
135 144 0
136 145 0
124 131 0
131 140 0
133 140 0
119 121 19
98 93 16
84 80 11
88 83 11
85 79 0
86 82 8
90 84 0
92 88 14
89 85 14
94 89 0
83 79 0
98 90 5
89 84 8
94 90 0
102 97 0
96 93 0
106 100 0
103 100 8
99 90 0
109 103 0
108 102 0
106 100 0
99 95 0
108 101 0
105 100 0
108 104 0
108 103 11
101 97 0
113 109 0
123 119 25
107 101 0
109 103 11
105 101 14
118 111 16
111 105 16
115 111 0
121 115 0
121 115 22
123 117 11
119 112 14
118 112 22
127 121 16
127 123 0
130 124 22
128 123 19
120 114 16
131 124 19
122 117 16
122 115 25
126 120 22
127 122 19
135 128 25
134 128 16
131 125 22
128 120 32
133 128 22
134 128 16
129 123 25
139 133 37
133 128 25
129 124 19
135 129 30
125 120 28
136 130 25
134 129 25
133 128 25
128 123 28
135 130 36
135 129 25
136 129 32
134 128 34
142 136 34
132 125 37
133 127 32
138 133 32
134 128 30
131 124 34
141 135 39
145 139 42
132 126 37
135 128 32
138 132 39
133 127 34
136 130 39
135 130 34
143 136 52
142 137 34
137 130 37
132 124 37
142 137 41
139 133 47
143 136 42
134 128 39
132 126 36
131 125 36
135 130 39
133 128 25
132 126 44
142 135 39
137 130 44
147 140 48
130 124 36
137 131 42
141 134 48
137 131 44
132 126 37
137 131 44
128 122 39
139 134 45
136 130 49
144 136 57
137 130 52
130 125 34
136 131 39
132 125 45
133 127 42
132 126 37
134 129 41
130 124 45
140 135 45
137 131 47
123 119 41
132 126 39
138 133 49
133 127 42
172 195 0
171 194 0
173 196 0
174 198 0
172 194 0
173 197 0
174 197 0
174 196 0
173 196 0
169 192 0
173 196 0
171 193 0
173 197 0
171 195 0
174 196 0
168 191 0
168 192 0
171 194 0
174 196 0
169 192 0
166 189 0
169 192 0
173 194 0
169 192 0
166 190 0
171 193 0
172 195 0
170 193 0
173 195 0
170 193 0
173 196 0
171 194 0
167 191 0
170 193 0
167 190 0
164 188 0
169 193 0
170 193 0
165 188 0
164 187 0
173 196 0
170 192 0
171 194 0
168 190 0
170 192 0
169 192 0
168 191 0
171 193 0
169 192 0
170 193 25
171 191 36
171 193 0
171 193 25
173 194 25
175 197 0
173 193 36
176 197 36
175 195 25
168 189 44
175 195 44
168 188 36
173 193 25
171 191 25
172 192 36
177 198 44
174 194 25
169 190 44
175 195 36
168 188 0
173 193 25
170 191 51
170 191 36
166 186 25
173 193 44
171 190 36
164 184 25
167 187 25
162 183 0
172 191 44
164 184 25
167 187 25
162 183 36
165 185 36
168 188 36
171 191 51
165 185 44
167 188 36
160 182 0
168 190 0
158 179 0
162 183 0
160 180 0
165 186 0
159 181 0
160 180 0
161 181 0
153 173 0
152 174 0
155 176 0
162 182 0
149 170 0
158 179 0
158 179 0
157 179 0
150 170 0
148 170 0
144 164 0
147 167 0
158 179 0
141 161 0
150 171 0
160 181 0
147 167 0
150 170 0
149 169 0
150 170 0
149 170 0
143 163 0
157 177 0
146 166 0
146 166 0
155 174 0
162 182 0
166 186 0
164 184 0
157 178 0
163 183 0
161 182 0
161 182 0
165 184 0
157 178 0
158 179 0
157 178 0
156 176 0
157 178 0
154 175 0
153 174 0
154 174 0
154 175 0
151 173 0
150 172 0
151 172 0
150 171 0
155 176 0
147 167 0
151 171 0
147 169 0
141 161 0
153 174 0
147 169 0
139 160 0
143 164 0
143 164 0
142 163 0
150 170 0
135 156 0
138 159 0
151 171 0
144 165 0
135 156 0
133 155 0
126 146 0
133 152 0
123 143 0
131 151 0
132 151 0
127 147 0
114 134 0
121 140 0
116 134 0
116 135 0
118 136 0
115 133 0
70 94 47
46 74 51
46 74 60
49 78 74
46 75 72
52 83 80
51 81 86
50 79 86
51 81 80
49 79 76
48 77 62
50 80 84
51 81 86
53 83 84
50 79 78
50 80 76
47 76 54
51 81 84
51 81 76
50 79 78
49 78 78
52 82 95
51 81 82
50 79 70
48 77 74
49 79 76
52 83 86
51 81 72
51 81 76
52 82 86
52 83 78
49 78 65
51 80 92
50 80 72
49 79 67
50 79 72
49 78 80
51 82 76
51 80 78
49 78 67
52 82 94
50 79 72
47 75 76
48 77 79
48 77 70
46 74 67
47 75 75
49 76 78
46 73 68
48 76 79
47 75 80
47 73 63
42 67 61
64 82 57
85 99 25
108 121 0
103 115 0
103 118 0
112 127 0
110 124 0
119 134 0
114 128 0
124 139 0
120 135 0
126 141 0
114 126 0
110 124 0
120 133 0
120 135 0
118 134 0
119 133 0
129 142 0
125 137 0
120 136 0
129 141 0
128 142 0
127 141 0
131 142 0
127 140 0
130 143 0
133 142 0
129 141 0
131 145 0
140 153 0
124 134 0
130 140 0
128 137 0
132 142 0
131 144 0
134 142 0
136 146 0
128 138 0
129 138 0
128 141 0
124 131 0
138 148 0
134 145 0
129 139 0
124 131 0
136 144 0
137 146 0
130 135 0
125 132 0
130 134 0
87 83 11
77 72 21
93 85 16
99 94 16
99 92 19
84 78 11
90 83 11
87 82 11
97 91 11
94 88 8
89 83 0
93 88 0
89 84 8
101 98 0
89 85 0
104 97 0
99 93 0
102 95 0
97 90 0
105 99 0
103 97 0
96 92 0
110 105 16
117 111 0
105 101 11
102 97 0
106 101 0
115 109 11
117 111 0
114 108 11
118 112 8
113 110 0
120 115 0
118 112 0
111 108 14
121 115 0
116 112 16
117 112 11
121 116 11
120 115 16
124 118 22
128 125 11
122 117 16
118 113 11
129 124 26
133 127 22
128 123 11
124 120 25
124 118 19
124 119 16
115 110 0
126 122 16
123 116 11
129 124 11
132 128 22
137 131 36
129 125 16
126 123 16
120 115 22
134 131 22
138 132 22
131 126 19
128 120 19
138 132 28
131 125 28
125 120 22
135 128 28
140 135 34
134 129 32
138 132 36
129 122 22
137 130 28
138 132 34
139 133 30
137 130 37
130 125 22
137 131 41
135 129 30
144 137 36
130 124 37
138 133 32
140 134 45
143 136 39
138 133 32
138 131 36
135 129 34
136 129 39
143 137 36
131 126 36
135 130 37
135 129 37
138 132 36
138 131 37
127 120 34
132 126 42
130 123 41
135 129 39
137 130 41
143 136 41
140 132 49
135 129 39
131 125 39
135 130 34
138 133 16
136 128 44
134 127 44
136 129 41
137 130 44
133 128 37
129 123 41
133 129 41
137 131 49
137 131 41
129 122 39
128 123 41
137 130 45
133 126 39
129 124 42
143 136 57
124 118 36
138 131 53
125 120 36
143 136 49
174 197 0
170 193 0
171 195 0
173 197 0
169 192 0
173 196 0
171 195 0
170 194 0
168 192 0
172 196 0
173 197 0
170 193 0
173 197 0
169 193 0
172 195 0
172 195 0
172 195 0
175 197 0
173 196 0
166 189 0
173 196 0
172 195 0
171 194 0
172 195 0
172 195 0
168 191 0
173 197 0
169 193 0
170 193 0
172 195 0
176 198 0
170 193 0
169 193 0
168 191 0
172 195 0
172 195 0
173 195 0
170 192 0
168 191 0
168 191 0
171 194 0
166 190 0
169 192 0
168 191 0
171 193 0
168 191 0
170 193 0
165 187 0
169 191 0
172 194 0
168 191 0
169 191 0
165 188 0
163 186 0
168 190 0
170 192 0
172 193 36
171 193 0
170 192 25
173 194 0
169 191 25
170 191 25
171 192 36
172 192 25
169 189 36
172 192 36
166 187 25
168 188 36
168 188 36
170 191 36
167 187 0
165 186 0
171 191 44
171 191 51
167 188 25
173 193 36
168 188 44
169 189 0
167 189 25
165 186 36
166 187 36
169 190 0
167 189 0
166 187 0
159 181 0
163 184 0
154 176 0
165 187 0
158 180 0
158 180 0
153 174 0
161 183 0
156 178 0
155 177 0
167 187 0
167 188 0
155 175 0
146 167 0
158 178 0
157 178 0
158 179 0
157 179 0
159 180 0
148 170 0
150 170 0
153 173 0
158 178 0
152 171 0
149 169 0
151 172 0
150 171 0
152 172 0
140 160 0
147 167 0
145 165 0
149 169 0
155 175 0
155 175 0
160 179 0
150 169 0
151 170 0
164 184 0
161 181 0
155 174 0
158 178 0
168 188 0
154 175 0
159 179 0
156 175 0
156 176 0
157 177 0
154 175 0
155 176 0
148 169 0
149 169 0
154 174 0
153 173 0
154 174 0
150 171 0
155 176 0
152 172 0
149 169 0
152 173 0
140 161 0
150 170 0
143 163 0
144 165 0
144 165 0
137 157 0
151 172 0
139 160 0
134 154 0
144 165 0
146 167 0
147 168 0
147 168 0
131 151 0
141 162 0
141 162 0
130 151 0
119 140 0
125 145 0
132 152 0
136 157 0
130 149 0
123 142 0
126 146 0
111 131 0
117 137 0
126 146 0
113 132 0
126 144 0
102 121 0
110 127 0
82 101 44
52 80 65
48 77 62
47 76 62
49 78 82
48 77 65
48 77 72
49 78 54
47 76 65
52 82 92
49 79 74
50 80 76
51 81 82
48 77 65
51 80 94
52 82 95
48 77 74
51 82 86
49 79 80
49 79 74
49 79 82
51 81 90
49 78 76
50 79 84
51 81 90
51 81 76
51 81 86
49 79 54
49 78 80
53 85 92
49 77 80
51 81 95
48 76 77
48 76 76
47 74 62
50 80 86
52 82 88
48 77 78
47 75 67
48 76 78
47 74 74
50 79 78
47 75 72
47 74 63
47 76 68
47 74 82
45 72 76
44 70 76
45 71 57
46 72 60
45 69 48
80 95 36
101 114 0
107 120 0
103 117 0
112 125 0
110 123 0
114 127 0
108 120 0
88 99 0
122 136 0
115 127 0
119 134 0
113 126 0
117 131 0
130 144 0
112 124 0
126 140 0
119 134 0
120 133 0
119 133 0
131 144 0
127 143 0
125 138 0
120 134 0
128 140 0
120 133 0
126 137 0
124 136 0
129 142 0
133 147 0
128 139 0
125 137 0
131 143 0
129 141 0
126 137 0
124 135 0
117 127 0
123 133 0
122 132 0
124 134 0
142 154 0
120 130 0
139 149 0
134 141 0
133 141 0
127 135 0
130 138 0
127 135 0
133 140 0
127 135 0
126 130 0
130 136 0
127 131 0
94 93 0
78 74 11
93 87 16
78 73 16
83 79 11
89 83 16
92 86 16
85 79 0
102 96 12
112 104 11
98 90 0
97 92 8
97 91 0
93 87 0
99 94 0
101 93 0
103 97 0
108 102 0
102 98 11
104 98 0
115 108 0
102 96 0
105 98 0
111 104 0
114 109 8
101 98 0
109 104 0
113 107 8
112 104 0
115 110 0
109 105 0
101 96 0
112 107 0
116 112 0
125 118 11
121 116 0
120 114 16
123 119 16
120 114 0
123 117 11
117 112 11
124 116 19
118 111 11
105 99 0
120 114 19
130 124 16
129 122 16
127 121 16
133 127 25
123 119 0
129 123 19
122 114 25
125 119 11
119 115 19
127 123 25
127 122 19
125 119 22
133 127 32
127 120 25
129 124 30
134 129 28
123 117 28
134 128 32
131 124 22
124 118 32
129 124 28
131 125 30
128 124 22
128 123 25
144 135 47
133 127 34
137 131 39
134 128 25
134 128 30
132 126 28
143 137 42
131 126 28
135 129 32
127 121 36
132 126 36
130 123 32
133 128 36
134 127 41
134 127 34
139 133 37
139 133 34
127 122 41
130 122 32
134 128 36
137 131 47
139 132 41
140 134 45
134 127 32
139 132 36
124 119 30
132 126 34
131 125 37
131 125 39
132 125 37
140 134 47
145 138 37
138 133 44
132 126 41
127 122 36
137 130 47
133 127 47
132 128 36
128 121 39
129 123 41
132 126 41
136 130 45
127 121 39
132 125 44
122 118 30
125 120 32
144 137 56
131 126 42
140 134 51
137 130 47
122 116 37
130 122 44
127 122 37
173 196 0
171 195 0
173 196 0
173 196 0
172 195 0
174 197 0
170 193 0
173 195 0
171 194 0
173 196 0
172 195 0
172 195 0
170 193 0
171 194 0
169 192 0
170 193 0
173 196 0
172 195 0
170 193 0
169 192 0
173 196 0
172 194 0
173 195 0
172 195 0
173 196 0
169 192 0
173 195 0
173 195 0
167 190 0
173 196 0
169 191 0
173 196 0
169 191 0
166 190 0
171 193 0
168 190 0
172 194 0
168 190 0
173 196 0
169 192 0
170 192 0
167 190 0
173 195 0
163 185 0
169 192 0
170 193 0
170 193 0
170 192 0
165 188 0
172 194 0
170 192 0
165 188 0
168 190 0
168 190 0
169 191 0
167 188 0
169 191 0
167 189 0
166 188 0
170 191 0
166 188 0
164 187 0
167 189 0
170 192 0
163 185 0
166 188 0
164 186 0
163 185 0
165 187 25
163 184 0
161 182 0
166 188 25
166 189 0
162 185 0
165 187 0
163 184 0
161 182 0
162 184 0
155 177 0
160 182 0
163 184 0
161 183 0
166 187 0
165 187 0
160 181 0
158 179 0
160 181 0
165 186 0
161 182 0
153 175 0
160 182 0
162 183 0
164 186 0
159 180 0
160 181 0
160 181 0
157 178 0
149 170 0
153 174 0
162 183 0
161 182 0
157 177 0
150 170 0
156 177 0
150 171 0
153 174 0
148 168 0
154 175 0
157 177 0
151 171 0
151 171 0
161 180 0
151 171 0
150 169 0
148 167 0
146 166 0
145 164 0
159 179 0
149 169 0
154 174 0
165 186 0
164 185 0
162 183 0
162 182 0
157 177 0
157 177 0
157 177 0
154 174 0
156 177 0
163 183 0
151 173 0
159 179 0
153 174 0
157 177 0
151 172 0
151 172 0
151 172 0
154 175 0
147 168 0
151 171 0
145 166 0
145 166 0
150 171 0
143 163 0
144 165 0
148 169 0
142 163 0
155 176 0
144 164 0
154 174 0
139 159 0
142 163 0
133 154 0
144 165 0
127 147 0
132 151 0
134 154 0
133 153 0
132 152 0
144 164 0
137 156 0
124 143 0
136 155 0
138 156 0
121 141 0
117 137 0
127 146 0
122 142 0
120 138 0
127 144 0
118 136 0
117 134 0
95 112 0
106 123 0
105 123 0
101 118 0
84 101 25
52 75 60
47 75 62
46 74 67
49 77 74
48 77 60
49 78 74
53 84 102
45 73 47
47 75 65
53 83 88
50 79 76
49 77 86
48 78 70
50 79 62
48 77 80
49 79 74
50 80 76
47 74 74
48 77 74
47 75 65
49 79 76
50 79 74
50 80 74
50 80 70
53 83 88
52 83 90
52 83 97
50 80 78
52 82 88
48 77 57
44 71 67
49 77 84
49 78 88
47 75 86
48 75 74
48 76 70
43 69 65
44 70 72
47 75 74
44 71 62
47 74 72
47 74 61
48 76 72
44 69 62
44 70 57
51 72 62
87 100 36
93 106 0
94 107 0
101 113 0
109 121 0
103 116 0
101 114 0
105 117 0
115 127 0
106 119 0
106 121 0
108 121 0
105 119 0
119 134 0
116 129 0
106 118 0
110 123 0
122 135 0
120 132 0
116 129 0
120 133 0
118 131 0
123 136 0
127 141 0
114 128 0
126 141 0
125 138 0
116 128 0
126 139 0
134 146 0
127 138 0
120 129 0
126 137 0
132 143 0
129 140 0
120 127 0
130 141 0
124 134 0
123 133 0
122 132 0
130 140 0
125 135 0
129 139 0
128 137 0
119 125 0
120 127 0
124 133 0
126 130 0
130 137 0
123 129 0
123 130 0
132 141 0
119 124 0
125 130 0
125 131 0
121 127 0
121 124 16
93 91 11
78 71 16
71 66 16
77 69 0
91 84 0
75 69 0
89 83 0
91 84 0
86 81 0
91 84 0
90 84 0
82 75 0
98 94 0
88 83 0
103 96 0
100 93 0
95 89 0
106 100 0
106 100 0
96 90 0
109 102 0
102 96 8
104 98 0
106 100 0
110 105 0
116 110 0
114 108 0
110 104 8
116 109 0
125 119 11
116 110 0
112 107 0
117 111 0
118 112 0
107 102 11
115 109 11
124 118 0
119 114 11
123 116 11
115 110 16
119 113 11
125 119 16
127 121 19
123 117 19
119 112 11
123 117 19
127 121 22
119 115 19
118 113 22
123 119 0
122 117 16
127 121 19
131 123 25
131 125 28
132 126 22
120 115 22
136 130 19
126 121 25
125 119 11
131 121 30
130 124 22
133 128 32
128 122 25
122 117 11
129 123 25
122 116 22
139 132 39
133 127 32
139 133 28
134 128 34
130 125 25
140 132 36
136 129 37
131 126 36
139 133 32
128 123 30
129 122 30
138 132 36
133 127 32
129 123 30
137 130 34
132 127 36
126 120 32
138 131 41
124 117 28
134 129 37
132 125 42
139 132 39
135 128 34
139 132 41
128 120 36
137 130 39
127 122 39
132 127 37
126 119 41
133 126 36
127 122 37
132 127 32
130 123 39
127 120 37
122 117 36
135 129 45
139 132 42
136 129 42
138 133 41
138 131 42
130 124 30
127 121 37
138 131 45
130 123 48
129 123 39
132 125 45
117 111 39
129 125 34
136 130 52
140 134 42
146 139 56
137 131 49
129 122 36
130 125 37
172 195 0
173 195 0
172 195 0
174 196 0
172 196 0
173 196 0
172 195 0
174 196 0
172 195 0
173 197 0
173 195 0
171 193 0
170 194 0
172 195 0
173 195 0
170 193 0
168 191 0
175 198 0
173 196 0
173 197 0
172 195 0
171 194 0
171 194 0
174 196 0
168 191 0
171 193 0
171 194 0
172 195 0
166 189 0
171 193 0
168 190 0
170 192 0
169 192 0
168 192 0
167 191 0
169 192 0
173 195 0
171 193 0
170 193 0
170 193 0
169 192 0
171 193 0
174 196 0
170 192 0
171 192 0
173 195 0
172 193 0
168 190 0
169 191 0
171 192 0
167 190 0
169 190 0
168 190 0
166 188 0
169 190 0
165 187 0
165 187 0
162 185 0
167 189 0
164 187 0
165 187 0
170 192 0
164 186 0
167 189 0
162 184 0
161 183 0
165 188 0
169 190 0
167 188 0
164 186 0
166 188 0
167 189 0
168 190 0
168 189 0
169 190 0
160 182 0
165 187 0
164 186 0
165 188 0
159 181 0
157 178 0
162 183 0
158 181 0
160 182 0
164 186 0
164 186 0
162 183 0
166 187 0
159 181 0
159 180 0
159 180 0
161 182 0
162 182 0
157 178 0
151 172 0
154 176 0
163 182 0
155 176 0
158 179 0
151 171 0
159 180 0
154 175 0
152 172 0
151 171 0
147 168 0
156 176 0
150 170 0
159 179 0
149 169 0
157 177 0
155 175 0
154 174 0
159 178 0
143 163 0
159 178 0
150 172 0
150 168 0
150 169 0
163 184 0
157 177 0
158 179 0
157 178 0
151 171 0
153 172 0
161 181 0
157 177 0
159 178 0
161 180 0
157 177 0
155 176 0
152 172 0
149 169 0
158 179 0
147 167 0
161 181 0
148 168 0
151 171 0
144 164 0
157 178 0
149 171 0
148 168 0
154 174 0
154 174 0
152 172 0
139 160 0
139 160 0
150 171 0
146 166 0
143 164 0
150 170 0
147 168 0
133 154 0
139 160 0
137 157 0
123 144 0
143 163 0
143 163 0
131 151 0
126 147 0
134 155 0
118 137 0
133 153 0
120 141 0
117 135 0
116 136 0
125 144 0
119 140 0
101 120 0
117 136 0
108 127 0
130 148 0
115 132 0
117 135 0
117 134 0
114 130 0
87 103 0
95 111 0
92 107 18
91 109 44
51 73 40
47 76 70
46 74 60
44 70 62
47 76 51
47 75 65
49 78 84
45 72 62
51 81 80
47 74 72
50 80 94
51 81 90
47 76 78
47 75 65
47 75 60
46 74 72
50 80 84
48 76 74
49 78 87
49 79 67
46 74 74
48 77 80
45 73 60
47 75 68
48 77 74
48 77 62
46 74 67
49 77 72
48 77 78
49 77 74
46 74 74
50 79 76
47 74 72
45 72 74
48 75 74
42 68 57
45 72 54
47 73 74
46 73 60
44 70 65
45 72 65
59 79 47
83 96 31
83 95 0
91 103 0
84 94 0
103 116 0
91 103 0
99 110 0
102 114 0
98 109 0
96 108 0
104 116 0
104 114 0
109 121 0
109 121 0
108 121 0
101 112 0
107 119 0
115 129 0
118 130 0
124 139 0
108 118 0
124 136 0
116 128 0
119 131 0
110 123 0
113 125 0
118 131 0
121 132 0
123 136 0
129 140 0
119 130 0
110 124 0
125 136 0
122 133 0
123 136 0
127 138 0
124 135 0
112 123 0
121 130 0
127 137 0
119 128 0
122 131 0
134 141 0
132 141 0
122 132 0
115 124 0
123 130 0
128 136 0
123 131 0
129 139 0
120 124 0
122 127 0
121 128 0
129 136 0
112 118 0
112 115 0
123 124 0
113 115 0
113 118 0
119 123 0
98 97 19
76 70 22
92 85 0
77 72 11
82 76 18
84 78 14
90 83 11
89 84 0
90 84 8
81 77 0
86 80 0
86 81 0
97 89 0
97 92 0
92 86 0
105 100 0
101 94 0
95 90 0
97 89 0
108 101 0
92 85 0
102 95 0
106 101 0
114 110 0
112 105 0
106 99 0
101 95 0
120 114 0
116 111 0
111 105 0
109 105 0
116 110 0
113 109 0
111 106 0
104 100 0
115 110 0
109 104 16
110 103 0
117 109 11
130 124 0
116 111 19
125 119 11
117 112 0
124 118 11
123 117 0
127 121 19
124 119 11
125 120 19
116 112 0
126 121 19
132 124 25
125 120 22
125 120 0
123 117 22
129 124 22
122 116 0
126 117 22
128 122 25
126 120 16
123 119 28
123 116 30
124 119 0
132 127 25
138 131 32
127 121 19
133 126 32
128 123 28
129 121 19
130 124 32
127 121 25
130 125 32
130 124 25
130 125 32
127 121 37
125 120 25
134 128 37
140 133 37
128 122 41
136 129 37
124 118 30
131 123 22
132 124 32
131 125 34
130 123 32
131 124 39
138 133 32
126 121 32
135 129 41
127 120 36
126 122 32
143 137 41
130 122 41
132 126 37
129 124 36
134 126 42
132 126 42
137 129 42
130 123 37
131 125 37
127 120 32
133 127 41
127 121 41
132 125 44
131 125 42
120 114 28
131 124 39
127 121 28
139 133 53
131 125 36
133 125 42
118 112 30
130 125 37
127 121 42
126 121 34
132 126 39
124 118 34
138 130 47
128 123 44
126 119 45
173 196 0
173 196 0
174 197 0
174 196 0
172 196 0
173 196 0
173 196 0
171 194 0
172 195 0
171 194 0
172 195 0
171 193 0
175 197 0
172 195 0
170 193 0
173 195 0
172 195 0
171 194 0
171 194 0
170 193 0
170 193 0
174 196 0
168 191 0
171 195 0
174 196 0
168 191 0
169 191 0
173 195 0
171 193 0
172 195 0
171 194 0
169 192 0
172 194 0
165 189 0
172 195 0
168 192 0
173 194 0
170 193 0
174 197 0
171 194 0
169 192 0
168 191 0
167 189 0
168 191 0
170 192 0
171 193 0
171 193 0
167 190 0
165 186 0
164 185 0
171 193 0
165 187 0
170 192 0
172 192 0
170 191 0
166 188 0
164 187 0
168 189 0
168 191 0
167 189 0
169 192 0
163 186 0
168 190 0
169 192 0
168 190 0
165 187 0
161 183 0
166 188 0
165 187 0
163 185 0
168 190 0
168 189 0
168 189 0
161 182 0
169 191 0
165 186 0
162 183 0
166 186 0
160 182 0
157 179 0
166 188 0
166 187 0
160 182 0
158 179 0
159 180 0
162 182 0
157 179 0
161 182 0
164 184 0
164 185 0
163 185 0
161 181 0
164 184 0
155 176 0
158 179 0
163 183 0
159 179 0
151 171 0
154 174 0
160 180 0
150 171 0
154 175 0
157 178 0
151 171 0
145 164 0
156 176 0
148 167 0
148 169 0
156 176 0
152 171 0
157 177 0
151 170 0
142 162 0
152 172 0
153 174 0
153 173 0
152 172 0
162 182 0
157 177 0
164 185 0
162 182 0
160 181 0
159 179 0
157 176 0
160 180 0
158 178 0
160 179 0
153 173 0
154 174 0
149 169 0
143 163 0
148 167 0
156 176 0
142 162 0
154 174 0
145 165 0
142 164 0
146 166 0
150 170 0
145 165 0
143 163 0
144 165 0
151 171 0
146 167 0
147 168 0
140 160 0
136 156 0
143 163 0
150 170 0
131 152 0
135 156 0
142 162 0
132 153 0
143 163 0
138 158 0
135 156 0
134 154 0
135 155 0
132 152 0
129 149 0
126 146 0
126 146 0
117 135 0
123 142 0
129 148 0
127 146 0
126 145 0
112 131 0
115 134 0
116 134 0
112 130 0
109 125 0
117 134 0
107 123 0
104 120 0
101 118 0
96 112 0
100 116 0
98 113 0
95 110 18
71 87 25
66 86 25
43 70 51
41 66 47
45 73 54
41 66 51
46 74 70
46 73 65
48 77 62
51 80 80
45 72 72
50 79 74
49 78 70
49 77 67
47 75 62
49 78 72
48 77 72
46 73 70
45 72 72
49 77 76
48 76 76
48 76 82
48 77 84
49 78 74
46 74 67
45 72 62
47 74 74
43 69 44
47 75 60
45 73 74
44 70 54
43 70 51
48 75 76
44 70 54
43 68 65
45 72 70
41 65 54
48 72 57
47 67 54
53 69 36
76 85 0
83 94 0
88 97 0
89 99 0
79 89 0
93 105 0
109 122 0
92 103 0
109 120 0
103 115 0
96 108 0
97 109 0
103 114 0
107 118 0
100 111 0
99 110 0
99 111 0
109 122 0
100 112 0
114 127 0
114 125 0
119 132 0
116 130 0
108 122 0
114 127 0
115 127 0
113 124 0
124 135 0
121 133 0
117 127 0
109 120 0
125 139 0
116 127 0
117 127 0
126 137 0
132 144 0
113 120 0
116 127 0
110 121 0
117 128 0
118 129 0
106 112 0
117 127 0
124 134 0
122 132 0
121 128 0
118 125 0
113 122 0
111 120 0
119 128 0
110 114 0
111 116 0
113 115 0
124 127 0
120 126 0
109 111 0
113 117 0
126 132 0
113 120 0
111 110 0
121 121 0
110 111 0
119 119 11
80 75 0
72 65 11
87 80 11
81 72 11
82 72 0
85 77 0
79 70 0
84 78 19
92 85 11
93 88 0
93 87 0
101 95 0
93 89 0
103 97 0
94 87 0
103 96 0
96 91 0
99 92 0
102 96 0
100 94 0
110 105 0
104 96 0
102 95 0
103 98 0
114 108 0
112 107 0
111 105 0
118 110 0
111 106 0
108 103 0
111 105 11
113 105 0
117 112 0
116 108 11
122 116 0
121 114 11
112 108 11
111 107 0
108 100 11
126 119 0
110 105 11
118 112 16
117 110 16
116 110 0
129 123 11
124 118 11
114 108 16
120 113 0
122 115 22
121 117 16
114 110 16
122 116 19
134 127 16
129 123 19
123 118 11
120 116 11
128 121 19
133 128 22
131 123 30
130 122 22
129 125 22
126 121 11
122 116 0
127 123 19
124 118 16
121 116 19
128 122 36
131 126 30
124 117 34
128 122 25
134 127 30
136 130 36
138 132 34
129 124 28
131 124 34
137 131 25
134 126 36
129 123 30
131 125 32
119 113 25
133 127 25
130 125 30
135 128 36
138 131 45
136 130 37
133 126 37
133 127 30
134 128 36
133 125 37
130 124 41
136 129 39
130 125 37
126 119 36
131 126 32
126 121 25
136 129 41
126 120 25
132 125 41
125 119 39
134 127 45
125 118 28
125 118 28
124 119 36
141 134 44
124 118 39
122 117 34
134 128 44
132 126 39
133 126 42
128 123 41
118 111 41
134 128 49
131 126 44
129 123 39
122 116 30
130 123 41
128 122 42
171 194 0
173 197 0
170 193 0
172 195 0
171 195 0
174 197 0
170 193 0
173 195 0
174 197 0
173 196 0
169 193 0
172 195 0
173 195 0
170 194 0
172 195 0
169 192 0
171 194 0
172 194 0
174 196 0
173 196 0
174 197 0
171 195 0
174 197 0
171 193 0
170 194 0
169 190 0
171 194 0
171 194 0
165 187 0
172 194 0
172 195 0
176 197 0
172 195 0
168 191 0
170 192 0
168 190 0
174 196 0
169 191 0
170 193 0
170 191 0
167 189 0
171 192 0
169 192 0
171 193 0
170 192 0
169 191 0
168 190 0
172 195 0
166 188 0
175 197 0
166 189 0
169 190 0
165 188 0
167 189 0
168 190 0
170 191 0
172 195 0
168 191 0
165 188 0
171 193 0
169 190 0
169 191 0
166 187 0
170 191 0
164 186 0
169 190 0
169 190 0
167 189 0
163 185 0
164 185 0
169 190 0
169 190 0
166 188 0
168 190 0
157 179 0
162 184 0
167 188 0
165 185 0
162 183 0
156 177 0
166 187 0
160 181 0
154 175 0
165 185 0
165 185 0
160 181 0
161 182 0
164 185 0
163 183 0
155 176 0
160 181 0
161 182 0
158 178 0
162 182 0
157 177 0
161 182 0
161 182 0
157 178 0
158 180 0
150 171 0
151 171 0
162 183 0
150 170 0
151 171 0
146 165 0
162 183 0
156 176 0
159 179 0
161 180 0
154 175 0
149 169 0
157 177 0
139 158 0
155 174 0
163 183 0
161 181 0
155 174 0
157 177 0
158 177 0
160 179 0
159 180 0
155 174 0
161 181 0
154 174 0
150 171 0
151 171 0
156 177 0
147 165 0
160 180 0
160 180 0
145 165 0
147 167 0
154 173 0
143 164 0
154 175 0
152 172 0
149 170 0
141 162 0
154 174 0
149 169 0
151 171 0
150 171 0
139 159 0
152 172 0
151 172 0
142 162 0
149 169 0
140 161 0
141 162 0
134 153 0
140 160 0
139 160 0
143 164 0
135 155 0
135 155 0
132 153 0
133 152 0
123 143 0
131 151 0
124 143 0
131 151 0
129 149 0
135 155 0
134 154 0
128 147 0
123 142 0
125 144 0
119 137 0
113 130 0
118 135 0
114 132 0
104 122 0
110 127 0
112 129 0
103 119 0
93 109 0
107 123 0
103 116 0
92 106 0
92 105 0
84 97 0
69 82 0
73 86 25
64 83 47
53 73 36
43 66 44
45 72 57
42 68 60
46 73 65
48 77 70
44 71 74
44 72 51
47 75 54
48 76 76
46 73 65
45 71 65
42 68 62
47 74 80
47 75 67
43 69 70
44 71 57
46 74 70
46 74 70
43 69 60
47 74 72
45 72 65
42 67 70
46 74 57
44 70 67
43 69 54
42 68 57
46 72 62
45 72 70
38 61 54
44 67 62
44 64 51
53 65 40
68 76 0
65 76 0
79 90 0
66 79 0
79 91 0
71 83 0
79 88 0
82 94 0
89 100 0
103 116 0
96 108 0
88 100 0
99 111 0
101 111 0
104 117 0
106 116 0
104 117 0
104 118 0
107 120 0
107 118 0
111 122 0
108 121 0
120 133 0
107 121 0
123 136 0
111 124 0
111 125 0
108 120 0
111 123 0
123 136 0
113 125 0
114 124 0
122 137 0
116 127 0
120 133 0
130 143 0
111 122 0
117 130 0
123 133 0
112 120 0
127 139 0
112 122 0
117 128 0
120 130 0
116 122 0
119 128 0
119 129 0
118 128 0
111 117 0
110 118 0
119 128 0
110 115 0
124 132 0
107 116 0
113 118 0
119 127 0
114 119 0
119 124 0
117 123 0
123 127 0
109 114 0
112 113 0
110 112 0
105 107 0
114 117 0
94 95 0
118 118 0
99 96 0
90 86 16
80 72 0
95 87 11
92 84 14
93 87 11
81 75 0
80 74 0
90 85 0
92 86 0
84 78 0
93 85 0
91 85 0
101 93 3
97 90 0
98 93 8
103 95 0
106 99 0
101 95 0
102 97 0
104 97 0
103 95 11
107 100 0
104 97 0
109 102 0
107 101 0
109 101 0
105 100 0
105 99 0
110 104 0
113 108 0
117 110 0
111 105 0
119 112 0
104 97 11
110 104 0
120 114 0
120 113 11
109 102 11
118 111 0
110 105 11
115 109 0
117 112 0
122 118 0
116 110 0
125 118 19
115 109 11
120 116 11
122 115 11
123 117 22
127 120 16
124 118 19
123 115 19
127 120 28
129 123 25
123 117 16
123 116 16
126 121 16
124 118 11
126 120 11
122 116 22
129 121 30
125 120 19
123 116 16
131 125 25
125 119 19
125 120 0
125 119 30
126 121 36
131 125 22
127 121 25
129 124 25
122 116 28
130 123 22
127 121 30
131 123 39
131 124 36
123 116 32
130 123 25
140 132 30
121 116 28
126 120 36
129 123 25
139 131 37
132 124 36
123 118 22
132 126 37
134 127 34
134 127 34
138 132 39
133 126 42
120 115 28
132 126 34
127 120 30
137 130 37
125 120 34
128 122 39
127 120 39
126 120 34
126 120 36
123 117 34
120 114 28
134 126 44
132 127 36
135 127 48
125 119 30
140 133 47
121 115 41
122 117 37
122 117 41
121 115 34
125 120 37
127 120 45
125 119 36
124 117 37
115 108 32
173 196 0
173 196 0
172 195 0
174 197 0
173 196 0
172 195 0
174 196 0
173 196 0
173 196 0
173 197 0
172 195 0
173 196 0
174 197 0
170 193 0
173 195 0
172 194 0
167 191 0
171 194 0
170 192 0
174 197 0
170 192 0
169 192 0
176 198 0
173 195 0
172 195 0
170 193 0
174 196 0
172 195 0
173 195 0
170 193 0
168 190 0
167 189 0
172 195 0
173 196 0
172 194 0
168 191 0
169 191 0
169 192 0
169 191 0
172 194 0
168 191 0
172 194 0
170 191 0
170 191 0
174 195 0
171 193 0
166 189 0
170 193 0
168 189 0
172 194 0
168 188 0
171 193 0
167 189 0
167 189 0
166 188 0
168 190 0
169 192 0
165 187 0
169 190 0
169 191 0
168 189 0
166 189 0
173 194 0
166 188 0
161 183 0
170 191 0
162 184 0
168 189 0
162 184 0
166 187 0
165 186 0
161 183 0
163 184 0
170 192 0
163 183 0
167 188 0
165 187 0
158 179 0
164 186 0
168 189 0
158 179 0
165 187 0
164 185 0
160 180 0
157 177 0
163 183 0
161 181 0
160 180 0
164 185 0
161 181 0
161 182 0
160 179 0
153 174 0
165 186 0
161 182 0
157 177 0
160 182 0
155 175 0
151 172 0
156 176 0
150 170 0
153 174 0
154 173 0
166 185 0
155 175 0
155 176 0
157 177 0
152 173 0
161 180 0
156 175 0
161 181 0
156 176 0
148 168 0
160 180 0
156 176 0
163 183 0
159 179 0
155 174 0
163 182 0
162 182 0
156 176 0
157 177 0
153 174 0
147 167 0
142 162 0
154 173 0
157 177 0
149 169 0
147 166 0
149 169 0
158 179 0
151 170 0
153 173 0
154 175 0
142 161 0
153 173 0
140 160 0
148 168 0
149 169 0
152 172 0
147 168 0
140 161 0
142 163 0
141 161 0
145 166 0
145 165 0
149 170 0
135 156 0
134 154 0
141 161 0
146 166 0
130 150 0
130 150 0
129 149 0
129 149 0
126 145 0
141 161 0
123 142 0
137 156 0
128 148 0
122 143 0
122 141 0
123 143 0
127 147 0
125 143 0
117 135 0
113 131 0
116 134 0
114 131 0
107 126 0
113 130 0
106 123 0
118 135 0
110 126 0
98 114 0
103 120 0
111 128 0
108 124 0
92 108 0
98 114 0
82 97 0
86 100 0
96 108 0
86 98 0
91 104 0
83 95 0
60 72 0
65 82 25
42 65 44
42 63 47
41 67 47
43 69 51
38 61 44
42 67 44
48 76 72
47 74 62
42 67 70
43 69 51
44 70 72
47 74 72
47 74 70
44 70 62
42 67 65
43 69 47
43 69 51
43 68 67
42 67 47
43 69 60
41 66 51
43 69 57
42 67 54
35 56 47
45 61 45
48 58 25
65 75 25
70 77 0
84 95 0
72 79 0
67 77 0
81 91 0
76 87 0
101 111 0
75 84 0
79 90 0
82 93 0
85 96 0
94 108 0
101 112 0
103 113 0
92 102 0
102 114 0
107 121 0
100 110 0
91 103 0
109 123 0
113 126 0
98 111 0
112 126 0
127 143 0
101 114 0
111 124 0
116 130 0
118 131 0
123 136 0
104 113 0
113 125 0
120 135 0
112 124 0
108 121 0
113 122 0
122 135 0
117 128 0
119 131 0
119 131 0
111 123 0
115 127 0
117 126 0
128 138 0
110 122 0
128 139 0
121 131 0
119 130 0
119 131 0
121 132 0
126 134 0
121 129 0
120 126 0
109 118 0
118 123 0
116 123 0
113 119 0
117 121 0
119 125 0
110 115 0
111 115 0
111 116 0
113 117 0
113 116 0
105 105 0
111 114 0
116 117 0
101 104 0
110 113 0
105 103 0
104 105 0
114 118 0
95 89 16
81 76 0
73 67 0
85 79 19
71 67 0
87 79 11
88 80 0
90 82 0
94 86 0
90 83 0
93 86 0
94 87 8
87 81 0
87 80 0
91 86 0
104 96 0
107 100 0
93 87 0
109 101 0
105 99 0
107 98 0
112 106 0
103 95 0
101 96 0
104 98 0
105 97 0
110 105 0
113 107 0
102 96 0
120 112 0
113 105 0
105 100 0
110 103 0
112 105 0
114 108 11
114 107 0
110 103 16
118 110 0
117 111 0
123 117 11
118 111 19
111 106 11
122 115 16
121 116 11
124 116 19
118 111 16
122 114 19
125 116 19
122 115 11
116 111 16
130 122 28
121 115 19
125 119 25
125 119 16
127 119 28
127 122 11
120 113 19
126 119 16
126 118 22
129 122 22
120 114 28
128 120 25
133 128 39
128 122 22
127 119 30
125 119 19
130 123 30
123 115 16
131 124 16
137 130 34
119 112 22
129 123 34
127 122 28
121 115 25
132 126 30
125 119 34
126 120 28
131 124 25
128 122 37
121 114 19
127 120 30
123 117 34
125 121 41
129 122 34
133 127 34
127 120 16
122 116 30
127 121 25
134 128 37
122 115 25
131 123 41
125 119 32
125 119 41
124 118 28
127 122 44
122 116 25
138 131 41
124 119 22
122 116 34
134 128 44
124 118 37
128 123 42
131 124 39
119 113 37
133 127 34
127 121 34
128 121 34
129 124 39
123 116 36
130 123 37
141 135 47
122 116 37
131 124 42
126 121 25
173 196 0
171 194 0
170 194 0
173 196 0
173 196 0
174 197 0
174 196 0
172 195 0
173 196 0
169 192 0
171 194 0
171 194 0
173 195 0
170 193 0
174 196 0
172 195 0
172 195 0
173 196 0
172 195 0
173 196 0
174 197 0
172 194 0
176 198 0
173 195 0
171 193 0
174 197 0
174 196 0
168 189 0
171 193 0
170 192 0
172 194 0
170 192 0
172 194 0
172 194 0
171 193 0
170 192 0
168 190 0
169 191 0
171 193 0
170 191 0
170 192 0
172 193 0
173 195 0
169 191 0
170 192 0
173 194 0
169 191 0
161 183 0
171 192 0
171 193 0
167 189 0
164 186 0
170 192 0
169 191 0
168 190 0
167 189 0
166 188 0
171 193 0
168 190 0
170 192 0
169 190 0
166 188 0
163 185 0
168 189 0
169 190 0
171 192 0
165 186 0
163 185 0
167 189 0
165 187 0
166 187 0
165 186 0
168 189 0
164 185 0
164 185 0
166 187 0
169 190 0
166 187 0
169 189 0
162 183 0
161 182 0
165 186 0
165 185 0
157 178 0
160 180 0
167 187 0
166 186 0
161 181 0
158 178 0
169 189 0
163 183 0
163 183 0
162 183 0
161 181 0
161 181 0
159 179 0
156 177 0
154 174 0
154 174 0
160 180 0
158 178 0
162 182 0
161 181 0
156 176 0
155 175 0
156 175 0
160 179 0
152 172 0
154 174 0
154 174 0
158 178 0
156 175 0
158 178 0
157 176 0
155 175 0
160 179 0
152 171 0
148 168 0
152 172 0
156 176 0
162 182 0
148 167 0
156 176 0
152 172 0
150 170 0
155 175 0
160 179 0
158 178 0
160 179 0
152 171 0
151 171 0
153 172 0
150 171 0
142 162 0
151 171 0
145 166 0
147 167 0
151 171 0
152 172 0
148 169 0
151 172 0
151 172 0
150 169 0
146 166 0
136 156 0
149 168 0
134 154 0
141 162 0
141 162 0
139 159 0
143 164 0
141 161 0
143 163 0
143 162 0
130 150 0
141 161 0
124 145 0
133 151 0
125 144 0
122 142 0
126 145 0
132 152 0
116 135 0
128 146 0
119 137 0
112 131 0
126 145 0
116 135 0
113 131 0
115 132 0
124 142 0
119 136 0
102 120 0
109 125 0
108 124 0
105 120 0
103 118 0
90 106 0
87 103 0
94 108 0
87 102 0
88 103 0
99 114 0
88 102 0
97 109 0
79 91 0
73 85 0
63 74 0
64 74 0
52 64 0
47 59 25
56 71 36
28 45 36
40 60 51
45 65 51
42 64 47
43 64 60
39 63 57
41 66 62
42 67 54
40 65 40
41 65 70
37 59 31
39 62 51
35 57 44
35 56 44
41 62 62
35 51 18
58 69 31
63 71 0
64 71 0
65 74 0
57 66 0
62 71 0
40 52 0
59 69 0
66 76 0
94 104 0
62 73 0
78 89 0
82 95 0
77 86 0
85 97 0
85 97 0
88 102 0
92 104 0
93 104 0
95 107 0
105 118 0
99 110 0
105 117 0
105 118 0
96 108 0
92 103 0
95 109 0
111 124 0
110 124 0
101 113 0
117 130 0
117 130 0
111 124 0
105 117 0
108 121 0
114 124 0
117 130 0
116 128 0
111 123 0
104 113 0
115 128 0
110 121 0
114 127 0
120 132 0
111 123 0
111 123 0
132 143 0
116 127 0
115 122 0
120 130 0
112 122 0
115 125 0
125 137 0
112 121 0
116 125 0
116 123 0
134 146 0
108 119 0
118 127 0
117 125 0
117 123 0
113 120 0
115 122 0
117 122 0
119 124 0
120 128 0
118 122 0
112 116 0
111 112 0
125 128 0
114 117 0
102 107 0
106 107 0
102 101 0
102 100 0
113 115 0
107 106 0
110 108 0
101 97 0
100 100 0
94 88 11
88 78 0
73 63 0
88 78 11
87 79 11
96 86 11
88 79 11
92 84 0
82 75 0
93 85 0
89 81 0
95 87 0
92 85 0
89 82 0
105 98 0
89 83 0
99 93 0
110 102 0
95 88 0
94 88 0
97 91 0
100 94 0
107 101 0
104 98 0
100 94 0
108 102 0
110 102 0
108 101 0
118 109 11
109 102 0
121 114 11
117 111 0
113 106 0
106 102 0
102 98 0
117 110 0
124 116 0
117 112 11
113 107 0
113 106 0
115 108 16
116 110 19
114 108 11
119 111 16
119 114 22
114 106 11
122 115 16
125 118 25
126 120 22
121 114 16
116 110 22
122 114 11
122 116 22
115 107 19
127 117 19
123 116 28
125 120 22
125 118 19
126 119 25
119 114 11
120 115 11
127 120 22
124 116 22
126 120 25
131 125 28
130 123 34
130 123 39
126 118 22
115 109 28
123 117 30
125 120 19
124 117 30
119 113 19
131 122 34
126 120 34
126 119 25
120 114 25
121 115 19
130 120 36
128 121 34
129 122 32
132 125 37
134 127 34
132 126 37
125 120 28
120 114 30
132 127 36
118 112 25
128 121 28
125 118 41
132 125 37
128 121 34
123 116 41
125 120 34
132 125 34
120 112 19
132 124 44
124 117 30
135 128 44
128 122 37
125 118 41
135 129 44
129 122 25
125 118 39
135 128 44
129 125 34
141 134 45
119 113 30
131 124 36
128 122 34
124 118 39
139 132 48
174 197 0
175 198 0
176 198 0
169 193 0
173 196 0
174 197 0
174 197 0
174 197 0
174 197 0
170 193 0
174 196 0
175 198 0
172 195 0
174 197 0
176 198 0
174 196 0
170 194 0
171 193 0
170 192 0
171 194 0
173 195 0
171 194 0
174 195 0
173 196 0
171 193 0
172 194 0
172 194 0
171 193 0
172 194 0
171 193 0
170 193 0
169 191 0
171 193 0
171 193 0
171 193 0
172 194 0
169 191 0
169 191 0
167 189 0
170 192 0
172 195 0
168 190 0
169 191 0
168 190 0
171 193 0
171 192 0
168 190 0
170 191 0
171 192 0
169 190 0
171 192 0
166 188 0
169 191 0
168 189 0
169 191 0
171 193 0
165 187 0
168 190 0
173 195 0
169 191 0
162 184 0
162 184 0
170 192 0
171 193 0
168 189 0
166 187 0
168 190 0
169 190 0
163 184 0
167 188 0
162 183 0
163 184 0
171 192 0
173 193 0
160 181 0
162 184 0
160 180 0
165 186 0
166 187 0
162 183 0
165 185 0
165 185 0
156 177 0
162 183 0
164 184 0
164 183 0
163 184 0
161 182 0
161 180 0
158 178 0
160 180 0
159 180 0
155 175 0
159 179 0
158 178 0
164 184 0
159 179 0
163 183 0
159 179 0
163 183 0
155 175 0
156 177 0
146 165 0
159 178 0
159 178 0
149 167 0
147 166 0
153 173 0
152 171 0
159 178 0
159 178 0
159 178 0
160 179 0
157 176 0
150 169 0
155 175 0
150 170 0
151 171 0
161 180 0
155 175 0
150 169 0
159 178 0
152 172 0
155 174 0
141 160 0
156 176 0
157 178 0
141 161 0
146 165 0
142 162 0
148 167 0
151 171 0
156 175 0
143 163 0
144 164 0
139 159 0
151 171 0
146 166 0
143 164 0
139 160 0
144 165 0
145 166 0
143 163 0
147 167 0
151 171 0
139 159 0
139 159 0
142 163 0
141 161 0
136 156 0
132 152 0
132 152 0
134 154 0
133 154 0
131 150 0
140 160 0
134 153 0
136 156 0
138 159 0
129 148 0
122 140 0
123 143 0
138 157 0
114 134 0
128 147 0
122 141 0
116 134 0
125 144 0
130 147 0
113 131 0
113 130 0
118 136 0
110 127 0
113 130 0
92 108 0
113 128 0
98 114 0
99 115 0
99 115 0
98 114 0
99 114 0
92 105 0
96 110 0
72 85 0
94 106 0
91 105 0
75 88 0
73 85 0
73 85 0
71 83 0
68 81 0
57 68 0
54 64 0
56 65 0
67 76 0
51 59 0
53 63 0
63 73 0
54 63 0
58 67 0
41 50 0
61 69 0
50 60 0
54 62 0
62 70 0
36 44 0
60 68 0
64 73 0
55 65 0
71 80 0
68 77 0
52 62 0
57 67 0
58 66 0
84 94 0
80 91 0
73 82 0
72 84 0
70 81 0
70 81 0
82 92 0
74 84 0
79 91 0
95 106 0
92 105 0
86 98 0
83 94 0
84 96 0
104 117 0
92 102 0
101 114 0
104 119 0
103 115 0
107 121 0
103 117 0
114 126 0
101 112 0
102 115 0
91 103 0
120 134 0
104 116 0
116 125 0
109 124 0
121 134 0
116 129 0
117 131 0
119 132 0
121 134 0
112 124 0
112 126 0
101 115 0
105 116 0
119 128 0
110 123 0
125 138 0
116 126 0
128 141 0
115 124 0
118 128 0
115 122 0
116 126 0
116 126 0
116 125 0
113 124 0
114 121 0
127 135 0
118 126 0
127 133 0
110 117 0
121 128 0
112 118 0
109 116 0
104 107 0
116 120 0
115 123 0
99 102 0
112 117 0
107 110 0
121 125 0
117 123 0
94 96 0
102 104 0
101 102 0
100 99 0
106 108 0
118 120 0
108 109 0
98 95 0
101 102 0
92 92 0
83 79 11
79 70 0
85 77 11
86 77 11
85 77 11
78 71 0
80 72 11
90 83 0
88 80 11
100 90 0
95 86 0
91 82 0
94 86 0
104 94 0
103 99 0
96 90 0
93 85 0
99 92 0
102 93 0
103 94 0
101 93 0
105 99 0
115 106 0
110 103 0
104 96 0
104 96 0
111 103 11
109 102 0
101 94 0
98 93 0
119 112 0
110 103 0
118 111 11
110 103 11
112 106 0
115 106 0
108 99 0
125 117 0
120 113 16
112 105 11
111 103 0
115 108 0
114 110 11
124 117 22
124 116 16
127 122 19
120 114 19
123 116 22
130 123 22
128 122 16
114 109 16
121 114 11
127 121 19
127 121 19
121 115 19
122 116 22
119 113 19
129 120 22
124 117 19
126 119 22
121 115 16
123 118 16
121 114 22
114 107 11
120 116 16
122 114 22
124 118 25
125 118 28
126 120 28
128 121 28
111 106 25
125 119 41
124 119 25
131 124 25
111 106 22
130 124 32
129 122 34
133 127 32
128 121 22
125 120 34
127 121 36
133 125 37
127 122 34
128 123 30
126 120 36
124 116 28
127 121 32
133 125 30
129 123 42
124 117 37
136 130 39
124 118 37
125 118 30
126 120 34
129 120 30
120 112 37
126 122 22
124 119 30
121 114 39
126 121 36
131 125 42
126 119 37
128 121 36
128 120 39
121 115 37
128 123 32
121 116 34
124 118 41
128 122 45
128 121 47
173 196 0
173 196 0
173 196 0
174 197 0
175 198 0
173 196 0
174 197 0
174 197 0
174 197 0
173 196 0
173 196 0
172 194 0
175 198 0
171 194 0
173 196 0
171 194 0
173 195 0
172 195 0
173 196 0
174 197 0
174 197 0
176 198 0
172 195 0
173 195 0
172 194 0
171 194 0
174 196 0
170 192 0
175 197 0
173 195 0
174 196 0
172 194 0
174 196 0
169 191 0
170 193 0
170 191 0
171 193 0
173 195 0
171 192 0
173 194 0
170 193 0
172 194 0
169 191 0
173 195 0
175 196 0
171 192 0
171 193 0
171 192 0
167 189 0
170 191 0
169 191 0
175 196 0
175 196 0
169 192 0
165 187 0
167 189 0
171 193 0
164 185 0
166 187 0
167 188 0
168 189 0
173 194 0
170 191 0
169 191 0
171 192 0
170 192 0
167 188 0
168 189 0
167 188 0
165 185 0
164 185 0
165 186 0
166 186 0
167 188 0
167 187 0
166 187 0
162 183 0
160 181 0
164 184 0
165 185 0
167 187 0
162 183 0
162 181 0
165 185 0
166 186 0
164 184 0
170 189 0
164 185 0
166 185 0
166 187 0
158 179 0
163 182 0
158 177 0
162 183 0
165 185 0
163 183 0
157 177 0
159 180 0
162 182 0
158 177 0
154 174 0
146 165 0
155 175 0
160 180 0
160 181 0
156 175 0
151 171 0
157 177 0
156 176 0
161 180 0
167 186 0
149 168 0
155 175 0
156 175 0
159 178 0
149 169 0
158 178 0
154 174 0
149 168 0
153 173 0
149 169 0
160 180 0
156 175 0
152 171 0
156 175 0
147 167 0
160 181 0
148 168 0
139 158 0
148 168 0
150 170 0
151 171 0
146 165 0
141 161 0
144 164 0
154 174 0
140 161 0
146 166 0
137 158 0
149 168 0
150 170 0
146 167 0
142 162 0
145 165 0
147 168 0
139 158 0
139 159 0
143 164 0
139 159 0
142 163 0
141 161 0
139 159 0
131 151 0
142 162 0
140 161 0
127 147 0
128 148 0
127 147 0
123 143 0
137 157 0
138 156 0
130 151 0
120 139 0
127 146 0
116 134 0
121 140 0
119 139 0
115 133 0
124 141 0
115 132 0
107 124 0
117 134 0
111 130 0
107 124 0
113 130 0
104 120 0
113 129 0
94 110 0
108 124 0
97 113 0
85 100 0
97 112 0
96 111 0
100 113 0
80 94 0
90 104 0
77 89 0
74 88 0
83 95 0
74 87 0
61 71 0
71 82 0
66 78 0
73 84 0
66 76 0
67 77 0
66 75 0
53 64 0
59 68 0
66 76 0
63 71 0
69 78 0
76 86 0
55 63 0
66 76 0
62 71 0
45 54 0
62 71 0
68 76 0
63 73 0
67 79 0
69 81 0
64 73 0
75 85 0
72 81 0
73 82 0
83 94 0
93 105 0
81 92 0
72 83 0
81 92 0
88 98 0
94 107 0
88 100 0
84 94 0
87 100 0
86 98 0
89 99 0
98 110 0
95 105 0
91 101 0
98 112 0
95 108 0
103 115 0
100 115 0
102 114 0
120 133 0
96 108 0
95 108 0
107 121 0
112 124 0
125 139 0
126 139 0
111 124 0
104 118 0
113 125 0
104 116 0
119 130 0
108 120 0
111 126 0
121 135 0
117 130 0
104 115 0
123 137 0
118 131 0
113 123 0
119 130 0
126 139 0
111 124 0
115 125 0
109 119 0
120 131 0
117 128 0
114 125 0
118 127 0
104 113 0
112 118 0
129 137 0
124 129 0
113 118 0
119 126 0
115 124 0
110 116 0
111 119 0
107 111 0
111 115 0
107 113 0
114 119 0
126 130 0
116 121 0
100 104 0
106 109 0
103 103 0
112 113 0
107 106 0
104 101 0
100 102 0
102 103 0
116 115 0
86 84 0
87 83 0
85 81 0
84 79 11
69 62 11
63 55 0
75 66 0
83 73 0
86 78 0
79 70 0
88 79 8
93 83 0
87 79 0
100 90 0
86 79 0
91 85 0
96 88 0
100 92 0
100 92 0
105 97 0
104 99 0
108 102 0
98 91 0
102 94 0
105 98 0
97 91 0
105 98 0
103 97 0
106 98 0
107 100 0
113 105 0
113 106 0
106 98 0
113 106 0
112 105 0
113 105 11
111 105 0
113 106 0
104 100 11
107 101 0
111 106 11
113 108 0
117 111 11
119 112 11
106 101 16
110 106 11
115 107 0
117 110 11
116 109 11
127 119 11
115 109 11
119 112 19
125 117 16
123 116 19
124 118 25
116 109 16
111 104 11
126 118 22
123 116 30
121 115 19
122 115 19
133 127 34
124 116 16
124 118 22
120 112 16
128 120 28
122 117 19
124 115 22
123 117 28
122 116 25
119 113 19
110 106 22
121 114 22
126 119 22
130 123 30
126 119 28
125 119 28
129 123 30
127 122 34
130 125 37
130 125 30
125 118 37
123 116 28
123 117 36
131 125 39
127 120 39
120 115 19
119 112 32
126 120 30
124 118 37
127 120 32
122 117 34
126 119 36
125 118 42
126 120 42
128 121 41
121 115 36
113 106 22
131 125 32
123 116 37
127 121 37
114 109 28
131 125 44
129 122 34
120 113 25
115 108 37
126 119 22
113 108 30
108 102 32
125 119 39
112 104 34
174 197 0
173 197 0
170 192 0
174 197 0
173 195 0
175 197 0
174 196 0
173 195 0
176 198 0
171 194 0
174 196 0
174 196 0
173 195 0
173 195 0
178 199 0
175 198 0
174 196 0
173 195 0
173 195 0
170 191 0
174 196 0
170 193 0
172 194 0
173 195 0
172 194 0
170 192 0
170 191 0
174 196 0
167 190 0
173 194 0
174 195 0
173 195 0
173 195 0
169 191 0
173 194 0
173 194 0
169 191 0
173 195 0
169 190 0
168 189 0
173 194 0
171 192 0
172 193 0
172 193 0
168 189 0
171 192 0
170 192 0
173 193 0
169 190 0
172 193 0
170 190 0
170 191 0
172 194 0
169 192 0
171 192 0
173 194 0
171 192 0
169 191 0
165 186 0
163 185 0
169 189 0
172 193 0
175 194 0
169 190 0
168 189 0
171 191 0
165 187 0
168 189 0
171 192 0
160 182 0
171 193 0
164 185 0
168 189 0
164 184 0
165 186 0
167 187 0
166 187 0
169 188 0
163 183 0
162 183 0
157 177 0
166 186 0
161 182 0
165 184 0
167 187 0
162 183 0
159 179 0
157 178 0
162 181 0
164 184 0
166 185 0
156 176 0
160 180 0
162 181 0
165 184 0
161 180 0
156 177 0
164 184 0
155 174 0
160 180 0
159 179 0
163 182 0
151 170 0
153 172 0
151 170 0
157 177 0
159 179 0
158 178 0
155 175 0
155 175 0
160 179 0
151 172 0
153 171 0
152 171 0
156 175 0
159 179 0
141 160 0
154 173 0
152 172 0
147 166 0
152 171 0
151 172 0
144 164 0
154 173 0
157 177 0
150 170 0
148 168 0
149 170 0
148 168 0
149 168 0
152 171 0
149 169 0
149 169 0
147 167 0
146 166 0
148 169 0
147 166 0
150 171 0
141 161 0
146 166 0
149 169 0
149 170 0
144 165 0
143 164 0
140 160 0
139 159 0
132 152 0
151 172 0
125 146 0
129 149 0
142 162 0
140 161 0
141 162 0
139 159 0
141 161 0
142 162 0
126 145 0
129 148 0
129 149 0
127 148 0
124 144 0
129 148 0
131 150 0
128 147 0
121 140 0
126 144 0
118 136 0
117 135 0
116 136 0
111 129 0
115 133 0
112 129 0
109 128 0
107 125 0
106 123 0
109 127 0
118 135 0
104 120 0
94 110 0
107 123 0
98 114 0
104 119 0
106 122 0
102 116 0
89 103 0
87 101 0
75 89 0
82 95 0
80 93 0
74 86 0
71 84 0
72 84 0
75 87 0
75 87 0
77 89 0
64 76 0
74 86 0
58 68 0
60 71 0
67 77 0
54 64 0
77 87 0
68 79 0
64 73 0
53 65 0
65 72 0
71 81 0
80 90 0
59 71 0
64 75 0
67 76 0
62 71 0
78 89 0
71 83 0
73 84 0
90 101 0
74 85 0
69 79 0
87 99 0
84 97 0
81 93 0
93 107 0
89 99 0
79 90 0
93 106 0
76 88 0
93 104 0
106 120 0
109 121 0
104 116 0
105 118 0
105 118 0
105 120 0
111 123 0
101 116 0
107 120 0
104 115 0
106 122 0
98 113 0
115 128 0
109 122 0
114 128 0
115 129 0
117 128 0
121 133 0
111 124 0
115 127 0
118 132 0
122 135 0
120 132 0
116 129 0
113 125 0
109 120 0
117 130 0
123 134 0
118 131 0
108 120 0
119 129 0
109 119 0
111 124 0
122 133 0
123 133 0
121 132 0
116 127 0
114 123 0
117 127 0
111 119 0
116 123 0
122 129 0
112 119 0
124 131 0
103 109 0
122 131 0
111 115 0
105 112 0
107 109 0
112 118 0
112 114 0
112 114 0
122 126 0
109 115 0
110 113 0
102 106 0
100 103 0
103 103 0
95 91 0
105 105 0
104 104 0
105 107 0
98 94 0
90 87 0
103 100 0
90 88 0
88 86 0
86 79 0
75 67 0
89 77 11
83 70 0
76 66 11
83 74 0
80 72 0
82 75 0
90 83 0
92 83 0
88 80 0
103 94 0
102 95 0
87 81 0
92 82 0
95 89 0
99 91 0
108 102 0
104 95 0
99 93 0
102 94 0
93 87 0
93 87 0
107 100 0
105 98 0
102 96 0
100 93 0
111 103 0
109 102 0
104 97 0
118 109 0
111 103 0
104 96 0
111 103 0
111 103 11
112 102 0
119 112 0
115 110 0
121 114 11
113 106 0
120 112 0
120 112 11
115 107 16
127 121 22
120 111 16
117 109 16
119 110 11
126 121 25
119 112 11
123 118 0
118 112 0
117 112 0
117 108 16
115 108 0
121 115 25
125 118 25
124 117 19
114 107 16
126 117 22
116 108 28
131 125 22
121 115 22
126 118 30
132 124 32
123 117 11
128 121 22
130 122 28
120 114 25
120 113 22
125 118 22
119 114 25
128 121 36
124 118 30
123 115 22
122 116 30
132 127 34
134 126 34
124 116 34
131 125 34
124 119 16
121 115 19
120 113 34
117 111 32
125 118 28
121 115 41
141 134 44
124 117 22
133 126 34
122 115 36
125 118 34
113 106 25
123 117 34
117 109 28
124 117 32
122 117 30
116 109 34
126 118 36
116 111 42
125 119 39
115 110 25
117 112 25
126 121 30
117 111 32
123 117 36
118 113 39
112 107 25
174 197 0
173 197 0
172 196 0
171 194 0
172 196 0
172 195 0
172 195 0
175 197 0
172 195 0
172 194 0
173 195 0
174 196 0
175 196 0
172 194 0
172 194 0
171 193 0
173 195 0
172 195 0
176 198 0
173 195 0
173 195 0
172 193 0
173 195 0
172 195 0
174 196 0
171 193 0
171 194 0
171 193 0
171 193 0
169 191 0
175 197 0
171 192 0
171 192 0
171 193 0
176 197 0
171 192 0
166 189 0
172 194 0
167 188 0
168 190 0
171 192 0
174 195 0
172 194 0
172 193 0
173 194 0
171 192 0
168 190 0
166 188 0
170 192 0
169 190 0
168 190 0
167 188 0
172 192 0
167 189 0
175 195 0
170 192 0
166 187 0
169 191 0
165 186 0
170 191 0
161 182 0
165 187 0
170 192 0
172 193 0
172 193 0
164 186 0
165 186 0
163 183 0
172 193 0
165 185 0
173 193 0
166 188 0
160 181 0
170 189 0
162 182 0
167 187 0
168 188 0
164 185 0
165 185 0
168 187 0
160 181 0
165 185 0
161 181 0
161 181 0
160 180 0
163 183 0
167 187 0
166 186 0
164 184 0
162 180 0
167 187 0
166 187 0
156 177 0
157 178 0
161 181 0
161 180 0
156 175 0
157 177 0
155 175 0
154 174 0
153 172 0
159 179 0
155 175 0
155 175 0
159 177 0
159 179 0
157 176 0
155 174 0
152 171 0
151 171 0
156 176 0
150 169 0
155 174 0
159 178 0
155 174 0
156 175 0
156 176 0
151 170 0
155 175 0
155 174 0
153 172 0
142 161 0
154 173 0
146 165 0
155 175 0
151 171 0
158 178 0
151 171 0
154 175 0
145 165 0
150 170 0
145 165 0
146 166 0
152 171 0
137 157 0
140 160 0
149 170 0
148 168 0
155 175 0
141 161 0
146 166 0
141 161 0
141 161 0
133 153 0
141 160 0
146 167 0
135 155 0
136 156 0
137 157 0
123 143 0
142 162 0
130 150 0
147 167 0
127 146 0
134 154 0
126 147 0
146 166 0
142 161 0
137 157 0
130 150 0
115 134 0
121 140 0
123 143 0
129 148 0
134 153 0
129 148 0
121 140 0
113 131 0
124 142 0
114 132 0
114 130 0
107 126 0
112 129 0
114 132 0
101 119 0
111 129 0
106 123 0
114 132 0
105 121 0
98 113 0
97 113 0
101 116 0
92 108 0
108 123 0
90 105 0
91 104 0
100 114 0
93 107 0
89 102 0
93 107 0
79 92 0
75 88 0
92 105 0
74 86 0
79 90 0
74 87 0
81 93 0
88 100 0
67 79 0
65 76 0
78 92 0
76 87 0
71 84 0
78 92 0
80 93 0
77 89 0
79 90 0
66 77 0
77 89 0
75 88 0
69 82 0
65 75 0
75 86 0
71 83 0
78 91 0
81 93 0
79 90 0
82 94 0
93 107 0
87 100 0
93 104 0
84 97 0
101 113 0
100 113 0
89 102 0
93 105 0
104 116 0
100 110 0
111 125 0
94 106 0
95 106 0
91 105 0
109 123 0
109 121 0
96 106 0
102 116 0
114 126 0
116 128 0
104 117 0
103 115 0
103 116 0
108 121 0
110 123 0
108 122 0
126 138 0
121 134 0
130 144 0
118 132 0
118 129 0
115 128 0
114 126 0
124 137 0
114 125 0
112 126 0
114 128 0
118 131 0
117 129 0
125 137 0
126 137 0
120 133 0
116 127 0
112 121 0
120 132 0
122 133 0
108 115 0
109 117 0
111 123 0
116 126 0
112 121 0
112 121 0
111 119 0
119 127 0
119 124 0
115 123 0
108 112 0
112 116 0
115 119 0
112 115 0
116 123 0
123 125 0
102 104 0
118 123 0
112 115 0
97 98 0
113 115 0
104 104 0
93 95 0
106 107 0
103 100 0
99 96 0
101 100 0
101 100 0
78 76 0
90 87 0
93 87 0
93 93 0
81 77 0
86 79 11
77 66 0
73 63 0
89 81 11
85 77 0
82 73 0
78 72 0
80 72 0
86 79 0
82 74 0
91 83 0
95 86 0
105 94 0
93 85 0
97 89 0
97 91 0
107 100 0
100 92 0
104 98 0
105 97 0
108 101 0
108 100 0
105 98 0
111 104 0
106 98 0
111 103 0
108 98 0
109 101 0
110 103 0
106 100 0
105 97 0
101 91 0
113 104 11
112 105 11
107 101 0
116 111 11
110 102 16
118 110 19
109 100 19
124 118 16
105 100 0
115 108 11
112 105 11
114 106 16
122 115 11
120 115 19
117 111 11
115 107 19
130 123 22
112 105 19
113 107 19
118 112 16
118 112 22
119 112 19
122 115 19
119 111 25
122 115 30
119 113 19
124 117 22
117 110 16
113 105 22
122 116 19
130 122 28
118 110 34
126 120 28
119 112 19
113 107 16
128 122 22
123 117 22
124 118 34
116 109 19
132 125 32
122 114 22
125 117 32
123 116 32
125 119 30
121 113 30
126 120 32
118 111 30
129 121 37
115 108 34
119 114 37
114 108 37
124 117 34
129 120 36
121 115 36
125 120 36
117 111 30
111 106 28
117 111 32
119 114 37
114 109 32
120 115 25
107 101 25
124 117 41
124 117 45
118 113 34
122 115 42
124 117 39
127 120 44
116 110 37
117 111 30
124 116 41
172 196 0
175 198 0
174 196 0
173 196 0
174 196 0
173 196 0
173 195 0
173 196 0
173 194 0
172 194 0
174 196 0
172 195 0
174 196 0
174 197 0
174 196 0
175 197 0
173 195 0
172 195 0
174 196 0
172 194 0
170 193 0
175 197 0
176 198 0
173 194 0
173 195 0
173 195 0
174 196 0
174 195 0
171 193 0
171 193 0
174 196 0
176 197 0
177 198 0
168 190 0
172 193 0
173 194 0
172 194 0
172 194 0
171 192 0
172 193 0
172 193 0
168 190 0
175 196 0
169 190 0
171 192 0
172 194 0
172 193 0
168 189 0
168 189 0
171 192 0
169 190 0
170 191 0
169 190 0
172 194 0
170 190 0
172 193 0
169 189 0
170 191 0
166 187 0
168 188 0
174 195 0
170 192 0
169 189 0
171 191 0
167 188 0
170 191 0
165 185 0
176 197 0
168 189 0
169 190 0
163 184 0
167 187 0
168 188 0
166 186 0
166 186 0
160 180 0
165 185 0
165 185 0
167 188 0
164 184 0
166 186 0
166 186 0
161 181 0
169 190 0
161 181 0
163 183 0
161 181 0
161 181 0
161 181 0
155 174 0
165 185 0
163 183 0
158 178 0
164 184 0
156 175 0
158 178 0
161 181 0
152 171 0
157 176 0
158 177 0
161 180 0
153 172 0
158 177 0
157 178 0
155 173 0
162 181 0
151 171 0
155 175 0
155 174 0
157 175 0
150 169 0
149 168 0
151 170 0
152 172 0
146 165 0
151 170 0
157 176 0
150 170 0
156 176 0
141 161 0
156 175 0
145 166 0
151 171 0
149 170 0
144 163 0
158 177 0
147 167 0
152 172 0
150 169 0
154 174 0
151 171 0
143 163 0
152 173 0
138 159 0
141 161 0
151 171 0
141 161 0
144 165 0
141 161 0
147 168 0
142 163 0
138 158 0
135 155 0
150 171 0
144 164 0
136 157 0
143 163 0
140 161 0
138 159 0
139 160 0
133 153 0
138 158 0
146 167 0
129 149 0
135 154 0
124 142 0
133 153 0
134 153 0
131 151 0
123 142 0
123 142 0
137 158 0
127 146 0
114 133 0
116 135 0
132 150 0
127 146 0
124 143 0
121 139 0
132 151 0
121 140 0
95 112 0
110 128 0
107 125 0
116 134 0
105 123 0
112 129 0
109 126 0
116 133 0
96 113 0
116 132 0
100 115 0
90 104 0
100 117 0
91 106 0
91 106 0
100 114 0
93 108 0
95 109 0
89 104 0
91 106 0
85 99 0
87 102 0
86 99 0
96 111 0
86 99 0
75 87 0
82 95 0
73 86 0
73 85 0
71 83 0
77 90 0
90 102 0
89 102 0
89 103 0
75 88 0
82 96 0
85 98 0
88 102 0
90 104 0
83 97 0
93 106 0
87 101 0
82 93 0
97 111 0
78 91 0
89 101 0
92 104 0
79 90 0
89 103 0
100 112 0
93 107 0
95 108 0
108 123 0
105 118 0
97 110 0
101 113 0
116 130 0
98 112 0
100 113 0
106 120 0
92 105 0
105 119 0
105 119 0
97 112 0
95 109 0
110 124 0
111 125 0
109 124 0
111 125 0
107 120 0
123 137 0
114 127 0
124 140 0
113 127 0
116 130 0
105 119 0
119 131 0
116 128 0
114 127 0
104 115 0
111 124 0
117 130 0
122 136 0
113 126 0
112 124 0
109 120 0
119 132 0
102 116 0
113 126 0
118 130 0
117 125 0
111 123 0
132 144 0
119 129 0
118 130 0
121 131 0
120 131 0
125 135 0
119 128 0
121 132 0
111 118 0
121 130 0
118 124 0
123 128 0
115 120 0
118 122 0
110 114 0
106 110 0
112 117 0
113 116 0
102 108 0
112 114 0
103 105 0
109 110 0
111 115 0
107 109 0
90 90 0
103 105 0
104 105 0
100 101 0
96 93 0
94 93 0
91 89 0
95 96 0
89 86 0
82 78 0
70 62 0
80 73 0
71 66 0
65 55 0
79 69 11
81 71 0
78 70 0
82 73 0
91 82 11
85 74 0
92 81 0
96 87 0
81 75 0
96 86 0
94 84 0
96 84 0
96 88 0
103 93 0
88 79 0
107 99 0
92 85 0
105 94 0
103 97 0
107 97 0
101 94 0
108 98 11
109 100 11
108 101 0
108 101 0
103 97 11
106 97 0
108 100 0
104 96 16
108 99 11
107 100 11
112 103 0
111 103 0
112 103 11
96 90 11
107 98 0
119 112 11
112 105 11
114 108 0
115 110 11
113 107 16
121 114 19
122 113 16
112 105 0
110 103 16
114 108 16
116 108 16
113 106 16
114 106 0
118 112 28
125 118 0
120 111 0
117 111 11
120 111 16
120 112 25
116 108 25
130 122 30
117 109 19
119 112 19
118 112 11
121 115 36
119 112 19
117 110 28
119 113 16
109 102 22
127 120 36
112 107 22
129 121 25
122 115 19
131 124 32
124 115 28
116 107 16
123 114 32
117 111 22
106 100 16
115 109 30
119 112 37
122 115 28
116 110 32
126 119 36
117 112 34
117 111 25
117 112 22
120 112 37
110 104 22
121 115 37
115 110 19
118 112 34
113 108 28
111 104 28
120 114 36
125 117 37
130 123 36
116 109 32
116 110 36
111 105 36
117 109 37
120 112 39
126 129 32
174 197 0
174 197 0
173 196 0
174 197 0
173 195 0
173 196 0
169 192 0
173 195 0
175 197 0
173 195 0
173 196 0
171 194 0
173 195 0
173 196 0
174 195 0
173 196 0
173 194 0
172 193 0
171 193 0
173 195 0
174 196 0
167 189 0
174 195 0
173 194 0
172 194 0
170 192 0
173 195 0
172 194 0
171 192 0
175 196 0
173 195 0
174 195 0
172 193 0
173 194 0
172 193 0
172 193 0
170 192 0
170 191 0
175 195 0
171 193 0
175 197 0
173 195 0
168 190 0
174 195 0
170 190 0
170 192 0
171 193 0
170 192 0
168 189 0
169 190 0
171 192 0
171 192 0
173 194 0
170 191 0
169 190 0
166 188 0
172 193 0
169 189 0
173 193 0
172 194 0
169 190 0
170 191 0
167 188 0
168 189 0
168 189 0
169 190 0
163 183 0
168 189 0
168 188 0
167 187 0
169 189 0
167 186 0
173 192 0
164 184 0
171 190 0
164 184 0
166 186 0
169 189 0
161 180 0
164 184 0
167 186 0
163 184 0
163 182 0
168 188 0
159 180 0
157 178 0
157 176 0
165 186 0
158 179 0
156 175 0
162 182 0
163 182 0
153 172 0
162 181 0
155 174 0
158 178 0
161 180 0
153 174 0
156 175 0
159 179 0
160 179 0
160 181 0
151 169 0
149 168 0
147 167 0
149 168 0
152 171 0
155 174 0
156 175 0
152 172 0
160 180 0
167 185 0
153 173 0
159 178 0
149 168 0
158 178 0
146 164 0
159 179 0
151 170 0
146 166 0
160 181 0
151 171 0
150 170 0
153 173 0
156 177 0
145 165 0
159 179 0
156 175 0
154 174 0
158 178 0
146 165 0
153 172 0
151 171 0
148 168 0
142 163 0
146 167 0
144 164 0
140 160 0
147 167 0
142 163 0
139 160 0
136 156 0
134 154 0
137 158 0
148 168 0
138 159 0
138 158 0
135 155 0
139 160 0
137 158 0
139 159 0
138 159 0
138 157 0
130 150 0
146 166 0
137 158 0
129 149 0
132 152 0
131 150 0
137 157 0
119 139 0
131 150 0
127 147 0
128 148 0
121 141 0
117 135 0
123 143 0
117 135 0
125 144 0
120 138 0
111 129 0
122 139 0
123 141 0
113 132 0
114 131 0
101 119 0
107 125 0
124 141 0
114 131 0
102 119 0
104 120 0
102 118 0
96 113 0
96 114 0
99 113 0
95 111 0
91 106 0
91 105 0
100 115 0
88 103 0
107 123 0
77 94 0
86 99 0
86 102 0
78 92 0
92 108 0
74 87 0
85 100 0
70 83 0
81 95 0
90 104 0
83 98 0
80 93 0
101 114 0
74 87 0
96 109 0
79 93 0
73 85 0
83 97 0
75 87 0
96 109 0
90 100 0
76 90 0
97 110 0
93 107 0
97 112 0
89 102 0
93 107 0
91 104 0
99 112 0
99 112 0
87 101 0
100 114 0
107 123 0
111 124 0
101 114 0
105 119 0
103 116 0
102 117 0
111 126 0
97 110 0
103 118 0
111 125 0
114 129 0
105 119 0
112 125 0
106 118 0
108 123 0
111 125 0
111 125 0
110 122 0
123 137 0
102 112 0
116 130 0
105 118 0
104 117 0
118 131 0
117 130 0
117 128 0
117 130 0
114 127 0
121 135 0
118 131 0
121 133 0
125 138 0
121 133 0
117 130 0
115 129 0
124 136 0
118 131 0
121 132 0
122 135 0
126 136 0
108 119 0
114 124 0
130 143 0
116 127 0
120 129 0
116 124 0
111 118 0
105 113 0
112 120 0
126 135 0
119 130 0
113 122 0
109 119 0
114 120 0
105 109 0
114 122 0
124 131 0
98 103 0
115 123 0
111 114 0
108 112 0
118 121 0
116 120 0
111 112 0
95 94 0
96 97 0
103 103 0
109 106 0
95 93 0
97 98 0
95 94 0
91 90 0
97 96 0
86 80 0
84 80 0
83 81 0
81 80 0
84 78 0
86 82 0
66 58 0
68 58 0
74 65 0
70 60 0
75 67 0
81 72 0
90 78 0
79 72 0
91 80 0
90 80 0
98 87 0
104 95 0
98 90 0
97 87 0
91 84 0
94 87 0
94 86 0
107 100 0
99 90 0
88 80 0
111 102 0
101 94 0
104 95 0
105 96 0
93 86 11
109 100 11
102 96 0
100 93 0
114 107 0
103 95 16
112 104 0
103 96 0
112 105 16
113 105 11
107 100 16
115 109 16
112 103 0
109 103 11
123 114 16
116 106 16
116 109 11
119 112 11
107 98 11
107 100 16
122 113 19
100 93 19
114 108 16
107 99 22
111 103 0
116 109 16
110 104 19
127 119 28
116 108 25
119 113 16
118 111 22
112 106 25
128 120 28
112 106 25
125 119 16
119 111 22
117 108 25
119 111 25
121 114 28
117 111 19
115 109 28
115 108 30
134 127 37
111 105 28
110 102 11
123 117 22
121 115 25
129 123 32
125 117 36
123 116 36
120 113 32
118 113 28
109 102 16
119 113 32
119 112 36
126 119 39
128 120 32
119 113 37
109 102 19
110 105 30
129 121 42
134 126 41
124 117 34
109 103 34
126 118 44
128 120 44
131 124 51
117 111 37
100 96 25
112 106 32
111 112 28
134 142 28
159 177 16
169 191 0
172 196 0
175 198 0
173 196 0
174 197 0
174 197 0
172 195 0
173 197 0
175 197 0
175 197 0
174 196 0
176 198 0
173 196 0
173 196 0
170 193 0
174 196 0
173 195 0
172 193 0
174 196 0
174 195 0
172 194 0
174 196 0
175 196 0
172 194 0
174 195 0
172 194 0
171 193 0
175 196 0
170 191 0
172 193 0
172 193 0
177 198 0
172 193 0
170 192 0
172 193 0
171 193 0
176 197 0
172 193 0
169 190 0
174 194 0
171 192 0
173 195 0
171 191 0
171 192 0
174 195 0
173 194 0
169 190 0
174 195 0
173 194 0
172 192 0
170 189 0
171 191 0
173 194 0
173 193 0
173 193 0
167 188 0
171 192 0
170 191 0
167 188 0
172 193 0
173 194 0
171 191 0
170 191 0
167 187 0
170 190 0
175 196 0
168 189 0
165 185 0
173 192 0
165 186 0
166 186 0
171 191 0
162 183 0
159 179 0
169 188 0
168 188 0
169 189 0
166 186 0
162 182 0
171 191 0
165 184 0
168 188 0
159 178 0
164 185 0
171 192 0
160 181 0
160 181 0
166 186 0
165 185 0
156 176 0
158 177 0
155 174 0
162 181 0
161 179 0
148 167 0
159 178 0
152 172 0
163 182 0
151 170 0
157 176 0
159 179 0
162 181 0
156 176 0
160 180 0
154 174 0
153 173 0
157 177 0
151 170 0
158 178 0
152 172 0
159 179 0
153 172 0
150 168 0
149 168 0
149 168 0
155 175 0
161 180 0
148 167 0
161 180 0
157 177 0
151 172 0
145 164 0
159 180 0
154 174 0
151 171 0
154 174 0
148 168 0
149 170 0
149 170 0
149 169 0
155 176 0
147 168 0
141 161 0
140 160 0
141 162 0
144 165 0
148 169 0
146 167 0
141 162 0
148 168 0
141 161 0
141 162 0
143 164 0
132 153 0
150 170 0
139 159 0
139 160 0
139 159 0
133 154 0
142 163 0
140 160 0
143 164 0
134 155 0
135 155 0
127 148 0
133 153 0
146 166 0
135 156 0
123 143 0
137 157 0
133 153 0
125 145 0
132 152 0
120 141 0
128 147 0
130 149 0
133 153 0
125 144 0
118 138 0
113 132 0
121 139 0
127 145 0
115 133 0
113 131 0
122 141 0
110 129 0
128 146 0
117 134 0
119 136 0
108 125 0
104 121 0
101 118 0
108 124 0
100 117 0
97 115 0
94 111 0
98 112 0
98 114 0
112 128 0
86 100 0
90 105 0
93 108 0
92 108 0
89 105 0
81 96 0
92 107 0
87 101 0
94 110 0
87 100 0
89 104 0
91 106 0
82 98 0
93 106 0
72 88 0
97 111 0
82 95 0
77 90 0
99 112 0
83 97 0
92 105 0
87 101 0
100 114 0
80 94 0
93 109 0
96 109 0
98 113 0
86 100 0
96 109 0
83 97 0
97 110 0
105 119 0
92 107 0
105 118 0
107 121 0
98 109 0
99 114 0
111 124 0
103 117 0
110 124 0
102 117 0
100 115 0
124 138 0
108 122 0
119 135 0
120 134 0
113 127 0
113 127 0
122 138 0
112 126 0
114 128 0
104 117 0
118 132 0
114 128 0
123 136 0
114 127 0
119 133 0
110 123 0
118 133 0
118 133 0
124 137 0
116 130 0
124 137 0
127 141 0
119 132 0
120 133 0
126 140 0
117 130 0
121 134 0
121 133 0
110 122 0
121 134 0
114 125 0
122 131 0
120 129 0
133 145 0
121 132 0
125 136 0
121 131 0
125 135 0
119 129 0
114 125 0
126 139 0
118 127 0
114 120 0
133 144 0
118 125 0
124 133 0
118 122 0
107 113 0
116 120 0
110 115 0
114 120 0
115 123 0
111 114 0
108 111 0
106 112 0
111 113 0
113 113 0
112 116 0
109 112 0
102 103 0
108 109 0
102 101 0
108 105 0
97 95 0
98 97 0
98 98 0
85 81 0
95 93 0
94 89 0
82 77 0
79 73 0
84 79 0
91 86 0
73 69 0
70 62 0
67 59 0
78 67 0
80 71 0
89 80 0
86 73 0
85 77 0
80 70 0
95 86 0
99 91 0
89 80 0
102 91 0
93 82 0
94 84 0
102 93 0
99 90 11
100 91 0
95 88 0
93 85 0
96 86 0
99 92 0
96 86 0
104 96 0
97 88 0
101 90 0
111 103 0
103 96 0
111 101 16
103 96 0
109 102 0
108 100 0
94 85 0
105 96 0
111 104 0
111 103 0
113 104 0
113 106 16
114 106 19
122 113 19
107 100 0
111 105 11
108 102 16
116 110 0
113 105 0
117 109 25
111 104 0
100 93 11
117 109 16
119 109 22
124 117 19
120 113 19
112 106 16
112 106 19
119 111 25
127 120 25
110 103 11
116 109 16
119 111 25
119 112 30
118 109 25
113 106 19
121 114 22
115 108 19
108 101 30
120 113 36
115 109 28
118 112 30
116 109 30
125 118 30
109 103 19
128 120 30
123 116 34
125 119 36
122 115 25
107 100 19
120 114 32
116 107 32
120 112 36
114 108 30
121 115 34
114 108 32
113 106 30
110 102 19
115 108 32
110 104 22
110 103 28
120 113 30
108 103 32
116 109 41
125 121 34
143 153 28
156 172 19
167 186 0
169 188 0
169 188 0
167 186 0
176 198 0
173 196 0
172 196 0
172 196 0
173 197 0
174 197 0
173 196 0
174 197 0
172 195 0
173 195 0
171 194 0
176 198 0
177 198 0
173 195 0
174 196 0
175 197 0
173 194 0
171 193 0
175 197 0
175 197 0
176 198 0
175 197 0
175 196 0
171 193 0
177 198 0
172 194 0
173 194 0
169 190 0
175 196 0
174 196 0
167 188 0
173 195 0
176 197 0
175 195 0
172 193 0
173 194 0
174 195 0
171 193 0
174 194 0
168 190 0
174 195 0
171 192 0
172 193 0
170 191 0
175 195 0
170 190 0
177 198 0
171 192 0
173 193 0
172 191 0
166 186 0
170 190 0
174 194 0
172 192 0
167 187 0
169 189 0
168 188 0
169 191 0
170 191 0
172 193 0
174 193 0
172 192 0
173 192 0
168 189 0
172 193 0
171 190 0
173 193 0
165 186 0
166 185 0
167 187 0
169 189 0
167 187 0
161 180 0
166 185 0
170 190 0
166 186 0
170 189 0
165 184 0
161 180 0
161 182 0
165 186 0
164 184 0
167 187 0
168 187 0
162 182 0
162 182 0
161 180 0
167 187 0
161 180 0
161 180 0
153 172 0
157 177 0
158 177 0
157 177 0
161 182 0
160 178 0
157 176 0
157 176 0
161 180 0
156 176 0
149 168 0
158 178 0
156 175 0
157 177 0
153 173 0
160 178 0
151 171 0
161 181 0
158 178 0
151 169 0
157 176 0
152 171 0
157 177 0
150 170 0
147 168 0
154 174 0
162 182 0
157 177 0
149 168 0
143 163 0
149 168 0
152 172 0
149 169 0
151 171 0
151 172 0
148 168 0
152 172 0
154 173 0
156 176 0
143 163 0
146 167 0
159 180 0
149 170 0
152 172 0
149 169 0
144 165 0
149 170 0
149 169 0
148 170 0
146 167 0
152 172 0
134 154 0
155 175 0
144 164 0
147 167 0
148 168 0
136 156 0
135 156 0
133 153 0
141 161 0
133 153 0
141 162 0
138 158 0
132 152 0
127 148 0
132 152 0
140 161 0
133 154 0
125 146 0
140 160 0
130 150 0
124 145 0
134 154 0
123 142 0
131 151 0
122 142 0
120 139 0
118 138 0
138 157 0
118 137 0
125 144 0
117 136 0
122 141 0
115 132 0
111 129 0
115 132 0
118 136 0
113 131 0
116 134 0
117 136 0
110 126 0
110 126 0
104 122 0
110 127 0
96 113 0
117 134 0
100 115 0
98 115 0
95 112 0
92 109 0
85 100 0
111 126 0
94 109 0
110 126 0
101 117 0
103 118 0
102 117 0
94 109 0
91 107 0
97 113 0
105 121 0
100 116 0
103 120 0
90 103 0
103 118 0
93 107 0
102 113 0
86 101 0
89 103 0
97 112 0
113 126 0
97 113 0
96 108 0
90 105 0
100 115 0
103 117 0
107 121 0
105 120 0
91 105 0
105 117 0
102 117 0
100 116 0
108 120 0
101 115 0
99 113 0
108 123 0
118 134 0
108 122 0
110 124 0
105 120 0
112 127 0
114 129 0
116 131 0
112 127 0
107 123 0
104 118 0
116 131 0
112 127 0
117 132 0
120 133 0
103 117 0
101 113 0
104 119 0
119 134 0
122 137 0
120 133 0
120 136 0
118 133 0
114 130 0
125 140 0
119 133 0
112 124 0
120 136 0
124 138 0
121 134 0
127 139 0
113 125 0
121 135 0
117 129 0
124 135 0
111 123 0
121 134 0
121 133 0
125 135 0
108 121 0
120 130 0
122 134 0
131 142 0
121 132 0
124 137 0
109 116 0
115 126 0
120 128 0
124 135 0
110 119 0
118 125 0
126 134 0
113 118 0
111 119 0
121 126 0
114 120 0
107 113 0
115 120 0
117 121 0
107 109 0
115 117 0
108 113 0
114 116 0
109 112 0
104 108 0
110 113 0
115 118 0
99 99 0
112 112 0
99 99 0
106 102 0
101 99 0
97 96 0
92 90 0
99 94 0
88 85 0
92 86 0
90 85 0
81 79 0
83 80 0
83 79 0
68 62 0
72 63 0
75 68 0
78 70 0
80 70 0
79 69 0
72 62 0
86 76 0
73 63 0
85 72 0
90 81 0
75 65 11
93 84 0
103 90 11
96 88 0
95 87 0
107 99 0
94 85 0
88 79 0
95 85 0
102 93 0
110 101 0
105 94 0
110 101 11
101 93 0
97 90 0
108 100 11
101 90 0
114 103 11
106 97 0
115 106 16
107 100 0
107 99 0
104 96 11
110 103 16
115 107 0
110 102 0
112 103 11
108 101 11
111 104 19
113 106 16
117 109 25
118 110 11
112 104 11
115 104 16
109 101 11
104 98 19
110 101 16
106 100 19
115 106 11
121 112 22
104 98 11
116 108 11
112 106 16
120 112 25
114 105 30
111 103 25
107 99 19
121 114 25
114 108 22
118 110 25
116 108 19
122 115 22
118 110 19
123 115 30
110 104 22
121 114 25
117 107 28
118 111 28
121 115 25
121 114 37
121 113 37
120 112 28
111 104 28
100 95 19
117 108 28
105 97 28
127 119 41
117 111 25
95 89 16
105 98 25
124 117 47
122 114 28
114 108 39
129 127 22
146 155 22
164 180 0
168 187 0
168 187 0
166 186 0
170 188 0
168 187 0
172 191 0
167 186 0
172 196 0
175 198 0
173 195 0
172 196 0
173 196 0
174 197 0
174 197 0
174 196 0
173 196 0
173 196 0
174 197 0
173 196 0
174 196 0
176 197 0
175 197 0
174 196 0
173 195 0
176 198 0
177 198 0
175 197 0
174 195 0
173 194 0
173 193 0
173 194 0
174 195 0
173 194 0
178 199 0
174 195 0
169 190 0
169 191 0
170 191 0
173 195 0
173 194 0
172 193 0
174 196 0
171 192 0
174 195 0
171 192 0
180 200 0
171 192 0
176 196 0
171 192 0
168 189 0
174 194 0
171 192 0
172 193 0
174 195 0
169 189 0
171 192 0
171 191 0
171 192 0
169 189 0
169 190 0
168 188 0
175 196 0
172 193 0
171 192 0
171 191 0
176 195 0
172 192 0
169 189 0
170 190 0
169 189 0
171 191 0
173 192 0
174 193 0
166 186 0
166 186 0
165 184 0
171 191 0
165 185 0
167 188 0
170 191 0
170 190 0
170 189 0
170 190 0
165 184 0
161 182 0
165 186 0
161 182 0
161 181 0
167 187 0
169 188 0
161 181 0
161 181 0
165 184 0
158 178 0
161 180 0
157 177 0
160 179 0
158 177 0
157 177 0
165 186 0
157 177 0
159 178 0
154 174 0
162 182 0
156 176 0
153 173 0
156 175 0
155 175 0
160 180 0
157 176 0
160 181 0
157 177 0
149 168 0
152 172 0
161 180 0
158 178 0
159 178 0
151 172 0
153 172 0
160 180 0
150 170 0
158 178 0
152 171 0
157 177 0
145 165 0
152 172 0
150 169 0
154 174 0
159 179 0
163 183 0
155 175 0
150 171 0
147 168 0
148 169 0
149 169 0
145 166 0
151 171 0
138 158 0
142 163 0
151 173 0
148 168 0
145 167 0
139 160 0
140 162 0
148 169 0
147 168 0
144 165 0
141 162 0
140 162 0
139 160 0
142 162 0
141 162 0
141 161 0
138 158 0
133 153 0
133 152 0
135 155 0
138 158 0
132 153 0
132 153 0
135 155 0
142 163 0
127 148 0
131 151 0
132 153 0
128 148 0
124 143 0
131 151 0
123 143 0
134 154 0
137 157 0
128 148 0
138 158 0
130 149 0
135 153 0
126 146 0
130 148 0
121 140 0
113 132 0
122 139 0
122 140 0
116 135 0
117 135 0
114 133 0
125 143 0
118 137 0
112 131 0
110 128 0
108 125 0
103 120 0
112 129 0
108 126 0
105 122 0
114 130 0
113 131 0
105 122 0
111 128 0
100 116 0
116 133 0
110 126 0
116 132 0
101 117 0
102 119 0
101 117 0
109 125 0
93 108 0
93 109 0
101 117 0
98 114 0
100 115 0
97 114 0
88 103 0
89 104 0
102 118 0
97 112 0
89 104 0
109 126 0
98 113 0
99 114 0
96 112 0
98 113 0
111 127 0
102 116 0
97 112 0
103 119 0
105 120 0
103 118 0
105 119 0
99 114 0
110 123 0
99 114 0
111 127 0
108 121 0
114 129 0
102 118 0
101 115 0
108 121 0
114 128 0
108 123 0
108 125 0
123 139 0
110 124 0
103 118 0
111 126 0
105 120 0
114 129 0
116 131 0
122 138 0
127 142 0
115 130 0
122 136 0
120 136 0
116 131 0
125 138 0
109 124 0
118 130 0
130 146 0
130 146 0
125 139 0
122 137 0
130 146 0
125 140 0
118 132 0
118 129 0
124 135 0
127 140 0
124 138 0
125 136 0
122 134 0
123 134 0
128 140 0
126 136 0
121 134 0
117 128 0
123 135 0
121 132 0
125 134 0
113 120 0
121 129 0
123 133 0
120 131 0
127 138 0
117 125 0
116 122 0
114 119 0
119 128 0
117 125 0
121 129 0
107 112 0
122 125 0
113 118 0
110 114 0
115 120 0
113 115 0
111 115 0
93 96 0
110 113 0
115 116 0
110 111 0
108 111 0
96 98 0
106 107 0
113 114 0
102 104 0
99 97 0
100 99 0
100 103 0
101 103 0
94 90 0
100 101 0
93 90 0
90 84 0
88 84 0
84 80 0
95 91 0
76 69 0
83 76 0
83 75 0
66 54 0
78 70 0
60 47 0
78 68 0
83 72 0
84 74 0
88 78 0
96 85 0
81 72 0
87 79 0
89 78 0
97 87 0
97 87 0
87 79 0
100 90 0
95 87 0
93 84 0
106 96 0
97 87 11
87 79 0
90 83 0
104 96 0
108 100 11
110 101 16
98 89 0
106 96 16
99 92 11
107 99 0
111 103 16
105 97 0
121 112 11
106 96 0
118 109 11
105 97 16
115 106 16
99 92 11
115 108 19
120 110 19
110 100 11
115 108 0
109 103 0
114 106 16
108 102 11
109 99 22
105 97 22
114 106 22
116 109 19
113 104 19
104 97 11
113 105 19
117 109 22
109 100 0
115 107 11
112 103 30
122 114 30
116 108 22
122 115 32
114 107 22
116 107 25
119 110 25
116 109 25
124 116 34
119 111 22
114 108 25
115 108 25
113 104 34
110 105 28
117 110 32
116 109 25
119 112 36
122 115 36
92 85 22
117 110 34
99 92 28
112 104 32
121 116 28
132 136 19
142 155 11
163 180 0
166 185 0
162 179 0
164 183 0
163 180 0
166 186 0
169 188 0
167 185 0
169 189 0
166 183 0
166 185 0
173 196 0
170 194 0
174 197 0
174 198 0
174 197 0
173 196 0
172 195 0
174 197 0
172 196 0
175 198 0
174 197 0
172 195 0
170 194 0
175 198 0
175 197 0
174 196 0
176 198 0
176 198 0
171 193 0
174 195 0
176 198 0
175 197 0
174 196 0
175 196 0
174 195 0
173 194 0
173 194 0
173 194 0
173 194 0
174 195 0
175 196 0
176 197 0
172 193 0
174 195 0
175 195 0
175 196 0
169 189 0
173 194 0
171 192 0
172 193 0
174 195 0
171 192 0
173 194 0
178 198 0
170 192 0
172 193 0
175 196 0
169 188 0
173 193 0
176 196 0
172 192 0
170 191 0
173 193 0
174 194 0
171 191 0
171 192 0
170 190 0
172 192 0
171 190 0
170 190 0
169 190 0
170 190 0
175 194 0
168 189 0
169 189 0
168 189 0
166 186 0
170 189 0
168 188 0
175 196 0
171 190 0
169 188 0
167 186 0
165 184 0
163 184 0
163 183 0
164 183 0
166 185 0
165 185 0
164 183 0
164 184 0
164 184 0
162 181 0
157 177 0
160 180 0
159 178 0
160 178 0
157 176 0
158 177 0
154 175 0
161 180 0
154 174 0
156 176 0
164 183 0
159 179 0
157 176 0
162 181 0
161 180 0
160 179 0
161 180 0
163 184 0
162 182 0
154 173 0
154 174 0
158 178 0
159 180 0
154 174 0
156 176 0
161 179 0
151 170 0
152 171 0
158 178 0
153 172 0
151 171 0
158 179 0
151 170 0
155 175 0
150 170 0
146 166 0
151 172 0
152 172 0
148 167 0
147 168 0
147 167 0
151 172 0
153 174 0
149 170 0
157 178 0
152 173 0
144 165 0
155 175 0
155 176 0
137 158 0
135 155 0
144 164 0
137 158 0
144 164 0
147 168 0
145 165 0
148 169 0
145 165 0
140 160 0
140 162 0
140 161 0
139 159 0
141 160 0
137 158 0
146 168 0
151 172 0
142 163 0
139 158 0
138 158 0
135 155 0
132 153 0
128 148 0
139 159 0
130 150 0
135 156 0
128 147 0
123 142 0
129 149 0
135 155 0
136 156 0
133 153 0
122 141 0
125 144 0
131 152 0
124 142 0
131 151 0
121 140 0
120 139 0
129 148 0
125 143 0
119 137 0
115 133 0
119 138 0
119 138 0
126 145 0
113 131 0
117 135 0
118 136 0
113 131 0
119 138 0
106 123 0
108 125 0
119 136 0
103 121 0
109 127 0
109 125 0
108 126 0
107 125 0
95 111 0
94 110 0
116 132 0
103 120 0
100 116 0
107 124 0
97 113 0
113 130 0
110 127 0
98 114 0
101 118 0
90 105 0
102 118 0
109 126 0
103 117 0
102 119 0
96 112 0
100 116 0
105 121 0
96 110 0
101 117 0
102 117 0
107 123 0
106 122 0
108 125 0
103 119 0
111 126 0
112 124 0
107 123 0
97 113 0
105 120 0
109 124 0
94 109 0
112 125 0
109 124 0
112 126 0
109 124 0
109 123 0
112 128 0
113 129 0
104 119 0
113 128 0
113 126 0
115 129 0
111 126 0
104 120 0
112 127 0
117 131 0
107 121 0
117 132 0
109 123 0
117 133 0
117 132 0
122 137 0
114 128 0
118 133 0
118 130 0
121 137 0
127 143 0
131 144 0
128 143 0
126 140 0
119 132 0
121 136 0
128 141 0
136 152 0
130 142 0
119 132 0
119 132 0
120 133 0
126 139 0
121 134 0
124 137 0
118 129 0
123 135 0
127 141 0
124 136 0
125 135 0
134 146 0
118 128 0
120 131 0
126 137 0
130 141 0
114 123 0
123 132 0
132 140 0
119 127 0
125 135 0
123 133 0
122 128 0
115 124 0
112 119 0
117 125 0
118 123 0
115 122 0
114 118 0
123 128 0
129 136 0
100 104 0
111 115 0
104 107 0
109 108 0
103 105 0
106 105 0
116 116 0
116 119 0
106 104 0
108 110 0
106 108 0
105 106 0
103 100 0
99 96 0
102 99 0
91 86 0
91 86 0
88 83 0
97 94 0
98 95 0
91 86 0
78 70 0
85 79 0
83 76 0
83 74 0
73 69 0
85 79 0
72 67 0
83 73 0
79 71 0
78 67 11
83 73 0
93 84 11
90 79 0
93 83 0
87 81 11
98 88 0
99 90 11
98 89 0
92 82 0
93 85 0
90 80 0
102 93 0
94 84 0
98 87 0
105 94 11
100 91 0
102 91 19
103 94 19
104 95 0
100 92 11
103 95 0
101 91 11
103 93 0
111 99 11
106 99 19
105 97 19
103 95 16
103 95 16
107 99 11
98 90 0
106 99 0
103 96 0
108 98 16
104 95 11
110 101 16
106 98 16
109 102 11
108 101 11
115 107 19
101 94 16
101 93 22
101 95 11
112 105 11
101 94 0
112 106 16
116 107 11
106 98 11
114 106 22
109 99 25
123 115 32
103 97 19
105 99 16
105 97 19
115 107 25
112 105 30
109 101 32
116 108 28
109 100 30
123 114 39
102 95 28
112 106 32
108 101 32
124 119 22
132 136 34
140 150 25
159 170 25
167 184 0
167 183 0
165 182 0
167 185 0
165 182 0
170 189 0
162 179 0
165 183 0
169 189 0
167 184 0
168 184 0
165 183 0
165 184 0
166 186 0
174 197 0
173 196 0
172 195 0
172 195 0
174 196 0
174 197 0
174 196 0
173 196 0
175 197 0
174 197 0
173 196 0
174 197 0
173 196 0
173 195 0
172 195 0
173 196 0
173 195 0
172 195 0
175 198 0
173 196 0
173 196 0
174 195 0
176 198 0
173 194 0
175 196 0
177 198 0
174 195 0
176 197 0
176 197 0
175 196 0
172 193 0
178 198 0
173 193 0
173 194 0
176 196 0
175 197 0
174 195 0
175 195 0
172 193 0
176 196 0
174 195 0
175 196 0
172 192 0
174 194 0
169 190 0
168 188 0
174 194 0
175 194 0
170 191 0
174 193 0
171 191 0
174 194 0
165 185 0
164 184 0
173 193 0
174 194 0
168 187 0
171 192 0
169 189 0
171 191 0
171 191 0
172 192 0
167 187 0
170 190 0
170 190 0
169 189 0
166 186 0
166 186 0
171 190 0
169 190 0
170 190 0
171 190 0
171 190 0
163 184 0
167 186 0
167 187 0
157 177 0
166 186 0
164 183 0
161 180 0
164 184 0
158 177 0
165 184 0
155 175 0
161 180 0
160 181 0
159 178 0
164 184 0
161 181 0
164 183 0
160 178 0
156 176 0
162 181 0
165 184 0
157 177 0
157 176 0
157 178 0
156 174 0
156 175 0
153 173 0
156 174 0
165 184 0
157 177 0
162 181 0
154 174 0
153 172 0
148 168 0
158 177 0
153 174 0
155 175 0
159 178 0
150 169 0
151 170 0
149 169 0
147 166 0
147 166 0
150 171 0
153 173 0
159 179 0
154 174 0
154 174 0
150 170 0
152 172 0
148 169 0
154 175 0
149 169 0
150 170 0
151 171 0
144 164 0
147 168 0
142 163 0
144 166 0
148 170 0
152 172 0
144 165 0
149 170 0
139 161 0
144 164 0
146 167 0
146 167 0
140 161 0
138 157 0
144 165 0
149 170 0
146 166 0
139 160 0
146 166 0
149 169 0
142 164 0
150 170 0
153 174 0
133 153 0
140 161 0
145 166 0
145 165 0
132 153 0
137 158 0
141 161 0
143 164 0
138 158 0
129 150 0
126 145 0
125 147 0
130 150 0
127 148 0
120 139 0
129 149 0
127 146 0
121 139 0
121 141 0
127 146 0
125 144 0
131 149 0
118 138 0
124 144 0
122 139 0
121 140 0
121 139 0
126 144 0
111 129 0
107 123 0
120 139 0
121 140 0
118 136 0
105 122 0
103 121 0
107 124 0
120 137 0
112 131 0
100 120 0
113 131 0
112 130 0
115 132 0
104 120 0
104 121 0
107 123 0
114 131 0
108 125 0
107 124 0
97 114 0
106 122 0
110 127 0
107 125 0
103 119 0
118 133 0
112 129 0
105 121 0
107 122 0
113 128 0
107 123 0
96 112 0
114 130 0
113 127 0
114 129 0
103 116 0
111 128 0
101 117 0
115 130 0
114 129 0
113 129 0
121 137 0
107 122 0
105 121 0
107 121 0
112 131 0
105 121 0
116 131 0
105 121 0
112 128 0
110 124 0
117 133 0
119 136 0
110 125 0
125 142 0
119 136 0
113 128 0
124 142 0
109 123 0
115 131 0
116 130 0
124 140 0
131 147 0
113 128 0
118 133 0
111 126 0
121 136 0
107 121 0
123 134 0
123 137 0
126 140 0
120 135 0
141 157 0
122 137 0
134 150 0
129 144 0
122 135 0
121 136 0
119 132 0
126 139 0
126 140 0
123 138 0
125 141 0
113 127 0
123 135 0
130 143 0
129 142 0
124 137 0
124 138 0
133 146 0
117 128 0
131 142 0
123 133 0
120 130 0
119 128 0
119 130 0
121 132 0
125 134 0
122 131 0
110 118 0
122 131 0
118 127 0
130 139 0
123 131 0
117 125 0
129 137 0
116 122 0
129 136 0
128 134 0
113 122 0
118 121 0
114 118 0
118 122 0
109 114 0
108 112 0
109 109 0
120 122 0
117 121 0
119 121 0
107 104 0
113 114 0
108 107 0
115 116 0
97 97 0
115 110 0
105 101 0
104 100 0
109 107 0
98 97 0
88 81 0
90 86 0
92 87 0
90 83 0
107 102 0
86 78 0
91 86 0
91 86 0
97 92 0
87 83 0
83 75 0
83 77 0
84 76 0
85 75 0
82 74 0
80 67 0
92 81 0
81 72 0
98 86 0
87 76 0
86 77 0
92 83 0
95 84 11
104 95 11
90 79 0
99 89 11
108 96 16
100 91 0
94 84 11
105 96 11
96 87 11
98 89 11
104 95 11
107 98 16
109 100 11
100 91 11
111 102 0
107 99 0
113 103 0
98 91 19
100 94 16
100 91 11
106 98 22
94 87 19
104 96 0
113 105 11
113 107 22
102 92 11
110 101 28
100 93 0
97 90 11
119 108 30
108 100 19
111 104 16
115 107 28
102 94 16
114 106 32
110 103 22
115 106 30
99 92 0
108 100 25
103 96 25
111 103 25
106 98 25
102 95 19
105 99 19
103 95 22
109 103 19
94 88 22
114 109 32
117 115 22
136 140 22
153 165 25
159 173 0
159 174 0
163 176 0
161 178 0
159 171 0
162 179 0
164 182 0
167 184 0
167 186 0
168 188 0
163 179 0
165 182 0
165 182 0
161 178 0
166 184 0
167 185 0
166 183 0
166 184 0
164 183 0
175 197 0
172 195 0
172 195 0
173 196 0
174 197 0
174 196 0
172 196 0
174 197 0
171 194 0
176 198 0
175 198 0
174 196 0
173 195 0
173 196 0
172 196 0
176 198 0
175 197 0
173 195 0
170 193 0
173 196 0
172 194 0
173 195 0
174 196 0
171 193 0
173 196 0
176 198 0
174 196 0
176 197 0
173 193 0
177 197 0
174 195 0
176 197 0
173 194 0
177 197 0
175 196 0
175 195 0
171 192 0
175 196 0
168 189 0
174 194 0
174 194 0
172 192 0
173 193 0
170 190 0
168 187 0
176 196 0
173 193 0
174 193 0
166 186 0
174 194 0
169 189 0
174 194 0
174 194 0
166 186 0
169 189 0
171 192 0
168 188 0
167 186 0
164 185 0
170 190 0
168 188 0
163 183 0
170 190 0
165 184 0
166 187 0
161 181 0
171 190 0
166 185 0
165 186 0
168 187 0
166 185 0
165 183 0
166 186 0
162 182 0
162 183 0
166 185 0
157 176 0
161 181 0
158 179 0
162 181 0
164 183 0
162 181 0
159 179 0
164 184 0
159 178 0
159 178 0
166 186 0
159 178 0
157 177 0
162 182 0
149 169 0
161 181 0
158 178 0
159 178 0
159 179 0
161 180 0
159 179 0
156 175 0
158 178 0
154 174 0
151 171 0
156 174 0
158 178 0
143 163 0
157 176 0
151 171 0
164 183 0
155 176 0
156 176 0
155 175 0
145 165 0
157 177 0
159 179 0
154 173 0
160 180 0
154 174 0
155 175 0
154 175 0
146 167 0
155 175 0
155 176 0
158 178 0
151 172 0
152 173 0
145 165 0
154 174 0
146 166 0
149 169 0
148 169 0
151 172 0
147 168 0
143 164 0
142 164 0
155 175 0
148 168 0
152 171 0
142 162 0
148 168 0
141 162 0
151 172 0
142 162 0
143 164 0
142 162 0
134 155 0
136 156 0
141 163 0
143 165 0
143 164 0
135 155 0
149 170 0
127 148 0
144 165 0
142 164 0
141 162 0
138 158 0
134 156 0
139 160 0
130 150 0
135 155 0
126 145 0
136 157 0
128 148 0
127 147 0
136 154 0
137 158 0
122 142 0
134 153 0
128 147 0
125 146 0
125 144 0
124 144 0
131 151 0
129 148 0
119 137 0
134 152 0
122 142 0
118 137 0
115 134 0
114 132 0
125 145 0
107 125 0
121 140 0
113 133 0
118 135 0
118 136 0
118 135 0
125 142 0
112 130 0
117 135 0
108 127 0
114 131 0
113 132 0
102 118 0
117 136 0
110 128 0
108 124 0
93 110 0
106 125 0
119 136 0
110 127 0
107 123 0
113 131 0
117 135 0
112 129 0
109 126 0
106 122 0
99 115 0
113 128 0
114 130 0
110 127 0
109 125 0
98 113 0
113 129 0
104 120 0
104 120 0
111 129 0
107 124 0
109 127 0
119 134 0
115 130 0
113 130 0
103 118 0
106 122 0
100 117 0
111 127 0
111 127 0
111 128 0
118 136 0
110 127 0
107 124 0
124 141 0
114 131 0
122 137 0
112 129 0
122 140 0
122 137 0
128 144 0
131 147 0
124 138 0
117 134 0
119 135 0
124 138 0
121 137 0
129 146 0
126 142 0
129 144 0
125 140 0
120 135 0
127 140 0
130 145 0
127 141 0
127 142 0
119 135 0
134 150 0
128 143 0
125 139 0
132 148 0
124 140 0
127 139 0
131 144 0
134 147 0
124 138 0
135 149 0
114 130 0
124 136 0
122 137 0
134 149 0
131 143 0
118 130 0
125 135 0
116 126 0
122 132 0
125 135 0
119 129 0
125 135 0
128 141 0
133 145 0
128 138 0
124 131 0
125 131 0
126 134 0
128 140 0
120 125 0
117 125 0
127 138 0
129 140 0
120 126 0
116 120 0
115 124 0
118 122 0
119 121 0
126 131 0
119 122 0
118 122 0
111 118 0
117 122 0
104 102 0
119 118 0
115 117 0
117 117 0
106 106 0
104 105 0
111 112 0
104 103 0
108 110 0
111 109 0
98 94 0
104 101 0
101 98 0
92 88 0
99 93 0
105 103 0
100 93 0
99 95 0
88 81 0
98 92 0
97 93 0
101 94 0
101 97 0
95 91 0
92 87 0
106 101 0
84 78 0
87 78 0
99 96 11
91 82 0
81 72 0
86 78 0
84 73 0
84 73 0
91 81 11
89 79 0
90 81 11
84 74 11
98 87 11
102 92 0
97 87 0
98 88 11
94 83 0
83 72 11
93 83 0
100 90 0
100 92 11
99 92 22
102 93 22
91 79 11
104 94 16
87 77 11
99 90 0
104 97 16
103 93 11
99 93 11
103 94 16
112 104 16
99 92 16
105 97 22
99 90 19
101 92 11
98 90 22
101 94 25
105 97 11
106 99 16
113 107 22
105 95 11
103 95 11
103 96 22
105 96 0
108 100 16
104 96 11
109 101 30
102 95 16
113 105 25
120 118 28
128 130 22
136 144 19
146 155 11
153 165 11
163 179 0
162 175 0
162 176 0
165 182 0
156 169 0
166 181 0
162 179 0
162 177 0
164 179 0
164 180 0
167 183 0
160 176 0
165 182 0
165 180 0
165 181 0
162 177 0
166 184 0
166 183 0
168 187 0
168 186 0
162 178 0
166 184 0
165 183 0
174 197 0
173 196 0
174 197 0
174 196 0
175 198 0
176 199 0
175 197 0
175 197 0
173 196 0
172 195 0
171 194 0
173 196 0
174 196 0
172 194 0
174 197 0
172 195 0
175 196 0
178 199 0
170 192 0
175 197 0
172 195 0
174 196 0
173 194 0
176 198 0
176 197 0
175 196 0
175 197 0
176 198 0
174 196 0
175 196 0
176 197 0
172 192 0
173 194 0
174 194 0
178 199 0
176 197 0
170 190 0
173 193 0
176 195 0
177 197 0
170 192 0
175 195 0
174 195 0
172 193 0
176 196 0
175 194 0
176 195 0
170 190 0
171 190 0
170 189 0
172 191 0
170 189 0
173 194 0
172 192 0
170 191 0
170 190 0
170 190 0
166 186 0
166 185 0
174 193 0
169 188 0
170 190 0
172 191 0
170 190 0
169 188 0
168 187 0
171 190 0
165 185 0
165 185 0
160 180 0
166 185 0
166 185 0
164 183 0
163 183 0
166 185 0
163 182 0
163 183 0
163 183 0
167 186 0
160 179 0
166 186 0
164 184 0
159 178 0
165 185 0
161 180 0
160 179 0
164 183 0
161 180 0
166 185 0
165 186 0
164 183 0
157 178 0
165 185 0
163 183 0
157 177 0
161 181 0
159 180 0
155 175 0
159 178 0
162 182 0
161 180 0
160 180 0
159 179 0
159 180 0
159 178 0
150 170 0
162 181 0
165 185 0
148 168 0
155 175 0
155 175 0
153 173 0
152 172 0
152 173 0
162 182 0
150 171 0
156 177 0
153 174 0
152 173 0
153 174 0
147 167 0
153 173 0
154 175 0
148 170 0
147 169 0
148 168 0
142 163 0
153 174 0
153 174 0
156 177 0
135 156 0
144 164 0
149 170 0
142 164 0
145 166 0
147 168 0
147 169 0
152 174 0
146 166 0
133 154 0
145 165 0
150 172 0
148 168 0
145 166 0
138 158 0
141 163 0
141 162 0
142 163 0
134 154 0
135 156 0
143 164 0
130 151 0
132 152 0
130 151 0
134 155 0
141 162 0
137 158 0
134 154 0
145 165 0
127 147 0
140 161 0
136 156 0
125 146 0
129 150 0
138 158 0
124 144 0
122 142 0
124 143 0
122 142 0
128 148 0
128 148 0
126 146 0
122 141 0
123 142 0
123 142 0
118 137 0
123 142 0
127 147 0
125 142 0
116 135 0
123 143 0
116 136 0
108 128 0
111 130 0
117 134 0
120 139 0
107 125 0
108 126 0
109 127 0
116 134 0
113 131 0
114 133 0
118 137 0
113 130 0
111 129 0
101 118 0
109 125 0
110 128 0
117 134 0
127 145 0
109 125 0
91 109 0
124 140 0
112 130 0
110 128 0
114 129 0
121 139 0
112 128 0
106 123 0
111 127 0
108 124 0
107 125 0
108 124 0
109 125 0
111 128 0
116 131 0
119 134 0
116 131 0
115 132 0
125 142 0
116 131 0
112 128 0
118 135 0
127 144 0
115 132 0
117 133 0
113 128 0
125 142 0
115 130 0
129 145 0
113 130 0
117 133 0
130 148 0
130 148 0
116 130 0
123 139 0
130 144 0
120 135 0
133 148 0
123 139 0
120 135 0
110 124 0
121 137 0
111 129 0
123 138 0
128 146 0
122 136 0
124 138 0
121 136 0
122 139 0
128 144 0
120 134 0
134 147 0
126 143 0
121 136 0
123 138 0
129 144 0
128 143 0
121 136 0
121 133 0
124 139 0
122 134 0
130 145 0
123 135 0
133 147 0
131 143 0
125 139 0
117 129 0
133 145 0
131 144 0
133 144 0
129 141 0
122 134 0
129 139 0
135 148 0
124 136 0
122 133 0
107 119 0
117 127 0
122 130 0
129 139 0
123 131 0
122 125 0
117 127 0
134 141 0
127 137 0
126 132 0
128 134 0
127 133 0
114 122 0
111 118 0
121 126 0
118 124 0
130 133 0
111 113 0
121 126 0
125 128 0
125 128 0
111 113 0
114 118 0
119 120 0
108 107 0
121 122 0
105 106 0
110 112 0
121 121 0
111 109 0
120 120 0
105 103 0
108 105 0
107 103 0
100 98 0
98 91 0
113 107 0
109 107 0
109 105 0
103 97 0
108 104 0
85 80 0
92 83 0
95 88 0
96 93 0
100 97 0
110 106 0
98 93 0
95 89 0
95 90 0
90 85 0
104 97 0
103 100 0
92 85 0
98 90 0
90 85 0
97 86 0
94 87 11
94 87 11
91 85 16
98 87 0
83 73 0
83 74 11
89 80 16
82 75 11
97 88 16
87 77 16
95 83 0
94 84 0
93 84 16
102 92 16
93 82 16
108 99 28
102 92 19
96 87 16
97 89 16
88 80 11
97 90 0
92 85 19
101 93 25
109 99 19
110 102 34
96 88 16
105 97 22
103 95 19
102 95 19
110 106 19
121 120 22
121 120 16
131 128 22
135 140 0
140 145 11
153 163 16
150 162 0
154 166 0
152 161 0
160 171 0
151 161 0
159 171 0
157 169 0
159 171 0
157 170 0
160 172 0
164 174 0
151 164 0
163 178 0
162 176 0
162 177 0
163 179 0
158 174 0
163 181 0
163 179 0
161 177 0
162 178 0
167 183 0
168 184 0
157 172 0
166 183 0
168 185 0
165 184 0
166 182 0
164 181 0
167 182 0
174 197 0
175 197 0
173 196 0
176 199 0
174 198 0
176 198 0
173 195 0
173 196 0
176 198 0
174 197 0
171 194 0
172 194 0
175 197 0
175 197 0
173 195 0
176 197 0
175 197 0
174 197 0
175 197 0
174 196 0
174 196 0
173 195 0
176 197 0
178 198 0
176 197 0
174 195 0
174 196 0
176 196 0
175 195 0
175 196 0
176 197 0
170 192 0
174 195 0
174 194 0
177 198 0
174 194 0
175 196 0
173 195 0
174 195 0
175 195 0
175 196 0
175 195 0
171 191 0
172 193 0
176 195 0
174 194 0
169 189 0
171 191 0
170 189 0
173 192 0
171 192 0
168 188 0
174 194 0
170 190 0
173 193 0
167 186 0
169 190 0
167 186 0
164 184 0
169 189 0
169 189 0
169 188 0
169 188 0
167 187 0
165 185 0
165 185 0
167 187 0
167 186 0
164 183 0
168 187 0
165 184 0
168 187 0
167 188 0
165 184 0
164 183 0
166 185 0
165 183 0
169 188 0
161 181 0
160 179 0
166 185 0
165 185 0
160 180 0
161 180 0
161 181 0
164 183 0
166 185 0
166 185 0
156 177 0
167 186 0
157 177 0
160 180 0
159 180 0
155 175 0
165 186 0
154 174 0
155 174 0
160 179 0
157 176 0
161 181 0
159 179 0
158 178 0
156 176 0
161 181 0
157 177 0
159 179 0
149 170 0
152 172 0
155 174 0
159 178 0
158 178 0
154 174 0
158 179 0
157 178 0
161 182 0
151 172 0
152 174 0
156 178 0
156 177 0
158 178 0
147 168 0
145 167 0
151 171 0
149 171 0
148 169 0
143 164 0
151 171 0
152 173 0
145 165 0
141 161 0
143 163 0
152 173 0
142 164 0
151 172 0
149 169 0
141 163 0
149 172 0
152 173 0
151 170 0
139 160 0
148 169 0
147 167 0
147 167 0
141 161 0
143 164 0
135 157 0
150 171 0
142 164 0
140 160 0
138 160 0
141 162 0
134 155 0
140 161 0
135 155 0
146 166 0
146 167 0
128 149 0
139 159 0
121 142 0
131 152 0
136 158 0
124 144 0
141 161 0
136 156 0
124 144 0
142 162 0
146 166 0
140 160 0
125 145 0
121 142 0
129 149 0
122 142 0
140 159 0
118 137 0
131 150 0
128 149 0
123 142 0
125 143 0
127 147 0
114 133 0
121 140 0
131 150 0
125 144 0
122 141 0
121 139 0
122 140 0
131 150 0
112 129 0
112 130 0
123 140 0
110 129 0
122 142 0
107 125 0
115 134 0
115 132 0
116 134 0
116 135 0
120 138 0
116 134 0
113 132 0
120 137 0
112 131 0
105 121 0
119 138 0
113 130 0
116 133 0
113 128 0
120 139 0
121 138 0
117 133 0
111 128 0
113 130 0
120 139 0
111 129 0
112 130 0
122 139 0
116 135 0
106 124 0
98 113 0
117 132 0
109 127 0
113 129 0
118 136 0
117 133 0
118 136 0
119 136 0
107 124 0
130 148 0
118 137 0
111 127 0
117 132 0
108 125 0
130 148 0
136 154 0
114 130 0
129 146 0
125 141 0
126 144 0
119 134 0
124 139 0
125 140 0
129 144 0
130 146 0
113 131 0
119 135 0
129 144 0
137 154 0
136 152 0
127 143 0
129 144 0
135 153 0
138 154 0
133 147 0
122 137 0
129 144 0
124 138 0
126 142 0
129 143 0
138 154 0
129 145 0
134 147 0
133 149 0
138 152 0
138 152 0
131 142 0
128 141 0
132 145 0
128 142 0
132 148 0
135 148 0
123 135 0
131 146 0
131 146 0
134 148 0
119 130 0
125 135 0
127 137 0
123 133 0
127 139 0
128 139 0
127 138 0
127 137 0
112 119 0
117 125 0
124 134 0
125 135 0
127 132 0
123 134 0
129 139 0
119 126 0
119 126 0
115 117 0
128 138 0
129 135 0
124 130 0
119 125 0
122 127 0
123 128 0
117 120 0
108 109 0
126 131 0
116 118 0
117 117 0
118 122 0
116 115 0
109 109 0
111 113 0
112 113 0
103 103 0
103 101 0
109 111 0
104 103 0
108 107 0
115 113 0
103 97 0
113 114 0
104 99 0
101 93 0
99 90 0
98 93 0
109 105 0
98 91 0
102 98 0
104 99 0
104 97 0
101 93 0
105 96 0
97 92 0
97 90 0
107 104 0
113 109 0
103 100 0
93 89 0
115 113 0
105 101 0
102 96 0
117 113 0
104 98 0
117 113 0
116 111 0
117 111 0
113 108 0
122 119 0
104 102 0
123 119 0
113 110 11
123 121 11
119 115 16
121 117 0
120 119 0
101 97 11
124 122 16
120 115 11
118 119 0
107 103 0
130 131 16
131 132 16
131 134 0
131 133 11
137 139 0
136 138 0
150 157 0
145 149 0
148 153 0
143 150 0
141 147 0
153 160 0
155 163 0
156 168 0
159 170 0
149 158 0
151 159 0
147 156 0
151 161 0
157 168 0
153 161 0
162 175 0
157 167 0
161 174 0
160 171 0
159 171 0
159 170 0
159 171 0
156 172 0
157 171 0
161 176 0
159 173 0
161 175 0
160 175 0
159 174 0
164 180 0
160 174 0
160 176 0
163 179 0
160 176 0
165 181 0
167 184 0
158 173 0
165 182 0
166 185 0
174 197 0
175 198 0
176 197 0
174 196 0
169 193 0
174 195 0
171 194 0
175 198 0
173 196 0
176 198 0
175 197 0
174 196 0
174 197 0
174 196 0
175 196 0
172 195 0
173 194 0
174 196 0
175 197 0
175 196 0
174 196 0
174 196 0
171 194 0
174 195 0
173 195 0
177 198 0
174 195 0
172 192 0
174 196 0
176 197 0
172 192 0
173 193 0
174 194 0
173 194 0
174 194 0
175 196 0
174 194 0
171 191 0
173 193 0
175 195 0
177 197 0
173 193 0
171 192 0
173 194 0
174 194 0
172 192 0
173 194 0
169 189 0
170 189 0
172 192 0
170 191 0
174 194 0
172 192 0
168 188 0
171 190 0
165 185 0
169 189 0
171 191 0
173 193 0
169 190 0
167 187 0
163 183 0
172 192 0
170 189 0
164 184 0
167 187 0
166 185 0
167 185 0
164 183 0
156 176 0
159 178 0
159 180 0
163 183 0
159 179 0
168 187 0
163 182 0
163 182 0
168 188 0
163 182 0
158 177 0
163 182 0
163 182 0
162 182 0
163 182 0
164 183 0
167 186 0
162 182 0
162 181 0
160 180 0
160 179 0
153 172 0
159 178 0
162 182 0
159 179 0
159 178 0
162 182 0
158 177 0
159 179 0
159 179 0
160 180 0
162 181 0
162 181 0
162 181 0
161 181 0
148 168 0
156 176 0
153 175 0
158 178 0
150 169 0
155 176 0
155 177 0
153 173 0
153 172 0
147 168 0
153 173 0
155 176 0
154 173 0
152 174 0
154 175 0
154 174 0
142 163 0
149 170 0
153 173 0
144 165 0
148 169 0
141 161 0
145 166 0
152 173 0
147 168 0
143 162 0
143 165 0
142 162 0
154 176 0
148 168 0
145 167 0
148 170 0
142 163 0
154 174 0
153 174 0
149 170 0
143 163 0
143 165 0
139 161 0
144 166 0
135 156 0
152 173 0
137 158 0
140 160 0
138 159 0
149 169 0
132 153 0
140 161 0
135 156 0
138 159 0
143 165 0
143 163 0
131 151 0
126 146 0
132 153 0
127 148 0
143 164 0
141 162 0
138 160 0
140 162 0
130 149 0
129 149 0
126 146 0
126 146 0
128 147 0
126 146 0
128 149 0
123 143 0
129 150 0
119 139 0
129 150 0
122 142 0
121 140 0
123 143 0
125 145 0
132 152 0
115 134 0
142 161 0
127 147 0
121 139 0
130 149 0
124 144 0
110 130 0
126 145 0
123 142 0
117 136 0
125 144 0
125 144 0
118 136 0
122 140 0
121 140 0
119 137 0
123 142 0
107 126 0
115 132 0
109 128 0
124 142 0
115 134 0
121 138 0
109 127 0
113 131 0
111 130 0
131 150 0
117 134 0
121 138 0
121 139 0
113 130 0
109 126 0
119 136 0
119 136 0
115 132 0
104 121 0
104 120 0
124 142 0
116 131 0
124 140 0
121 138 0
126 145 0
119 136 0
116 131 0
126 144 0
127 145 0
118 135 0
113 129 0
105 122 0
121 137 0
116 134 0
124 141 0
123 141 0
112 129 0
126 144 0
117 133 0
114 131 0
127 144 0
121 137 0
125 143 0
123 141 0
126 143 0
134 150 0
129 146 0
133 149 0
125 141 0
127 143 0
133 149 0
126 142 0
120 136 0
122 135 0
128 143 0
139 155 0
118 131 0
122 137 0
128 143 0
131 144 0
131 149 0
120 135 0
135 151 0
136 152 0
134 148 0
127 142 0
133 145 0
132 148 0
130 146 0
125 137 0
133 147 0
134 147 0
135 151 0
128 139 0
124 134 0
127 138 0
122 134 0
125 136 0
133 145 0
130 143 0
127 139 0
131 145 0
132 143 0
130 141 0
122 128 0
133 145 0
136 144 0
127 137 0
126 138 0
134 145 0
132 140 0
127 135 0
127 136 0
122 130 0
133 140 0
126 134 0
122 128 0
133 139 0
124 130 0
120 126 0
119 124 0
131 137 0
118 124 0
123 127 0
116 117 0
133 137 0
110 114 0
118 124 0
132 135 0
116 117 0
123 127 0
116 116 0
112 112 0
106 106 0
100 98 0
108 106 0
117 117 0
111 110 0
108 108 0
101 97 0
114 113 0
102 96 0
102 97 0
113 112 0
103 100 0
115 114 0
115 109 0
111 106 0
102 96 0
112 107 0
104 97 0
105 101 0
110 105 0
100 97 0
111 104 0
108 104 0
114 110 0
108 100 0
108 102 0
121 116 0
117 114 0
114 108 0
117 114 0
124 125 0
114 106 0
118 115 0
121 120 0
129 126 0
112 108 0
126 123 0
127 125 0
133 133 0
116 112 0
131 131 0
135 136 0
131 129 0
131 133 0
134 134 0
140 143 0
140 142 0
139 141 0
144 148 0
141 144 0
150 156 0
145 151 0
144 148 0
156 163 0
149 154 0
146 152 0
151 161 0
149 157 0
150 155 0
160 172 0
153 160 0
156 165 0
156 165 0
150 159 0
150 160 0
159 168 0
153 163 0
158 170 0
160 174 0
156 169 0
157 168 0
155 167 0
163 176 0
157 170 0
158 168 0
154 164 0
159 174 0
161 174 0
159 173 0
158 172 0
157 171 0
162 176 0
153 164 0
161 175 0
158 172 0
162 178 0
162 180 0
165 183 0
168 185 0
164 179 0
174 197 0
174 197 0
176 198 0
173 195 0
175 197 0
171 193 0
175 198 0
176 198 0
174 196 0
173 195 0
173 196 0
174 196 0
177 199 0
173 195 0
173 196 0
174 196 0
172 194 0
172 194 0
177 198 0
173 195 0
176 197 0
173 193 0
170 191 0
178 199 0
175 196 0
174 195 0
175 196 0
174 195 0
175 196 0
174 194 0
174 195 0
174 196 0
174 194 0
175 195 0
176 196 0
171 192 0
172 192 0
172 192 0
175 196 0
175 195 0
176 195 0
173 193 0
175 195 0
174 194 0
171 191 0
172 192 0
170 190 0
171 190 0
174 194 0
171 191 0
174 192 0
170 190 0
168 188 0
171 192 0
173 193 0
169 188 0
168 188 0
165 184 0
169 189 0
170 189 0
168 188 0
169 188 0
170 189 0
168 187 0
168 188 0
168 187 0
167 186 0
164 183 0
168 188 0
167 187 0
166 185 0
166 186 0
170 190 0
166 186 0
162 182 0
160 181 0
165 184 0
163 184 0
165 185 0
161 181 0
160 180 0
168 187 0
162 183 0
162 182 0
165 184 0
161 182 0
156 176 0
158 177 0
167 186 0
159 179 0
166 185 0
163 183 0
164 184 0
154 174 0
158 178 0
164 184 0
159 179 0
157 178 0
160 180 0
160 180 0
164 185 0
157 176 0
157 177 0
153 173 0
158 179 0
160 179 0
157 178 0
159 181 0
151 171 0
157 177 0
165 185 0
152 172 0
155 174 0
152 173 0
162 183 0
153 174 0
156 176 0
149 170 0
151 172 0
148 169 0
150 172 0
150 170 0
152 173 0
153 174 0
151 171 0
150 171 0
149 170 0
151 172 0
152 173 0
149 169 0
149 170 0
140 160 0
149 170 0
149 170 0
143 163 0
146 168 0
136 157 0
145 166 0
150 172 0
144 166 0
150 171 0
149 170 0
136 158 0
151 171 0
144 166 0
137 158 0
147 168 0
147 168 0
141 162 0
141 163 0
148 169 0
139 160 0
137 157 0
139 160 0
134 154 0
138 159 0
142 163 0
131 152 0
130 150 0
129 149 0
138 158 0
129 150 0
135 156 0
146 167 0
140 162 0
133 153 0
137 155 0
122 142 0
121 142 0
122 142 0
127 148 0
128 148 0
137 158 0
122 142 0
129 149 0
129 149 0
125 146 0
114 134 0
125 144 0
134 154 0
124 144 0
124 144 0
125 145 0
135 156 0
131 151 0
122 141 0
119 138 0
122 140 0
125 146 0
127 145 0
122 141 0
122 140 0
108 127 0
121 140 0
121 138 0
118 137 0
123 142 0
121 139 0
119 139 0
120 137 0
116 133 0
125 144 0
113 132 0
122 141 0
127 145 0
120 138 0
123 142 0
116 134 0
116 135 0
117 135 0
120 137 0
129 147 0
122 139 0
117 133 0
130 149 0
118 136 0
108 125 0
111 126 0
129 146 0
126 144 0
110 128 0
121 139 0
134 151 0
122 139 0
114 132 0
118 135 0
129 148 0
120 137 0
120 136 0
124 142 0
124 140 0
122 140 0
126 146 0
131 148 0
125 141 0
124 141 0
118 133 0
116 133 0
123 141 0
138 154 0
115 131 0
132 149 0
130 148 0
123 141 0
121 137 0
121 137 0
124 141 0
132 148 0
126 142 0
128 143 0
124 140 0
124 139 0
133 149 0
131 146 0
126 142 0
136 153 0
126 142 0
133 149 0
126 141 0
129 146 0
119 133 0
133 146 0
133 149 0
121 137 0
124 139 0
132 146 0
137 154 0
134 147 0
135 150 0
134 147 0
132 144 0
134 147 0
130 143 0
127 141 0
134 147 0
135 146 0
131 142 0
133 144 0
126 138 0
135 149 0
132 145 0
124 132 0
128 140 0
129 140 0
132 142 0
129 139 0
128 138 0
136 147 0
128 136 0
132 140 0
127 134 0
120 126 0
122 131 0
126 133 0
128 136 0
129 136 0
132 139 0
116 122 0
121 128 0
122 126 0
116 123 0
123 129 0
119 124 0
115 121 0
128 133 0
115 120 0
121 123 0
122 126 0
119 119 0
120 124 0
124 128 0
124 125 0
118 118 0
126 126 0
115 116 0
112 111 0
115 117 0
119 116 0
111 112 0
113 114 0
115 115 0
117 118 0
114 111 0
103 100 0
114 107 0
114 108 0
117 115 0
107 104 0
107 103 0
112 109 0
113 109 0
115 111 0
106 103 0
127 125 0
112 110 0
116 113 0
115 112 0
112 109 0
116 116 0
109 105 0
112 109 0
119 114 0
122 119 0
127 126 0
127 124 0
117 114 0
130 127 0
124 123 0
128 127 0
137 138 0
132 131 0
135 135 0
139 140 0
133 136 0
145 148 0
143 144 0
141 143 0
136 136 0
144 147 0
146 150 0
142 144 0
139 141 0
147 152 0
146 150 0
140 145 0
149 154 0
148 154 0
150 156 0
145 150 0
153 162 0
147 152 0
152 162 0
148 157 0
156 165 0
153 163 0
151 159 0
159 169 0
151 159 0
157 163 0
153 162 0
151 163 0
156 168 0
157 168 0
158 169 0
161 172 0
158 170 0
156 171 0
151 162 0
152 164 0
158 172 0
163 179 0
161 177 0
165 179 0
167 183 0
162 177 0
163 178 0
161 174 0
166 184 0
162 175 0
165 180 0
173 195 0
174 196 0
173 196 0
173 196 0
173 195 0
177 198 0
171 193 0
173 196 0
173 195 0
175 197 0
172 194 0
173 196 0
172 193 0
172 194 0
172 194 0
173 195 0
172 194 0
175 197 0
174 196 0
175 197 0
177 198 0
174 196 0
175 196 0
174 195 0
176 196 0
176 196 0
169 190 0
177 197 0
173 193 0
173 194 0
173 194 0
177 198 0
174 195 0
175 195 0
172 192 0
176 196 0
175 194 0
173 194 0
173 194 0
176 195 0
177 197 0
175 195 0
171 192 0
174 194 0
169 189 0
172 193 0
176 196 0
170 190 0
170 190 0
172 192 0
174 193 0
169 189 0
172 192 0
168 189 0
170 190 0
173 193 0
173 192 0
171 190 0
165 184 0
172 191 0
169 189 0
167 185 0
166 186 0
172 192 0
166 185 0
164 183 0
170 189 0
169 189 0
172 192 0
168 187 0
166 185 0
166 187 0
165 185 0
159 178 0
164 184 0
159 179 0
161 181 0
167 185 0
166 185 0
160 180 0
157 177 0
161 181 0
167 186 0
163 184 0
162 181 0
158 178 0
161 181 0
164 183 0
155 175 0
159 179 0
166 185 0
161 181 0
163 183 0
161 181 0
160 180 0
156 176 0
155 174 0
158 178 0
149 169 0
162 183 0
165 186 0
160 181 0
163 183 0
158 178 0
160 181 0
151 171 0
159 180 0
155 176 0
162 182 0
154 175 0
155 176 0
169 189 0
156 178 0
154 174 0
158 179 0
157 177 0
151 172 0
159 181 0
142 164 0
146 167 0
155 176 0
150 170 0
150 172 0
150 170 0
146 167 0
148 169 0
152 173 0
149 170 0
150 171 0
151 172 0
146 167 0
153 175 0
150 170 0
143 164 0
153 175 0
153 174 0
146 166 0
146 168 0
142 165 0
139 160 0
151 172 0
149 170 0
145 166 0
148 168 0
142 163 0
145 167 0
133 154 0
146 169 0
139 159 0
139 160 0
142 164 0
142 164 0
138 159 0
137 159 0
140 161 0
143 163 0
138 158 0
136 157 0
134 155 0
142 163 0
138 160 0
140 161 0
141 163 0
133 154 0
139 160 0
127 147 0
140 160 0
132 152 0
126 145 0
134 154 0
133 153 0
127 147 0
123 143 0
138 159 0
129 149 0
137 158 0
126 146 0
130 150 0
134 154 0
130 150 0
129 148 0
129 148 0
133 153 0
124 143 0
124 144 0
125 145 0
122 141 0
118 137 0
123 144 0
134 153 0
115 133 0
117 136 0
124 144 0
118 138 0
131 151 0
117 137 0
125 144 0
121 140 0
110 128 0
106 125 0
122 140 0
115 133 0
122 140 0
113 132 0
128 148 0
114 134 0
121 139 0
122 140 0
117 136 0
111 129 0
121 138 0
118 137 0
123 140 0
123 142 0
124 143 0
119 137 0
122 140 0
120 136 0
122 141 0
118 135 0
124 142 0
126 143 0
112 130 0
121 138 0
128 146 0
133 150 0
130 148 0
129 147 0
123 141 0
112 130 0
124 141 0
127 146 0
120 137 0
124 143 0
109 125 0
126 146 0
127 144 0
127 142 0
127 144 0
120 135 0
131 148 0
129 145 0
128 144 0
127 142 0
132 149 0
128 142 0
130 147 0
122 139 0
131 148 0
132 150 0
134 151 0
128 145 0
133 150 0
116 131 0
125 141 0
127 145 0
119 134 0
132 147 0
133 150 0
125 140 0
127 143 0
135 150 0
128 143 0
133 147 0
136 152 0
132 144 0
121 136 0
129 144 0
129 141 0
138 153 0
129 144 0
119 133 0
134 147 0
126 141 0
138 155 0
124 135 0
118 130 0
133 144 0
121 132 0
122 135 0
132 141 0
129 140 0
138 151 0
125 136 0
125 135 0
131 141 0
139 150 0
124 134 0
126 134 0
126 133 0
133 142 0
124 133 0
127 134 0
121 128 0
124 133 0
127 135 0
121 128 0
125 131 0
129 134 0
114 120 0
121 125 0
125 129 0
125 131 0
123 128 0
115 117 0
125 131 0
126 130 0
116 122 0
125 128 0
126 128 0
129 131 0
117 122 0
110 110 0
119 122 0
120 122 0
125 126 0
114 113 0
107 106 0
127 131 0
119 116 0
120 120 0
116 119 0
119 122 0
105 103 0
112 109 0
102 98 0
117 118 0
113 110 0
120 118 0
110 109 0
112 108 0
100 93 0
108 106 0
123 124 0
118 116 0
118 114 0
121 119 0
128 126 0
111 105 0
111 106 0
122 119 0
129 127 0
130 127 0
122 119 0
120 115 0
119 118 0
122 115 0
123 120 0
120 122 0
130 130 0
129 129 0
129 130 0
131 133 0
129 126 0
130 132 0
136 137 0
137 139 0
145 149 0
131 135 0
140 142 0
138 140 0
145 149 0
146 150 0
141 143 0
146 150 0
150 156 0
150 155 0
145 151 0
147 153 0
145 147 0
147 153 0
154 161 0
155 162 0
147 152 0
146 154 0
152 159 0
152 160 0
156 164 0
156 163 0
152 163 0
155 167 0
164 174 0
151 163 0
160 171 0
160 175 0
162 175 0
151 161 0
156 168 0
161 176 0
161 172 0
167 182 0
158 167 0
161 176 0
165 179 0
166 180 0
169 181 0
164 180 0
157 172 0
167 184 0
163 179 0
171 194 0
175 197 0
172 194 0
173 195 0
175 197 0
177 198 0
173 195 0
176 198 0
174 197 0
171 193 0
172 194 0
173 195 0
175 197 0
176 197 0
175 196 0
170 192 0
174 196 0
174 195 0
176 198 0
177 198 0
174 196 0
175 196 0
176 197 0
177 198 0
174 195 0
176 197 0
171 191 0
175 196 0
173 194 0
173 194 0
174 195 0
172 192 0
177 197 0
172 191 0
175 194 0
176 197 0
174 194 0
170 190 0
170 191 0
171 191 0
171 190 0
175 195 0
170 191 0
171 191 0
175 194 0
173 193 0
169 189 0
170 191 0
172 192 0
172 192 0
173 192 0
173 192 0
173 193 0
171 191 0
170 190 0
169 190 0
171 190 0
172 191 0
165 185 0
171 190 0
166 186 0
169 189 0
164 185 0
168 187 0
165 186 0
168 187 0
168 188 0
164 184 0
169 188 0
168 187 0
167 186 0
163 183 0
167 186 0
161 180 0
167 187 0
162 182 0
166 185 0
163 184 0
164 184 0
166 186 0
164 183 0
165 185 0
157 176 0
166 185 0
158 179 0
162 182 0
160 180 0
159 179 0
165 185 0
164 185 0
164 185 0
160 180 0
162 182 0
160 180 0
164 184 0
162 182 0
165 185 0
165 184 0
159 180 0
160 181 0
162 182 0
160 180 0
152 174 0
156 177 0
154 175 0
155 175 0
157 177 0
152 172 0
153 174 0
152 173 0
158 179 0
160 181 0
158 179 0
156 177 0
164 185 0
154 175 0
150 170 0
154 175 0
137 158 0
162 182 0
157 177 0
149 170 0
148 169 0
151 173 0
150 172 0
155 177 0
142 163 0
149 170 0
153 175 0
157 179 0
145 167 0
143 164 0
149 171 0
149 170 0
142 163 0
143 164 0
149 170 0
146 167 0
151 173 0
148 170 0
145 167 0
139 161 0
142 163 0
141 162 0
148 169 0
146 167 0
154 175 0
148 168 0
149 170 0
138 159 0
150 172 0
146 166 0
146 167 0
146 167 0
131 152 0
145 166 0
144 165 0
135 156 0
134 154 0
142 162 0
141 161 0
145 166 0
136 157 0
137 158 0
126 146 0
146 166 0
131 153 0
132 153 0
133 153 0
130 150 0
140 160 0
135 155 0
124 144 0
136 157 0
125 145 0
126 147 0
133 152 0
129 149 0
124 144 0
132 152 0
123 141 0
137 158 0
123 143 0
123 142 0
134 153 0
135 154 0
136 155 0
126 145 0
132 150 0
129 147 0
121 140 0
122 141 0
133 151 0
129 149 0
121 140 0
128 148 0
132 150 0
131 149 0
124 143 0
124 144 0
120 139 0
124 142 0
119 137 0
119 139 0
118 136 0
136 153 0
125 144 0
124 142 0
133 152 0
119 138 0
133 152 0
118 137 0
112 131 0
127 144 0
117 136 0
128 148 0
126 145 0
121 138 0
117 136 0
115 133 0
114 128 0
118 136 0
131 147 0
119 135 0
119 136 0
124 142 0
127 144 0
124 143 0
131 147 0
129 146 0
125 142 0
126 144 0
131 148 0
131 149 0
128 145 0
128 146 0
142 160 0
127 144 0
125 143 0
122 140 0
133 151 0
126 141 0
119 136 0
131 149 0
134 151 0
123 139 0
119 135 0
129 143 0
130 146 0
129 145 0
144 160 0
129 147 0
129 145 0
127 143 0
127 142 0
132 148 0
136 153 0
131 146 0
136 150 0
121 135 0
125 141 0
133 148 0
134 148 0
122 138 0
138 151 0
133 149 0
128 142 0
131 147 0
125 140 0
135 150 0
129 143 0
125 138 0
137 151 0
131 143 0
133 147 0
133 146 0
125 139 0
131 143 0
133 148 0
128 142 0
130 144 0
138 150 0
127 139 0
125 137 0
132 141 0
121 134 0
133 143 0
137 150 0
129 140 0
130 139 0
130 137 0
116 127 0
119 129 0
127 137 0
125 133 0
129 138 0
129 139 0
131 139 0
120 128 0
120 128 0
126 133 0
132 137 0
122 129 0
123 127 0
117 124 0
122 127 0
121 126 0
119 124 0
137 143 0
122 122 0
117 122 0
137 138 0
121 123 0
126 128 0
122 124 0
124 124 0
133 134 0
129 135 0
126 127 0
119 123 0
116 119 0
129 131 0
124 124 0
119 121 0
113 109 0
126 129 0
128 125 0
115 112 0
120 120 0
110 108 0
119 117 0
109 106 0
126 124 0
110 107 0
114 111 0
111 106 0
115 115 0
122 120 0
121 122 0
117 115 0
130 131 0
121 119 0
123 122 0
120 117 0
125 127 0
125 122 0
123 123 0
125 124 0
127 125 0
135 135 0
131 133 0
139 137 0
135 137 0
131 132 0
134 135 0
132 133 0
134 138 0
131 132 0
141 144 0
134 135 0
146 152 0
135 136 0
138 141 0
140 145 0
136 140 0
143 149 0
147 153 0
140 144 0
145 150 0
150 155 0
144 150 0
150 158 0
152 160 0
158 168 0
147 152 0
150 158 0
157 168 0
154 162 0
151 161 0
149 159 0
156 165 0
154 164 0
152 162 0
157 169 0
158 170 0
158 171 0
153 165 0
155 166 0
157 173 0
160 175 0
157 167 0
162 177 0
160 173 0
158 171 0
161 176 0
164 180 0
165 182 0
160 178 0
163 176 0
164 179 0
174 196 0
174 196 0
172 195 0
174 195 0
174 196 0
172 194 0
173 195 0
175 197 0
174 196 0
174 196 0
171 193 0
173 194 0
175 196 0
172 194 0
174 195 0
174 195 0
173 193 0
176 197 0
177 198 0
175 196 0
173 193 0
175 197 0
179 199 0
177 198 0
177 197 0
175 196 0
175 196 0
173 193 0
177 197 0
176 196 0
174 194 0
174 195 0
179 199 0
176 196 0
174 194 0
178 197 0
176 196 0
172 192 0
172 191 0
174 194 0
171 191 0
174 195 0
171 190 0
173 193 0
170 190 0
171 191 0
172 191 0
176 195 0
171 191 0
173 192 0
177 195 0
169 189 0
169 189 0
170 189 0
167 187 0
172 191 0
169 187 0
172 192 0
172 192 0
171 190 0
167 186 0
172 192 0
171 189 0
170 190 0
163 183 0
167 186 0
168 188 0
168 187 0
164 184 0
160 179 0
168 187 0
163 182 0
168 188 0
170 190 0
169 190 0
166 184 0
173 192 0
165 184 0
162 182 0
165 185 0
165 185 0
166 185 0
159 179 0
159 179 0
158 178 0
167 186 0
163 182 0
157 176 0
163 183 0
167 187 0
167 186 0
159 179 0
161 181 0
160 180 0
161 181 0
164 185 0
161 181 0
159 179 0
155 176 0
160 180 0
162 183 0
151 173 0
161 182 0
153 173 0
159 180 0
164 185 0
153 174 0
161 181 0
155 176 0
159 181 0
155 177 0
158 178 0
157 178 0
153 173 0
154 176 0
152 174 0
157 177 0
159 180 0
151 172 0
153 175 0
153 174 0
155 176 0
155 176 0
152 172 0
155 177 0
155 175 0
152 173 0
153 174 0
155 177 0
150 171 0
153 176 0
156 177 0
156 179 0
142 163 0
146 168 0
150 172 0
139 160 0
142 163 0
153 174 0
145 165 0
143 164 0
145 167 0
148 169 0
143 164 0
141 163 0
147 168 0
142 163 0
146 167 0
144 165 0
140 161 0
144 165 0
143 165 0
131 152 0
150 171 0
141 162 0
135 155 0
135 156 0
140 161 0
139 160 0
138 159 0
143 164 0
141 161 0
130 151 0
140 159 0
141 162 0
135 155 0
136 157 0
131 153 0
127 148 0
131 151 0
127 148 0
137 157 0
132 151 0
137 158 0
135 155 0
132 151 0
129 150 0
132 153 0
122 142 0
134 155 0
137 157 0
128 148 0
131 151 0
115 135 0
130 149 0
128 147 0
125 145 0
120 138 0
125 144 0
137 156 0
117 137 0
130 149 0
132 152 0
132 151 0
121 140 0
132 151 0
134 154 0
129 148 0
116 135 0
121 141 0
129 149 0
131 150 0
113 132 0
129 148 0
126 144 0
122 140 0
132 153 0
127 145 0
126 144 0
125 144 0
119 138 0
127 146 0
128 148 0
131 150 0
121 139 0
133 150 0
117 134 0
112 130 0
132 150 0
128 146 0
130 148 0
123 142 0
121 139 0
119 138 0
127 145 0
128 147 0
116 135 0
126 143 0
129 146 0
136 154 0
135 154 0
136 155 0
127 145 0
135 153 0
124 142 0
121 139 0
125 142 0
132 150 0
125 141 0
135 154 0
125 144 0
126 143 0
136 153 0
136 153 0
137 155 0
139 157 0
135 153 0
122 138 0
137 155 0
129 145 0
135 152 0
134 152 0
133 148 0
135 150 0
126 143 0
131 148 0
136 151 0
124 137 0
135 152 0
126 142 0
142 159 0
132 148 0
133 150 0
133 148 0
134 150 0
138 154 0
130 144 0
133 148 0
129 143 0
134 147 0
131 146 0
143 158 0
124 137 0
131 149 0
136 151 0
134 147 0
137 150 0
130 144 0
121 131 0
136 149 0
135 149 0
120 131 0
135 148 0
137 149 0
134 144 0
130 143 0
133 146 0
127 138 0
130 142 0
126 134 0
127 137 0
127 138 0
136 148 0
137 148 0
133 143 0
124 131 0
126 134 0
113 120 0
132 140 0
125 131 0
142 148 0
125 135 0
129 137 0
132 137 0
128 135 0
140 147 0
126 132 0
127 133 0
122 127 0
133 140 0
132 138 0
137 142 0
116 119 0
123 126 0
132 134 0
130 135 0
130 135 0
121 123 0
117 119 0
125 127 0
122 123 0
124 124 0
125 128 0
129 131 0
126 126 0
125 126 0
117 117 0
112 110 0
129 130 0
128 126 0
127 130 0
126 125 0
130 131 0
120 118 0
118 117 0
122 124 0
127 125 0
126 122 0
110 106 0
126 124 0
120 117 0
120 117 0
116 114 0
144 144 0
118 116 0
115 113 0
129 127 0
121 122 0
125 126 0
141 143 0
132 132 0
125 126 0
131 131 0
141 145 0
131 130 0
133 136 0
133 133 0
138 139 0
136 140 0
141 141 0
133 136 0
132 134 0
136 136 0
141 144 0
148 153 0
147 155 0
148 153 0
144 147 0
148 152 0
153 157 0
151 158 0
143 151 0
150 156 0
147 155 0
146 152 0
147 154 0
155 161 0
149 156 0
153 162 0
157 169 0
155 165 0
153 163 0
156 166 0
156 166 0
155 166 0
156 167 0
161 173 0
157 167 0
158 171 0
155 169 0
156 166 0
156 167 0
161 175 0
163 177 0
161 176 0
164 180 0
160 173 0
160 173 0
159 173 0
163 178 0
174 196 0
173 195 0
172 194 0
174 196 0
175 197 0
171 193 0
172 195 0
173 196 0
176 197 0
175 197 0
172 194 0
174 195 0
174 195 0
172 194 0
172 194 0
174 196 0
172 193 0
173 194 0
171 192 0
176 197 0
175 197 0
178 198 0
173 193 0
171 192 0
177 198 0
173 194 0
173 194 0
177 197 0
177 197 0
177 196 0
173 194 0
172 192 0
175 195 0
174 194 0
172 192 0
176 197 0
172 192 0
174 195 0
172 193 0
173 192 0
172 192 0
170 190 0
172 191 0
173 192 0
171 191 0
171 191 0
173 193 0
171 191 0
173 194 0
171 192 0
171 191 0
170 189 0
174 194 0
169 189 0
172 191 0
167 187 0
170 190 0
170 190 0
170 189 0
166 187 0
168 188 0
165 184 0
171 191 0
170 190 0
167 187 0
167 187 0
166 186 0
166 186 0
167 187 0
168 188 0
167 186 0
168 188 0
169 189 0
167 187 0
163 182 0
166 186 0
169 189 0
166 186 0
165 186 0
167 186 0
164 185 0
162 182 0
161 181 0
166 186 0
162 180 0
169 189 0
167 186 0
165 185 0
163 184 0
163 183 0
161 181 0
161 181 0
159 178 0
160 180 0
165 185 0
162 183 0
164 183 0
165 185 0
160 180 0
151 171 0
154 175 0
155 176 0
155 176 0
157 177 0
162 183 0
152 174 0
155 176 0
154 176 0
158 179 0
164 186 0
144 164 0
158 179 0
159 180 0
155 176 0
156 177 0
152 173 0
150 171 0
151 173 0
154 176 0
157 178 0
149 171 0
153 174 0
151 173 0
153 175 0
157 179 0
157 178 0
147 168 0
151 173 0
152 174 0
147 168 0
148 170 0
139 162 0
145 166 0
148 169 0
155 177 0
147 168 0
154 175 0
146 167 0
147 168 0
157 177 0
144 165 0
144 165 0
146 167 0
148 169 0
142 164 0
149 171 0
147 167 0
148 169 0
147 168 0
136 158 0
142 163 0
142 165 0
145 166 0
133 154 0
148 171 0
149 170 0
148 170 0
137 157 0
135 157 0
133 154 0
126 146 0
145 167 0
136 158 0
139 160 0
143 164 0
149 171 0
145 166 0
142 162 0
135 156 0
144 164 0
133 154 0
132 154 0
139 159 0
130 150 0
127 147 0
135 155 0
139 160 0
134 155 0
137 156 0
130 151 0
137 157 0
123 144 0
126 146 0
134 155 0
127 148 0
131 150 0
133 153 0
128 148 0
124 142 0
125 145 0
127 146 0
126 145 0
127 146 0
124 144 0
132 152 0
129 149 0
126 145 0
132 151 0
136 156 0
124 144 0
128 147 0
124 143 0
132 151 0
134 153 0
129 147 0
126 145 0
130 150 0
126 145 0
129 147 0
130 147 0
121 140 0
125 144 0
125 144 0
122 140 0
130 149 0
132 150 0
122 140 0
116 134 0
122 139 0
121 140 0
133 151 0
129 147 0
135 153 0
128 145 0
122 140 0
126 146 0
119 136 0
127 146 0
138 158 0
135 154 0
130 150 0
123 142 0
132 152 0
124 142 0
131 149 0
135 153 0
119 137 0
134 153 0
141 158 0
135 152 0
123 140 0
131 149 0
121 137 0
127 145 0
127 143 0
138 155 0
123 139 0
131 147 0
131 147 0
127 143 0
142 157 0
132 149 0
133 150 0
136 153 0
135 153 0
131 147 0
145 163 0
135 153 0
140 158 0
137 152 0
130 147 0
135 150 0
136 153 0
130 147 0
136 153 0
140 155 0
146 163 0
137 152 0
140 155 0
142 157 0
136 151 0
133 149 0
142 158 0
133 148 0
134 147 0
136 149 0
134 149 0
130 145 0
136 150 0
142 154 0
139 151 0
130 144 0
126 140 0
133 144 0
126 139 0
133 146 0
133 146 0
129 139 0
138 152 0
128 136 0
133 143 0
129 139 0
133 144 0
130 142 0
136 146 0
128 137 0
138 150 0
130 139 0
131 143 0
137 143 0
118 127 0
134 142 0
119 126 0
130 136 0
136 141 0
132 139 0
129 134 0
128 136 0
131 138 0
131 136 0
125 130 0
115 119 0
132 137 0
123 128 0
137 142 0
122 128 0
128 134 0
126 129 0
134 141 0
126 130 0
129 131 0
137 139 0
118 119 0
128 132 0
116 115 0
126 126 0
130 131 0
119 116 0
124 125 0
123 122 0
122 123 0
121 119 0
123 123 0
125 124 0
126 126 0
124 123 0
132 131 0
127 129 0
129 129 0
120 119 0
129 129 0
128 130 0
125 125 0
125 125 0
126 127 0
136 137 0
133 132 0
136 133 0
141 141 0
135 135 0
136 136 0
130 130 0
127 126 0
134 136 0
131 134 0
136 140 0
131 132 0
134 137 0
145 147 0
142 147 0
140 142 0
148 153 0
140 142 0
146 148 0
141 149 0
145 151 0
148 153 0
138 142 0
145 150 0
134 135 0
152 157 0
143 151 0
148 153 0
142 146 0
150 159 0
144 152 0
148 153 0
144 152 0
146 151 0
153 161 0
149 156 0
151 162 0
153 161 0
159 169 0
150 160 0
159 172 0
154 164 0
158 171 0
159 172 0
157 169 0
156 168 0
155 168 0
158 170 0
157 168 0
159 171 0
163 178 0
158 171 0
163 177 0
166 182 0
161 176 0
175 197 0
173 195 0
173 195 0
172 194 0
173 195 0
176 197 0
174 196 0
173 195 0
174 196 0
174 196 0
173 194 0
175 197 0
172 193 0
172 193 0
175 196 0
174 195 0
176 197 0
173 194 0
176 196 0
177 198 0
175 196 0
176 197 0
175 195 0
175 196 0
176 195 0
175 195 0
171 192 0
176 197 0
174 195 0
173 194 0
170 190 0
170 191 0
176 196 0
175 195 0
169 189 0
173 194 0
175 194 0
174 194 0
173 194 0
173 194 0
173 193 0
172 192 0
173 192 0
171 192 0
174 194 0
174 195 0
168 188 0
170 190 0
171 191 0
168 188 0
167 187 0
172 192 0
172 192 0
173 192 0
172 191 0
169 189 0
172 192 0
170 189 0
165 185 0
169 189 0
173 192 0
166 186 0
168 188 0
167 187 0
164 184 0
169 189 0
167 186 0
166 186 0
166 185 0
164 183 0
165 184 0
164 184 0
169 189 0
165 185 0
161 181 0
167 186 0
167 186 0
163 183 0
166 185 0
160 180 0
163 184 0
166 186 0
163 183 0
166 188 0
159 179 0
162 182 0
167 187 0
164 183 0
165 186 0
159 181 0
159 180 0
163 182 0
158 178 0
157 177 0
158 179 0
160 180 0
159 180 0
162 183 0
161 182 0
156 177 0
156 177 0
159 181 0
152 172 0
158 178 0
154 176 0
161 182 0
160 181 0
153 175 0
154 175 0
157 178 0
163 185 0
158 180 0
142 164 0
149 170 0
156 178 0
152 173 0
160 182 0
158 179 0
153 174 0
150 172 0
158 179 0
151 171 0
159 181 0
156 177 0
155 177 0
155 176 0
151 172 0
150 172 0
141 162 0
154 175 0
157 178 0
147 169 0
144 165 0
154 175 0
157 178 0
142 164 0
147 168 0
145 167 0
149 172 0
145 166 0
146 168 0
146 168 0
146 168 0
147 169 0
147 169 0
145 167 0
149 170 0
140 162 0
142 164 0
143 164 0
141 163 0
145 166 0
144 165 0
147 168 0
145 166 0
142 164 0
142 163 0
142 163 0
151 171 0
139 160 0
144 166 0
146 167 0
136 158 0
128 149 0
135 156 0
138 160 0
130 152 0
138 160 0
137 157 0
139 161 0
133 154 0
126 146 0
130 151 0
125 144 0
131 152 0
138 159 0
138 158 0
138 158 0
137 157 0
131 151 0
139 159 0
128 148 0
138 158 0
125 145 0
141 161 0
137 158 0
122 142 0
126 147 0
132 151 0
126 144 0
138 159 0
133 153 0
139 157 0
132 151 0
134 154 0
124 144 0
141 160 0
132 152 0
127 147 0
129 148 0
134 154 0
137 156 0
125 144 0
134 153 0
129 149 0
134 154 0
125 145 0
130 147 0
133 153 0
131 150 0
126 142 0
128 147 0
121 138 0
126 146 0
129 147 0
137 155 0
121 139 0
128 147 0
116 135 0
131 149 0
131 149 0
123 140 0
132 149 0
130 149 0
126 145 0
123 140 0
126 144 0
126 143 0
132 150 0
140 159 0
126 146 0
132 149 0
133 152 0
139 157 0
134 151 0
125 145 0
131 149 0
135 152 0
126 142 0
140 159 0
140 158 0
133 151 0
136 152 0
128 145 0
140 157 0
132 148 0
127 144 0
132 150 0
142 160 0
130 148 0
129 146 0
127 144 0
134 151 0
132 150 0
133 149 0
137 156 0
137 153 0
120 137 0
131 146 0
129 147 0
131 147 0
126 141 0
135 152 0
138 153 0
148 165 0
136 151 0
134 150 0
136 152 0
129 144 0
135 152 0
129 141 0
130 144 0
136 153 0
124 139 0
127 140 0
134 150 0
142 157 0
139 154 0
133 145 0
139 154 0
135 147 0
130 143 0
135 148 0
129 142 0
133 145 0
140 154 0
138 153 0
128 138 0
144 158 0
139 153 0
126 138 0
129 141 0
127 137 0
131 139 0
131 141 0
131 139 0
136 143 0
126 135 0
137 147 0
142 153 0
125 130 0
136 143 0
136 144 0
126 133 0
131 139 0
138 145 0
136 145 0
124 129 0
129 136 0
127 135 0
136 143 0
122 125 0
126 129 0
129 134 0
133 139 0
129 132 0
127 131 0
130 136 0
133 138 0
135 138 0
125 128 0
133 137 0
127 129 0
136 141 0
126 128 0
137 139 0
129 131 0
125 129 0
123 124 0
129 132 0
122 122 0
116 119 0
118 118 0
128 129 0
128 128 0
130 132 0
124 124 0
132 130 0
129 129 0
125 125 0
122 118 0
127 127 0
132 133 0
133 131 0
137 138 0
134 137 0
136 134 0
132 129 0
132 130 0
133 131 0
136 137 0
137 138 0
127 127 0
141 145 0
128 129 0
135 138 0
137 138 0
131 131 0
144 148 0
137 140 0
135 139 0
152 156 0
144 150 0
140 144 0
142 145 0
136 140 0
155 161 0
149 155 0
150 156 0
145 148 0
142 148 0
152 160 0
146 151 0
145 149 0
148 157 0
158 166 0
144 151 0
146 155 0
147 155 0
148 155 0
156 164 0
152 163 0
150 156 0
158 169 0
155 165 0
155 165 0
155 164 0
158 170 0
156 166 0
159 171 0
160 170 0
156 166 0
161 172 0
156 169 0
158 169 0
158 171 0
155 167 0
156 169 0
162 177 0
163 176 0
172 195 0
175 197 0
173 195 0
175 197 0
174 195 0
175 196 0
171 193 0
175 197 0
174 195 0
173 195 0
176 197 0
172 194 0
173 195 0
174 196 0
174 196 0
173 194 0
173 195 0
173 195 0
174 195 0
174 194 0
172 193 0
174 194 0
177 197 0
173 193 0
176 195 0
172 192 0
173 193 0
173 193 0
172 193 0
171 191 0
172 192 0
174 194 0
172 192 0
173 194 0
176 196 0
173 193 0
174 193 0
171 190 0
173 193 0
172 193 0
171 191 0
168 188 0
172 192 0
171 191 0
172 191 0
172 193 0
172 191 0
169 188 0
166 186 0
169 189 0
171 191 0
169 189 0
171 191 0
171 191 0
172 191 0
167 187 0
168 187 0
169 190 0
164 184 0
173 193 0
168 188 0
164 185 0
168 188 0
169 188 0
172 192 0
163 184 0
169 190 0
162 182 0
174 194 0
171 191 0
167 186 0
167 186 0
168 188 0
167 187 0
163 183 0
164 183 0
164 184 0
172 192 0
169 190 0
163 184 0
165 186 0
167 186 0
162 183 0
162 182 0
162 181 0
165 186 0
160 179 0
160 179 0
156 175 0
163 183 0
168 187 0
163 183 0
166 186 0
163 183 0
160 181 0
160 179 0
157 178 0
151 173 0
153 173 0
155 176 0
155 175 0
160 181 0
155 177 0
152 174 0
160 180 0
157 177 0
155 175 0
164 184 0
155 176 0
151 172 0
153 175 0
147 169 0
154 175 0
159 180 0
151 173 0
154 173 0
150 172 0
152 174 0
149 171 0
149 170 0
146 167 0
157 179 0
150 172 0
148 170 0
154 176 0
143 164 0
151 173 0
155 176 0
150 171 0
150 172 0
150 172 0
148 170 0
148 169 0
145 166 0
148 171 0
156 178 0
153 174 0
144 166 0
143 164 0
143 165 0
147 168 0
135 157 0
146 169 0
156 177 0
144 166 0
152 174 0
143 165 0
153 175 0
148 170 0
146 168 0
149 171 0
139 160 0
144 165 0
145 166 0
140 162 0
140 162 0
142 162 0
140 162 0
137 159 0
139 161 0
140 160 0
137 157 0
144 166 0
136 157 0
142 162 0
146 167 0
142 162 0
130 151 0
144 165 0
134 154 0
149 170 0
138 156 0
143 163 0
135 155 0
137 158 0
129 150 0
141 161 0
134 155 0
140 161 0
136 156 0
126 147 0
142 163 0
137 157 0
134 154 0
138 158 0
140 160 0
123 144 0
134 153 0
127 146 0
127 147 0
123 143 0
133 154 0
136 157 0
130 148 0
121 140 0
130 151 0
121 141 0
135 155 0
128 147 0
139 160 0
134 152 0
128 146 0
126 146 0
131 153 0
129 149 0
129 149 0
133 152 0
123 141 0
140 158 0
126 146 0
132 150 0
130 148 0
138 157 0
112 131 0
135 153 0
130 150 0
127 146 0
138 158 0
129 148 0
133 151 0
128 146 0
131 149 0
128 148 0
137 155 0
129 147 0
120 137 0
123 142 0
139 159 0
134 152 0
127 147 0
128 149 0
137 156 0
136 154 0
134 152 0
127 143 0
123 139 0
136 153 0
135 152 0
132 150 0
135 154 0
139 157 0
135 153 0
127 144 0
129 146 0
127 146 0
133 150 0
135 154 0
137 155 0
135 151 0
132 150 0
132 149 0
135 152 0
142 160 0
136 155 0
128 144 0
136 154 0
132 151 0
131 147 0
135 150 0
122 138 0
131 149 0
133 150 0
140 157 0
140 156 0
128 146 0
141 157 0
138 154 0
131 147 0
141 156 0
142 159 0
142 159 0
139 154 0
148 165 0
146 164 0
133 148 0
148 163 0
145 162 0
134 148 0
140 155 0
134 150 0
137 152 0
136 150 0
132 147 0
127 140 0
135 147 0
133 146 0
135 148 0
136 148 0
137 148 0
135 146 0
138 149 0
131 141 0
119 128 0
142 151 0
140 153 0
133 143 0
135 146 0
128 137 0
138 149 0
134 144 0
141 153 0
126 138 0
132 140 0
126 137 0
146 158 0
126 132 0
130 140 0
136 145 0
141 150 0
128 136 0
128 136 0
131 138 0
135 143 0
136 143 0
138 144 0
134 141 0
131 136 0
131 134 0
130 136 0
133 137 0
136 142 0
135 141 0
131 133 0
136 140 0
122 127 0
137 140 0
127 132 0
134 140 0
133 138 0
129 135 0
134 138 0
134 136 0
123 127 0
128 130 0
121 123 0
142 146 0
130 130 0
127 128 0
134 135 0
126 125 0
127 127 0
125 125 0
131 132 0
127 124 0
127 128 0
132 134 0
135 138 0
135 136 0
137 139 0
125 126 0
130 130 0
132 131 0
130 129 0
135 138 0
132 133 0
137 138 0
137 137 0
143 147 0
147 151 0
136 140 0
135 137 0
139 142 0
138 140 0
138 143 0
145 150 0
150 156 0
141 144 0
146 150 0
143 150 0
146 150 0
138 140 0
142 146 0
143 147 0
153 162 0
150 158 0
154 162 0
151 160 0
148 156 0
156 164 0
156 166 0
155 162 0
153 160 0
151 158 0
159 168 0
154 165 0
154 162 0
153 161 0
160 172 0
159 169 0
159 169 0
157 167 0
161 173 0
163 176 0
156 169 0
158 169 0
158 170 0
160 173 0
161 174 0
160 174 0
163 178 0
175 196 0
174 195 0
174 195 0
172 194 0
174 196 0
176 198 0
176 196 0
176 197 0
174 196 0
176 197 0
175 197 0
173 194 0
174 195 0
175 195 0
175 196 0
174 195 0
172 194 0
173 194 0
175 196 0
169 190 0
175 196 0
173 193 0
171 193 0
176 197 0
172 192 0
170 191 0
174 194 0
173 194 0
170 189 0
174 195 0
176 196 0
171 192 0
170 190 0
169 189 0
176 196 0
173 192 0
170 191 0
177 197 0
174 193 0
165 186 0
168 188 0
172 191 0
169 190 0
172 192 0
173 193 0
172 191 0
168 188 0
171 192 0
172 192 0
170 190 0
171 191 0
169 190 0
171 191 0
176 196 0
167 187 0
170 190 0
170 190 0
172 192 0
168 188 0
163 184 0
170 190 0
171 191 0
172 193 0
165 185 0
165 186 0
170 190 0
171 191 0
167 187 0
170 189 0
167 188 0
166 186 0
168 188 0
170 189 0
166 186 0
166 187 0
166 186 0
169 189 0
172 192 0
165 186 0
170 190 0
168 189 0
170 189 0
161 181 0
164 184 0
162 183 0
167 188 0
155 175 0
160 180 0
162 183 0
158 178 0
169 189 0
163 184 0
154 174 0
152 173 0
161 182 0
156 177 0
162 183 0
159 180 0
154 175 0
158 179 0
151 173 0
153 174 0
165 186 0
152 174 0
154 175 0
162 183 0
153 173 0
158 180 0
160 182 0
155 176 0
150 171 0
154 176 0
157 178 0
157 178 0
158 179 0
152 174 0
155 176 0
154 176 0
149 171 0
154 176 0
154 175 0
151 173 0
143 165 0
153 175 0
153 175 0
153 175 0
147 170 0
153 175 0
155 177 0
151 173 0
152 174 0
146 168 0
152 175 0
149 171 0
153 175 0
158 180 0
149 170 0
150 172 0
148 169 0
149 171 0
145 167 0
143 164 0
146 168 0
148 171 0
149 171 0
151 171 0
147 169 0
147 168 0
145 168 0
147 169 0
142 163 0
139 161 0
144 166 0
147 169 0
147 169 0
144 165 0
143 165 0
135 157 0
130 152 0
136 157 0
137 158 0
139 161 0
143 165 0
136 157 0
147 168 0
152 175 0
129 151 0
137 158 0
142 164 0
145 166 0
141 161 0
141 162 0
139 160 0
136 158 0
139 159 0
132 152 0
138 159 0
141 163 0
130 151 0
128 148 0
132 152 0
134 154 0
135 156 0
133 152 0
136 157 0
144 164 0
138 158 0
137 157 0
141 162 0
135 156 0
130 149 0
135 155 0
127 146 0
127 145 0
120 140 0
134 155 0
132 153 0
127 148 0
127 146 0
133 152 0
136 157 0
131 149 0
134 155 0
126 147 0
138 159 0
134 154 0
124 143 0
130 151 0
133 152 0
131 152 0
137 157 0
130 150 0
128 148 0
126 146 0
129 148 0
128 147 0
133 153 0
138 157 0
135 156 0
133 152 0
131 150 0
142 160 0
126 146 0
135 152 0
140 159 0
134 154 0
141 161 0
132 151 0
128 147 0
141 160 0
123 142 0
137 154 0
136 154 0
127 144 0
133 151 0
134 153 0
131 150 0
131 148 0
137 153 0
128 145 0
135 152 0
130 147 0
133 149 0
128 145 0
116 133 0
140 159 0
134 153 0
134 154 0
138 156 0
139 157 0
131 148 0
136 154 0
133 149 0
138 155 0
139 158 0
140 156 0
146 163 0
133 149 0
138 154 0
127 142 0
131 148 0
137 154 0
136 150 0
142 159 0
138 153 0
127 141 0
133 147 0
138 152 0
133 150 0
134 149 0
138 155 0
135 150 0
124 138 0
137 152 0
140 155 0
139 155 0
133 149 0
136 153 0
134 147 0
142 155 0
144 155 0
138 154 0
133 148 0
137 151 0
147 162 0
139 153 0
126 139 0
141 153 0
150 165 0
136 152 0
135 149 0
130 141 0
133 144 0
135 147 0
137 150 0
136 151 0
137 147 0
135 144 0
141 151 0
132 142 0
139 148 0
136 146 0
142 153 0
133 142 0
126 136 0
141 150 0
133 140 0
144 154 0
138 148 0
121 130 0
135 142 0
134 142 0
139 147 0
136 144 0
127 136 0
134 138 0
142 149 0
125 133 0
136 142 0
120 128 0
125 130 0
136 143 0
134 140 0
119 123 0
129 133 0
131 134 0
134 138 0
131 134 0
138 142 0
126 127 0
142 147 0
134 138 0
135 139 0
138 144 0
137 143 0
131 133 0
132 133 0
131 135 0
124 122 0
129 130 0
131 137 0
125 127 0
131 130 0
126 128 0
128 130 0
133 135 0
127 129 0
138 141 0
127 126 0
129 133 0
145 149 0
131 134 0
133 133 0
143 148 0
138 142 0
137 140 0
139 142 0
136 139 0
136 138 0
138 141 0
134 135 0
141 145 0
134 136 0
142 143 0
134 138 0
143 146 0
144 148 0
144 148 0
145 152 0
143 150 0
146 151 0
143 150 0
150 156 0
143 148 0
147 152 0
152 159 0
148 154 0
151 157 0
144 151 0
157 166 0
147 156 0
153 160 0
142 152 0
149 158 0
153 162 0
149 159 0
153 162 0
154 160 0
153 161 0
161 171 0
160 172 0
157 166 0
161 175 0
159 167 0
154 165 0
155 168 0
157 170 0
154 163 0
153 166 0
153 163 0
175 197 0
174 195 0
174 196 0
171 193 0
175 197 0
176 197 0
177 198 0
170 193 0
171 194 0
175 197 0
173 194 0
175 196 0
174 195 0
174 195 0
173 195 0
175 196 0
173 194 0
174 196 0
173 194 0
177 197 0
174 195 0
174 195 0
174 194 0
175 195 0
172 192 0
173 194 0
174 194 0
173 194 0
172 192 0
170 190 0
171 192 0
176 196 0
172 193 0
169 190 0
174 194 0
173 193 0
175 194 0
171 192 0
173 193 0
174 194 0
168 188 0
170 190 0
169 189 0
171 191 0
174 194 0
173 193 0
172 193 0
171 191 0
174 193 0
167 187 0
172 191 0
169 189 0
170 189 0
168 187 0
172 191 0
169 190 0
167 187 0
164 185 0
166 186 0
168 188 0
170 189 0
163 183 0
172 192 0
164 185 0
165 184 0
169 189 0
169 189 0
165 186 0
168 188 0
170 190 0
166 187 0
167 187 0
164 183 0
163 182 0
164 184 0
167 187 0
164 184 0
165 185 0
163 184 0
165 186 0
162 183 0
165 186 0
172 192 0
161 181 0
164 183 0
156 176 0
159 180 0
161 182 0
163 184 0
162 183 0
165 185 0
153 174 0
158 180 0
156 175 0
158 179 0
159 180 0
159 180 0
155 176 0
162 183 0
157 179 0
162 183 0
153 174 0
159 180 0
161 182 0
158 179 0
161 183 0
156 177 0
158 180 0
153 173 0
156 177 0
159 181 0
154 176 0
159 181 0
159 180 0
151 173 0
153 174 0
151 173 0
147 168 0
155 177 0
146 168 0
148 171 0
151 173 0
153 174 0
148 170 0
153 174 0
157 180 0
150 173 0
149 170 0
150 172 0
144 166 0
145 167 0
148 170 0
148 170 0
156 178 0
148 169 0
156 177 0
151 172 0
150 172 0
149 171 0
151 172 0
151 173 0
146 168 0
150 172 0
147 168 0
150 171 0
148 170 0
136 159 0
144 167 0
146 169 0
145 166 0
149 171 0
143 164 0
140 161 0
142 163 0
149 171 0
140 162 0
138 158 0
133 155 0
135 155 0
143 163 0
141 162 0
139 161 0
135 156 0
135 156 0
142 163 0
136 157 0
133 153 0
139 160 0
140 161 0
144 166 0
134 154 0
134 157 0
138 160 0
136 156 0
142 164 0
129 150 0
143 164 0
145 166 0
138 159 0
135 156 0
139 161 0
139 160 0
132 151 0
140 160 0
135 156 0
134 154 0
139 158 0
135 155 0
137 158 0
134 153 0
137 156 0
137 155 0
124 144 0
144 164 0
135 156 0
136 157 0
127 147 0
128 147 0
128 147 0
139 160 0
133 152 0
132 151 0
129 148 0
140 160 0
138 159 0
132 151 0
133 151 0
135 155 0
132 153 0
128 147 0
133 152 0
125 145 0
130 149 0
127 146 0
132 151 0
138 156 0
127 145 0
134 154 0
135 154 0
133 154 0
133 152 0
130 149 0
134 154 0
136 156 0
133 152 0
136 156 0
136 154 0
128 146 0
121 139 0
124 142 0
123 141 0
128 146 0
133 152 0
130 148 0
136 153 0
137 156 0
135 154 0
126 144 0
141 161 0
136 154 0
127 144 0
125 141 0
135 152 0
130 148 0
134 150 0
140 158 0
134 152 0
136 154 0
132 150 0
134 152 0
131 151 0
135 154 0
134 153 0
143 162 0
138 154 0
136 153 0
140 158 0
137 155 0
136 154 0
143 159 0
142 160 0
132 146 0
139 154 0
147 162 0
128 144 0
140 157 0
134 149 0
130 146 0
140 157 0
135 150 0
136 152 0
135 150 0
136 153 0
133 148 0
138 154 0
136 153 0
136 152 0
145 161 0
141 155 0
135 152 0
138 153 0
143 155 0
139 154 0
133 149 0
142 159 0
139 152 0
137 151 0
138 153 0
134 146 0
140 156 0
143 155 0
135 148 0
138 150 0
131 144 0
145 158 0
144 157 0
131 144 0
136 147 0
140 151 0
138 151 0
145 156 0
146 158 0
131 141 0
132 145 0
125 135 0
138 148 0
133 143 0
135 146 0
127 135 0
138 148 0
132 142 0
137 145 0
127 136 0
133 143 0
139 148 0
135 140 0
134 141 0
136 140 0
138 146 0
133 138 0
132 138 0
135 139 0
131 139 0
132 139 0
127 134 0
137 141 0
134 142 0
129 133 0
124 128 0
127 131 0
129 137 0
128 133 0
143 147 0
131 133 0
130 135 0
129 134 0
135 141 0
135 138 0
133 135 0
132 139 0
134 138 0
131 134 0
135 137 0
135 137 0
131 135 0
135 139 0
127 129 0
133 135 0
129 128 0
136 140 0
139 145 0
130 131 0
131 135 0
126 128 0
139 146 0
135 138 0
130 131 0
141 144 0
138 140 0
137 140 0
136 140 0
139 140 0
147 151 0
137 141 0
138 141 0
138 142 0
136 140 0
148 154 0
148 151 0
146 151 0
141 144 0
149 154 0
146 150 0
141 146 0
141 145 0
139 146 0
149 156 0
147 153 0
152 160 0
146 153 0
149 154 0
149 154 0
152 162 0
147 155 0
154 161 0
155 164 0
154 159 0
150 160 0
153 164 0
151 160 0
157 170 0
152 162 0
155 166 0
160 171 0
153 166 0
151 164 0
160 172 0
159 172 0
159 169 0
152 164 0
170 192 0
173 196 0
174 196 0
176 197 0
173 194 0
178 199 0
174 197 0
175 196 0
176 198 0
173 195 0
173 193 0
174 195 0
176 197 0
174 194 0
174 194 0
174 195 0
176 197 0
175 195 0
174 195 0
171 192 0
174 194 0
176 196 0
175 196 0
174 194 0
173 195 0
175 195 0
170 191 0
174 194 0
173 193 0
175 195 0
172 191 0
175 195 0
172 192 0
174 194 0
171 192 0
172 193 0
175 196 0
173 192 0
173 194 0
172 191 0
176 196 0
175 195 0
171 192 0
172 192 0
167 188 0
172 192 0
170 190 0
172 192 0
171 191 0
172 191 0
172 192 0
171 191 0
169 189 0
171 191 0
171 191 0
168 188 0
172 191 0
170 190 0
172 192 0
166 186 0
166 187 0
174 194 0
171 190 0
166 186 0
169 189 0
166 186 0
164 184 0
163 183 0
172 193 0
168 188 0
166 187 0
167 187 0
165 185 0
166 186 0
165 186 0
168 190 0
164 185 0
168 189 0
162 183 0
165 186 0
170 191 0
162 183 0
160 180 0
167 187 0
163 184 0
158 179 0
157 178 0
154 175 0
162 182 0
157 177 0
155 175 0
163 184 0
160 181 0
160 180 0
158 180 0
158 179 0
165 186 0
156 178 0
156 178 0
157 179 0
159 181 0
156 178 0
155 177 0
158 180 0
154 175 0
154 176 0
150 171 0
159 181 0
155 176 0
151 173 0
150 171 0
157 179 0
158 179 0
155 176 0
150 172 0
154 176 0
155 176 0
155 176 0
153 174 0
157 180 0
151 173 0
145 166 0
153 175 0
157 179 0
156 177 0
143 164 0
160 182 0
148 169 0
155 176 0
160 183 0
152 174 0
149 172 0
154 176 0
146 168 0
140 162 0
149 171 0
151 172 0
148 170 0
138 161 0
157 179 0
155 178 0
146 168 0
143 164 0
145 168 0
148 169 0
149 172 0
150 173 0
146 167 0
148 170 0
145 166 0
145 165 0
149 171 0
143 165 0
144 165 0
136 158 0
143 162 0
137 158 0
148 170 0
142 164 0
136 158 0
140 162 0
152 174 0
149 170 0
133 155 0
133 154 0
132 153 0
138 159 0
149 170 0
141 164 0
137 158 0
138 161 0
136 158 0
141 162 0
146 169 0
139 160 0
143 164 0
136 158 0
130 151 0
127 147 0
142 163 0
132 152 0
139 161 0
137 159 0
131 152 0
140 161 0
131 153 0
138 159 0
137 156 0
144 165 0
140 161 0
135 155 0
135 157 0
137 157 0
131 151 0
137 158 0
139 159 0
139 159 0
126 146 0
136 157 0
129 150 0
135 154 0
136 154 0
136 156 0
124 146 0
128 149 0
139 160 0
133 152 0
125 144 0
136 156 0
137 158 0
134 153 0
137 157 0
135 155 0
133 153 0
142 161 0
126 146 0
131 149 0
144 164 0
129 147 0
141 161 0
129 148 0
127 145 0
134 154 0
127 144 0
132 151 0
142 162 0
132 151 0
134 153 0
130 147 0
132 150 0
131 149 0
128 148 0
136 156 0
138 156 0
131 150 0
137 156 0
130 148 0
138 156 0
135 152 0
135 155 0
133 151 0
134 152 0
137 157 0
138 155 0
136 154 0
140 159 0
138 154 0
140 157 0
135 153 0
128 145 0
144 163 0
133 152 0
139 156 0
146 165 0
136 154 0
128 145 0
132 149 0
142 160 0
144 161 0
140 159 0
139 156 0
141 158 0
136 154 0
132 148 0
142 161 0
142 160 0
139 156 0
138 156 0
137 150 0
136 148 0
138 153 0
141 154 0
141 156 0
134 148 0
141 158 0
135 150 0
125 140 0
141 157 0
141 157 0
135 151 0
139 154 0
146 162 0
139 154 0
140 155 0
148 163 0
131 145 0
135 148 0
140 152 0
138 151 0
139 151 0
137 151 0
139 153 0
134 148 0
136 150 0
135 149 0
134 148 0
127 139 0
135 147 0
131 144 0
136 150 0
134 146 0
139 151 0
132 145 0
128 137 0
142 153 0
133 142 0
143 155 0
131 141 0
140 148 0
140 152 0
140 149 0
131 141 0
139 149 0
134 143 0
134 141 0
132 141 0
145 156 0
135 141 0
133 140 0
131 138 0
127 133 0
134 143 0
142 151 0
128 131 0
139 146 0
138 146 0
123 128 0
132 139 0
135 141 0
144 151 0
135 141 0
129 134 0
129 134 0
133 138 0
134 133 0
144 149 0
129 135 0
130 137 0
128 132 0
137 140 0
134 139 0
140 142 0
136 138 0
133 131 0
136 139 0
129 132 0
145 149 0
141 144 0
140 141 0
130 133 0
145 150 0
136 140 0
134 135 0
134 135 0
134 139 0
142 146 0
140 145 0
134 135 0
147 150 0
140 142 0
137 140 0
141 145 0
145 148 0
144 147 0
142 147 0
144 149 0
147 151 0
142 148 0
141 146 0
142 147 0
142 147 0
147 152 0
148 153 0
148 157 0
145 152 0
144 150 0
149 154 0
149 156 0
151 156 0
146 153 0
157 168 0
150 159 0
150 157 0
150 157 0
153 161 0
156 163 0
159 169 0
154 163 0
157 167 0
156 163 0
152 161 0
158 169 0
152 164 0
155 166 0
156 167 0
154 165 0
152 163 0
156 169 0
158 171 0
159 171 0
175 196 0
172 194 0
174 196 0
170 192 0
176 196 0
177 198 0
172 194 0
175 196 0
172 194 0
172 193 0
171 192 0
171 192 0
174 195 0
174 194 0
178 199 0
175 196 0
175 196 0
173 193 0
173 194 0
173 194 0
173 194 0
177 197 0
171 191 0
172 192 0
172 193 0
173 194 0
174 195 0
175 196 0
176 196 0
173 195 0
174 194 0
173 193 0
171 191 0
172 193 0
172 192 0
171 191 0
173 193 0
170 190 0
168 188 0
169 189 0
168 188 0
174 194 0
169 189 0
173 192 0
171 192 0
170 190 0
173 193 0
171 192 0
168 188 0
165 186 0
169 189 0
172 192 0
165 185 0
169 190 0
168 188 0
170 190 0
172 192 0
171 190 0
170 189 0
166 186 0
170 190 0
172 192 0
165 185 0
169 189 0
166 186 0
171 191 0
170 190 0
167 187 0
170 190 0
169 189 0
165 185 0
164 184 0
166 187 0
159 180 0
158 178 0
163 184 0
167 188 0
159 180 0
162 182 0
164 185 0
166 187 0
165 185 0
167 187 0
167 188 0
163 184 0
163 184 0
161 181 0
153 174 0
156 178 0
160 181 0
165 186 0
156 177 0
162 182 0
160 182 0
157 178 0
156 176 0
158 180 0
152 173 0
160 182 0
158 180 0
156 176 0
161 181 0
146 167 0
147 168 0
155 178 0
159 181 0
162 183 0
152 174 0
150 172 0
154 176 0
158 180 0
162 184 0
154 175 0
156 177 0
146 168 0
159 180 0
148 170 0
154 175 0
153 175 0
154 176 0
159 181 0
154 177 0
157 179 0
154 175 0
144 166 0
158 181 0
151 174 0
149 171 0
147 169 0
154 176 0
146 167 0
157 179 0
152 175 0
156 177 0
150 173 0
152 174 0
152 172 0
148 171 0
146 167 0
149 171 0
153 175 0
150 171 0
148 170 0
147 169 0
154 177 0
148 170 0
144 167 0
148 170 0
145 168 0
143 165 0
147 169 0
146 168 0
149 170 0
151 173 0
147 168 0
150 172 0
134 156 0
143 164 0
149 171 0
137 160 0
144 165 0
144 165 0
149 171 0
146 167 0
144 166 0
138 159 0
139 160 0
143 164 0
146 166 0
132 152 0
135 155 0
138 159 0
145 166 0
152 174 0
140 162 0
130 152 0
136 157 0
144 166 0
135 157 0
141 162 0
136 155 0
144 166 0
129 149 0
138 160 0
142 162 0
134 155 0
137 158 0
124 145 0
141 160 0
132 153 0
140 159 0
139 159 0
141 163 0
144 166 0
132 152 0
136 156 0
136 158 0
143 164 0
145 167 0
142 161 0
134 154 0
129 147 0
129 149 0
129 150 0
142 161 0
132 152 0
136 155 0
132 152 0
129 149 0
129 147 0
135 155 0
133 153 0
139 158 0
128 147 0
134 153 0
131 152 0
123 143 0
142 162 0
125 145 0
125 146 0
133 152 0
133 153 0
134 153 0
137 156 0
140 159 0
136 156 0
137 155 0
128 147 0
134 155 0
127 146 0
130 148 0
144 164 0
130 148 0
135 155 0
140 159 0
138 157 0
136 156 0
134 151 0
131 148 0
130 148 0
132 150 0
141 159 0
140 159 0
136 155 0
128 145 0
143 162 0
141 160 0
141 159 0
140 160 0
133 151 0
138 155 0
133 152 0
143 162 0
141 159 0
133 150 0
140 159 0
140 158 0
134 151 0
133 149 0
137 154 0
144 162 0
134 152 0
143 159 0
137 153 0
136 151 0
139 155 0
144 161 0
130 146 0
152 170 0
144 160 0
144 161 0
132 148 0
134 147 0
139 155 0
151 169 0
140 154 0
139 155 0
139 154 0
142 158 0
146 162 0
142 157 0
140 155 0
138 155 0
135 150 0
144 156 0
140 155 0
144 159 0
143 159 0
142 157 0
143 156 0
142 155 0
139 151 0
138 151 0
144 158 0
133 148 0
133 143 0
148 163 0
140 153 0
139 151 0
135 147 0
144 156 0
130 142 0
144 154 0
142 154 0
148 159 0
140 152 0
140 149 0
136 147 0
139 146 0
131 138 0
138 148 0
139 148 0
135 144 0
140 150 0
135 145 0
133 142 0
134 142 0
130 139 0
133 141 0
142 153 0
144 151 0
130 138 0
131 137 0
146 154 0
137 142 0
127 134 0
127 131 0
135 143 0
138 144 0
138 146 0
136 140 0
139 145 0
144 150 0
131 133 0
134 141 0
131 138 0
139 147 0
144 150 0
139 143 0
132 134 0
135 138 0
139 143 0
135 138 0
134 136 0
132 135 0
122 127 0
135 140 0
133 139 0
134 136 0
140 142 0
138 141 0
143 146 0
132 136 0
137 138 0
136 139 0
137 140 0
138 141 0
137 143 0
148 153 0
136 139 0
135 139 0
140 145 0
146 150 0
143 148 0
140 145 0
136 141 0
145 148 0
145 150 0
141 144 0
138 144 0
137 143 0
142 144 0
140 143 0
146 152 0
147 155 0
146 155 0
148 155 0
150 156 0
146 153 0
147 155 0
149 155 0
141 149 0
152 159 0
152 161 0
148 156 0
150 158 0
154 164 0
153 162 0
144 153 0
149 158 0
153 162 0
153 160 0
156 165 0
155 168 0
149 159 0
153 162 0
153 163 0
159 169 0
162 171 0
158 169 0
174 196 0
174 196 0
170 192 0
168 189 0
173 194 0
173 195 0
171 192 0
173 194 0
175 197 0
175 195 0
174 195 0
176 197 0
176 197 0
169 191 0
176 196 0
172 194 0
175 195 0
173 194 0
175 195 0
174 195 0
176 196 0
176 196 0
178 198 0
172 194 0
173 193 0
173 193 0
171 191 0
175 195 0
176 196 0
175 195 0
172 192 0
175 196 0
172 192 0
175 195 0
173 193 0
175 195 0
174 195 0
173 193 0
171 191 0
170 191 0
172 192 0
168 188 0
172 192 0
170 190 0
173 194 0
175 195 0
174 194 0
175 195 0
165 185 0
172 192 0
166 185 0
170 191 0
172 193 0
171 191 0
169 189 0
173 193 0
169 190 0
161 182 0
167 188 0
169 189 0
172 191 0
170 190 0
161 182 0
166 186 0
168 188 0
163 183 0
167 187 0
168 188 0
171 191 0
165 186 0
171 191 0
159 179 0
161 181 0
163 183 0
161 180 0
167 187 0
161 182 0
165 187 0
164 186 0
168 187 0
162 183 0
166 186 0
165 185 0
158 179 0
166 186 0
160 181 0
159 180 0
164 185 0
157 178 0
164 186 0
164 184 0
160 181 0
158 180 0
160 181 0
155 178 0
163 184 0
162 183 0
156 176 0
158 180 0
157 179 0
157 179 0
153 175 0
156 177 0
157 179 0
161 183 0
160 181 0
149 171 0
158 179 0
160 182 0
152 174 0
157 179 0
160 182 0
162 182 0
157 178 0
150 172 0
153 175 0
156 178 0
150 171 0
149 170 0
154 175 0
151 173 0
142 164 0
152 174 0
160 182 0
152 173 0
142 165 0
144 166 0
154 175 0
154 176 0
142 163 0
156 179 0
151 173 0
152 174 0
155 176 0
156 178 0
154 176 0
150 173 0
149 171 0
151 171 0
148 170 0
154 175 0
154 175 0
149 170 0
149 171 0
143 164 0
145 165 0
144 165 0
150 172 0
146 167 0
142 165 0
145 167 0
149 171 0
144 166 0
139 161 0
146 168 0
147 168 0
142 164 0
151 173 0
151 171 0
145 167 0
146 169 0
147 168 0
156 178 0
142 164 0
142 163 0
145 166 0
143 165 0
150 171 0
136 157 0
142 164 0
135 155 0
135 156 0
139 160 0
140 162 0
142 164 0
132 153 0
142 164 0
141 162 0
148 169 0
141 162 0
143 163 0
147 167 0
137 158 0
145 166 0
134 155 0
143 164 0
130 150 0
125 144 0
131 152 0
142 164 0
141 161 0
142 163 0
138 159 0
142 163 0
132 154 0
142 162 0
137 157 0
145 165 0
141 163 0
147 168 0
134 156 0
140 161 0
143 161 0
143 164 0
136 156 0
138 155 0
129 149 0
130 147 0
138 159 0
136 156 0
130 151 0
135 155 0
135 155 0
135 154 0
143 163 0
140 159 0
138 158 0
135 155 0
143 164 0
142 162 0
139 158 0
142 163 0
127 146 0
143 162 0
134 154 0
132 150 0
139 159 0
136 154 0
133 152 0
133 153 0
136 155 0
138 156 0
133 152 0
138 157 0
141 160 0
138 158 0
145 164 0
137 154 0
138 158 0
141 160 0
136 154 0
141 160 0
141 159 0
139 158 0
131 148 0
135 154 0
134 151 0
136 155 0
138 157 0
131 149 0
135 153 0
130 146 0
135 151 0
133 151 0
137 154 0
131 147 0
138 156 0
125 141 0
137 154 0
147 166 0
146 164 0
145 162 0
141 161 0
137 153 0
147 166 0
144 161 0
137 153 0
138 157 0
131 149 0
138 155 0
136 152 0
139 155 0
136 153 0
140 155 0
140 156 0
143 158 0
141 157 0
134 150 0
133 147 0
142 158 0
141 158 0
147 163 0
149 164 0
136 150 0
141 156 0
138 154 0
136 149 0
136 151 0
141 156 0
141 155 0
145 160 0
129 143 0
131 144 0
144 156 0
131 146 0
135 149 0
137 151 0
133 148 0
143 156 0
130 139 0
148 159 0
140 152 0
138 152 0
143 153 0
137 150 0
134 147 0
145 160 0
133 142 0
132 145 0
137 148 0
143 154 0
142 154 0
136 147 0
137 147 0
131 140 0
134 142 0
134 145 0
141 151 0
136 143 0
137 144 0
138 145 0
138 143 0
139 147 0
140 147 0
132 140 0
142 149 0
141 149 0
138 147 0
141 148 0
138 143 0
133 138 0
133 140 0
135 140 0
137 144 0
142 149 0
141 148 0
143 149 0
132 137 0
135 142 0
143 151 0
137 145 0
131 136 0
142 149 0
134 137 0
141 145 0
143 149 0
129 133 0
142 145 0
143 148 0
133 132 0
141 146 0
139 144 0
140 144 0
146 151 0
133 137 0
134 137 0
138 140 0
140 144 0
142 150 0
141 145 0
142 145 0
139 143 0
147 151 0
144 151 0
145 149 0
150 155 0
143 147 0
139 143 0
152 160 0
143 148 0
149 154 0
149 154 0
148 153 0
141 145 0
145 151 0
146 156 0
144 149 0
140 145 0
149 157 0
150 157 0
153 161 0
144 149 0
143 151 0
151 158 0
146 152 0
145 152 0
160 170 0
148 158 0
153 162 0
150 160 0
157 167 0
158 166 0
153 163 0
149 158 0
154 163 0
158 168 0
145 153 0
148 162 0
156 165 0
161 172 0
174 195 0
173 195 0
173 195 0
174 196 0
171 192 0
174 195 0
176 196 0
174 195 0
174 195 0
175 196 0
174 194 0
171 192 0
171 192 0
174 195 0
176 197 0
175 196 0
174 194 0
173 193 0
175 196 0
176 197 0
173 193 0
175 197 0
172 192 0
174 194 0
172 192 0
174 194 0
172 193 0
176 196 0
174 194 0
173 194 0
170 191 0
173 194 0
171 190 0
165 186 0
174 194 0
171 192 0
170 191 0
172 193 0
174 194 0
175 196 0
168 188 0
170 190 0
171 191 0
172 192 0
172 191 0
171 191 0
171 192 0
170 190 0
166 186 0
170 191 0
171 191 0
168 189 0
171 191 0
167 187 0
167 188 0
172 192 0
168 188 0
169 189 0
168 188 0
166 186 0
170 190 0
163 184 0
169 190 0
166 186 0
166 187 0
165 186 0
168 188 0
167 187 0
167 187 0
165 186 0
167 187 0
160 181 0
166 187 0
163 182 0
162 183 0
166 187 0
166 188 0
159 180 0
159 179 0
168 188 0
160 181 0
165 186 0
165 186 0
156 177 0
162 183 0
162 184 0
167 188 0
162 183 0
155 176 0
158 180 0
159 180 0
157 178 0
163 184 0
162 183 0
156 177 0
160 181 0
157 177 0
163 185 0
161 182 0
157 178 0
153 175 0
155 177 0
160 182 0
157 179 0
158 180 0
154 175 0
152 173 0
149 170 0
159 180 0
156 177 0
152 173 0
159 180 0
158 179 0
157 179 0
157 179 0
157 178 0
158 180 0
145 168 0
150 172 0
146 168 0
159 181 0
147 169 0
152 173 0
157 179 0
149 170 0
152 174 0
149 171 0
156 178 0
143 166 0
154 176 0
145 166 0
152 174 0
152 174 0
153 175 0
152 175 0
148 170 0
154 175 0
151 173 0
151 174 0
151 171 0
151 173 0
149 170 0
146 168 0
153 176 0
141 163 0
146 168 0
154 174 0
145 167 0
146 168 0
142 164 0
150 172 0
156 178 0
151 174 0
151 173 0
149 171 0
144 165 0
147 169 0
147 169 0
137 157 0
147 169 0
142 164 0
143 164 0
149 171 0
146 167 0
144 165 0
145 168 0
144 166 0
147 168 0
139 159 0
148 169 0
143 164 0
143 165 0
140 161 0
137 158 0
149 171 0
140 161 0
140 162 0
141 162 0
140 162 0
139 160 0
149 170 0
147 169 0
135 157 0
134 155 0
135 156 0
140 161 0
149 170 0
125 146 0
142 164 0
141 162 0
140 160 0
146 165 0
136 157 0
139 161 0
147 167 0
141 162 0
140 161 0
146 166 0
136 156 0
143 164 0
131 151 0
128 148 0
132 153 0
145 165 0
138 158 0
134 152 0
153 174 0
135 155 0
138 158 0
141 159 0
137 158 0
131 149 0
140 160 0
139 158 0
138 158 0
137 157 0
139 158 0
138 158 0
131 151 0
139 159 0
138 157 0
147 166 0
137 157 0
139 159 0
133 154 0
131 151 0
138 157 0
131 150 0
143 162 0
138 158 0
139 158 0
141 160 0
140 159 0
134 153 0
141 159 0
141 160 0
130 149 0
139 158 0
136 156 0
130 149 0
149 171 0
135 154 0
137 156 0
139 156 0
142 162 0
134 152 0
132 151 0
155 174 0
134 152 0
147 165 0
139 159 0
145 163 0
134 151 0
140 158 0
140 158 0
146 165 0
147 165 0
135 153 0
146 164 0
147 163 0
140 160 0
136 154 0
144 164 0
135 152 0
157 174 0
130 146 0
141 157 0
139 157 0
150 168 0
139 156 0
142 159 0
137 155 0
139 157 0
137 155 0
139 156 0
145 162 0
150 167 0
150 168 0
140 154 0
134 150 0
145 161 0
136 150 0
141 158 0
134 147 0
140 155 0
142 159 0
143 158 0
140 156 0
148 164 0
150 165 0
143 156 0
139 154 0
143 158 0
135 149 0
137 153 0
137 152 0
139 151 0
148 163 0
134 147 0
139 153 0
139 152 0
136 151 0
139 154 0
134 147 0
140 152 0
140 150 0
142 154 0
138 148 0
136 148 0
132 143 0
136 146 0
145 156 0
142 154 0
139 150 0
141 154 0
144 154 0
140 153 0
142 152 0
137 148 0
144 153 0
133 142 0
133 141 0
137 145 0
139 148 0
150 160 0
140 152 0
145 152 0
134 142 0
142 152 0
143 150 0
133 144 0
132 140 0
136 142 0
145 153 0
135 143 0
135 142 0
141 149 0
136 143 0
136 142 0
134 137 0
142 151 0
142 149 0
136 141 0
145 151 0
138 145 0
137 143 0
137 140 0
139 143 0
143 147 0
138 143 0
132 136 0
145 152 0
141 147 0
131 131 0
142 146 0
145 152 0
138 141 0
140 145 0
145 151 0
144 150 0
141 143 0
146 153 0
144 149 0
148 154 0
140 147 0
136 140 0
143 149 0
143 148 0
144 150 0
145 148 0
144 148 0
143 149 0
150 157 0
147 153 0
144 150 0
150 159 0
147 154 0
144 149 0
151 155 0
145 151 0
147 155 0
150 154 0
155 164 0
151 158 0
144 151 0
146 151 0
154 163 0
153 163 0
158 165 0
151 160 0
156 161 0
152 160 0
157 167 0
157 167 0
151 157 0
156 166 0
154 162 0
156 168 0
149 158 0
152 163 0
173 195 0
172 193 0
174 195 0
173 195 0
173 194 0
177 198 0
173 195 0
174 195 0
174 195 0
174 195 0
171 192 0
174 195 0
174 195 0
175 196 0
173 194 0
174 195 0
173 194 0
176 196 0
171 192 0
176 196 0
175 195 0
172 193 0
176 196 0
173 194 0
172 192 0
168 189 0
173 194 0
173 194 0
171 192 0
174 195 0
173 194 0
172 192 0
170 192 0
172 192 0
171 191 0
168 189 0
172 193 0
174 194 0
173 194 0
173 194 0
171 192 0
171 191 0
177 197 0
175 195 0
174 195 0
176 196 0
176 197 0
165 186 0
171 191 0
172 192 0
170 191 0
166 185 0
166 186 0
169 190 0
171 192 0
171 191 0
167 187 0
167 187 0
168 187 0
167 187 0
171 192 0
164 184 0
164 183 0
168 189 0
170 190 0
165 187 0
162 183 0
167 188 0
161 182 0
166 187 0
165 186 0
168 189 0
161 181 0
164 184 0
166 186 0
168 190 0
164 185 0
157 178 0
164 185 0
161 182 0
158 179 0
166 188 0
162 184 0
161 183 0
160 182 0
165 186 0
160 181 0
161 183 0
158 179 0
156 176 0
159 180 0
162 183 0
164 185 0
160 182 0
159 180 0
160 182 0
161 183 0
159 181 0
155 176 0
158 179 0
157 178 0
159 182 0
152 174 0
152 174 0
151 174 0
162 185 0
159 183 0
151 173 0
152 173 0
160 181 0
154 176 0
156 178 0
156 178 0
153 175 0
154 176 0
159 181 0
155 177 0
161 183 0
154 176 0
154 175 0
155 177 0
151 172 0
147 168 0
153 175 0
149 171 0
158 180 0
153 176 0
152 173 0
154 177 0
149 171 0
153 176 0
151 173 0
152 174 0
152 174 0
149 170 0
153 176 0
149 170 0
152 174 0
150 172 0
151 172 0
154 176 0
143 164 0
145 167 0
148 170 0
150 171 0
136 158 0
150 172 0
151 174 0
151 171 0
148 169 0
143 164 0
148 170 0
142 164 0
147 169 0
148 169 0
141 162 0
149 170 0
144 167 0
136 159 0
140 162 0
137 159 0
151 173 0
144 166 0
150 172 0
142 164 0
146 167 0
140 161 0
142 163 0
147 168 0
144 166 0
131 151 0
140 161 0
143 163 0
144 165 0
143 164 0
145 167 0
138 160 0
145 166 0
144 164 0
145 165 0
134 154 0
141 161 0
143 165 0
134 154 0
144 164 0
130 150 0
143 165 0
140 161 0
143 165 0
148 170 0
141 162 0
137 157 0
146 166 0
138 158 0
139 158 0
140 160 0
138 159 0
134 154 0
135 155 0
127 147 0
136 156 0
141 161 0
137 158 0
141 161 0
136 157 0
131 150 0
139 160 0
143 162 0
130 149 0
139 159 0
140 160 0
147 168 0
133 152 0
138 159 0
139 160 0
146 166 0
143 163 0
141 160 0
140 159 0
128 148 0
140 160 0
143 165 0
135 154 0
134 154 0
141 161 0
132 153 0
146 165 0
133 154 0
130 148 0
134 154 0
130 150 0
137 154 0
141 161 0
138 157 0
142 161 0
138 158 0
141 160 0
135 154 0
140 159 0
142 161 0
134 153 0
139 157 0
141 161 0
138 158 0
136 156 0
137 155 0
129 147 0
141 159 0
132 148 0
138 157 0
131 151 0
131 150 0
136 155 0
136 156 0
146 166 0
142 160 0
134 152 0
140 158 0
140 157 0
138 158 0
141 158 0
141 161 0
135 153 0
140 156 0
140 157 0
140 157 0
131 152 0
143 161 0
137 152 0
144 161 0
131 147 0
138 154 0
149 166 0
141 159 0
139 156 0
148 167 0
141 158 0
141 160 0
141 158 0
139 155 0
141 158 0
138 154 0
138 153 0
140 155 0
133 149 0
134 150 0
139 153 0
136 150 0
143 159 0
141 155 0
144 161 0
140 151 0
141 154 0
137 153 0
140 154 0
142 156 0
139 153 0
145 162 0
140 154 0
134 146 0
148 161 0
140 154 0
136 149 0
143 158 0
137 149 0
141 154 0
142 156 0
140 154 0
142 155 0
142 153 0
146 156 0
141 151 0
138 149 0
143 154 0
145 155 0
136 143 0
136 146 0
141 154 0
140 150 0
135 144 0
140 149 0
135 140 0
141 147 0
139 150 0
141 152 0
139 147 0
133 138 0
142 151 0
145 155 0
139 146 0
135 142 0
135 140 0
133 141 0
142 152 0
141 150 0
137 146 0
143 154 0
137 144 0
132 137 0
140 146 0
134 140 0
141 149 0
134 141 0
140 144 0
148 153 0
145 153 0
138 141 0
144 152 0
135 139 0
139 144 0
140 145 0
142 148 0
146 154 0
144 148 0
138 143 0
133 140 0
146 153 0
145 149 0
138 144 0
141 146 0
146 153 0
145 151 0
138 140 0
142 145 0
137 141 0
142 147 0
145 148 0
143 149 0
145 152 0
150 158 0
143 150 0
147 153 0
147 154 0
140 146 0
138 143 0
147 155 0
147 154 0
149 157 0
143 150 0
148 154 0
148 157 0
147 154 0
149 156 0
152 161 0
147 157 0
153 159 0
147 152 0
155 164 0
154 160 0
148 158 0
152 160 0
154 164 0
157 167 0
148 156 0
155 164 0
159 169 0
159 171 0
152 162 0
149 159 0
158 170 0
171 192 0
175 196 0
174 197 0
173 194 0
171 191 0
177 199 0
169 190 0
174 196 0
170 191 0
171 193 0
174 195 0
172 193 0
173 194 0
175 196 0
172 193 0
173 193 0
169 188 0
173 194 0
169 190 0
173 193 0
173 193 0
172 194 0
175 196 0
175 196 0
172 193 0
170 191 0
173 193 0
173 193 0
170 190 0
170 191 0
173 193 0
171 191 0
173 193 0
170 190 0
172 191 0
171 191 0
169 190 0
173 194 0
173 193 0
174 195 0
169 189 0
166 186 0
167 187 0
170 190 0
173 193 0
171 193 0
168 188 0
168 189 0
170 190 0
167 188 0
167 188 0
169 190 0
172 193 0
172 191 0
171 191 0
163 184 0
166 186 0
165 185 0
170 190 0
168 188 0
168 189 0
167 188 0
174 194 0
170 192 0
167 188 0
164 184 0
167 186 0
167 187 0
164 185 0
171 193 0
163 183 0
163 184 0
163 183 0
159 180 0
165 187 0
151 172 0
160 181 0
166 186 0
165 186 0
163 184 0
166 188 0
163 185 0
158 180 0
159 181 0
156 177 0
159 181 0
161 183 0
160 181 0
155 177 0
159 180 0
159 180 0
154 176 0
158 180 0
160 183 0
156 177 0
161 183 0
160 183 0
158 180 0
155 177 0
156 177 0
153 175 0
161 182 0
159 181 0
155 177 0
156 178 0
150 172 0
154 176 0
158 180 0
156 178 0
157 179 0
148 170 0
154 176 0
152 175 0
161 183 0
154 175 0
152 174 0
150 172 0
153 175 0
153 175 0
156 177 0
154 177 0
145 168 0
159 181 0
156 177 0
144 167 0
155 178 0
153 174 0
153 175 0
160 182 0
151 173 0
147 169 0
159 182 0
150 173 0
151 172 0
153 175 0
154 175 0
153 173 0
147 169 0
149 172 0
149 172 0
149 170 0
152 175 0
150 173 0
143 166 0
148 171 0
152 175 0
149 171 0
148 170 0
138 160 0
150 172 0
153 176 0
137 158 0
148 171 0
148 169 0
148 170 0
139 160 0
137 159 0
147 170 0
140 162 0
140 163 0
145 168 0
144 165 0
141 163 0
141 162 0
136 158 0
148 168 0
149 170 0
142 164 0
140 160 0
142 165 0
142 163 0
141 163 0
143 165 0
133 153 0
138 158 0
144 165 0
151 173 0
138 159 0
142 164 0
144 165 0
148 170 0
137 158 0
133 155 0
142 164 0
140 161 0
136 157 0
136 157 0
146 168 0
143 163 0
135 155 0
136 157 0
141 162 0
142 161 0
130 151 0
140 162 0
137 159 0
145 166 0
139 160 0
137 154 0
137 156 0
141 162 0
128 149 0
145 166 0
142 161 0
143 164 0
141 161 0
142 163 0
131 151 0
136 156 0
142 162 0
139 160 0
142 163 0
137 158 0
146 165 0
140 160 0
144 163 0
139 158 0
133 153 0
146 166 0
133 153 0
139 158 0
141 163 0
144 164 0
152 172 0
136 156 0
132 150 0
140 161 0
133 152 0
136 156 0
137 157 0
124 143 0
139 158 0
133 151 0
138 157 0
140 157 0
133 153 0
143 163 0
138 159 0
144 164 0
132 150 0
138 156 0
143 163 0
144 163 0
135 154 0
140 161 0
141 159 0
137 155 0
137 154 0
140 159 0
145 163 0
140 159 0
141 158 0
144 163 0
131 151 0
139 157 0
145 164 0
134 151 0
146 163 0
132 148 0
142 162 0
139 158 0
147 163 0
142 161 0
148 168 0
133 152 0
141 160 0
131 149 0
146 165 0
142 160 0
143 161 0
144 163 0
136 154 0
133 149 0
138 158 0
147 164 0
133 149 0
138 155 0
143 160 0
146 161 0
138 154 0
149 168 0
132 148 0
147 165 0
142 159 0
138 153 0
138 154 0
133 146 0
142 159 0
137 152 0
139 155 0
149 163 0
140 155 0
146 162 0
138 152 0
130 144 0
133 147 0
135 146 0
150 164 0
139 153 0
143 156 0
134 146 0
147 159 0
140 154 0
141 155 0
140 153 0
137 152 0
140 157 0
133 144 0
138 149 0
148 162 0
143 156 0
134 145 0
145 158 0
153 167 0
135 144 0
138 149 0
143 153 0
138 150 0
140 153 0
147 159 0
131 140 0
138 150 0
141 149 0
148 161 0
136 142 0
140 151 0
136 145 0
141 153 0
140 151 0
137 148 0
141 150 0
142 151 0
140 148 0
146 157 0
146 154 0
142 152 0
140 148 0
146 154 0
140 146 0
142 150 0
135 143 0
135 141 0
137 143 0
148 156 0
141 147 0
149 159 0
142 149 0
144 152 0
138 145 0
133 140 0
146 152 0
144 153 0
138 144 0
145 152 0
144 151 0
144 150 0
136 140 0
143 149 0
135 140 0
147 151 0
143 146 0
143 148 0
148 155 0
143 147 0
145 153 0
142 147 0
146 152 0
140 144 0
147 150 0
143 149 0
142 146 0
149 156 0
151 159 0
143 151 0
145 153 0
151 157 0
145 150 0
146 149 0
153 159 0
150 156 0
141 149 0
146 147 0
149 157 0
139 144 0
148 155 0
154 162 0
153 158 0
148 155 0
158 166 0
144 152 0
144 152 0
152 163 0
155 167 0
157 166 0
154 163 0
153 162 0
151 162 0
148 158 0
157 167 0
152 164 0
172 194 0
168 191 0
178 199 0
170 190 0
174 195 0
172 193 0
173 194 0
177 198 0
174 195 0
175 197 0
174 195 0
174 195 0
177 197 0
171 193 0
172 194 0
176 197 0
171 192 0
173 194 0
174 195 0
173 193 0
174 196 0
173 194 0
172 192 0
175 196 0
173 194 0
173 194 0
172 192 0
170 191 0
167 188 0
174 194 0
171 191 0
173 193 0
170 191 0
176 197 0
171 191 0
173 193 0
171 191 0
173 193 0
172 191 0
167 187 0
172 192 0
167 188 0
172 193 0
170 191 0
165 185 0
170 190 0
168 188 0
174 194 0
174 195 0
173 193 0
166 186 0
170 191 0
168 188 0
170 190 0
167 188 0
166 187 0
171 191 0
161 181 0
169 190 0
172 193 0
165 185 0
173 194 0
165 187 0
159 180 0
167 188 0
172 193 0
162 182 0
169 189 0
156 177 0
170 191 0
160 180 0
162 182 0
160 181 0
167 187 0
166 187 0
168 190 0
162 184 0
162 183 0
164 185 0
158 180 0
161 182 0
162 182 0
161 182 0
162 184 0
158 180 0
168 188 0
158 180 0
160 182 0
163 185 0
158 179 0
160 181 0
153 176 0
152 174 0
148 170 0
160 182 0
150 171 0
160 182 0
161 183 0
153 174 0
157 179 0
160 182 0
160 182 0
155 178 0
159 181 0
152 175 0
151 173 0
159 181 0
158 180 0
150 172 0
146 168 0
154 176 0
153 174 0
151 174 0
152 174 0
154 177 0
154 177 0
151 173 0
154 176 0
156 178 0
155 177 0
152 175 0
147 170 0
158 180 0
150 172 0
147 168 0
156 178 0
149 172 0
154 176 0
150 173 0
153 175 0
153 176 0
150 172 0
146 170 0
149 171 0
152 176 0
159 180 0
148 171 0
145 166 0
155 176 0
157 180 0
142 163 0
142 165 0
150 173 0
149 170 0
151 173 0
146 169 0
151 174 0
147 168 0
150 172 0
147 169 0
145 166 0
140 162 0
144 166 0
147 169 0
151 173 0
140 161 0
153 175 0
145 166 0
144 166 0
145 167 0
146 167 0
139 160 0
142 165 0
140 161 0
153 173 0
150 172 0
145 165 0
139 159 0
139 160 0
150 171 0
143 167 0
150 171 0
142 165 0
144 164 0
143 164 0
141 164 0
141 163 0
134 154 0
137 159 0
142 163 0
150 172 0
150 171 0
153 174 0
147 167 0
142 160 0
136 159 0
138 158 0
136 156 0
141 162 0
143 165 0
133 155 0
141 160 0
142 163 0
140 161 0
143 163 0
142 162 0
146 167 0
150 172 0
137 158 0
143 164 0
139 159 0
140 160 0
143 163 0
136 157 0
144 165 0
141 162 0
139 158 0
146 167 0
141 162 0
140 161 0
143 164 0
140 161 0
143 164 0
139 159 0
141 161 0
136 156 0
136 157 0
131 151 0
147 167 0
140 159 0
137 157 0
130 149 0
135 154 0
140 161 0
139 158 0
143 164 0
136 157 0
143 164 0
132 151 0
135 155 0
134 152 0
140 159 0
139 158 0
136 155 0
136 155 0
140 160 0
134 152 0
143 162 0
142 162 0
143 160 0
142 159 0
148 166 0
139 159 0
133 154 0
145 165 0
150 170 0
142 160 0
137 156 0
144 164 0
139 159 0
144 162 0
144 161 0
133 149 0
144 163 0
138 157 0
148 166 0
146 165 0
133 150 0
147 167 0
140 160 0
136 153 0
142 160 0
142 158 0
140 159 0
134 149 0
143 161 0
145 165 0
140 156 0
141 158 0
143 162 0
142 158 0
133 151 0
141 158 0
143 161 0
139 155 0
138 157 0
145 162 0
141 158 0
139 154 0
140 155 0
149 164 0
141 158 0
146 162 0
149 165 0
142 157 0
152 169 0
142 158 0
150 166 0
135 151 0
143 158 0
142 158 0
131 143 0
144 161 0
136 152 0
143 154 0
144 158 0
146 162 0
144 159 0
140 154 0
147 162 0
143 156 0
138 152 0
144 158 0
143 158 0
134 144 0
140 152 0
136 148 0
135 148 0
144 157 0
141 154 0
141 153 0
139 153 0
136 148 0
143 157 0
143 155 0
141 152 0
146 158 0
140 152 0
138 150 0
133 144 0
143 153 0
136 144 0
140 152 0
143 155 0
141 149 0
128 137 0
140 152 0
149 161 0
142 149 0
131 140 0
145 155 0
141 149 0
143 152 0
146 157 0
139 148 0
142 154 0
141 150 0
142 152 0
145 154 0
144 149 0
140 147 0
145 153 0
139 146 0
143 152 0
137 147 0
141 150 0
145 155 0
138 145 0
142 149 0
139 147 0
142 149 0
142 149 0
142 150 0
138 147 0
144 152 0
144 151 0
135 138 0
142 146 0
147 153 0
145 153 0
138 143 0
141 146 0
142 146 0
137 143 0
140 145 0
137 143 0
134 136 0
139 144 0
143 148 0
137 144 0
155 165 0
151 160 0
146 152 0
149 156 0
146 152 0
142 152 0
153 160 0
150 156 0
151 160 0
154 162 0
151 160 0
148 155 0
155 164 0
149 157 0
153 159 0
147 155 0
160 171 0
152 160 0
136 142 0
159 168 0
149 157 0
151 161 0
144 152 0
157 168 0
152 159 0
154 163 0
159 170 0
146 158 0
153 164 0
154 165 0
173 194 0
174 195 0
173 195 0
173 195 0
177 197 0
174 195 0
175 196 0
175 196 0
176 197 0
172 194 0
174 195 0
173 194 0
176 197 0
173 194 0
176 196 0
170 191 0
173 194 0
171 193 0
172 193 0
177 198 0
175 196 0
171 192 0
171 192 0
176 197 0
171 192 0
173 194 0
174 195 0
173 192 0
169 190 0
177 196 0
171 191 0
174 194 0
173 194 0
176 196 0
173 194 0
166 186 0
171 191 0
169 190 0
172 193 0
172 192 0
170 190 0
169 190 0
169 189 0
171 191 0
171 191 0
172 193 0
170 189 0
173 193 0
169 190 0
165 187 0
171 192 0
171 191 0
171 192 0
169 190 0
165 186 0
169 189 0
169 190 0
165 185 0
170 191 0
175 196 0
166 187 0
164 184 0
168 188 0
164 184 0
161 182 0
158 180 0
164 185 0
165 186 0
163 185 0
166 187 0
172 192 0
156 177 0
159 180 0
165 185 0
160 181 0
163 185 0
160 182 0
162 184 0
161 182 0
167 188 0
160 181 0
163 185 0
164 185 0
155 176 0
154 176 0
162 184 0
160 182 0
163 184 0
156 178 0
161 183 0
156 177 0
156 178 0
154 176 0
165 186 0
155 177 0
162 184 0
158 180 0
159 181 0
156 179 0
160 181 0
154 176 0
156 179 0
161 183 0
151 173 0
157 180 0
154 176 0
155 177 0
154 176 0
153 176 0
156 179 0
149 170 0
160 182 0
160 182 0
160 183 0
147 169 0
155 177 0
151 172 0
152 172 0
154 177 0
150 173 0
159 181 0
153 175 0
145 167 0
151 172 0
151 173 0
146 168 0
154 176 0
145 167 0
154 176 0
148 171 0
149 171 0
150 172 0
155 178 0
148 170 0
155 177 0
159 182 0
149 171 0
163 184 0
155 176 0
153 175 0
147 169 0
153 175 0
154 176 0
157 179 0
148 169 0
150 172 0
151 173 0
157 178 0
147 170 0
150 172 0
144 165 0
150 172 0
146 167 0
148 170 0
146 168 0
132 154 0
136 159 0
148 171 0
151 173 0
144 166 0
146 166 0
151 172 0
147 169 0
139 161 0
147 167 0
138 160 0
148 170 0
141 164 0
144 165 0
146 168 0
131 153 0
150 173 0
151 173 0
145 167 0
141 164 0
138 159 0
140 161 0
139 161 0
146 167 0
144 165 0
147 170 0
146 167 0
141 162 0
134 156 0
151 172 0
149 171 0
142 164 0
144 166 0
148 170 0
144 165 0
147 168 0
134 156 0
140 161 0
147 168 0
142 162 0
146 166 0
140 161 0
139 160 0
143 165 0
144 166 0
145 167 0
136 158 0
145 166 0
131 152 0
128 147 0
139 158 0
147 168 0
144 166 0
142 162 0
143 164 0
136 157 0
141 159 0
127 146 0
134 153 0
142 160 0
133 154 0
139 159 0
136 155 0
144 165 0
141 161 0
137 157 0
132 151 0
140 161 0
145 165 0
149 170 0
135 153 0
144 163 0
144 164 0
137 157 0
137 157 0
141 162 0
138 158 0
144 163 0
144 164 0
142 160 0
130 149 0
143 164 0
138 158 0
141 160 0
135 154 0
139 160 0
134 154 0
134 153 0
147 166 0
150 169 0
140 157 0
142 160 0
149 170 0
142 161 0
144 163 0
143 163 0
148 168 0
129 150 0
149 169 0
153 173 0
135 153 0
139 158 0
147 167 0
141 160 0
145 163 0
144 164 0
130 148 0
146 162 0
143 160 0
147 166 0
146 163 0
138 159 0
141 158 0
146 165 0
140 158 0
146 164 0
139 155 0
137 154 0
136 152 0
146 166 0
135 152 0
146 164 0
142 158 0
133 150 0
141 155 0
144 161 0
135 151 0
147 163 0
139 155 0
147 164 0
134 149 0
143 157 0
144 160 0
133 147 0
146 163 0
137 153 0
139 154 0
138 152 0
147 160 0
147 160 0
147 164 0
132 146 0
145 161 0
141 157 0
137 150 0
134 150 0
139 152 0
135 146 0
138 151 0
140 155 0
137 147 0
142 154 0
136 150 0
151 166 0
148 161 0
141 155 0
146 157 0
141 153 0
145 158 0
151 164 0
134 145 0
144 153 0
140 154 0
138 150 0
155 169 0
131 141 0
139 150 0
142 152 0
142 152 0
151 163 0
144 155 0
143 152 0
142 153 0
138 148 0
143 152 0
144 155 0
146 160 0
137 145 0
146 156 0
142 150 0
149 159 0
135 142 0
143 153 0
145 153 0
138 147 0
140 147 0
129 136 0
136 144 0
141 151 0
135 141 0
151 160 0
138 146 0
147 155 0
134 140 0
144 149 0
145 155 0
140 146 0
139 144 0
153 162 0
154 163 0
144 152 0
141 148 0
148 153 0
145 156 0
140 145 0
144 150 0
151 159 0
150 158 0
150 155 0
144 148 0
145 151 0
149 159 0
145 152 0
149 155 0
147 153 0
156 164 0
148 155 0
146 155 0
147 154 0
152 161 0
142 149 0
139 148 0
151 158 0
148 154 0
152 162 0
154 162 0
150 158 0
150 155 0
151 162 0
151 159 0
158 168 0
151 162 0
142 149 0
147 156 0
145 150 0
150 157 0
149 157 0
155 163 0
154 161 0
144 152 0
155 166 0
157 168 0
159 171 0
149 158 0
151 159 0
174 196 0
175 195 0
173 194 0
174 195 0
174 195 0
176 197 0
176 197 0
173 194 0
173 193 0
173 194 0
173 194 0
170 192 0
171 192 0
174 195 0
174 195 0
173 195 0
175 195 0
175 195 0
173 194 0
173 194 0
169 190 0
172 194 0
168 190 0
169 190 0
173 194 0
172 192 0
172 192 0
173 194 0
164 184 0
170 191 0
168 189 0
164 184 0
174 195 0
169 190 0
175 195 0
169 190 0
165 186 0
171 192 0
168 189 0
170 192 0
174 195 0
170 191 0
171 192 0
171 192 0
172 193 0
168 188 0
172 193 0
168 189 0
170 191 0
168 189 0
169 190 0
171 191 0
168 189 0
173 193 0
167 188 0
170 190 0
165 186 0
173 194 0
166 187 0
168 188 0
169 190 0
164 185 0
165 186 0
161 182 0
167 188 0
166 187 0
170 191 0
168 188 0
164 184 0
164 186 0
158 179 0
166 188 0
162 184 0
161 183 0
165 186 0
162 183 0
165 186 0
164 186 0
161 182 0
162 184 0
166 188 0
158 179 0
162 183 0
159 181 0
159 181 0
164 187 0
164 186 0
155 177 0
158 180 0
161 183 0
153 174 0
158 180 0
157 179 0
156 177 0
158 180 0
159 181 0
156 179 0
156 178 0
158 179 0
155 178 0
156 178 0
156 178 0
156 178 0
156 179 0
152 174 0
157 179 0
154 175 0
162 185 0
156 178 0
154 177 0
159 181 0
157 179 0
152 175 0
151 174 0
155 177 0
155 178 0
149 170 0
150 172 0
156 178 0
152 174 0
157 180 0
154 176 0
157 179 0
153 176 0
158 179 0
154 177 0
158 180 0
153 176 0
154 177 0
153 176 0
150 172 0
146 169 0
149 171 0
153 175 0
153 174 0
149 171 0
154 176 0
152 175 0
144 166 0
142 164 0
148 170 0
149 171 0
147 166 0
145 168 0
155 178 0
149 171 0
154 176 0
152 174 0
140 160 0
149 171 0
143 164 0
152 174 0
152 174 0
148 171 0
150 173 0
146 167 0
148 170 0
151 174 0
151 173 0
150 172 0
150 172 0
142 164 0
143 165 0
145 166 0
150 173 0
138 159 0
150 172 0
145 166 0
145 167 0
144 166 0
131 153 0
133 154 0
141 163 0
135 158 0
150 171 0
149 170 0
140 161 0
142 163 0
143 163 0
147 170 0
140 162 0
137 158 0
150 171 0
143 165 0
149 170 0
139 160 0
146 169 0
140 161 0
144 165 0
139 161 0
140 161 0
140 162 0
143 162 0
142 163 0
140 161 0
137 155 0
140 161 0
132 153 0
148 170 0
141 163 0
144 165 0
131 152 0
145 166 0
142 165 0
145 167 0
140 160 0
143 163 0
136 155 0
132 153 0
142 161 0
141 161 0
142 162 0
144 164 0
144 165 0
139 160 0
139 158 0
147 168 0
136 156 0
140 161 0
141 163 0
135 155 0
137 157 0
143 163 0
141 161 0
149 169 0
139 160 0
138 159 0
130 149 0
144 164 0
135 154 0
135 156 0
140 158 0
138 159 0
147 168 0
143 163 0
149 169 0
143 163 0
136 156 0
147 166 0
140 161 0
137 155 0
134 153 0
140 159 0
144 162 0
142 162 0
146 166 0
149 168 0
144 163 0
138 157 0
141 159 0
143 162 0
147 167 0
140 158 0
145 165 0
144 164 0
138 155 0
145 165 0
135 154 0
134 154 0
138 157 0
143 162 0
146 164 0
141 160 0
142 160 0
139 156 0
146 165 0
145 162 0
143 161 0
145 163 0
138 156 0
139 157 0
134 152 0
142 161 0
145 163 0
152 171 0
138 156 0
149 168 0
145 164 0
135 154 0
130 146 0
148 165 0
131 146 0
146 162 0
147 164 0
150 167 0
141 159 0
144 160 0
143 161 0
146 164 0
141 158 0
140 155 0
142 160 0
138 151 0
134 149 0
143 158 0
141 156 0
151 167 0
141 156 0
140 154 0
141 156 0
135 148 0
132 147 0
150 165 0
142 157 0
142 156 0
143 157 0
145 158 0
139 153 0
140 153 0
143 156 0
155 171 0
147 161 0
147 164 0
143 156 0
148 160 0
149 160 0
148 158 0
143 155 0
150 162 0
144 156 0
140 151 0
143 155 0
137 149 0
141 154 0
143 156 0
151 167 0
147 161 0
147 156 0
149 161 0
146 160 0
145 157 0
145 155 0
145 157 0
139 152 0
146 155 0
141 152 0
150 162 0
137 150 0
143 153 0
147 156 0
135 144 0
140 150 0
144 154 0
148 156 0
143 153 0
146 155 0
147 155 0
149 157 0
144 153 0
147 155 0
133 140 0
142 150 0
144 153 0
145 152 0
144 150 0
152 160 0
142 149 0
143 149 0
142 146 0
151 160 0
144 152 0
142 145 0
147 154 0
143 148 0
148 155 0
154 161 0
149 155 0
150 159 0
141 148 0
153 157 0
146 153 0
144 149 0
149 155 0
145 153 0
151 158 0
141 150 0
142 148 0
148 158 0
144 149 0
148 155 0
148 157 0
156 168 0
152 160 0
151 160 0
151 159 0
150 160 0
150 160 0
148 157 0
150 159 0
153 161 0
153 159 0
151 161 0
154 166 0
160 171 0
155 166 0
156 168 0
152 161 0
155 166 0
153 163 0
148 157 0
169 191 0
176 197 0
171 194 0
172 193 0
176 197 0
173 196 0
175 195 0
176 196 0
178 198 0
173 194 0
177 197 0
175 195 0
173 194 0
174 194 0
177 198 0
176 197 0
172 194 0
173 194 0
170 191 0
174 194 0
175 195 0
172 193 0
174 194 0
172 193 0
169 191 0
172 192 0
172 192 0
177 197 0
170 190 0
174 194 0
170 190 0
172 192 0
170 190 0
172 193 0
171 192 0
172 192 0
172 193 0
171 191 0
170 192 0
170 191 0
163 183 0
167 186 0
167 188 0
169 190 0
168 189 0
170 191 0
172 194 0
169 189 0
171 191 0
168 189 0
161 183 0
168 189 0
171 191 0
171 193 0
172 193 0
168 188 0
169 190 0
161 182 0
166 187 0
165 185 0
166 188 0
159 180 0
170 190 0
167 188 0
168 189 0
168 190 0
160 183 0
162 183 0
164 185 0
170 191 0
166 188 0
167 189 0
163 185 0
167 189 0
166 188 0
164 186 0
161 183 0
162 184 0
167 188 0
160 182 0
162 184 0
162 184 0
166 188 0
165 187 0
161 183 0
161 183 0
158 180 0
157 178 0
144 165 0
164 186 0
159 180 0
154 176 0
160 182 0
156 180 0
158 179 0
152 173 0
159 182 0
154 177 0
151 173 0
157 178 0
160 181 0
160 182 0
158 181 0
158 181 0
152 174 0
154 176 0
152 175 0
159 181 0
155 178 0
156 178 0
154 177 0
161 183 0
153 175 0
158 181 0
163 185 0
156 178 0
160 182 0
150 172 0
142 164 0
157 180 0
155 177 0
153 176 0
154 177 0
153 176 0
151 174 0
152 175 0
153 175 0
149 172 0
151 172 0
150 172 0
144 167 0
157 180 0
153 175 0
147 170 0
153 176 0
154 176 0
152 175 0
153 175 0
153 175 0
155 176 0
148 171 0
145 167 0
151 172 0
152 174 0
154 175 0
145 167 0
150 173 0
151 172 0
150 173 0
142 165 0
149 171 0
147 169 0
152 174 0
148 170 0
148 171 0
143 165 0
152 172 0
146 168 0
142 164 0
150 172 0
148 169 0
149 172 0
149 170 0
144 165 0
157 178 0
144 165 0
150 173 0
147 169 0
145 167 0
148 171 0
144 166 0
147 169 0
142 163 0
147 167 0
149 172 0
145 166 0
154 175 0
144 166 0
144 165 0
139 161 0
140 161 0
143 165 0
149 170 0
141 161 0
147 169 0
142 163 0
146 168 0
143 163 0
134 155 0
138 159 0
135 157 0
145 165 0
144 166 0
143 164 0
141 162 0
143 164 0
143 164 0
147 168 0
137 157 0
144 164 0
138 159 0
134 153 0
148 168 0
150 172 0
141 160 0
134 154 0
134 155 0
138 160 0
151 172 0
142 162 0
138 158 0
141 161 0
141 161 0
144 164 0
143 164 0
138 158 0
148 169 0
135 155 0
132 153 0
141 162 0
131 151 0
138 158 0
144 165 0
140 159 0
130 150 0
143 163 0
140 160 0
144 166 0
130 149 0
142 162 0
144 164 0
138 156 0
146 166 0
137 158 0
145 165 0
135 154 0
141 160 0
142 160 0
142 163 0
143 162 0
139 158 0
142 161 0
145 165 0
138 156 0
148 168 0
145 165 0
137 157 0
147 167 0
134 153 0
139 159 0
139 158 0
147 165 0
142 162 0
142 161 0
140 160 0
145 165 0
145 163 0
146 165 0
148 168 0
139 157 0
141 158 0
146 164 0
142 160 0
142 160 0
145 164 0
144 162 0
144 163 0
138 156 0
145 165 0
144 161 0
139 156 0
149 166 0
136 155 0
150 169 0
148 169 0
144 163 0
151 169 0
148 168 0
145 164 0
138 154 0
150 167 0
149 169 0
143 157 0
142 158 0
145 161 0
152 168 0
145 163 0
136 152 0
148 163 0
153 170 0
144 162 0
145 160 0
142 159 0
143 161 0
144 158 0
147 164 0
149 163 0
150 167 0
136 151 0
145 160 0
144 156 0
149 163 0
134 148 0
153 168 0
139 153 0
139 154 0
150 165 0
140 154 0
145 159 0
142 155 0
144 159 0
141 152 0
143 156 0
151 166 0
147 159 0
144 159 0
143 157 0
144 158 0
140 153 0
142 155 0
138 150 0
141 153 0
147 156 0
149 164 0
141 155 0
145 158 0
141 152 0
142 154 0
148 161 0
147 161 0
148 159 0
138 147 0
142 151 0
146 157 0
149 159 0
148 158 0
143 153 0
146 158 0
145 155 0
140 148 0
138 149 0
150 159 0
142 151 0
152 163 0
138 142 0
143 151 0
138 146 0
140 148 0
137 145 0
140 149 0
148 159 0
147 154 0
150 158 0
147 155 0
144 150 0
151 160 0
142 151 0
148 158 0
138 145 0
151 160 0
143 149 0
146 151 0
144 153 0
152 161 0
147 155 0
144 150 0
144 151 0
142 149 0
145 151 0
148 153 0
147 156 0
146 151 0
147 157 0
151 158 0
152 162 0
139 146 0
148 155 0
144 149 0
150 156 0
151 161 0
144 151 0
153 163 0
140 149 0
143 150 0
157 165 0
158 169 0
147 156 0
148 157 0
151 161 0
153 160 0
148 159 0
160 172 0
159 171 0
158 168 0
151 159 0
156 164 0
147 157 0
155 166 0
148 153 0
160 173 0
174 195 0
175 197 0
171 192 0
173 195 0
173 195 0
171 193 0
175 196 0
173 195 0
172 193 0
172 193 0
173 194 0
175 197 0
172 193 0
171 191 0
171 192 0
170 192 0
170 191 0
170 191 0
171 192 0
168 189 0
170 192 0
173 193 0
173 193 0
171 192 0
171 192 0
175 195 0
171 192 0
174 195 0
175 196 0
170 190 0
172 193 0
175 195 0
170 191 0
176 197 0
174 195 0
171 192 0
170 190 0
171 192 0
164 186 0
174 194 0
175 195 0
171 192 0
168 188 0
169 190 0
170 191 0
161 182 0
167 188 0
172 193 0
170 190 0
170 192 0
170 191 0
168 188 0
164 185 0
169 189 0
163 185 0
166 187 0
168 188 0
166 187 0
165 186 0
166 188 0
160 181 0
168 189 0
160 181 0
169 191 0
156 178 0
162 183 0
163 184 0
163 183 0
163 184 0
157 179 0
166 188 0
157 179 0
160 181 0
164 186 0
163 184 0
160 182 0
157 179 0
162 183 0
158 179 0
163 184 0
166 188 0
159 180 0
158 181 0
162 182 0
160 182 0
163 185 0
158 179 0
156 178 0
152 173 0
159 181 0
161 183 0
155 177 0
160 182 0
156 177 0
158 180 0
153 175 0
158 180 0
154 175 0
161 184 0
157 179 0
161 184 0
158 179 0
156 179 0
154 176 0
147 169 0
154 177 0
155 177 0
163 185 0
149 172 0
162 184 0
146 169 0
153 175 0
155 178 0
148 171 0
157 179 0
159 182 0
151 174 0
152 174 0
152 174 0
154 176 0
163 185 0
154 177 0
153 175 0
145 167 0
156 178 0
147 169 0
160 182 0
154 177 0
158 180 0
151 174 0
157 179 0
149 171 0
145 168 0
146 168 0
150 173 0
152 174 0
152 173 0
149 172 0
154 176 0
156 178 0
143 165 0
159 182 0
154 176 0
148 171 0
149 171 0
151 174 0
144 168 0
147 169 0
145 166 0
152 173 0
151 173 0
143 165 0
153 175 0
149 173 0
150 171 0
151 174 0
151 173 0
151 174 0
150 172 0
155 177 0
140 162 0
144 164 0
147 169 0
147 168 0
146 167 0
146 167 0
145 167 0
149 171 0
151 173 0
152 174 0
146 168 0
146 167 0
152 173 0
143 165 0
146 168 0
144 165 0
143 164 0
138 159 0
139 161 0
145 167 0
149 168 0
150 171 0
147 169 0
152 175 0
143 163 0
141 162 0
140 162 0
144 165 0
141 163 0
144 166 0
146 167 0
142 164 0
132 154 0
139 160 0
140 161 0
148 170 0
141 162 0
149 169 0
141 163 0
147 167 0
148 169 0
132 150 0
146 167 0
144 165 0
140 161 0
130 149 0
151 173 0
142 163 0
148 169 0
148 168 0
144 164 0
147 168 0
145 167 0
142 163 0
149 170 0
145 164 0
140 160 0
136 157 0
144 165 0
145 165 0
138 158 0
139 159 0
144 163 0
140 160 0
138 157 0
146 168 0
148 168 0
144 164 0
139 159 0
135 154 0
143 164 0
144 165 0
145 165 0
131 150 0
145 165 0
135 154 0
144 163 0
148 169 0
146 168 0
145 164 0
143 162 0
143 164 0
142 161 0
130 148 0
143 163 0
149 169 0
137 157 0
148 168 0
143 164 0
145 164 0
150 169 0
146 165 0
142 160 0
150 170 0
150 170 0
147 166 0
140 159 0
147 166 0
147 165 0
142 160 0
143 163 0
142 159 0
148 167 0
135 153 0
151 170 0
146 165 0
150 167 0
141 160 0
145 162 0
148 166 0
139 158 0
147 164 0
142 161 0
147 165 0
147 165 0
136 153 0
145 162 0
146 163 0
147 166 0
139 155 0
151 170 0
141 159 0
141 159 0
143 161 0
144 160 0
144 161 0
144 161 0
139 153 0
144 160 0
141 157 0
154 170 0
143 159 0
143 159 0
137 152 0
144 160 0
147 164 0
149 165 0
138 152 0
141 156 0
143 161 0
140 153 0
143 159 0
149 165 0
142 159 0
142 157 0
139 154 0
147 160 0
139 153 0
134 146 0
144 158 0
144 159 0
144 160 0
141 156 0
145 159 0
147 160 0
142 155 0
138 152 0
149 163 0
141 155 0
142 153 0
139 152 0
149 163 0
147 158 0
147 159 0
143 152 0
149 161 0
144 156 0
147 158 0
144 157 0
148 159 0
144 158 0
148 159 0
146 156 0
143 156 0
152 163 0
137 148 0
144 154 0
145 155 0
145 158 0
145 156 0
139 147 0
139 148 0
145 154 0
143 151 0
146 155 0
148 160 0
148 156 0
143 151 0
141 153 0
151 161 0
146 158 0
138 146 0
141 149 0
139 145 0
153 161 0
149 156 0
138 146 0
147 156 0
148 158 0
143 149 0
147 153 0
148 156 0
149 161 0
143 151 0
143 150 0
155 162 0
150 158 0
150 156 0
144 151 0
147 158 0
147 154 0
149 157 0
146 153 0
142 151 0
154 161 0
145 152 0
152 159 0
147 157 0
142 147 0
153 161 0
149 159 0
153 162 0
152 162 0
150 158 0
142 150 0
154 160 0
149 158 0
150 158 0
155 161 0
148 154 0
155 165 0
147 157 0
155 164 0
155 166 0
143 152 0
150 161 0
154 164 0
154 164 0
146 153 0
149 161 0
175 195 0
175 196 0
173 195 0
175 196 0
177 198 0
172 193 0
172 193 0
173 195 0
173 194 0
171 193 0
172 193 0
172 192 0
174 195 0
178 198 0
173 194 0
173 193 0
173 194 0
172 194 0
173 195 0
170 192 0
173 194 0
167 188 0
171 191 0
172 193 0
171 192 0
173 193 0
171 193 0
173 193 0
171 192 0
168 189 0
171 190 0
162 183 0
172 192 0
170 191 0
171 192 0
170 191 0
166 187 0
171 193 0
168 189 0
171 192 0
168 189 0
171 191 0
171 191 0
167 187 0
168 189 0
165 186 0
171 192 0
167 188 0
169 190 0
169 189 0
166 188 0
171 192 0
165 187 0
163 185 0
171 191 0
168 188 0
165 187 0
168 190 0
164 185 0
163 183 0
170 192 0
162 183 0
167 188 0
167 187 0
159 180 0
165 186 0
162 183 0
160 182 0
164 186 0
163 184 0
166 187 0
166 187 0
162 183 0
163 184 0
161 183 0
163 185 0
159 181 0
162 183 0
158 179 0
159 182 0
161 182 0
159 180 0
157 179 0
160 182 0
159 180 0
159 181 0
160 181 0
160 181 0
158 181 0
162 184 0
156 179 0
160 181 0
160 182 0
152 175 0
160 181 0
159 181 0
157 179 0
157 178 0
160 182 0
159 180 0
161 183 0
158 181 0
158 180 0
158 181 0
154 176 0
157 179 0
157 180 0
157 179 0
147 170 0
159 181 0
156 177 0
159 182 0
148 170 0
155 178 0
162 185 0
156 179 0
154 176 0
156 178 0
161 183 0
156 178 0
157 180 0
149 172 0
160 182 0
154 175 0
155 177 0
154 177 0
158 180 0
149 172 0
153 175 0
150 173 0
158 180 0
157 179 0
147 169 0
156 179 0
151 172 0
155 178 0
151 174 0
152 174 0
152 175 0
147 169 0
154 176 0
157 180 0
150 173 0
150 172 0
153 175 0
154 176 0
154 176 0
145 166 0
151 173 0
151 173 0
142 164 0
154 176 0
149 172 0
149 171 0
144 166 0
151 172 0
148 171 0
149 171 0
149 171 0
145 166 0
147 169 0
147 169 0
142 163 0
149 171 0
146 167 0
139 161 0
144 166 0
150 172 0
146 168 0
146 168 0
148 171 0
146 168 0
139 161 0
143 164 0
147 169 0
143 165 0
138 161 0
142 163 0
134 156 0
144 164 0
153 174 0
148 169 0
142 164 0
144 166 0
140 161 0
144 165 0
145 166 0
153 175 0
142 162 0
152 173 0
153 175 0
145 167 0
141 162 0
143 163 0
140 162 0
135 156 0
139 161 0
151 173 0
146 167 0
145 165 0
147 168 0
141 160 0
140 161 0
141 162 0
147 167 0
147 169 0
136 158 0
143 164 0
143 163 0
143 163 0
145 165 0
143 163 0
143 163 0
151 171 0
138 160 0
147 167 0
136 157 0
130 150 0
142 163 0
140 159 0
140 161 0
143 162 0
138 158 0
144 162 0
145 166 0
138 160 0
144 163 0
144 165 0
137 156 0
146 167 0
142 162 0
145 164 0
137 157 0
137 157 0
150 170 0
149 170 0
138 157 0
141 159 0
140 158 0
149 170 0
141 161 0
139 160 0
140 157 0
144 164 0
143 163 0
151 171 0
144 162 0
142 161 0
137 156 0
147 166 0
147 166 0
142 160 0
139 158 0
141 161 0
143 161 0
143 163 0
150 170 0
146 165 0
142 161 0
141 160 0
143 162 0
142 160 0
145 164 0
146 166 0
144 163 0
144 163 0
154 171 0
148 166 0
140 160 0
142 162 0
142 161 0
146 164 0
145 164 0
139 155 0
142 160 0
148 165 0
140 158 0
145 164 0
142 160 0
141 159 0
144 162 0
145 162 0
138 156 0
138 155 0
142 157 0
142 159 0
143 160 0
149 165 0
148 163 0
146 164 0
146 164 0
139 155 0
147 163 0
137 153 0
146 162 0
150 168 0
149 165 0
144 162 0
141 157 0
138 154 0
148 167 0
152 169 0
149 165 0
151 166 0
149 164 0
144 160 0
143 156 0
142 156 0
151 166 0
151 168 0
138 153 0
139 151 0
138 151 0
136 148 0
143 155 0
141 153 0
144 159 0
139 151 0
147 161 0
141 155 0
147 161 0
138 150 0
141 155 0
144 157 0
148 158 0
147 160 0
140 152 0
136 148 0
142 154 0
141 153 0
145 155 0
150 160 0
146 156 0
141 151 0
152 163 0
145 157 0
148 158 0
145 154 0
142 154 0
144 156 0
139 149 0
146 155 0
143 152 0
149 160 0
148 159 0
150 157 0
147 156 0
150 160 0
147 159 0
146 155 0
139 147 0
145 155 0
145 156 0
150 159 0
148 158 0
153 163 0
147 156 0
141 147 0
145 151 0
150 158 0
143 150 0
147 155 0
153 160 0
150 158 0
141 149 0
144 152 0
145 154 0
147 158 0
150 160 0
138 143 0
147 155 0
150 159 0
144 150 0
152 162 0
142 149 0
150 160 0
150 161 0
146 155 0
144 151 0
150 161 0
153 160 0
147 155 0
149 158 0
151 159 0
152 159 0
146 154 0
147 155 0
151 159 0
149 158 0
153 163 0
150 159 0
158 166 0
158 167 0
158 168 0
151 163 0
148 159 0
155 166 0
155 166 0
155 166 0
153 163 0
174 196 0
172 193 0
171 193 0
171 193 0
173 195 0
173 194 0
172 193 0
176 197 0
173 194 0
173 194 0
171 192 0
168 191 0
178 198 0
174 195 0
170 192 0
172 193 0
170 191 0
172 193 0
168 189 0
171 192 0
172 193 0
174 196 0
166 187 0
171 192 0
171 192 0
170 192 0
174 194 0
169 190 0
172 193 0
173 193 0
173 194 0
171 192 0
167 188 0
173 194 0
172 193 0
169 190 0
168 189 0
167 188 0
169 190 0
171 191 0
171 192 0
169 190 0
165 186 0
170 191 0
172 193 0
169 190 0
168 189 0
170 190 0
165 186 0
163 185 0
166 187 0
168 189 0
166 188 0
167 187 0
162 183 0
167 189 0
165 187 0
166 187 0
165 186 0
167 188 0
164 186 0
164 185 0
165 186 0
165 186 0
165 187 0
162 184 0
169 190 0
166 188 0
162 182 0
156 178 0
168 190 0
151 173 0
166 188 0
160 180 0
161 183 0
164 186 0
164 185 0
156 179 0
166 188 0
163 185 0
161 183 0
165 187 0
160 183 0
156 178 0
159 181 0
166 189 0
161 183 0
159 181 0
157 180 0
157 178 0
158 180 0
155 174 0
156 178 0
153 175 0
155 177 0
160 182 0
158 179 0
162 185 0
156 178 0
157 179 0
158 179 0
156 177 0
158 180 0
151 173 0
161 184 0
153 175 0
156 177 0
155 177 0
153 176 0
154 176 0
151 173 0
151 173 0
152 174 0
157 179 0
159 180 0
155 177 0
153 176 0
159 180 0
151 173 0
151 173 0
156 178 0
149 171 0
152 174 0
155 178 0
152 174 0
152 174 0
159 181 0
147 170 0
157 178 0
151 173 0
149 171 0
154 176 0
157 180 0
154 176 0
154 177 0
149 171 0
154 175 0
153 175 0
154 176 0
150 173 0
141 164 0
147 167 0
149 171 0
154 177 0
154 177 0
157 179 0
151 173 0
151 172 0
145 168 0
152 174 0
154 176 0
157 180 0
156 178 0
149 170 0
156 179 0
154 175 0
149 171 0
152 174 0
144 165 0
142 164 0
152 174 0
149 170 0
146 168 0
149 172 0
149 172 0
148 168 0
145 167 0
148 169 0
131 153 0
153 173 0
153 176 0
148 170 0
149 172 0
144 165 0
147 170 0
147 168 0
142 162 0
135 157 0
146 168 0
149 170 0
142 162 0
148 170 0
147 169 0
152 173 0
136 158 0
152 173 0
147 169 0
147 169 0
141 163 0
139 159 0
143 163 0
150 172 0
142 164 0
149 170 0
149 170 0
143 162 0
147 167 0
138 159 0
141 162 0
139 160 0
149 170 0
143 165 0
146 166 0
135 156 0
139 160 0
145 165 0
139 159 0
143 163 0
140 160 0
152 174 0
145 166 0
144 166 0
137 158 0
140 161 0
147 167 0
149 171 0
142 164 0
150 171 0
142 163 0
135 155 0
149 170 0
146 165 0
146 165 0
152 173 0
144 165 0
143 164 0
145 166 0
139 160 0
148 169 0
153 173 0
146 165 0
145 164 0
143 163 0
138 157 0
149 169 0
141 162 0
139 160 0
143 162 0
142 163 0
136 155 0
150 170 0
147 168 0
145 164 0
147 166 0
139 160 0
140 160 0
144 164 0
151 172 0
147 166 0
143 162 0
144 164 0
147 166 0
139 158 0
145 163 0
138 157 0
142 161 0
147 164 0
143 162 0
146 167 0
142 162 0
148 166 0
145 164 0
149 170 0
142 159 0
141 160 0
146 165 0
139 158 0
144 163 0
143 160 0
146 165 0
136 153 0
151 168 0
142 160 0
148 167 0
151 171 0
152 171 0
161 180 0
147 165 0
143 161 0
138 154 0
145 163 0
148 166 0
136 151 0
151 167 0
140 157 0
148 164 0
145 162 0
141 158 0
143 161 0
142 158 0
146 163 0
141 157 0
152 171 0
148 164 0
139 153 0
146 163 0
151 167 0
144 157 0
143 158 0
145 161 0
148 164 0
145 161 0
149 164 0
140 155 0
143 157 0
146 159 0
151 165 0
149 163 0
148 164 0
144 158 0
145 160 0
152 167 0
143 159 0
151 165 0
142 156 0
147 160 0
149 163 0
149 161 0
146 161 0
152 164 0
139 152 0
150 166 0
136 151 0
155 169 0
145 160 0
152 165 0
143 154 0
148 160 0
139 150 0
150 160 0
140 152 0
150 163 0
152 165 0
140 152 0
138 151 0
143 154 0
144 155 0
149 162 0
136 145 0
144 154 0
134 144 0
145 154 0
143 151 0
143 151 0
149 162 0
150 162 0
148 159 0
143 153 0
141 150 0
146 156 0
141 152 0
144 153 0
146 157 0
145 155 0
150 162 0
145 154 0
151 162 0
142 152 0
146 156 0
144 153 0
148 159 0
154 166 0
155 164 0
153 160 0
146 155 0
143 153 0
149 159 0
147 157 0
142 148 0
148 158 0
147 153 0
145 153 0
153 163 0
153 160 0
150 160 0
149 160 0
152 163 0
153 164 0
148 159 0
147 156 0
146 154 0
153 164 0
151 159 0
157 168 0
142 151 0
148 157 0
154 164 0
151 160 0
153 162 0
156 168 0
156 166 0
161 176 0
148 156 0
146 155 0
152 164 0
147 156 0
156 165 0
156 166 0
156 166 0
150 159 0
171 192 0
174 195 0
175 197 0
175 196 0
169 191 0
173 195 0
168 189 0
169 190 0
175 196 0
173 195 0
176 197 0
173 195 0
174 196 0
169 190 0
175 196 0
169 191 0
171 191 0
174 195 0
174 194 0
168 189 0
171 192 0
167 189 0
172 193 0
171 192 0
170 191 0
172 193 0
173 194 0
171 193 0
170 191 0
173 194 0
171 192 0
175 196 0
167 189 0
171 192 0
173 194 0
171 192 0
174 195 0
168 189 0
172 193 0
170 191 0
169 189 0
166 187 0
170 191 0
170 192 0
169 190 0
165 187 0
165 187 0
168 189 0
162 184 0
163 185 0
166 188 0
165 186 0
166 187 0
164 185 0
165 187 0
165 187 0
169 190 0
169 190 0
163 184 0
168 190 0
167 188 0
160 182 0
166 188 0
161 184 0
163 185 0
164 185 0
165 186 0
162 184 0
166 188 0
159 181 0
165 187 0
154 176 0
158 180 0
162 184 0
156 179 0
157 179 0
163 185 0
160 182 0
164 186 0
168 190 0
163 185 0
158 180 0
159 181 0
167 189 0
163 185 0
163 184 0
161 183 0
161 183 0
157 178 0
156 179 0
163 184 0
163 185 0
151 174 0
155 177 0
163 184 0
156 179 0
161 184 0
161 183 0
153 174 0
152 174 0
152 174 0
166 188 0
154 176 0
159 181 0
168 190 0
159 182 0
159 181 0
162 183 0
154 176 0
155 177 0
156 178 0
160 181 0
154 176 0
153 175 0
154 177 0
156 178 0
152 175 0
152 174 0
152 175 0
156 179 0
158 180 0
155 178 0
154 176 0
159 182 0
153 176 0
155 177 0
155 177 0
153 176 0
152 175 0
150 172 0
152 174 0
155 179 0
153 176 0
150 173 0
151 173 0
159 181 0
158 180 0
148 172 0
157 180 0
154 176 0
160 183 0
153 175 0
161 184 0
149 170 0
147 170 0
150 171 0
151 174 0
158 181 0
147 169 0
157 180 0
157 179 0
150 171 0
142 162 0
150 173 0
148 170 0
140 162 0
156 177 0
142 164 0
155 178 0
150 172 0
152 174 0
147 169 0
150 172 0
145 167 0
150 172 0
147 168 0
151 173 0
148 171 0
153 175 0
144 166 0
146 168 0
148 170 0
143 165 0
146 168 0
143 165 0
147 168 0
145 167 0
154 177 0
152 175 0
143 164 0
147 169 0
148 170 0
141 162 0
141 162 0
143 166 0
141 163 0
157 178 0
139 161 0
146 168 0
141 162 0
142 165 0
154 176 0
143 164 0
146 168 0
144 164 0
143 165 0
149 170 0
143 165 0
144 165 0
148 169 0
146 167 0
145 166 0
141 162 0
145 166 0
144 165 0
140 161 0
148 169 0
145 167 0
136 157 0
139 160 0
142 163 0
146 167 0
153 175 0
147 168 0
138 158 0
137 157 0
147 168 0
143 164 0
148 170 0
144 164 0
141 162 0
144 165 0
140 162 0
142 163 0
144 165 0
144 164 0
141 160 0
139 158 0
144 164 0
141 162 0
143 163 0
142 163 0
143 162 0
145 166 0
150 170 0
140 159 0
144 165 0
153 174 0
145 165 0
145 165 0
140 159 0
137 156 0
147 165 0
142 162 0
139 159 0
145 166 0
147 166 0
144 165 0
144 164 0
140 160 0
148 167 0
143 162 0
146 166 0
146 167 0
142 162 0
146 164 0
151 172 0
144 165 0
142 161 0
142 161 0
144 164 0
151 171 0
142 160 0
141 160 0
153 172 0
151 170 0
143 161 0
150 170 0
147 164 0
147 165 0
144 161 0
142 160 0
147 167 0
147 164 0
145 164 0
138 156 0
140 160 0
148 167 0
144 164 0
150 169 0
155 174 0
152 171 0
141 160 0
150 167 0
143 162 0
146 165 0
144 162 0
152 168 0
137 154 0
151 170 0
146 163 0
144 160 0
148 166 0
139 155 0
146 163 0
148 164 0
152 169 0
148 165 0
144 158 0
145 161 0
141 158 0
148 163 0
144 161 0
147 165 0
146 160 0
145 161 0
145 160 0
148 164 0
147 165 0
147 164 0
147 162 0
145 160 0
149 167 0
146 161 0
147 159 0
139 153 0
144 158 0
155 170 0
150 165 0
145 158 0
153 166 0
145 161 0
155 171 0
142 156 0
146 161 0
146 159 0
149 163 0
144 158 0
137 151 0
148 163 0
139 152 0
150 165 0
144 156 0
143 156 0
135 146 0
150 161 0
149 160 0
139 151 0
142 155 0
146 158 0
144 152 0
148 159 0
144 158 0
149 162 0
149 161 0
147 160 0
143 155 0
143 155 0
150 160 0
134 145 0
141 151 0
146 155 0
147 157 0
141 147 0
146 155 0
148 157 0
141 153 0
142 149 0
140 150 0
153 162 0
149 160 0
145 156 0
154 164 0
146 155 0
139 147 0
145 154 0
151 158 0
147 157 0
153 162 0
153 164 0
146 154 0
154 163 0
147 157 0
151 161 0
150 160 0
149 159 0
151 158 0
149 159 0
148 156 0
151 161 0
145 152 0
146 151 0
147 157 0
148 160 0
147 155 0
152 165 0
157 168 0
151 161 0
152 162 0
155 166 0
150 159 0
156 167 0
152 159 0
148 158 0
155 166 0
154 166 0
152 163 0
161 174 0
157 168 0
152 165 0
175 196 0
176 197 0
173 193 0
169 190 0
173 194 0
172 193 0
173 195 0
173 195 0
173 194 0
175 196 0
174 195 0
174 195 0
176 198 0
167 190 0
172 194 0
171 191 0
172 194 0
174 195 0
176 196 0
171 192 0
175 196 0
168 189 0
170 192 0
172 193 0
166 188 0
168 188 0
167 188 0
173 194 0
169 190 0
170 191 0
168 190 0
172 192 0
170 191 0
166 188 0
170 191 0
173 194 0
170 190 0
170 191 0
171 193 0
170 192 0
167 188 0
169 190 0
162 183 0
171 192 0
164 186 0
169 190 0
173 194 0
164 185 0
164 186 0
166 187 0
166 188 0
165 186 0
163 184 0
160 181 0
160 181 0
164 185 0
158 179 0
167 189 0
166 188 0
169 191 0
166 188 0
169 190 0
168 189 0
164 185 0
161 183 0
160 182 0
163 186 0
163 183 0
165 187 0
166 188 0
166 188 0
165 187 0
161 183 0
160 181 0
159 182 0
161 183 0
160 181 0
160 182 0
163 185 0
163 185 0
164 186 0
168 189 0
159 181 0
161 183 0
166 189 0
165 187 0
158 180 0
157 179 0
156 178 0
156 178 0
160 182 0
162 184 0
160 182 0
160 181 0
155 178 0
158 180 0
161 183 0
167 190 0
156 178 0
159 181 0
157 180 0
157 179 0
155 178 0
159 182 0
157 179 0
151 173 0
146 169 0
153 176 0
156 179 0
159 180 0
161 182 0
159 181 0
162 184 0
158 181 0
155 177 0
162 184 0
156 179 0
156 179 0
156 178 0
161 184 0
162 185 0
154 176 0
155 177 0
155 177 0
154 177 0
156 180 0
157 179 0
156 179 0
154 177 0
157 179 0
147 170 0
153 174 0
158 181 0
150 172 0
153 175 0
150 172 0
155 177 0
150 173 0
151 172 0
139 161 0
159 181 0
150 172 0
153 175 0
154 176 0
148 171 0
144 167 0
155 177 0
148 169 0
154 177 0
150 172 0
148 170 0
151 174 0
151 173 0
151 172 0
151 174 0
149 172 0
150 173 0
145 168 0
147 170 0
154 176 0
154 176 0
150 173 0
147 170 0
151 174 0
150 173 0
159 181 0
145 167 0
151 173 0
146 168 0
151 173 0
151 173 0
150 172 0
141 163 0
141 162 0
150 173 0
146 168 0
142 161 0
146 167 0
151 172 0
140 163 0
145 167 0
144 166 0
156 178 0
152 173 0
142 164 0
137 159 0
145 167 0
143 164 0
149 171 0
144 165 0
151 173 0
143 165 0
151 173 0
148 170 0
145 166 0
142 163 0
153 175 0
146 167 0
146 166 0
139 161 0
143 165 0
143 165 0
146 168 0
147 169 0
140 161 0
149 169 0
135 156 0
143 165 0
144 164 0
151 172 0
155 176 0
148 169 0
140 161 0
149 170 0
144 165 0
147 168 0
152 174 0
149 170 0
137 157 0
146 167 0
145 167 0
142 162 0
140 159 0
150 171 0
151 173 0
144 165 0
141 159 0
144 164 0
148 169 0
144 164 0
148 169 0
149 169 0
143 164 0
141 162 0
142 163 0
141 160 0
144 164 0
149 169 0
143 162 0
138 158 0
146 166 0
147 167 0
143 162 0
141 161 0
149 168 0
150 169 0
152 173 0
144 164 0
142 161 0
148 170 0
134 153 0
148 169 0
145 163 0
145 165 0
145 166 0
145 165 0
149 167 0
151 169 0
149 168 0
148 168 0
142 160 0
144 163 0
145 165 0
142 161 0
146 164 0
150 169 0
148 166 0
148 166 0
149 169 0
149 168 0
136 155 0
136 151 0
147 167 0
154 174 0
146 165 0
151 168 0
151 172 0
146 165 0
148 166 0
146 164 0
146 163 0
152 170 0
142 160 0
150 168 0
145 162 0
141 159 0
145 164 0
151 170 0
152 171 0
139 154 0
150 169 0
144 160 0
148 165 0
144 162 0
148 165 0
148 167 0
151 168 0
145 163 0
144 161 0
146 163 0
142 158 0
148 166 0
147 164 0
145 163 0
145 159 0
142 156 0
152 168 0
139 156 0
137 153 0
145 160 0
149 163 0
143 158 0
143 158 0
147 161 0
146 162 0
145 160 0
147 162 0
148 163 0
152 166 0
138 149 0
147 163 0
144 159 0
150 164 0
151 166 0
152 166 0
151 165 0
141 154 0
148 160 0
142 155 0
143 156 0
148 161 0
151 163 0
142 153 0
136 149 0
153 168 0
148 158 0
150 162 0
149 162 0
150 161 0
144 156 0
148 159 0
144 156 0
155 168 0
145 158 0
155 169 0
147 158 0
147 156 0
150 161 0
151 162 0
148 161 0
155 169 0
141 148 0
141 154 0
146 160 0
140 148 0
147 156 0
146 156 0
147 157 0
148 157 0
142 151 0
141 151 0
150 163 0
143 154 0
156 167 0
146 155 0
153 162 0
142 147 0
153 166 0
152 160 0
147 157 0
145 156 0
148 157 0
147 156 0
156 168 0
151 159 0
152 164 0
145 151 0
148 159 0
154 167 0
154 164 0
156 169 0
151 160 0
149 159 0
154 165 0
151 160 0
154 164 0
150 158 0
159 168 0
147 155 0
161 170 0
155 166 0
157 170 0
154 163 0
150 160 0
155 165 0
153 163 0
156 167 0
153 163 0
157 171 0
151 158 0
172 193 0
173 194 0
172 194 0
171 192 0
175 195 0
173 195 0
173 195 0
172 193 0
167 188 0
171 192 0
170 192 0
173 194 0
173 195 0
174 194 0
174 195 0
171 192 0
170 192 0
169 190 0
174 195 0
172 193 0
172 192 0
172 193 0
170 191 0
174 196 0
173 194 0
171 192 0
171 193 0
169 189 0
163 185 0
167 188 0
174 196 0
165 187 0
171 192 0
172 193 0
170 191 0
170 192 0
170 191 0
171 192 0
168 189 0
165 186 0
167 189 0
167 188 0
167 188 0
160 180 0
165 185 0
169 190 0
170 191 0
166 187 0
167 189 0
167 188 0
164 185 0
162 184 0
166 188 0
165 187 0
165 186 0
164 187 0
164 186 0
160 182 0
163 185 0
164 187 0
159 180 0
162 184 0
163 185 0
169 191 0
161 184 0
167 189 0
165 187 0
165 187 0
161 183 0
159 181 0
160 181 0
162 184 0
164 186 0
168 190 0
164 187 0
166 188 0
166 188 0
159 181 0
161 184 0
164 186 0
170 193 0
158 181 0
160 182 0
157 179 0
164 187 0
160 181 0
164 186 0
160 182 0
161 183 0
160 183 0
154 176 0
155 177 0
160 182 0
160 181 0
159 182 0
151 174 0
161 184 0
165 186 0
156 178 0
158 181 0
153 175 0
160 182 0
160 182 0
157 178 0
155 178 0
157 179 0
156 178 0
162 185 0
155 177 0
152 174 0
154 176 0
166 188 0
157 179 0
160 183 0
159 181 0
153 175 0
159 180 0
158 180 0
153 176 0
160 182 0
154 176 0
153 175 0
158 180 0
149 171 0
153 175 0
154 176 0
155 178 0
154 176 0
160 182 0
151 174 0
155 177 0
147 170 0
146 169 0
160 182 0
151 173 0
157 180 0
156 179 0
156 177 0
156 179 0
151 173 0
155 177 0
155 177 0
149 171 0
156 179 0
147 169 0
152 175 0
158 179 0
152 174 0
144 166 0
154 177 0
155 177 0
151 173 0
147 170 0
154 177 0
151 173 0
155 177 0
150 173 0
152 174 0
146 169 0
144 166 0
157 179 0
149 171 0
130 151 0
151 173 0
151 174 0
154 176 0
148 170 0
145 167 0
149 171 0
148 170 0
151 172 0
153 175 0
146 168 0
147 169 0
154 176 0
150 172 0
147 169 0
151 172 0
151 171 0
145 165 0
150 171 0
141 162 0
143 166 0
148 169 0
147 169 0
144 166 0
139 160 0
143 165 0
149 170 0
141 162 0
145 167 0
153 175 0
146 167 0
146 167 0
141 163 0
151 174 0
141 163 0
149 169 0
149 171 0
149 171 0
147 168 0
148 169 0
146 167 0
147 168 0
146 167 0
142 164 0
145 165 0
149 171 0
144 165 0
150 171 0
145 166 0
148 170 0
141 163 0
138 158 0
153 174 0
142 161 0
143 165 0
142 162 0
146 167 0
140 161 0
146 166 0
149 171 0
152 172 0
143 162 0
148 168 0
144 164 0
148 168 0
151 172 0
154 175 0
143 163 0
137 155 0
144 163 0
143 164 0
148 168 0
145 166 0
141 160 0
144 163 0
149 169 0
142 162 0
145 166 0
146 166 0
148 170 0
150 170 0
136 156 0
146 166 0
149 169 0
145 163 0
146 166 0
144 165 0
151 172 0
150 170 0
140 159 0
145 163 0
147 168 0
145 166 0
152 170 0
144 164 0
150 170 0
147 166 0
152 173 0
149 167 0
139 158 0
139 159 0
144 162 0
146 164 0
139 158 0
143 163 0
140 159 0
141 160 0
150 170 0
145 163 0
144 162 0
141 160 0
141 159 0
145 164 0
150 166 0
143 162 0
140 157 0
143 161 0
153 172 0
154 173 0
150 168 0
144 162 0
151 168 0
148 166 0
140 160 0
142 162 0
149 168 0
140 157 0
144 162 0
155 172 0
146 164 0
145 162 0
141 157 0
150 166 0
151 169 0
147 165 0
147 166 0
153 170 0
151 168 0
146 163 0
146 162 0
146 162 0
153 169 0
152 169 0
144 159 0
147 162 0
148 162 0
146 164 0
148 163 0
148 164 0
142 158 0
152 166 0
155 169 0
143 158 0
145 161 0
148 164 0
148 162 0
142 157 0
144 156 0
147 161 0
151 166 0
146 160 0
146 161 0
144 158 0
154 166 0
145 161 0
144 158 0
143 156 0
149 164 0
147 159 0
142 155 0
145 160 0
151 164 0
152 165 0
154 168 0
146 157 0
143 156 0
150 162 0
148 160 0
144 157 0
148 160 0
146 159 0
150 163 0
145 156 0
143 155 0
148 161 0
143 153 0
150 163 0
144 152 0
147 159 0
156 171 0
149 159 0
155 169 0
155 164 0
147 160 0
151 160 0
152 162 0
148 161 0
145 157 0
148 159 0
148 157 0
143 155 0
151 161 0
152 164 0
146 157 0
148 157 0
155 166 0
148 159 0
155 168 0
146 157 0
159 171 0
152 162 0
149 160 0
153 163 0
151 163 0
152 162 0
155 166 0
148 159 0
149 159 0
150 162 0
155 165 0
151 160 0
145 156 0
152 161 0
154 165 0
145 157 0
150 160 0
160 168 0
151 162 0
157 168 0
144 155 0
155 167 0
154 163 0
158 168 0
152 162 0
154 166 0
155 164 0
159 170 0
155 165 0
174 197 0
167 188 0
176 196 0
174 196 0
172 194 0
168 189 0
171 193 0
173 194 0
170 191 0
172 193 0
170 191 0
174 194 0
173 195 0
169 190 0
168 189 0
172 192 0
170 191 0
173 195 0
174 196 0
169 189 0
164 186 0
172 193 0
167 188 0
172 193 0
169 190 0
173 193 0
168 190 0
175 195 0
168 189 0
163 185 0
167 190 0
165 186 0
168 189 0
172 193 0
168 191 0
165 187 0
170 192 0
170 192 0
172 194 0
168 190 0
166 188 0
164 185 0
169 191 0
166 186 0
170 192 0
165 186 0
165 186 0
166 188 0
169 191 0
161 183 0
167 189 0
164 185 0
162 183 0
169 190 0
169 190 0
169 191 0
167 189 0
168 188 0
169 190 0
160 182 0
158 180 0
160 181 0
161 184 0
166 188 0
157 178 0
160 182 0
161 183 0
168 189 0
162 184 0
163 184 0
161 184 0
165 188 0
162 184 0
164 186 0
165 187 0
161 182 0
162 184 0
161 183 0
165 187 0
158 180 0
163 186 0
161 183 0
156 179 0
163 185 0
158 179 0
155 177 0
153 175 0
162 184 0
158 181 0
157 180 0
160 183 0
159 182 0
154 175 0
151 172 0
163 185 0
156 179 0
154 178 0
157 179 0
163 185 0
158 180 0
157 180 0
163 185 0
157 179 0
163 185 0
159 182 0
160 182 0
156 177 0
154 178 0
156 179 0
153 177 0
156 179 0
160 182 0
162 185 0
151 173 0
149 171 0
152 175 0
160 183 0
152 175 0
157 181 0
154 177 0
156 179 0
158 181 0
154 176 0
156 178 0
148 170 0
159 180 0
162 185 0
150 172 0
148 170 0
154 176 0
162 185 0
150 173 0
156 178 0
155 177 0
157 179 0
153 176 0
155 177 0
149 171 0
157 181 0
155 178 0
155 177 0
144 166 0
161 181 0
155 176 0
151 173 0
150 173 0
153 175 0
151 174 0
151 174 0
147 168 0
151 173 0
153 174 0
148 170 0
159 181 0
152 175 0
154 176 0
157 179 0
147 169 0
141 164 0
144 165 0
147 169 0
153 174 0
139 159 0
149 170 0
144 166 0
152 174 0
152 175 0
156 179 0
148 170 0
161 183 0
147 169 0
152 175 0
152 174 0
148 170 0
155 178 0
156 178 0
149 170 0
150 171 0
151 172 0
138 160 0
154 175 0
145 167 0
150 172 0
152 173 0
140 162 0
151 174 0
148 169 0
150 171 0
150 172 0
150 171 0
149 171 0
159 180 0
142 163 0
146 167 0
142 164 0
151 173 0
148 170 0
146 166 0
146 166 0
135 157 0
147 167 0
138 157 0
148 169 0
151 172 0
149 171 0
143 165 0
141 162 0
150 171 0
145 165 0
146 168 0
145 165 0
133 154 0
142 163 0
145 166 0
144 166 0
140 160 0
140 162 0
142 163 0
145 167 0
146 166 0
151 172 0
146 166 0
142 162 0
150 173 0
145 167 0
146 168 0
145 165 0
145 165 0
144 165 0
143 162 0
150 171 0
145 166 0
144 164 0
142 163 0
139 160 0
144 163 0
142 164 0
146 166 0
148 168 0
144 166 0
137 156 0
150 171 0
146 166 0
141 159 0
145 165 0
146 166 0
151 173 0
143 163 0
148 169 0
141 160 0
141 160 0
146 167 0
138 157 0
134 153 0
146 164 0
146 165 0
142 163 0
149 170 0
148 167 0
146 165 0
142 162 0
143 163 0
136 156 0
150 171 0
145 164 0
149 168 0
152 173 0
151 168 0
144 163 0
144 163 0
154 174 0
147 168 0
150 168 0
152 170 0
150 168 0
144 163 0
146 165 0
146 164 0
144 163 0
143 161 0
146 164 0
145 164 0
150 169 0
153 170 0
150 169 0
147 166 0
146 163 0
148 166 0
145 164 0
145 163 0
153 171 0
146 164 0
153 171 0
144 161 0
140 156 0
158 174 0
151 170 0
146 164 0
143 160 0
151 168 0
141 159 0
143 159 0
146 162 0
135 151 0
141 156 0
141 156 0
141 155 0
146 162 0
146 161 0
153 172 0
152 170 0
145 161 0
148 165 0
149 167 0
146 163 0
149 165 0
147 162 0
141 155 0
150 165 0
157 175 0
153 167 0
145 158 0
147 162 0
137 154 0
149 163 0
155 172 0
150 164 0
151 168 0
147 162 0
149 164 0
151 164 0
155 172 0
144 157 0
152 163 0
147 161 0
145 159 0
144 158 0
156 172 0
141 154 0
148 163 0
150 164 0
143 153 0
155 171 0
151 166 0
152 163 0
139 151 0
150 162 0
153 166 0
152 164 0
151 162 0
154 165 0
147 158 0
151 165 0
153 166 0
143 151 0
137 147 0
148 159 0
147 159 0
148 159 0
147 157 0
154 167 0
151 163 0
144 155 0
155 165 0
148 159 0
148 159 0
146 155 0
151 162 0
144 152 0
147 157 0
145 154 0
152 162 0
156 168 0
154 163 0
154 165 0
154 165 0
152 163 0
152 164 0
148 157 0
148 160 0
154 163 0
152 162 0
148 159 0
154 165 0
154 165 0
149 158 0
158 170 0
144 154 0
150 160 0
155 168 0
154 163 0
152 162 0
155 167 0
146 156 0
153 161 0
151 161 0
154 166 0
152 160 0
156 164 0
153 165 0
173 194 0
173 194 0
173 194 0
171 192 0
167 189 0
175 196 0
176 198 0
172 194 0
166 188 0
173 195 0
170 192 0
172 194 0
171 193 0
172 192 0
170 192 0
172 194 0
175 197 0
165 186 0
166 188 0
170 192 0
168 189 0
174 196 0
174 195 0
170 191 0
170 191 0
169 191 0
170 192 0
174 193 0
170 191 0
172 194 0
174 195 0
171 192 0
164 186 0
166 187 0
172 194 0
170 192 0
167 188 0
171 193 0
172 194 0
168 190 0
165 188 0
169 191 0
169 191 0
164 186 0
165 186 0
163 184 0
166 187 0
161 182 0
163 185 0
162 184 0
164 187 0
165 188 0
168 190 0
161 183 0
162 184 0
161 183 0
158 180 0
157 177 0
166 187 0
165 188 0
165 188 0
163 185 0
165 187 0
171 192 0
168 190 0
158 180 0
160 181 0
166 188 0
162 183 0
162 183 0
164 185 0
161 184 0
169 192 0
160 181 0
163 186 0
162 185 0
158 181 0
167 189 0
165 187 0
156 179 0
159 182 0
155 177 0
165 187 0
157 180 0
156 178 0
162 183 0
163 186 0
161 183 0
162 185 0
157 179 0
153 174 0
167 189 0
162 185 0
160 182 0
160 182 0
154 176 0
165 187 0
157 179 0
154 177 0
150 173 0
160 183 0
158 180 0
155 177 0
156 179 0
165 188 0
159 182 0
157 180 0
152 174 0
161 184 0
157 179 0
161 182 0
151 174 0
151 173 0
153 174 0
154 177 0
155 177 0
155 178 0
156 179 0
158 180 0
153 173 0
155 177 0
140 163 0
157 180 0
152 176 0
158 181 0
151 173 0
156 179 0
153 175 0
154 176 0
149 172 0
155 178 0
153 175 0
159 182 0
155 178 0
158 182 0
159 181 0
154 175 0
152 173 0
159 181 0
150 172 0
156 178 0
148 170 0
151 174 0
153 174 0
149 170 0
156 177 0
146 168 0
150 171 0
153 176 0
149 171 0
153 175 0
150 173 0
147 169 0
148 171 0
155 178 0
149 172 0
146 167 0
152 173 0
140 160 0
151 173 0
149 171 0
152 175 0
152 174 0
152 174 0
143 164 0
151 174 0
153 175 0
152 174 0
151 171 0
154 175 0
146 169 0
146 168 0
144 165 0
154 174 0
148 170 0
145 166 0
147 168 0
147 168 0
147 168 0
138 160 0
148 169 0
147 169 0
141 164 0
152 174 0
146 167 0
149 170 0
139 159 0
143 164 0
147 168 0
142 164 0
139 159 0
143 165 0
153 175 0
132 152 0
151 172 0
146 168 0
151 172 0
147 169 0
150 171 0
149 171 0
151 172 0
147 169 0
138 157 0
143 165 0
141 162 0
139 160 0
143 165 0
154 176 0
155 175 0
148 169 0
138 159 0
147 169 0
148 169 0
146 167 0
156 177 0
153 173 0
151 173 0
152 172 0
143 164 0
152 173 0
149 170 0
146 166 0
148 169 0
145 167 0
146 167 0
138 158 0
147 167 0
146 166 0
140 161 0
141 162 0
144 164 0
144 165 0
144 165 0
139 160 0
150 170 0
145 166 0
158 178 0
153 173 0
142 162 0
146 166 0
148 168 0
152 173 0
146 167 0
144 163 0
142 163 0
143 163 0
149 168 0
154 175 0
144 167 0
146 167 0
146 167 0
147 167 0
155 174 0
141 160 0
142 161 0
141 161 0
148 168 0
138 157 0
151 169 0
135 155 0
146 165 0
145 164 0
147 166 0
139 160 0
151 171 0
147 167 0
151 169 0
149 169 0
134 151 0
155 174 0
147 167 0
148 168 0
155 174 0
136 154 0
142 158 0
145 166 0
145 165 0
147 165 0
147 167 0
144 162 0
149 169 0
150 167 0
146 165 0
141 157 0
154 171 0
150 168 0
145 164 0
142 160 0
144 161 0
143 160 0
145 164 0
146 162 0
143 161 0
144 161 0
148 165 0
144 160 0
147 164 0
148 164 0
150 169 0
151 169 0
150 166 0
150 168 0
149 166 0
152 170 0
154 170 0
148 164 0
150 168 0
148 167 0
141 158 0
150 169 0
143 159 0
147 162 0
148 165 0
153 169 0
145 163 0
153 169 0
142 158 0
148 162 0
153 166 0
146 160 0
148 165 0
143 159 0
152 170 0
148 164 0
155 170 0
143 157 0
146 159 0
151 162 0
150 165 0
142 155 0
143 155 0
151 164 0
153 167 0
154 168 0
145 158 0
151 165 0
144 158 0
147 160 0
151 166 0
145 160 0
147 160 0
138 149 0
146 159 0
148 161 0
151 165 0
144 155 0
147 160 0
150 162 0
147 161 0
153 165 0
145 156 0
150 163 0
151 161 0
146 158 0
152 165 0
144 156 0
154 163 0
146 158 0
149 160 0
152 164 0
154 166 0
154 164 0
148 158 0
151 164 0
147 156 0
156 167 0
154 164 0
150 161 0
146 157 0
145 156 0
151 164 0
149 160 0
152 159 0
150 160 0
148 160 0
159 172 0
144 153 0
142 152 0
155 165 0
154 166 0
151 162 0
148 157 0
152 161 0
149 159 0
146 153 0
151 163 0
155 167 0
148 159 0
154 167 0
148 158 0
155 166 0
157 169 0
161 175 0
150 159 0
142 151 0
160 170 0
157 170 0
157 167 0
153 163 0
156 167 0
169 190 0
170 192 0
171 193 0
174 196 0
173 195 0
176 198 0
170 192 0
170 191 0
171 194 0
172 194 0
171 194 0
170 191 0
172 193 0
168 189 0
170 191 0
170 192 0
171 193 0
168 190 0
176 197 0
172 193 0
171 192 0
172 194 0
166 187 0
168 190 0
172 193 0
170 192 0
170 191 0
171 192 0
170 192 0
172 194 0
174 194 0
168 189 0
168 188 0
166 188 0
170 191 0
170 192 0
167 188 0
169 190 0
168 190 0
169 191 0
166 188 0
165 188 0
169 191 0
169 192 0
172 193 0
168 189 0
164 186 0
166 187 0
167 188 0
162 184 0
159 180 0
166 188 0
167 188 0
162 184 0
165 188 0
160 182 0
163 185 0
167 189 0
162 183 0
165 188 0
160 181 0
167 189 0
164 187 0
168 190 0
160 182 0
157 179 0
161 183 0
162 184 0
161 182 0
167 189 0
162 184 0
163 186 0
158 180 0
166 188 0
164 186 0
163 185 0
161 184 0
160 182 0
158 181 0
148 170 0
157 180 0
164 187 0
157 180 0
157 180 0
160 182 0
165 188 0
156 178 0
161 183 0
160 182 0
159 180 0
155 177 0
161 183 0
159 183 0
160 182 0
156 178 0
161 182 0
154 176 0
163 186 0
159 182 0
160 182 0
163 185 0
157 179 0
148 170 0
157 180 0
160 183 0
157 178 0
159 182 0
159 182 0
158 181 0
158 181 0
157 180 0
160 182 0
160 182 0
149 171 0
157 179 0
152 175 0
158 180 0
154 176 0
153 174 0
155 178 0
154 176 0
156 178 0
162 185 0
159 182 0
157 179 0
142 164 0
158 180 0
150 173 0
151 173 0
155 177 0
159 181 0
157 179 0
156 179 0
154 177 0
147 169 0
156 178 0
157 180 0
157 179 0
154 175 0
158 181 0
155 179 0
147 169 0
156 179 0
157 179 0
152 174 0
150 173 0
155 177 0
154 176 0
157 180 0
154 177 0
154 176 0
153 176 0
154 177 0
150 171 0
148 170 0
155 178 0
146 169 0
146 166 0
150 173 0
149 171 0
153 174 0
155 178 0
152 174 0
151 174 0
151 173 0
151 172 0
147 170 0
147 168 0
152 174 0
151 173 0
148 171 0
150 173 0
156 179 0
154 175 0
153 175 0
147 169 0
149 169 0
143 166 0
147 169 0
146 169 0
160 182 0
156 178 0
150 171 0
147 167 0
145 164 0
141 163 0
141 163 0
144 166 0
148 169 0
148 170 0
150 171 0
144 164 0
144 164 0
145 165 0
155 177 0
150 170 0
153 174 0
149 169 0
144 165 0
150 171 0
147 168 0
138 160 0
149 171 0
147 169 0
151 173 0
145 166 0
151 172 0
149 170 0
144 166 0
141 161 0
148 168 0
157 179 0
151 170 0
146 168 0
151 172 0
151 172 0
148 169 0
141 163 0
149 169 0
140 161 0
147 168 0
144 165 0
144 165 0
148 169 0
147 169 0
143 165 0
146 166 0
145 164 0
148 169 0
142 163 0
140 159 0
144 163 0
146 167 0
140 161 0
139 158 0
143 163 0
141 160 0
151 171 0
150 170 0
146 167 0
145 166 0
140 161 0
140 160 0
145 165 0
145 167 0
143 161 0
151 172 0
148 168 0
145 166 0
145 165 0
152 174 0
144 164 0
147 165 0
146 166 0
148 168 0
144 164 0
152 171 0
151 171 0
146 166 0
141 160 0
149 170 0
149 170 0
144 162 0
149 169 0
149 169 0
150 170 0
146 165 0
142 160 0
154 174 0
137 156 0
142 162 0
148 167 0
151 170 0
141 160 0
148 168 0
146 163 0
141 159 0
143 160 0
145 164 0
145 164 0
146 165 0
143 160 0
145 164 0
152 172 0
145 164 0
139 157 0
148 166 0
158 177 0
148 164 0
153 172 0
150 169 0
153 170 0
155 174 0
148 165 0
150 168 0
144 161 0
146 163 0
141 158 0
154 172 0
143 159 0
146 163 0
152 169 0
152 168 0
145 162 0
155 173 0
154 169 0
150 168 0
147 163 0
148 165 0
149 165 0
152 168 0
148 165 0
149 165 0
147 162 0
142 157 0
152 165 0
149 165 0
156 174 0
148 161 0
150 166 0
152 167 0
150 164 0
143 156 0
148 164 0
149 164 0
145 159 0
147 163 0
149 164 0
149 164 0
145 157 0
147 164 0
145 161 0
148 161 0
144 155 0
148 164 0
152 166 0
148 162 0
144 158 0
143 156 0
149 160 0
144 156 0
145 158 0
155 168 0
140 151 0
146 160 0
149 162 0
151 162 0
152 165 0
151 165 0
143 155 0
151 165 0
146 159 0
140 151 0
149 162 0
142 154 0
144 155 0
144 155 0
144 154 0
139 148 0
143 156 0
138 148 0
147 158 0
143 153 0
152 160 0
155 168 0
157 168 0
155 169 0
148 159 0
146 158 0
146 157 0
154 163 0
153 165 0
157 167 0
147 161 0
151 162 0
152 162 0
150 159 0
159 169 0
151 164 0
154 163 0
156 169 0
154 166 0
147 155 0
149 159 0
157 169 0
147 159 0
156 166 0
151 162 0
148 158 0
157 168 0
156 169 0
150 158 0
153 163 0
155 167 0
153 163 0
155 168 0
153 165 0
156 166 0
157 170 0
156 168 0
172 193 0
173 194 0
171 192 0
171 193 0
170 191 0
174 196 0
173 194 0
170 191 0
172 193 0
168 190 0
167 189 0
172 194 0
171 192 0
172 194 0
168 190 0
168 190 0
165 187 0
172 194 0
172 194 0
171 193 0
169 191 0
173 195 0
166 188 0
168 189 0
170 191 0
171 193 0
166 187 0
171 193 0
166 188 0
170 191 0
168 188 0
171 191 0
169 191 0
168 191 0
164 186 0
170 191 0
166 188 0
168 190 0
168 190 0
168 189 0
166 188 0
164 185 0
161 183 0
168 189 0
169 190 0
163 185 0
165 187 0
163 186 0
165 187 0
167 188 0
160 182 0
163 185 0
164 187 0
163 185 0
165 186 0
168 189 0
162 185 0
165 187 0
161 183 0
165 188 0
165 187 0
166 187 0
163 185 0
168 189 0
163 185 0
160 183 0
161 182 0
155 177 0
167 189 0
157 179 0
164 185 0
163 184 0
168 190 0
163 185 0
164 186 0
160 182 0
162 185 0
156 177 0
161 184 0
158 180 0
165 188 0
160 183 0
161 184 0
163 186 0
161 184 0
159 182 0
162 184 0
163 186 0
164 187 0
159 181 0
154 176 0
157 179 0
155 178 0
160 180 0
156 178 0
158 180 0
160 182 0
160 183 0
154 176 0
163 186 0
162 184 0
152 175 0
156 179 0
153 175 0
159 182 0
157 179 0
155 178 0
160 182 0
159 182 0
153 176 0
156 179 0
153 177 0
158 181 0
157 180 0
159 182 0
155 177 0
159 181 0
159 182 0
158 181 0
158 182 0
154 177 0
159 181 0
158 181 0
151 172 0
155 178 0
149 172 0
154 176 0
156 179 0
154 176 0
157 179 0
151 174 0
150 171 0
157 180 0
163 186 0
153 176 0
154 177 0
152 174 0
142 163 0
151 174 0
153 173 0
152 174 0
145 167 0
149 171 0
151 173 0
154 176 0
157 179 0
146 167 0
156 177 0
150 173 0
155 179 0
151 175 0
148 170 0
149 172 0
148 170 0
147 169 0
155 177 0
149 171 0
145 167 0
149 171 0
146 169 0
148 171 0
150 172 0
149 171 0
155 178 0
145 168 0
150 172 0
151 173 0
147 168 0
153 175 0
148 170 0
146 169 0
153 174 0
154 176 0
158 180 0
145 168 0
146 167 0
147 168 0
151 174 0
149 172 0
149 170 0
141 162 0
147 169 0
146 168 0
150 171 0
146 168 0
150 172 0
144 166 0
154 177 0
150 171 0
151 174 0
151 173 0
154 174 0
140 161 0
144 165 0
148 169 0
154 177 0
145 166 0
146 167 0
152 172 0
148 168 0
145 166 0
151 173 0
142 163 0
142 161 0
145 166 0
149 171 0
140 162 0
146 166 0
154 177 0
146 166 0
145 167 0
144 165 0
150 169 0
146 167 0
148 170 0
154 175 0
148 170 0
145 164 0
151 171 0
145 165 0
146 168 0
147 168 0
141 161 0
151 172 0
149 170 0
141 159 0
150 171 0
145 166 0
146 167 0
145 167 0
146 167 0
141 161 0
144 164 0
154 174 0
145 164 0
144 165 0
148 169 0
135 155 0
138 158 0
142 163 0
150 170 0
139 159 0
148 169 0
143 163 0
147 166 0
148 168 0
148 166 0
148 167 0
150 168 0
151 172 0
134 154 0
147 167 0
153 172 0
151 169 0
153 174 0
148 169 0
154 175 0
150 169 0
152 170 0
151 171 0
144 164 0
151 171 0
136 156 0
146 165 0
146 166 0
144 163 0
148 168 0
151 171 0
146 167 0
153 173 0
142 161 0
146 166 0
152 172 0
145 163 0
146 164 0
154 174 0
149 168 0
148 167 0
140 159 0
154 171 0
148 168 0
142 161 0
156 175 0
150 169 0
144 163 0
151 170 0
145 163 0
146 164 0
149 169 0
143 160 0
146 164 0
147 165 0
153 171 0
151 167 0
148 163 0
145 161 0
143 159 0
145 164 0
156 172 0
156 174 0
150 167 0
150 167 0
149 167 0
153 170 0
149 166 0
148 164 0
148 164 0
150 167 0
140 154 0
140 154 0
148 164 0
150 165 0
157 173 0
149 166 0
153 171 0
148 165 0
145 160 0
149 162 0
155 172 0
152 168 0
146 160 0
150 164 0
150 166 0
155 171 0
148 161 0
150 164 0
149 162 0
150 167 0
148 162 0
151 165 0
152 166 0
147 162 0
150 164 0
149 165 0
149 165 0
144 159 0
152 167 0
150 162 0
136 150 0
150 165 0
152 166 0
147 161 0
147 162 0
148 160 0
140 153 0
146 159 0
147 159 0
151 167 0
144 158 0
150 162 0
150 163 0
160 174 0
141 151 0
151 161 0
143 154 0
154 168 0
146 158 0
155 170 0
146 160 0
154 167 0
155 167 0
156 168 0
151 165 0
142 152 0
140 150 0
142 154 0
150 164 0
148 159 0
153 163 0
146 157 0
150 162 0
144 155 0
156 167 0
152 163 0
148 160 0
148 158 0
148 160 0
155 166 0
151 164 0
153 165 0
151 162 0
148 157 0
153 164 0
147 159 0
156 168 0
152 161 0
153 164 0
148 160 0
157 166 0
158 170 0
156 165 0
155 166 0
152 163 0
152 163 0
158 171 0
152 163 0
158 167 0
152 161 0
151 163 0
150 159 0
170 191 0
170 191 0
172 193 0
171 193 0
174 196 0
171 193 0
171 191 0
170 191 0
175 195 0
175 197 0
173 194 0
168 189 0
170 192 0
169 190 0
172 195 0
173 195 0
168 189 0
167 189 0
165 187 0
171 192 0
167 188 0
170 191 0
173 195 0
166 188 0
171 193 0
167 188 0
170 191 0
170 191 0
170 192 0
170 192 0
168 189 0
169 191 0
163 184 0
171 192 0
165 187 0
170 192 0
171 192 0
170 192 0
164 187 0
170 192 0
168 189 0
165 188 0
169 191 0
167 189 0
164 186 0
168 190 0
162 184 0
166 187 0
167 189 0
165 186 0
160 182 0
166 188 0
161 182 0
166 188 0
162 184 0
162 184 0
160 181 0
162 185 0
165 187 0
157 180 0
165 188 0
161 184 0
163 184 0
161 184 0
165 187 0
165 185 0
160 182 0
161 183 0
167 188 0
160 181 0
162 184 0
160 182 0
157 179 0
157 179 0
161 184 0
157 180 0
161 183 0
160 182 0
160 183 0
157 179 0
155 179 0
160 183 0
164 186 0
161 185 0
157 180 0
154 177 0
160 183 0
156 179 0
162 184 0
155 177 0
161 183 0
161 184 0
162 184 0
163 185 0
157 179 0
159 181 0
157 179 0
154 176 0
159 181 0
159 182 0
156 179 0
161 184 0
163 186 0
159 182 0
154 175 0
151 174 0
150 171 0
158 181 0
153 174 0
162 185 0
157 180 0
161 183 0
155 178 0
155 178 0
152 174 0
156 179 0
152 174 0
156 178 0
156 178 0
150 173 0
158 181 0
154 177 0
165 188 0
155 178 0
154 176 0
160 181 0
155 178 0
153 176 0
157 180 0
149 172 0
157 180 0
151 173 0
153 175 0
149 172 0
160 183 0
156 179 0
160 182 0
155 177 0
158 180 0
157 179 0
157 180 0
156 178 0
157 180 0
146 169 0
158 181 0
150 172 0
155 177 0
154 177 0
145 166 0
148 170 0
152 174 0
150 173 0
150 172 0
154 176 0
153 175 0
159 181 0
150 172 0
151 173 0
146 167 0
142 164 0
150 172 0
161 183 0
160 181 0
148 171 0
149 172 0
147 170 0
148 171 0
147 170 0
150 172 0
151 172 0
150 172 0
156 179 0
152 174 0
147 169 0
150 172 0
148 169 0
151 173 0
154 175 0
154 176 0
147 169 0
155 177 0
147 169 0
147 169 0
153 176 0
148 170 0
145 166 0
149 171 0
148 170 0
147 168 0
141 161 0
156 177 0
142 161 0
152 174 0
147 168 0
147 170 0
143 164 0
144 166 0
148 170 0
146 170 0
143 166 0
151 174 0
148 170 0
153 174 0
154 175 0
144 166 0
145 167 0
150 172 0
146 167 0
137 157 0
148 170 0
146 168 0
155 178 0
148 169 0
137 158 0
148 169 0
138 159 0
147 169 0
151 172 0
153 174 0
146 167 0
147 168 0
147 169 0
154 175 0
142 162 0
146 167 0
152 173 0
145 165 0
151 170 0
149 170 0
143 163 0
147 169 0
137 158 0
140 161 0
148 169 0
152 173 0
141 161 0
145 167 0
140 160 0
148 169 0
146 167 0
151 173 0
145 167 0
141 161 0
150 171 0
149 170 0
144 164 0
147 167 0
146 164 0
146 166 0
144 163 0
151 172 0
143 165 0
151 171 0
153 173 0
148 168 0
157 179 0
144 164 0
144 162 0
153 174 0
148 167 0
150 170 0
146 164 0
152 173 0
156 175 0
145 165 0
147 166 0
144 163 0
153 174 0
148 168 0
150 171 0
154 175 0
144 163 0
147 167 0
148 168 0
147 165 0
142 160 0
146 166 0
151 171 0
141 158 0
142 160 0
150 168 0
146 164 0
149 168 0
143 161 0
145 163 0
152 169 0
149 168 0
146 165 0
150 169 0
145 163 0
151 172 0
143 161 0
146 162 0
148 166 0
148 166 0
148 164 0
152 170 0
146 164 0
143 161 0
151 170 0
152 170 0
149 168 0
144 160 0
150 167 0
149 166 0
145 160 0
146 164 0
155 173 0
152 170 0
148 166 0
148 166 0
149 164 0
146 162 0
143 160 0
152 169 0
156 174 0
146 163 0
149 167 0
143 159 0
141 158 0
147 163 0
152 166 0
153 170 0
151 168 0
145 161 0
147 163 0
150 167 0
152 165 0
146 162 0
152 168 0
147 163 0
150 165 0
153 169 0
149 165 0
148 163 0
156 169 0
151 166 0
145 159 0
150 165 0
145 159 0
151 163 0
153 168 0
159 175 0
150 165 0
148 163 0
142 154 0
152 165 0
152 164 0
148 163 0
152 168 0
147 161 0
147 159 0
152 164 0
148 160 0
151 165 0
148 161 0
155 169 0
156 170 0
149 162 0
154 167 0
150 163 0
147 162 0
148 160 0
153 165 0
146 157 0
149 162 0
152 164 0
155 167 0
157 168 0
148 159 0
148 162 0
149 158 0
154 168 0
151 163 0
145 155 0
155 166 0
151 161 0
148 161 0
149 158 0
156 169 0
148 158 0
149 159 0
148 158 0
156 169 0
155 166 0
151 161 0
144 154 0
156 168 0
155 166 0
152 164 0
152 163 0
144 151 0
148 160 0
153 165 0
153 165 0
152 162 0
149 162 0
154 168 0
154 164 0
148 159 0
170 192 0
173 196 0
169 191 0
168 190 0
172 194 0
169 191 0
171 192 0
172 195 0
172 194 0
172 193 0
167 188 0
173 194 0
172 194 0
171 192 0
168 189 0
171 193 0
168 189 0
167 189 0
170 192 0
168 191 0
171 193 0
167 188 0
172 193 0
167 189 0
173 195 0
166 189 0
172 193 0
168 189 0
166 187 0
170 192 0
169 191 0
165 187 0
163 185 0
162 184 0
166 189 0
168 190 0
163 185 0
166 188 0
163 185 0
172 193 0
171 192 0
168 190 0
169 191 0
170 192 0
169 190 0
166 188 0
172 193 0
166 188 0
163 186 0
162 184 0
166 188 0
166 187 0
163 185 0
164 186 0
163 184 0
167 188 0
164 187 0
157 179 0
158 179 0
167 189 0
166 187 0
160 183 0
163 186 0
163 186 0
171 193 0
164 185 0
159 181 0
166 188 0
158 180 0
160 181 0
162 184 0
161 183 0
161 183 0
161 183 0
164 187 0
160 183 0
159 181 0
165 188 0
165 186 0
156 179 0
159 181 0
164 188 0
156 179 0
158 180 0
156 177 0
159 182 0
162 184 0
163 185 0
160 183 0
159 181 0
157 179 0
161 184 0
158 181 0
158 180 0
155 177 0
162 185 0
159 181 0
162 185 0
162 186 0
159 182 0
155 176 0
158 180 0
151 174 0
155 178 0
156 179 0
164 187 0
159 182 0
159 181 0
156 179 0
156 178 0
156 178 0
160 183 0
155 178 0
156 178 0
156 179 0
157 179 0
149 170 0
158 181 0
151 173 0
158 180 0
163 186 0
153 176 0
155 177 0
151 174 0
151 173 0
152 174 0
160 183 0
159 180 0
158 180 0
155 177 0
155 177 0
153 176 0
158 181 0
150 173 0
154 177 0
159 183 0
148 170 0
159 182 0
156 179 0
148 171 0
154 176 0
151 173 0
150 173 0
158 180 0
153 176 0
153 175 0
151 173 0
155 177 0
149 172 0
153 177 0
150 173 0
151 175 0
154 176 0
155 178 0
151 173 0
156 179 0
153 175 0
153 175 0
155 177 0
155 178 0
149 171 0
156 179 0
145 167 0
147 168 0
148 171 0
147 169 0
151 175 0
155 179 0
156 178 0
152 174 0
149 171 0
156 177 0
157 180 0
157 179 0
150 172 0
151 174 0
144 167 0
148 169 0
149 171 0
139 160 0
146 168 0
151 172 0
149 170 0
149 170 0
152 174 0
151 173 0
150 172 0
155 176 0
158 181 0
142 164 0
157 179 0
150 171 0
155 177 0
147 167 0
148 170 0
142 164 0
157 179 0
154 176 0
141 162 0
137 158 0
143 165 0
149 170 0
146 167 0
145 169 0
141 162 0
144 164 0
138 160 0
149 170 0
139 160 0
147 170 0
142 163 0
149 170 0
144 165 0
149 169 0
147 168 0
150 170 0
149 171 0
152 174 0
148 168 0
153 175 0
146 166 0
137 158 0
154 174 0
150 171 0
145 166 0
140 160 0
139 160 0
147 166 0
151 172 0
136 157 0
149 170 0
155 174 0
138 159 0
143 164 0
153 173 0
144 164 0
147 168 0
149 169 0
146 165 0
140 161 0
150 170 0
156 177 0
149 170 0
147 167 0
152 173 0
152 175 0
149 169 0
149 171 0
149 168 0
151 171 0
149 169 0
152 171 0
147 168 0
152 174 0
145 165 0
148 168 0
151 170 0
147 169 0
150 169 0
144 163 0
149 168 0
145 165 0
151 172 0
154 175 0
154 174 0
148 165 0
141 161 0
145 164 0
153 174 0
152 172 0
143 162 0
146 164 0
153 175 0
147 165 0
144 162 0
150 168 0
150 168 0
149 169 0
148 167 0
147 165 0
151 168 0
143 163 0
147 168 0
149 168 0
147 166 0
149 169 0
157 175 0
151 170 0
143 159 0
149 169 0
148 167 0
155 175 0
151 172 0
146 165 0
146 164 0
147 167 0
153 173 0
152 171 0
151 166 0
154 172 0
152 169 0
150 165 0
144 161 0
151 168 0
139 157 0
150 169 0
149 165 0
149 169 0
151 170 0
150 167 0
147 163 0
149 167 0
148 167 0
153 169 0
148 165 0
150 167 0
149 165 0
150 167 0
151 168 0
152 169 0
139 152 0
150 166 0
154 170 0
149 166 0
153 168 0
140 154 0
156 174 0
145 158 0
152 168 0
152 169 0
149 164 0
150 167 0
149 164 0
145 158 0
149 164 0
152 168 0
152 166 0
152 166 0
149 164 0
149 165 0
153 171 0
151 166 0
154 167 0
153 168 0
155 168 0
149 164 0
148 164 0
152 166 0
151 164 0
145 160 0
146 158 0
149 161 0
148 160 0
152 167 0
159 173 0
147 161 0
151 165 0
153 164 0
147 158 0
157 170 0
149 162 0
153 167 0
144 157 0
153 165 0
150 165 0
145 155 0
148 162 0
149 162 0
147 158 0
152 164 0
147 158 0
153 165 0
145 155 0
152 163 0
150 163 0
155 168 0
154 166 0
155 166 0
157 172 0
149 160 0
152 164 0
150 161 0
151 163 0
149 159 0
151 162 0
155 168 0
156 169 0
158 170 0
157 168 0
149 160 0
152 164 0
144 158 0
153 164 0
159 171 0
158 169 0
152 161 0
153 165 0
154 166 0
150 162 0
153 164 0
170 192 0
174 195 0
169 190 0
171 194 0
172 194 0
170 190 0
169 190 0
171 193 0
172 193 0
174 195 0
171 193 0
171 192 0
171 193 0
171 193 0
170 192 0
163 184 0
171 193 0
169 191 0
170 192 0
166 186 0
169 190 0
172 194 0
168 190 0
170 191 0
171 192 0
166 189 0
171 193 0
161 183 0
171 192 0
167 188 0
166 188 0
166 188 0
166 188 0
164 186 0
170 192 0
166 188 0
166 188 0
168 189 0
169 192 0
164 187 0
168 190 0
167 190 0
163 185 0
164 186 0
169 191 0
171 193 0
162 184 0
162 183 0
167 190 0
162 183 0
169 191 0
164 186 0
167 189 0
160 182 0
164 186 0
162 183 0
162 185 0
169 191 0
166 186 0
161 182 0
163 184 0
161 183 0
162 184 0
162 185 0
165 187 0
164 185 0
160 183 0
165 186 0
162 184 0
160 183 0
167 188 0
155 178 0
161 183 0
164 187 0
158 181 0
163 185 0
154 176 0
161 183 0
165 188 0
162 184 0
164 187 0
168 191 0
158 179 0
160 182 0
163 185 0
155 177 0
152 174 0
160 182 0
162 184 0
160 182 0
154 176 0
156 179 0
163 186 0
157 180 0
153 176 0
154 177 0
160 184 0
162 185 0
158 181 0
161 184 0
158 181 0
154 178 0
159 182 0
158 180 0
160 184 0
159 181 0
150 173 0
154 178 0
159 181 0
149 172 0
151 174 0
157 179 0
156 178 0
158 180 0
159 182 0
154 176 0
153 176 0
152 174 0
162 185 0
161 184 0
155 177 0
159 182 0
160 181 0
159 181 0
154 177 0
155 177 0
154 176 0
154 177 0
157 180 0
155 178 0
156 176 0
151 174 0
158 180 0
152 174 0
154 177 0
149 172 0
157 179 0
156 180 0
156 178 0
139 161 0
149 171 0
159 183 0
152 174 0
154 176 0
157 181 0
154 177 0
158 180 0
158 180 0
152 173 0
153 175 0
158 180 0
146 169 0
152 175 0
151 173 0
142 164 0
148 169 0
157 179 0
151 173 0
152 174 0
148 172 0
152 176 0
153 175 0
153 174 0
157 180 0
146 168 0
153 175 0
148 170 0
150 173 0
153 176 0
149 172 0
147 169 0
154 176 0
146 169 0
152 174 0
143 166 0
151 173 0
151 172 0
148 170 0
153 175 0
156 178 0
147 169 0
153 176 0
154 177 0
145 167 0
149 172 0
148 170 0
155 176 0
152 174 0
150 173 0
151 173 0
148 171 0
148 169 0
147 168 0
141 162 0
154 176 0
148 169 0
157 179 0
142 163 0
143 163 0
147 168 0
143 166 0
142 165 0
146 168 0
150 172 0
155 178 0
145 168 0
145 167 0
150 172 0
146 167 0
150 172 0
148 171 0
149 169 0
152 174 0
146 168 0
138 159 0
144 166 0
146 167 0
142 162 0
148 168 0
143 164 0
157 177 0
153 174 0
139 158 0
147 169 0
151 171 0
150 172 0
146 165 0
144 163 0
149 168 0
159 180 0
152 173 0
149 172 0
149 170 0
149 170 0
148 169 0
143 162 0
145 164 0
135 156 0
143 162 0
148 168 0
150 168 0
147 166 0
154 176 0
150 170 0
150 172 0
140 160 0
155 178 0
140 162 0
155 175 0
150 169 0
149 169 0
153 174 0
146 167 0
145 164 0
150 170 0
140 161 0
146 166 0
153 172 0
151 172 0
144 162 0
152 173 0
142 161 0
145 165 0
152 171 0
153 172 0
145 165 0
150 170 0
149 170 0
141 161 0
150 170 0
151 170 0
149 169 0
153 172 0
152 171 0
152 171 0
148 169 0
138 158 0
153 172 0
150 169 0
142 161 0
136 153 0
140 160 0
148 168 0
149 169 0
152 172 0
153 172 0
155 174 0
142 161 0
147 166 0
155 174 0
145 163 0
155 174 0
152 168 0
145 162 0
158 177 0
148 166 0
157 176 0
150 169 0
150 167 0
143 162 0
153 171 0
148 165 0
154 172 0
152 170 0
149 167 0
144 160 0
142 161 0
153 169 0
146 164 0
146 163 0
147 165 0
150 167 0
157 172 0
150 165 0
152 169 0
147 165 0
142 158 0
147 163 0
151 167 0
157 174 0
144 162 0
154 170 0
149 166 0
151 168 0
148 161 0
150 165 0
155 172 0
153 168 0
146 161 0
155 170 0
151 167 0
139 154 0
148 161 0
145 161 0
145 159 0
147 161 0
150 167 0
153 168 0
142 156 0
145 161 0
148 164 0
155 172 0
149 163 0
150 164 0
155 170 0
147 163 0
148 162 0
154 170 0
149 164 0
152 167 0
151 166 0
149 164 0
154 170 0
149 162 0
150 164 0
147 162 0
151 164 0
151 163 0
153 166 0
151 166 0
151 163 0
141 154 0
152 162 0
151 159 0
143 154 0
147 158 0
151 163 0
152 167 0
154 167 0
153 166 0
151 161 0
152 165 0
149 162 0
152 162 0
151 163 0
148 161 0
147 160 0
154 167 0
150 161 0
150 162 0
154 167 0
143 154 0
155 169 0
155 165 0
152 164 0
155 166 0
148 161 0
149 159 0
159 170 0
158 172 0
154 165 0
147 158 0
155 166 0
154 165 0
153 161 0
153 166 0
157 170 0
157 168 0
158 171 0
156 168 0
174 196 0
172 194 0
167 189 0
173 195 0
173 194 0
172 193 0
169 190 0
167 188 0
169 191 0
168 190 0
170 191 0
165 187 0
169 191 0
174 196 0
169 191 0
170 192 0
168 190 0
168 190 0
170 192 0
170 192 0
171 193 0
173 195 0
167 189 0
171 193 0
168 189 0
169 190 0
161 183 0
172 193 0
170 191 0
166 187 0
163 184 0
167 189 0
166 187 0
167 189 0
169 192 0
164 187 0
166 188 0
163 185 0
164 186 0
169 191 0
165 187 0
167 189 0
168 188 0
169 191 0
166 188 0
167 189 0
172 195 0
163 186 0
164 186 0
161 183 0
160 184 0
168 190 0
164 186 0
161 184 0
164 188 0
162 184 0
161 182 0
161 183 0
158 180 0
159 181 0
155 178 0
161 184 0
160 183 0
163 185 0
161 184 0
162 184 0
159 181 0
163 185 0
163 185 0
160 183 0
165 188 0
169 192 0
158 181 0
160 183 0
166 187 0
160 183 0
161 184 0
157 179 0
160 183 0
156 179 0
161 183 0
163 187 0
160 182 0
151 173 0
163 186 0
167 189 0
160 182 0
163 186 0
162 184 0
160 182 0
161 183 0
161 183 0
157 179 0
157 179 0
156 180 0
161 184 0
162 184 0
156 179 0
153 174 0
161 183 0
163 186 0
161 184 0
158 180 0
158 181 0
155 178 0
160 183 0
163 186 0
157 180 0
160 182 0
151 173 0
160 183 0
158 180 0
157 179 0
161 184 0
158 180 0
156 179 0
150 174 0
153 176 0
150 174 0
155 177 0
161 184 0
157 180 0
151 175 0
153 176 0
156 179 0
158 181 0
153 176 0
154 176 0
155 177 0
154 177 0
149 172 0
154 176 0
159 181 0
161 182 0
153 175 0
155 178 0
157 179 0
149 171 0
151 173 0
154 176 0
152 175 0
151 173 0
156 177 0
159 182 0
159 182 0
148 169 0
156 180 0
162 185 0
161 184 0
150 172 0
157 181 0
152 174 0
154 177 0
152 174 0
155 177 0
139 162 0
150 172 0
150 172 0
153 174 0
148 171 0
155 177 0
155 177 0
146 168 0
149 172 0
154 174 0
158 181 0
154 175 0
150 171 0
157 181 0
147 169 0
150 173 0
145 166 0
147 169 0
147 169 0
152 174 0
145 167 0
150 172 0
154 175 0
150 172 0
149 171 0
152 175 0
146 168 0
148 171 0
152 175 0
142 164 0
150 172 0
150 172 0
151 172 0
147 169 0
148 168 0
150 172 0
151 172 0
150 170 0
142 165 0
151 173 0
149 172 0
153 173 0
152 173 0
148 168 0
147 169 0
143 165 0
140 161 0
157 178 0
143 163 0
152 174 0
140 161 0
151 172 0
144 167 0
152 173 0
152 174 0
148 171 0
145 167 0
145 165 0
148 169 0
155 178 0
152 173 0
147 168 0
153 175 0
141 163 0
147 169 0
143 163 0
144 166 0
153 175 0
153 175 0
146 168 0
152 173 0
150 173 0
152 173 0
152 173 0
153 173 0
138 160 0
148 167 0
150 171 0
157 177 0
143 164 0
142 163 0
148 169 0
152 174 0
145 166 0
149 171 0
150 171 0
145 165 0
156 178 0
148 169 0
146 166 0
145 165 0
144 164 0
154 175 0
143 162 0
152 173 0
143 163 0
145 164 0
147 166 0
141 161 0
144 164 0
148 169 0
146 166 0
152 172 0
154 172 0
152 171 0
149 168 0
146 167 0
146 167 0
155 175 0
151 170 0
153 172 0
150 170 0
147 168 0
139 159 0
146 166 0
152 172 0
154 175 0
148 167 0
152 172 0
143 163 0
155 173 0
147 166 0
151 172 0
144 163 0
150 171 0
144 163 0
151 170 0
147 168 0
155 172 0
146 166 0
147 166 0
151 170 0
148 166 0
148 167 0
154 173 0
150 168 0
148 167 0
155 174 0
148 167 0
148 165 0
150 169 0
146 164 0
154 174 0
148 167 0
154 173 0
146 162 0
149 168 0
155 175 0
146 165 0
148 163 0
140 157 0
154 172 0
146 163 0
150 167 0
153 170 0
156 172 0
152 171 0
153 170 0
148 167 0
147 166 0
149 164 0
152 168 0
155 171 0
147 164 0
144 160 0
153 169 0
153 171 0
147 162 0
155 174 0
159 177 0
154 170 0
152 167 0
149 164 0
143 160 0
154 170 0
154 171 0
152 170 0
145 161 0
150 165 0
152 168 0
144 158 0
149 164 0
151 168 0
152 168 0
146 159 0
154 172 0
156 172 0
147 160 0
143 155 0
150 166 0
147 161 0
154 167 0
154 167 0
150 162 0
149 163 0
161 176 0
148 163 0
158 171 0
151 167 0
155 168 0
153 167 0
156 169 0
147 158 0
151 166 0
151 165 0
158 175 0
155 166 0
154 165 0
152 164 0
147 161 0
148 158 0
148 161 0
150 162 0
153 167 0
151 164 0
139 152 0
155 167 0
151 161 0
150 165 0
155 168 0
154 169 0
142 156 0
156 172 0
151 162 0
153 165 0
155 169 0
154 166 0
152 163 0
156 167 0
150 162 0
160 172 0
150 164 0
157 171 0
153 164 0
156 166 0
158 171 0
151 162 0
154 166 0
154 165 0
148 158 0
154 164 0
158 169 0
155 166 0
159 174 0
154 163 0
171 192 0
171 193 0
168 189 0
170 192 0
172 194 0
168 190 0
174 196 0
169 191 0
165 186 0
167 188 0
165 187 0
170 191 0
175 197 0
170 191 0
171 193 0
169 191 0
167 190 0
167 190 0
170 192 0
166 188 0
170 192 0
170 192 0
171 193 0
165 187 0
169 191 0
168 190 0
174 195 0
171 193 0
166 188 0
166 189 0
162 184 0
167 189 0
164 186 0
166 187 0
162 183 0
169 191 0
167 188 0
167 188 0
162 183 0
165 187 0
166 188 0
166 188 0
170 193 0
164 187 0
163 184 0
169 191 0
162 185 0
166 189 0
160 181 0
166 188 0
164 187 0
169 191 0
162 185 0
165 188 0
161 183 0
167 189 0
167 190 0
164 186 0
162 184 0
162 184 0
165 187 0
158 181 0
162 186 0
161 183 0
168 191 0
166 188 0
155 178 0
164 187 0
160 182 0
166 188 0
160 183 0
158 180 0
157 179 0
162 185 0
156 178 0
162 184 0
159 182 0
165 187 0
162 184 0
164 187 0
161 183 0
155 177 0
167 190 0
156 179 0
163 185 0
159 181 0
161 184 0
162 185 0
153 175 0
158 181 0
156 179 0
158 182 0
158 179 0
163 185 0
161 184 0
158 180 0
154 177 0
161 185 0
163 185 0
160 184 0
157 179 0
158 180 0
162 184 0
156 180 0
164 187 0
154 177 0
162 185 0
159 181 0
155 178 0
152 175 0
158 180 0
159 182 0
158 181 0
158 180 0
154 176 0
151 173 0
161 183 0
159 182 0
155 178 0
157 180 0
154 177 0
151 173 0
152 175 0
152 175 0
151 172 0
157 181 0
155 179 0
159 181 0
156 178 0
156 179 0
154 178 0
155 178 0
156 178 0
152 174 0
150 172 0
154 177 0
158 180 0
152 174 0
151 173 0
157 178 0
155 178 0
149 172 0
162 184 0
154 178 0
155 177 0
152 173 0
153 176 0
159 181 0
158 180 0
155 177 0
151 174 0
148 171 0
153 175 0
158 180 0
152 174 0
153 174 0
149 170 0
149 172 0
153 176 0
150 172 0
147 170 0
154 176 0
156 178 0
153 175 0
148 170 0
156 178 0
148 168 0
153 173 0
153 175 0
142 163 0
145 167 0
147 170 0
152 174 0
149 170 0
150 173 0
155 176 0
150 171 0
150 173 0
154 176 0
154 177 0
152 174 0
143 165 0
144 165 0
156 177 0
155 177 0
150 172 0
145 167 0
150 172 0
144 166 0
151 173 0
154 176 0
150 173 0
154 175 0
150 173 0
150 171 0
143 164 0
138 159 0
151 173 0
143 164 0
146 167 0
150 171 0
150 171 0
154 176 0
148 169 0
150 172 0
149 170 0
148 169 0
147 167 0
152 174 0
139 160 0
152 173 0
149 170 0
148 170 0
153 174 0
151 174 0
149 171 0
148 171 0
140 162 0
146 167 0
147 169 0
152 175 0
145 167 0
149 171 0
144 165 0
151 173 0
145 165 0
145 165 0
138 157 0
148 168 0
158 179 0
147 167 0
151 173 0
141 163 0
149 170 0
147 167 0
159 180 0
152 174 0
153 175 0
150 170 0
145 166 0
146 165 0
156 177 0
152 172 0
155 173 0
152 174 0
149 171 0
147 167 0
154 175 0
141 159 0
144 164 0
156 177 0
145 164 0
147 167 0
148 168 0
150 170 0
144 164 0
149 168 0
151 172 0
146 167 0
147 168 0
143 163 0
144 164 0
145 164 0
147 168 0
152 171 0
148 167 0
148 166 0
150 169 0
155 175 0
151 171 0
147 166 0
151 171 0
153 174 0
139 158 0
149 169 0
144 162 0
150 168 0
149 169 0
154 173 0
143 161 0
152 172 0
141 161 0
149 167 0
152 172 0
148 170 0
148 167 0
158 179 0
156 176 0
143 162 0
150 170 0
144 162 0
150 169 0
145 163 0
148 168 0
152 170 0
152 172 0
142 160 0
158 178 0
153 171 0
153 172 0
144 162 0
152 171 0
155 173 0
150 169 0
142 161 0
153 171 0
147 163 0
155 175 0
147 164 0
150 168 0
151 169 0
148 166 0
160 177 0
148 164 0
156 174 0
146 162 0
143 161 0
153 171 0
147 162 0
145 162 0
151 168 0
154 170 0
151 168 0
141 158 0
146 161 0
150 166 0
148 166 0
155 171 0
153 169 0
154 170 0
149 165 0
143 159 0
156 174 0
148 163 0
155 172 0
148 164 0
154 171 0
156 172 0
148 162 0
156 175 0
147 164 0
157 171 0
152 166 0
148 164 0
152 167 0
145 159 0
147 162 0
156 173 0
150 163 0
152 165 0
158 172 0
142 156 0
151 168 0
153 166 0
144 160 0
153 167 0
149 164 0
146 159 0
158 171 0
153 167 0
153 167 0
146 159 0
151 166 0
145 159 0
149 164 0
150 161 0
152 165 0
153 169 0
150 164 0
153 165 0
153 166 0
155 167 0
148 156 0
152 164 0
153 165 0
153 162 0
156 170 0
151 163 0
151 166 0
150 162 0
154 166 0
156 167 0
150 165 0
153 169 0
158 170 0
152 166 0
150 164 0
155 167 0
146 158 0
152 163 0
152 163 0
150 161 0
146 155 0
157 172 0
152 164 0
155 167 0
156 170 0
156 165 0
157 169 0
154 167 0
170 192 0
172 193 0
169 191 0
174 195 0
167 189 0
170 193 0
167 189 0
173 195 0
167 188 0
166 187 0
168 190 0
169 191 0
166 188 0
167 189 0
167 188 0
167 190 0
172 193 0
165 187 0
166 189 0
165 187 0
167 190 0
168 190 0
166 188 0
164 187 0
166 188 0
164 187 0
171 192 0
163 185 0
167 188 0
162 183 0
162 184 0
170 192 0
168 191 0
167 189 0
169 192 0
169 190 0
167 189 0
165 187 0
170 191 0
164 186 0
169 192 0
166 187 0
164 186 0
164 186 0
165 187 0
153 174 0
162 185 0
166 188 0
160 183 0
161 183 0
163 185 0
167 189 0
161 183 0
165 186 0
168 190 0
162 184 0
163 185 0
164 187 0
169 191 0
161 183 0
166 187 0
158 181 0
167 188 0
161 182 0
163 186 0
167 191 0
162 184 0
165 188 0
158 180 0
161 184 0
161 184 0
166 189 0
160 182 0
161 184 0
157 179 0
156 179 0
157 180 0
161 184 0
160 183 0
161 184 0
156 179 0
159 181 0
154 176 0
155 178 0
162 185 0
155 178 0
162 184 0
161 183 0
161 184 0
162 185 0
156 178 0
162 185 0
161 184 0
162 184 0
159 182 0
158 181 0
165 188 0
161 184 0
158 180 0
160 183 0
158 181 0
160 183 0
162 184 0
162 184 0
156 178 0
164 186 0
157 181 0
155 177 0
161 184 0
157 179 0
156 180 0
157 181 0
160 182 0
150 172 0
155 177 0
161 184 0
156 179 0
156 178 0
158 180 0
160 182 0
162 183 0
157 178 0
159 182 0
158 181 0
155 179 0
154 177 0
157 180 0
156 178 0
149 171 0
154 177 0
156 178 0
148 172 0
152 175 0
161 184 0
158 181 0
160 183 0
155 177 0
155 177 0
158 179 0
158 181 0
153 176 0
161 185 0
157 180 0
158 181 0
155 178 0
155 177 0
156 178 0
148 171 0
155 176 0
155 176 0
153 176 0
151 173 0
149 170 0
151 174 0
152 174 0
152 175 0
148 170 0
161 184 0
158 182 0
160 182 0
150 173 0
150 173 0
155 178 0
153 176 0
153 175 0
153 176 0
145 168 0
148 169 0
155 177 0
155 177 0
154 176 0
150 172 0
154 175 0
152 175 0
146 168 0
152 174 0
153 174 0
154 175 0
155 175 0
151 175 0
150 171 0
145 167 0
146 167 0
150 171 0
150 172 0
156 178 0
152 175 0
153 176 0
150 170 0
153 174 0
143 164 0
152 174 0
149 171 0
140 162 0
143 165 0
151 171 0
151 172 0
146 168 0
146 167 0
140 162 0
149 171 0
152 174 0
157 177 0
157 179 0
146 166 0
150 171 0
154 176 0
151 173 0
144 165 0
147 167 0
146 166 0
151 172 0
149 172 0
144 165 0
155 177 0
152 174 0
144 167 0
152 172 0
151 172 0
150 172 0
150 170 0
150 171 0
153 175 0
153 173 0
149 169 0
147 169 0
143 164 0
152 173 0
143 164 0
148 170 0
156 178 0
155 176 0
149 169 0
149 169 0
149 170 0
151 171 0
147 167 0
144 164 0
139 161 0
142 163 0
144 164 0
145 166 0
150 171 0
153 174 0
151 173 0
144 165 0
143 163 0
150 170 0
153 174 0
153 173 0
151 171 0
147 167 0
147 169 0
147 168 0
146 164 0
146 166 0
149 170 0
150 171 0
146 168 0
150 168 0
152 172 0
141 162 0
152 173 0
151 170 0
145 164 0
151 172 0
147 165 0
144 163 0
144 164 0
154 173 0
144 161 0
152 173 0
151 170 0
150 171 0
149 169 0
154 174 0
149 166 0
154 174 0
148 168 0
151 169 0
147 165 0
147 166 0
151 171 0
148 165 0
148 166 0
150 168 0
150 168 0
148 167 0
157 177 0
159 177 0
151 170 0
151 171 0
153 170 0
152 171 0
148 165 0
150 171 0
146 164 0
155 172 0
143 159 0
149 166 0
148 164 0
151 168 0
154 173 0
147 164 0
154 171 0
148 166 0
143 161 0
148 166 0
148 165 0
149 167 0
144 159 0
149 166 0
149 167 0
148 166 0
158 175 0
145 161 0
151 167 0
153 172 0
145 162 0
149 165 0
152 170 0
151 168 0
145 162 0
155 172 0
145 161 0
155 172 0
141 157 0
151 167 0
153 171 0
158 175 0
153 170 0
148 165 0
146 162 0
149 166 0
150 166 0
153 169 0
154 167 0
152 170 0
149 167 0
157 173 0
149 166 0
149 163 0
149 166 0
157 173 0
150 165 0
152 168 0
154 168 0
153 168 0
152 167 0
146 159 0
158 174 0
143 157 0
148 161 0
154 167 0
147 161 0
150 164 0
145 159 0
151 164 0
153 169 0
156 171 0
158 174 0
146 159 0
155 171 0
154 167 0
148 163 0
155 170 0
152 165 0
150 165 0
164 180 0
151 165 0
155 169 0
148 163 0
154 168 0
154 167 0
147 160 0
156 171 0
151 164 0
147 156 0
151 163 0
153 166 0
151 164 0
158 170 0
144 156 0
152 164 0
155 167 0
154 166 0
154 168 0
155 167 0
156 170 0
156 170 0
145 156 0
157 171 0
152 165 0
149 160 0
155 167 0
155 167 0
153 165 0
158 170 0
144 155 0
155 167 0
173 195 0
169 191 0
172 194 0
169 192 0
171 193 0
171 193 0
172 194 0
168 189 0
171 193 0
172 193 0
171 193 0
168 190 0
169 192 0
170 191 0
170 193 0
166 188 0
169 192 0
164 186 0
171 192 0
168 191 0
167 189 0
163 186 0
170 192 0
167 190 0
167 189 0
169 190 0
167 189 0
170 192 0
164 187 0
166 188 0
164 186 0
166 188 0
165 188 0
166 189 0
164 187 0
168 191 0
166 188 0
167 189 0
162 184 0
165 187 0
164 186 0
164 186 0
165 186 0
161 183 0
163 186 0
165 187 0
163 184 0
164 187 0
165 187 0
162 185 0
161 184 0
164 187 0
162 185 0
163 185 0
164 186 0
164 187 0
162 184 0
166 189 0
157 180 0
161 183 0
162 183 0
160 182 0
157 179 0
154 176 0
161 184 0
163 185 0
161 183 0
159 181 0
161 184 0
156 179 0
161 184 0
161 185 0
163 186 0
158 180 0
164 186 0
165 188 0
157 181 0
158 180 0
165 188 0
157 180 0
156 178 0
158 180 0
155 178 0
159 182 0
165 188 0
164 187 0
159 183 0
157 180 0
161 184 0
163 186 0
161 184 0
160 183 0
155 177 0
160 183 0
161 184 0
153 174 0
159 181 0
161 183 0
157 181 0
152 174 0
159 181 0
158 181 0
154 176 0
155 178 0
156 178 0
166 188 0
157 180 0
163 187 0
157 180 0
157 180 0
155 179 0
156 178 0
151 174 0
153 176 0
163 186 0
149 171 0
158 181 0
158 182 0
161 184 0
162 186 0
159 181 0
156 179 0
160 183 0
157 181 0
160 183 0
154 177 0
154 175 0
159 181 0
163 187 0
160 182 0
160 183 0
153 177 0
157 178 0
144 167 0
152 175 0
154 176 0
158 180 0
154 177 0
157 179 0
157 180 0
158 181 0
153 175 0
149 171 0
149 173 0
157 179 0
153 176 0
153 175 0
150 171 0
151 173 0
151 172 0
151 174 0
147 170 0
154 177 0
154 176 0
154 176 0
154 177 0
152 173 0
156 178 0
155 177 0
156 176 0
149 172 0
150 172 0
158 179 0
160 183 0
156 178 0
146 169 0
154 175 0
147 170 0
152 174 0
152 176 0
149 171 0
151 174 0
153 175 0
153 176 0
151 174 0
150 172 0
153 175 0
148 170 0
153 175 0
158 180 0
148 172 0
155 178 0
150 174 0
141 163 0
149 171 0
144 166 0
150 173 0
152 174 0
149 172 0
150 172 0
151 173 0
155 178 0
158 181 0
155 176 0
152 175 0
154 176 0
148 171 0
158 181 0
150 170 0
150 173 0
144 165 0
144 164 0
150 172 0
150 172 0
148 170 0
148 170 0
152 173 0
144 166 0
149 172 0
149 170 0
156 178 0
153 175 0
156 177 0
148 168 0
154 175 0
145 166 0
155 176 0
159 180 0
151 174 0
146 166 0
149 170 0
154 176 0
152 174 0
153 173 0
145 167 0
142 163 0
142 163 0
151 172 0
152 172 0
149 171 0
151 172 0
152 173 0
152 173 0
150 170 0
146 168 0
155 177 0
146 169 0
148 167 0
146 166 0
144 164 0
145 165 0
145 166 0
152 174 0
152 172 0
149 169 0
150 172 0
148 169 0
153 174 0
146 167 0
149 170 0
150 172 0
145 163 0
155 175 0
155 173 0
150 170 0
149 171 0
140 159 0
157 176 0
149 170 0
143 164 0
146 167 0
154 173 0
155 174 0
154 174 0
145 164 0
150 171 0
148 169 0
150 171 0
142 161 0
149 170 0
144 164 0
153 172 0
148 167 0
153 174 0
152 172 0
142 163 0
150 170 0
154 175 0
154 173 0
153 173 0
154 176 0
149 169 0
151 169 0
156 177 0
147 164 0
149 170 0
155 175 0
155 175 0
153 172 0
153 174 0
148 167 0
164 184 0
160 181 0
152 171 0
155 175 0
158 178 0
149 167 0
145 163 0
146 162 0
149 167 0
145 162 0
150 168 0
149 168 0
156 175 0
155 175 0
149 166 0
151 171 0
149 166 0
147 164 0
152 170 0
148 167 0
150 167 0
154 174 0
150 168 0
151 169 0
146 163 0
153 169 0
151 167 0
140 155 0
151 171 0
152 169 0
147 163 0
156 174 0
152 167 0
146 163 0
143 158 0
161 176 0
154 171 0
148 164 0
150 167 0
144 159 0
150 166 0
150 166 0
154 173 0
158 176 0
152 170 0
149 166 0
155 172 0
152 169 0
152 167 0
148 165 0
152 168 0
158 174 0
149 164 0
149 164 0
152 167 0
154 171 0
154 168 0
148 163 0
152 167 0
152 167 0
142 157 0
157 172 0
148 161 0
155 167 0
152 167 0
150 162 0
153 171 0
158 173 0
153 165 0
152 165 0
145 159 0
159 177 0
145 160 0
150 165 0
151 165 0
149 162 0
150 166 0
148 163 0
150 164 0
147 158 0
148 164 0
153 168 0
152 163 0
149 159 0
157 172 0
150 165 0
147 157 0
150 163 0
156 170 0
146 156 0
157 167 0
151 165 0
156 171 0
148 163 0
154 168 0
157 169 0
153 167 0
148 160 0
153 168 0
152 164 0
152 166 0
158 170 0
151 162 0
155 168 0
154 163 0
156 173 0
154 168 0
146 157 0
152 164 0
169 191 0
169 190 0
170 192 0
168 190 0
170 191 0
168 189 0
167 189 0
168 190 0
169 191 0
169 191 0
169 192 0
170 192 0
170 192 0
166 188 0
166 189 0
165 188 0
167 189 0
171 192 0
170 193 0
171 194 0
167 190 0
164 186 0
162 185 0
166 188 0
165 188 0
168 190 0
163 185 0
172 193 0
164 185 0
166 188 0
164 186 0
166 188 0
162 184 0
165 187 0
163 185 0
167 189 0
163 184 0
165 188 0
167 190 0
159 181 0
167 189 0
168 191 0
162 184 0
161 184 0
164 187 0
167 189 0
165 186 0
162 185 0
157 178 0
166 188 0
164 187 0
161 182 0
159 181 0
157 179 0
164 186 0
166 189 0
165 187 0
166 188 0
157 180 0
160 182 0
164 187 0
165 187 0
164 188 0
161 183 0
159 181 0
164 186 0
162 184 0
161 183 0
161 185 0
159 182 0
163 185 0
164 186 0
165 187 0
164 187 0
160 182 0
164 187 0
164 186 0
159 182 0
162 184 0
155 177 0
158 180 0
161 182 0
159 180 0
157 180 0
157 181 0
157 181 0
157 180 0
165 186 0
159 181 0
159 183 0
166 189 0
152 175 0
157 179 0
166 188 0
156 177 0
151 174 0
159 182 0
158 181 0
160 183 0
157 179 0
164 187 0
162 184 0
157 180 0
150 172 0
159 182 0
164 186 0
157 179 0
158 180 0
157 180 0
161 183 0
150 174 0
158 180 0
151 172 0
157 180 0
157 180 0
155 177 0
155 177 0
154 176 0
163 186 0
158 181 0
156 178 0
155 178 0
147 170 0
161 184 0
158 182 0
156 179 0
152 176 0
145 168 0
158 182 0
155 178 0
150 172 0
161 183 0
158 182 0
156 179 0
151 174 0
153 176 0
153 175 0
155 176 0
155 177 0
156 178 0
160 183 0
163 186 0
158 180 0
157 180 0
162 185 0
155 177 0
155 178 0
156 179 0
147 169 0
145 169 0
151 174 0
150 172 0
157 180 0
151 174 0
151 174 0
158 180 0
154 177 0
148 171 0
148 171 0
151 173 0
148 171 0
142 163 0
150 171 0
156 178 0
154 176 0
155 177 0
147 170 0
153 176 0
145 167 0
148 170 0
150 173 0
155 178 0
150 171 0
149 172 0
148 170 0
157 178 0
153 175 0
153 176 0
149 171 0
145 167 0
153 174 0
150 171 0
144 167 0
159 182 0
153 175 0
157 179 0
153 174 0
148 170 0
151 174 0
158 179 0
149 172 0
155 177 0
154 177 0
147 167 0
154 175 0
158 180 0
154 176 0
150 171 0
150 170 0
155 178 0
148 168 0
151 173 0
155 176 0
153 175 0
149 170 0
144 166 0
153 176 0
153 175 0
149 170 0
156 176 0
151 174 0
151 173 0
150 171 0
150 172 0
145 167 0
150 170 0
146 167 0
151 172 0
150 170 0
145 167 0
149 169 0
145 166 0
152 172 0
151 172 0
157 180 0
147 167 0
154 175 0
150 172 0
152 173 0
146 167 0
153 174 0
153 173 0
149 171 0
141 163 0
152 172 0
142 164 0
149 170 0
153 174 0
150 170 0
152 173 0
150 172 0
148 169 0
140 161 0
145 166 0
157 178 0
151 170 0
157 178 0
143 163 0
146 166 0
151 172 0
155 175 0
147 167 0
150 169 0
152 172 0
149 168 0
152 172 0
149 169 0
144 165 0
146 166 0
153 174 0
148 169 0
151 171 0
149 170 0
149 168 0
146 168 0
147 167 0
152 173 0
151 170 0
156 177 0
158 180 0
148 169 0
152 173 0
154 175 0
155 175 0
149 167 0
143 164 0
156 174 0
147 165 0
149 168 0
150 168 0
151 171 0
147 167 0
139 158 0
153 176 0
151 171 0
153 172 0
147 166 0
151 170 0
147 167 0
158 178 0
138 156 0
145 163 0
154 173 0
155 172 0
154 174 0
150 168 0
153 169 0
150 169 0
144 162 0
144 161 0
150 167 0
152 170 0
156 175 0
147 165 0
148 165 0
155 173 0
154 170 0
149 166 0
153 172 0
148 164 0
153 171 0
156 173 0
148 167 0
151 170 0
149 164 0
152 168 0
146 163 0
146 162 0
157 173 0
151 169 0
144 161 0
148 165 0
150 168 0
151 170 0
158 176 0
152 170 0
153 169 0
155 172 0
149 166 0
157 172 0
150 168 0
155 172 0
152 170 0
150 167 0
148 165 0
153 166 0
152 169 0
152 169 0
151 169 0
156 171 0
150 165 0
152 167 0
147 161 0
148 163 0
149 164 0
153 169 0
157 175 0
151 166 0
149 164 0
146 161 0
142 157 0
154 169 0
151 166 0
147 162 0
153 167 0
154 170 0
158 174 0
148 163 0
158 176 0
152 167 0
155 169 0
149 165 0
148 160 0
153 168 0
158 172 0
151 165 0
156 171 0
156 170 0
152 165 0
153 166 0
158 174 0
161 176 0
156 170 0
154 168 0
156 170 0
154 168 0
145 161 0
149 161 0
150 163 0
154 168 0
151 164 0
153 167 0
155 167 0
148 161 0
155 170 0
154 168 0
156 170 0
158 174 0
151 165 0
151 162 0
149 160 0
143 154 0
154 167 0
148 160 0
158 173 0
154 167 0
146 157 0
158 173 0
152 165 0
155 169 0
168 190 0
170 193 0
166 186 0
169 192 0
170 192 0
167 189 0
170 192 0
165 186 0
168 190 0
171 193 0
171 193 0
171 194 0
162 184 0
168 191 0
169 191 0
166 189 0
164 187 0
171 192 0
168 190 0
165 187 0
173 194 0
163 185 0
165 188 0
168 190 0
162 184 0
162 184 0
164 187 0
167 189 0
164 187 0
162 185 0
164 186 0
169 192 0
165 188 0
164 185 0
167 190 0
164 187 0
165 186 0
161 183 0
161 183 0
163 186 0
164 185 0
161 184 0
164 188 0
168 189 0
162 184 0
163 185 0
162 184 0
160 182 0
165 186 0
159 181 0
163 185 0
161 182 0
165 187 0
165 187 0
157 180 0
164 186 0
166 187 0
166 187 0
163 186 0
161 184 0
165 187 0
162 184 0
160 183 0
166 189 0
161 184 0
163 185 0
163 184 0
164 187 0
153 176 0
162 185 0
161 184 0
153 174 0
162 184 0
158 180 0
158 181 0
157 180 0
162 186 0
162 185 0
160 183 0
165 187 0
158 181 0
164 187 0
159 181 0
158 179 0
161 185 0
160 183 0
155 177 0
161 184 0
165 187 0
163 187 0
162 184 0
157 180 0
162 185 0
158 181 0
159 182 0
158 181 0
157 179 0
159 183 0
159 183 0
153 177 0
151 173 0
162 185 0
158 180 0
163 186 0
157 180 0
152 174 0
164 186 0
160 183 0
159 182 0
156 179 0
163 185 0
154 177 0
154 176 0
157 180 0
160 183 0
147 169 0
159 182 0
159 181 0
154 177 0
154 175 0
156 179 0
158 181 0
160 183 0
161 183 0
156 178 0
156 178 0
152 175 0
150 174 0
148 169 0
157 179 0
151 174 0
154 175 0
152 176 0
154 176 0
156 179 0
150 172 0
162 184 0
160 183 0
152 174 0
156 179 0
155 178 0
159 181 0
157 179 0
155 178 0
157 180 0
150 171 0
160 182 0
155 178 0
155 178 0
157 179 0
147 170 0
157 180 0
162 185 0
155 177 0
156 178 0
155 178 0
151 174 0
152 174 0
144 165 0
148 170 0
160 182 0
154 177 0
158 180 0
155 177 0
155 177 0
143 165 0
154 177 0
153 176 0
151 173 0
151 174 0
149 170 0
151 173 0
154 175 0
152 174 0
153 175 0
155 177 0
151 173 0
153 175 0
146 169 0
158 180 0
144 167 0
150 172 0
147 170 0
152 173 0
159 180 0
157 178 0
151 173 0
149 171 0
151 173 0
150 172 0
146 167 0
149 171 0
148 171 0
148 170 0
146 167 0
149 172 0
149 171 0
149 171 0
146 168 0
140 161 0
153 174 0
149 171 0
154 176 0
150 172 0
152 173 0
152 174 0
150 172 0
151 174 0
149 169 0
141 163 0
149 171 0
147 169 0
152 174 0
147 168 0
153 175 0
146 167 0
148 169 0
155 177 0
149 172 0
153 176 0
152 173 0
150 172 0
142 163 0
153 173 0
147 168 0
147 168 0
152 173 0
155 176 0
148 170 0
147 168 0
152 172 0
151 171 0
146 166 0
153 174 0
152 172 0
147 168 0
150 170 0
150 172 0
149 169 0
152 174 0
155 177 0
152 171 0
148 167 0
149 169 0
156 176 0
155 176 0
152 174 0
150 170 0
149 171 0
151 171 0
150 169 0
158 177 0
154 175 0
152 173 0
151 172 0
152 172 0
149 168 0
145 166 0
141 162 0
156 175 0
155 176 0
150 170 0
158 178 0
147 168 0
153 173 0
153 174 0
147 167 0
150 171 0
145 165 0
156 175 0
145 165 0
153 173 0
146 165 0
150 170 0
153 174 0
159 181 0
147 167 0
149 168 0
156 175 0
144 165 0
151 171 0
156 175 0
153 173 0
144 163 0
158 177 0
144 164 0
153 172 0
150 169 0
150 170 0
153 172 0
149 166 0
155 174 0
150 167 0
156 175 0
150 168 0
148 167 0
153 171 0
151 169 0
152 172 0
153 171 0
154 174 0
155 173 0
147 167 0
151 169 0
150 169 0
151 168 0
153 172 0
149 167 0
151 168 0
149 168 0
156 174 0
148 164 0
155 173 0
152 167 0
155 172 0
153 169 0
153 171 0
151 171 0
152 170 0
146 162 0
154 172 0
153 172 0
154 173 0
152 170 0
149 166 0
150 167 0
154 171 0
147 164 0
150 167 0
153 170 0
154 172 0
147 163 0
146 162 0
156 175 0
156 173 0
148 166 0
150 165 0
144 160 0
153 171 0
153 168 0
147 160 0
157 173 0
155 171 0
151 169 0
151 167 0
154 169 0
156 173 0
147 163 0
153 169 0
149 164 0
148 164 0
150 166 0
149 163 0
145 162 0
153 169 0
147 161 0
154 169 0
153 169 0
158 175 0
155 172 0
152 167 0
156 171 0
151 168 0
156 172 0
155 170 0
161 174 0
157 172 0
150 164 0
160 174 0
146 159 0
150 165 0
149 164 0
156 171 0
155 169 0
159 172 0
152 165 0
148 159 0
154 167 0
155 168 0
154 170 0
153 164 0
156 169 0
152 165 0
154 167 0
158 170 0
152 161 0
155 165 0
155 168 0
147 160 0
157 171 0
159 174 0
151 162 0
152 166 0
152 164 0
151 162 0
153 167 0
153 168 0
151 165 0
157 169 0
153 165 0
163 184 0
171 193 0
170 192 0
172 194 0
171 194 0
168 190 0
169 191 0
168 191 0
172 195 0
170 193 0
169 192 0
169 191 0
169 191 0
167 187 0
167 190 0
167 189 0
169 192 0
169 191 0
166 189 0
168 191 0
168 190 0
164 186 0
171 192 0
165 187 0
168 190 0
170 192 0
168 191 0
171 193 0
167 189 0
165 187 0
169 191 0
168 190 0
162 185 0
166 188 0
167 190 0
165 188 0
166 188 0
166 188 0
167 189 0
167 189 0
164 187 0
163 186 0
166 189 0
163 186 0
162 185 0
167 189 0
168 190 0
165 188 0
162 184 0
164 187 0
164 186 0
158 180 0
166 189 0
163 186 0
161 183 0
163 186 0
166 188 0
162 184 0
160 183 0
165 188 0
163 186 0
164 188 0
157 180 0
158 179 0
157 180 0
165 188 0
158 180 0
166 188 0
162 184 0
163 186 0
157 180 0
157 181 0
164 186 0
162 185 0
165 188 0
163 185 0
160 182 0
156 178 0
155 178 0
164 186 0
164 187 0
158 180 0
153 176 0
167 189 0
163 185 0
158 182 0
162 184 0
160 181 0
162 184 0
154 177 0
157 181 0
156 178 0
161 184 0
158 181 0
155 176 0
156 179 0
157 180 0
154 177 0
152 176 0
163 185 0
161 184 0
160 181 0
160 184 0
155 178 0
158 181 0
156 178 0
159 181 0
163 186 0
161 184 0
153 176 0
158 180 0
152 175 0
154 177 0
161 185 0
159 181 0
155 179 0
158 181 0
155 176 0
155 178 0
158 180 0
158 181 0
160 183 0
158 180 0
146 169 0
161 184 0
155 178 0
147 171 0
157 181 0
161 184 0
167 190 0
154 177 0
161 184 0
157 180 0
156 179 0
157 179 0
157 179 0
157 179 0
152 174 0
151 175 0
160 182 0
158 180 0
158 182 0
154 177 0
154 177 0
157 179 0
152 174 0
150 172 0
158 180 0
160 182 0
150 172 0
153 175 0
157 179 0
154 177 0
156 178 0
158 180 0
158 181 0
149 172 0
154 176 0
156 179 0
150 172 0
155 177 0
157 179 0
154 176 0
153 176 0
151 174 0
155 178 0
150 172 0
150 173 0
157 178 0
151 174 0
149 171 0
154 176 0
151 172 0
153 174 0
154 176 0
155 177 0
150 171 0
152 175 0
154 176 0
151 173 0
152 175 0
149 172 0
153 175 0
156 177 0
159 181 0
147 169 0
151 173 0
151 173 0
154 175 0
150 171 0
151 173 0
144 165 0
154 175 0
147 169 0
146 167 0
156 178 0
148 170 0
151 173 0
152 175 0
144 165 0
156 178 0
149 171 0
146 168 0
147 169 0
152 173 0
147 168 0
151 173 0
155 177 0
150 172 0
145 166 0
154 175 0
152 174 0
151 174 0
153 176 0
156 177 0
149 171 0
148 169 0
148 170 0
141 162 0
151 174 0
147 169 0
146 166 0
152 173 0
146 168 0
146 168 0
145 165 0
150 171 0
142 163 0
145 166 0
148 169 0
148 170 0
152 173 0
148 170 0
157 178 0
148 170 0
152 172 0
148 170 0
142 162 0
152 172 0
151 173 0
149 169 0
151 172 0
153 170 0
154 175 0
148 170 0
146 168 0
152 172 0
153 175 0
154 176 0
156 176 0
148 167 0
155 175 0
153 175 0
154 173 0
153 173 0
154 175 0
155 177 0
153 173 0
148 168 0
154 173 0
145 165 0
155 177 0
150 171 0
147 167 0
149 169 0
153 174 0
146 167 0
149 168 0
153 173 0
147 166 0
154 173 0
150 169 0
151 171 0
148 168 0
151 172 0
148 165 0
155 176 0
144 162 0
147 167 0
150 169 0
148 169 0
153 172 0
160 180 0
151 172 0
152 172 0
152 170 0
145 163 0
152 173 0
155 174 0
139 157 0
151 171 0
148 167 0
151 171 0
151 172 0
157 175 0
148 167 0
146 164 0
150 170 0
152 170 0
155 174 0
153 172 0
152 171 0
146 164 0
150 169 0
154 173 0
150 168 0
148 165 0
149 168 0
149 165 0
156 175 0
149 168 0
148 167 0
155 173 0
150 167 0
155 174 0
151 168 0
154 173 0
150 168 0
148 165 0
147 166 0
150 169 0
154 171 0
158 177 0
163 180 0
149 167 0
153 170 0
147 165 0
150 168 0
148 165 0
141 157 0
154 173 0
155 171 0
152 169 0
149 163 0
154 172 0
156 173 0
155 171 0
156 171 0
152 169 0
152 169 0
154 170 0
150 166 0
153 169 0
152 168 0
154 172 0
157 174 0
150 165 0
154 170 0
152 170 0
155 170 0
155 172 0
151 166 0
157 172 0
155 169 0
139 152 0
152 169 0
154 171 0
153 169 0
143 159 0
150 163 0
151 166 0
152 170 0
148 165 0
152 164 0
150 161 0
144 161 0
155 170 0
154 167 0
150 163 0
144 160 0
160 176 0
157 171 0
149 161 0
156 170 0
159 174 0
158 173 0
157 171 0
146 161 0
153 167 0
149 161 0
158 174 0
153 169 0
157 170 0
157 171 0
158 174 0
158 173 0
150 163 0
153 166 0
151 166 0
155 168 0
156 168 0
158 174 0
156 170 0
149 161 0
157 169 0
159 174 0
152 165 0
156 171 0
156 167 0
155 171 0
169 191 0
168 190 0
170 192 0
169 191 0
172 194 0
172 194 0
174 197 0
165 187 0
171 194 0
170 192 0
167 189 0
170 191 0
169 191 0
168 190 0
170 192 0
167 189 0
164 187 0
163 186 0
166 187 0
172 194 0
168 190 0
165 187 0
169 191 0
164 186 0
162 185 0
166 189 0
163 186 0
162 184 0
162 184 0
164 186 0
168 190 0
165 187 0
167 189 0
168 191 0
162 184 0
165 188 0
163 185 0
166 187 0
166 189 0
166 188 0
166 188 0
169 191 0
166 188 0
165 188 0
164 186 0
165 187 0
162 184 0
164 187 0
167 189 0
164 186 0
156 179 0
167 190 0
161 183 0
157 179 0
165 187 0
156 178 0
164 187 0
170 192 0
161 185 0
163 186 0
162 184 0
158 181 0
162 183 0
160 183 0
167 189 0
162 186 0
160 183 0
164 188 0
165 187 0
158 181 0
165 188 0
155 179 0
162 184 0
155 178 0
160 182 0
163 186 0
153 176 0
156 179 0
159 182 0
160 183 0
158 181 0
160 183 0
157 180 0
160 183 0
156 179 0
162 185 0
166 190 0
169 191 0
158 181 0
158 181 0
160 182 0
159 181 0
158 181 0
159 182 0
157 179 0
156 179 0
159 182 0
156 179 0
161 184 0
159 181 0
157 179 0
159 182 0
162 184 0
161 184 0
165 187 0
163 186 0
159 182 0
162 184 0
162 186 0
157 180 0
159 182 0
160 183 0
160 182 0
158 180 0
153 175 0
159 182 0
156 179 0
151 174 0
154 177 0
159 182 0
164 188 0
156 179 0
156 179 0
161 184 0
163 186 0
152 174 0
158 180 0
155 177 0
157 179 0
153 174 0
160 183 0
160 181 0
158 181 0
156 177 0
153 176 0
158 180 0
154 177 0
160 183 0
155 178 0
158 180 0
159 182 0
163 185 0
158 181 0
154 177 0
156 179 0
159 182 0
150 172 0
155 177 0
155 177 0
157 181 0
148 170 0
157 179 0
155 178 0
155 177 0
142 164 0
154 177 0
151 172 0
146 168 0
152 174 0
149 171 0
155 178 0
154 177 0
157 180 0
150 172 0
152 174 0
152 174 0
157 180 0
151 173 0
159 180 0
152 174 0
154 176 0
145 167 0
160 182 0
153 175 0
146 166 0
152 175 0
159 181 0
154 176 0
151 172 0
150 172 0
158 180 0
151 172 0
155 177 0
147 168 0
152 174 0
150 171 0
157 179 0
155 177 0
156 179 0
145 167 0
148 170 0
150 171 0
150 172 0
154 177 0
157 178 0
156 177 0
154 175 0
149 170 0
150 171 0
154 175 0
144 165 0
151 173 0
147 167 0
148 171 0
147 168 0
148 170 0
155 176 0
151 172 0
153 174 0
154 174 0
158 179 0
153 175 0
150 172 0
143 165 0
154 177 0
151 173 0
157 177 0
149 170 0
144 165 0
153 175 0
149 170 0
157 178 0
151 172 0
155 177 0
153 174 0
145 167 0
157 179 0
143 164 0
153 175 0
152 172 0
150 171 0
152 174 0
157 177 0
153 173 0
151 171 0
148 168 0
152 172 0
146 167 0
150 170 0
153 174 0
147 167 0
154 175 0
149 171 0
156 177 0
148 169 0
139 159 0
152 172 0
154 175 0
147 167 0
149 171 0
149 169 0
150 170 0
148 170 0
156 176 0
151 171 0
151 173 0
152 171 0
157 177 0
150 171 0
144 164 0
149 168 0
155 176 0
153 173 0
156 176 0
155 175 0
155 176 0
151 174 0
150 169 0
156 177 0
147 167 0
146 165 0
152 172 0
146 166 0
153 173 0
158 180 0
147 164 0
148 169 0
147 166 0
156 177 0
152 173 0
154 173 0
150 169 0
142 160 0
151 172 0
150 170 0
151 169 0
153 173 0
147 166 0
155 175 0
158 177 0
153 172 0
153 172 0
150 169 0
152 170 0
149 169 0
155 173 0
150 167 0
153 174 0
156 176 0
155 176 0
149 169 0
142 163 0
156 175 0
150 168 0
153 173 0
155 174 0
153 172 0
151 170 0
151 169 0
150 170 0
150 169 0
151 169 0
154 173 0
152 172 0
143 159 0
154 172 0
157 175 0
153 172 0
150 168 0
155 175 0
160 179 0
152 170 0
152 171 0
155 173 0
154 172 0
147 165 0
152 168 0
153 172 0
152 168 0
144 161 0
152 171 0
150 168 0
150 168 0
158 174 0
147 164 0
148 165 0
151 169 0
154 170 0
150 167 0
150 167 0
157 175 0
147 161 0
155 170 0
155 174 0
156 172 0
154 172 0
149 165 0
148 165 0
149 166 0
149 166 0
153 167 0
151 167 0
150 166 0
157 175 0
153 167 0
151 167 0
149 164 0
151 165 0
153 169 0
146 161 0
154 168 0
149 164 0
155 170 0
153 167 0
152 167 0
149 165 0
153 168 0
149 161 0
157 175 0
154 171 0
154 168 0
152 166 0
149 163 0
149 162 0
151 165 0
157 170 0
156 171 0
154 167 0
150 163 0
152 166 0
153 166 0
151 162 0
151 166 0
156 169 0
153 168 0
154 170 0
159 174 0
154 169 0
147 159 0
155 167 0
154 168 0
150 164 0
156 169 0
146 159 0
156 173 0
151 166 0
154 166 0
155 169 0
155 168 0
152 164 0
172 194 0
171 193 0
167 189 0
168 190 0
167 189 0
168 189 0
167 189 0
170 192 0
167 190 0
170 192 0
168 190 0
170 193 0
166 189 0
173 195 0
167 188 0
171 194 0
168 191 0
164 187 0
166 188 0
168 189 0
164 185 0
167 190 0
163 185 0
166 188 0
166 189 0
168 190 0
164 185 0
167 191 0
165 188 0
163 185 0
166 188 0
161 183 0
167 189 0
165 187 0
167 187 0
163 185 0
162 185 0
161 183 0
163 186 0
167 189 0
164 186 0
164 187 0
162 185 0
160 181 0
159 181 0
165 188 0
166 188 0
163 186 0
166 189 0
167 188 0
164 186 0
167 189 0
168 191 0
165 188 0
165 188 0
164 187 0
165 186 0
157 180 0
160 183 0
159 182 0
161 183 0
166 190 0
163 185 0
155 178 0
165 189 0
165 187 0
161 184 0
159 181 0
164 187 0
165 187 0
162 185 0
162 184 0
159 182 0
163 186 0
157 180 0
159 182 0
162 185 0
164 186 0
163 186 0
163 186 0
162 184 0
157 180 0
159 183 0
164 186 0
158 181 0
159 182 0
163 185 0
165 186 0
158 181 0
152 175 0
163 185 0
161 184 0
157 180 0
155 178 0
155 178 0
158 180 0
164 186 0
163 186 0
152 175 0
162 185 0
160 183 0
160 183 0
154 176 0
154 176 0
157 180 0
159 181 0
157 180 0
159 182 0
157 181 0
154 176 0
153 176 0
161 183 0
154 176 0
155 178 0
154 176 0
152 175 0
158 180 0
157 180 0
158 180 0
159 180 0
160 182 0
161 184 0
161 183 0
158 181 0
164 186 0
154 176 0
154 178 0
161 183 0
155 177 0
155 178 0
157 181 0
153 175 0
156 179 0
158 180 0
157 180 0
152 175 0
159 181 0
160 183 0
157 179 0
152 175 0
152 175 0
154 176 0
152 174 0
153 176 0
158 180 0
154 178 0
151 174 0
150 172 0
156 179 0
158 181 0
154 176 0
157 179 0
153 175 0
162 186 0
144 167 0
151 173 0
152 173 0
156 179 0
157 179 0
158 181 0
158 180 0
150 173 0
154 176 0
150 173 0
154 178 0
152 175 0
155 175 0
156 178 0
159 182 0
145 167 0
157 179 0
154 176 0
150 172 0
147 169 0
161 184 0
151 172 0
155 178 0
155 177 0
156 179 0
157 179 0
155 177 0
154 177 0
155 176 0
149 172 0
155 178 0
154 176 0
150 172 0
152 174 0
152 174 0
149 171 0
158 181 0
150 172 0
159 181 0
153 174 0
158 181 0
153 175 0
153 174 0
155 178 0
152 173 0
158 181 0
152 174 0
158 180 0
156 178 0
150 172 0
148 168 0
161 183 0
156 177 0
152 174 0
156 178 0
141 164 0
153 174 0
152 174 0
155 177 0
153 175 0
143 164 0
158 180 0
151 172 0
153 174 0
146 166 0
155 175 0
148 169 0
152 173 0
153 174 0
153 175 0
145 167 0
145 166 0
153 175 0
148 169 0
155 176 0
154 174 0
141 163 0
152 174 0
140 161 0
150 169 0
148 168 0
154 175 0
147 168 0
152 172 0
153 176 0
146 166 0
153 174 0
149 169 0
150 172 0
150 172 0
149 171 0
156 177 0
151 171 0
161 182 0
153 172 0
144 165 0
152 173 0
155 175 0
143 165 0
151 172 0
149 169 0
151 172 0
142 161 0
149 170 0
153 173 0
147 168 0
153 175 0
152 174 0
148 168 0
154 175 0
157 180 0
144 165 0
150 170 0
146 164 0
150 170 0
152 172 0
154 174 0
152 171 0
157 179 0
153 173 0
150 174 0
154 173 0
151 172 0
156 177 0
150 170 0
147 166 0
158 178 0
149 169 0
150 169 0
158 178 0
152 173 0
149 169 0
147 166 0
156 175 0
142 162 0
151 170 0
149 167 0
156 178 0
156 177 0
151 171 0
152 171 0
153 172 0
149 168 0
143 162 0
152 173 0
154 175 0
151 169 0
143 163 0
146 165 0
154 173 0
146 164 0
156 175 0
153 172 0
160 180 0
160 178 0
154 176 0
152 171 0
147 165 0
154 173 0
153 171 0
149 165 0
154 173 0
158 176 0
152 170 0
147 163 0
152 170 0
149 166 0
148 165 0
154 172 0
153 171 0
147 165 0
150 166 0
153 170 0
150 168 0
151 167 0
149 166 0
143 158 0
152 168 0
156 175 0
143 160 0
151 166 0
153 172 0
147 166 0
150 166 0
157 176 0
151 168 0
150 168 0
155 173 0
153 169 0
156 175 0
151 168 0
157 175 0
157 174 0
151 169 0
150 166 0
149 165 0
157 174 0
153 169 0
157 173 0
157 173 0
150 164 0
152 167 0
155 172 0
149 166 0
157 173 0
144 160 0
151 166 0
148 160 0
156 172 0
153 167 0
157 172 0
153 167 0
153 168 0
155 171 0
155 170 0
152 166 0
152 168 0
158 174 0
146 161 0
155 169 0
159 175 0
153 169 0
149 163 0
156 170 0
160 174 0
151 166 0
148 161 0
153 166 0
155 172 0
157 172 0
151 164 0
155 167 0
158 174 0
156 171 0
163 180 0
154 168 0
157 172 0
153 164 0
153 165 0
156 172 0
156 169 0
157 169 0
157 171 0
151 163 0
158 171 0
148 163 0
169 190 0
168 190 0
170 191 0
173 195 0
172 193 0
168 191 0
171 192 0
165 187 0
167 188 0
167 189 0
165 187 0
170 192 0
169 191 0
165 187 0
171 193 0
166 188 0
170 192 0
165 187 0
167 188 0
161 184 0
167 188 0
169 192 0
163 185 0
168 190 0
162 185 0
168 190 0
164 186 0
169 190 0
168 191 0
164 186 0
165 187 0
165 186 0
166 187 0
163 186 0
165 187 0
167 189 0
160 182 0
167 190 0
164 186 0
163 185 0
163 185 0
164 186 0
164 187 0
164 186 0
162 185 0
165 187 0
167 189 0
167 190 0
161 183 0
170 193 0
162 185 0
164 187 0
167 189 0
156 179 0
162 185 0
160 183 0
160 183 0
163 185 0
162 185 0
166 189 0
162 184 0
162 184 0
166 188 0
163 186 0
158 180 0
158 181 0
161 184 0
160 183 0
164 187 0
157 179 0
159 182 0
166 189 0
164 186 0
157 179 0
166 189 0
164 186 0
167 189 0
159 182 0
160 182 0
158 181 0
159 181 0
157 180 0
158 181 0
160 182 0
156 180 0
160 184 0
159 182 0
159 181 0
154 178 0
168 190 0
159 181 0
156 179 0
158 181 0
161 184 0
161 184 0
151 173 0
154 177 0
159 181 0
158 179 0
161 183 0
153 176 0
158 180 0
164 187 0
159 181 0
162 184 0
157 180 0
161 183 0
161 183 0
155 178 0
160 182 0
161 184 0
153 176 0
158 182 0
155 178 0
155 176 0
154 176 0
161 184 0
163 186 0
153 176 0
153 175 0
155 178 0
154 177 0
160 182 0
162 185 0
157 180 0
150 172 0
155 177 0
157 179 0
155 178 0
154 178 0
155 179 0
154 177 0
162 184 0
151 174 0
154 176 0
156 179 0
158 181 0
158 182 0
161 183 0
157 179 0
164 187 0
162 184 0
151 173 0
157 181 0
153 176 0
153 175 0
155 179 0
156 178 0
154 177 0
147 169 0
152 174 0
152 175 0
153 176 0
160 181 0
152 174 0
146 169 0
160 183 0
154 175 0
152 175 0
151 174 0
155 179 0
153 174 0
147 170 0
153 175 0
156 178 0
149 171 0
156 179 0
154 176 0
155 178 0
156 177 0
155 178 0
150 173 0
153 176 0
150 171 0
158 180 0
156 177 0
160 183 0
161 184 0
160 182 0
153 176 0
148 170 0
145 166 0
148 170 0
147 169 0
150 172 0
151 174 0
146 168 0
150 172 0
149 170 0
154 177 0
152 173 0
152 174 0
146 168 0
158 180 0
141 162 0
159 183 0
154 176 0
156 177 0
155 178 0
149 171 0
151 173 0
153 174 0
143 165 0
153 175 0
159 180 0
149 170 0
154 176 0
158 179 0
152 172 0
146 168 0
150 171 0
159 182 0
156 176 0
145 168 0
144 167 0
156 177 0
141 162 0
147 168 0
157 179 0
153 174 0
158 179 0
152 173 0
149 170 0
149 171 0
155 176 0
152 173 0
156 179 0
146 169 0
152 173 0
155 175 0
153 177 0
150 170 0
150 171 0
147 168 0
154 176 0
151 173 0
153 174 0
153 175 0
152 172 0
155 176 0
150 171 0
149 171 0
151 173 0
151 172 0
148 169 0
154 176 0
154 174 0
157 178 0
152 175 0
157 178 0
151 171 0
152 173 0
149 170 0
150 171 0
144 162 0
156 178 0
154 176 0
153 173 0
149 170 0
151 171 0
154 173 0
149 169 0
144 163 0
151 171 0
149 170 0
158 177 0
153 172 0
156 177 0
155 175 0
157 177 0
160 180 0
152 171 0
152 172 0
154 175 0
155 177 0
152 171 0
156 175 0
148 167 0
156 177 0
151 170 0
153 172 0
157 175 0
150 170 0
159 180 0
151 171 0
157 178 0
152 171 0
147 166 0
151 171 0
156 176 0
153 174 0
139 157 0
151 171 0
151 170 0
149 168 0
147 168 0
148 168 0
149 167 0
155 175 0
157 177 0
154 175 0
157 177 0
153 172 0
150 170 0
151 170 0
143 161 0
159 178 0
156 176 0
155 173 0
154 173 0
158 177 0
156 176 0
150 171 0
150 170 0
153 171 0
148 167 0
154 172 0
159 178 0
147 165 0
151 169 0
151 170 0
155 173 0
151 170 0
150 168 0
154 172 0
153 171 0
155 174 0
156 171 0
152 169 0
157 175 0
150 167 0
150 168 0
157 174 0
158 177 0
157 175 0
151 168 0
154 172 0
155 172 0
149 167 0
145 164 0
156 173 0
155 171 0
147 163 0
149 164 0
151 168 0
151 166 0
155 174 0
156 173 0
154 169 0
148 162 0
156 172 0
156 174 0
146 162 0
156 173 0
149 164 0
155 173 0
161 178 0
152 169 0
152 165 0
160 174 0
153 169 0
148 163 0
154 170 0
155 171 0
155 172 0
160 177 0
154 167 0
154 168 0
149 164 0
152 167 0
156 171 0
155 170 0
161 175 0
157 172 0
155 170 0
149 164 0
149 166 0
153 168 0
154 169 0
157 174 0
154 169 0
148 160 0
155 172 0
157 170 0
160 175 0
149 162 0
152 168 0
157 173 0
158 172 0
152 166 0
153 166 0
156 173 0
150 163 0
157 171 0
151 161 0
157 172 0
161 175 0
149 160 0
156 172 0
156 170 0
164 185 0
172 195 0
165 187 0
169 192 0
167 189 0
170 192 0
170 192 0
166 188 0
169 191 0
171 193 0
169 191 0
168 190 0
169 191 0
169 191 0
168 191 0
168 191 0
168 190 0
169 192 0
171 193 0
169 190 0
169 191 0
167 190 0
167 190 0
166 188 0
165 187 0
167 190 0
167 188 0
167 189 0
166 188 0
166 189 0
169 190 0
165 187 0
168 189 0
162 185 0
167 190 0
162 185 0
159 182 0
160 182 0
163 186 0
158 179 0
164 187 0
165 188 0
162 184 0
169 192 0
165 187 0
167 189 0
166 188 0
163 186 0
162 184 0
165 188 0
163 186 0
163 185 0
156 179 0
165 188 0
164 186 0
166 189 0
166 188 0
162 184 0
163 186 0
157 179 0
160 183 0
160 183 0
157 179 0
161 184 0
163 184 0
160 182 0
159 182 0
160 184 0
155 178 0
167 190 0
162 185 0
159 183 0
161 184 0
158 181 0
162 184 0
161 184 0
166 189 0
157 180 0
160 183 0
161 184 0
158 181 0
159 181 0
160 183 0
157 180 0
161 184 0
156 178 0
160 182 0
171 193 0
156 179 0
164 187 0
157 180 0
158 181 0
155 178 0
158 180 0
159 181 0
160 183 0
158 182 0
156 178 0
160 183 0
158 180 0
154 177 0
166 189 0
154 177 0
161 183 0
166 188 0
163 185 0
155 178 0
156 178 0
163 185 0
156 179 0
160 183 0
150 172 0
163 185 0
151 174 0
159 182 0
150 172 0
164 187 0
159 181 0
157 180 0
157 180 0
158 180 0
157 180 0
152 174 0
157 179 0
153 177 0
155 178 0
157 180 0
158 181 0
153 176 0
150 172 0
156 180 0
158 179 0
157 178 0
158 180 0
151 174 0
149 173 0
155 178 0
153 176 0
160 182 0
152 175 0
158 180 0
160 183 0
161 184 0
155 178 0
157 179 0
148 170 0
157 180 0
161 182 0
152 175 0
164 187 0
154 176 0
156 179 0
159 182 0
156 180 0
157 180 0
155 178 0
153 175 0
152 174 0
155 177 0
158 181 0
160 182 0
153 175 0
153 175 0
147 169 0
151 172 0
152 174 0
151 174 0
144 167 0
160 183 0
157 180 0
155 178 0
153 175 0
158 180 0
158 181 0
155 176 0
155 179 0
156 177 0
152 175 0
154 176 0
152 174 0
156 178 0
156 178 0
152 174 0
152 174 0
155 177 0
146 169 0
152 174 0
156 178 0
151 173 0
142 164 0
157 179 0
150 172 0
150 172 0
153 177 0
157 179 0
145 167 0
151 172 0
151 172 0
149 171 0
151 173 0
156 179 0
157 179 0
149 171 0
154 176 0
154 176 0
157 178 0
153 174 0
158 181 0
146 167 0
152 174 0
153 175 0
149 168 0
156 177 0
151 173 0
149 172 0
152 173 0
149 170 0
142 163 0
154 176 0
148 168 0
151 173 0
151 172 0
153 175 0
148 169 0
152 173 0
153 174 0
152 174 0
152 173 0
155 177 0
147 168 0
146 168 0
145 167 0
156 178 0
148 169 0
153 173 0
147 169 0
158 180 0
151 171 0
149 171 0
145 166 0
146 168 0
149 170 0
154 174 0
142 162 0
144 166 0
155 174 0
153 174 0
145 165 0
147 168 0
151 170 0
158 179 0
154 176 0
155 177 0
155 175 0
146 166 0
155 176 0
147 166 0
154 175 0
155 175 0
155 175 0
158 179 0
144 165 0
153 174 0
151 171 0
148 169 0
148 168 0
151 171 0
148 170 0
146 166 0
154 174 0
155 175 0
144 163 0
150 170 0
147 167 0
157 177 0
147 168 0
155 178 0
150 169 0
149 169 0
149 169 0
152 173 0
151 172 0
155 175 0
149 170 0
156 176 0
151 172 0
147 165 0
154 175 0
156 175 0
155 176 0
151 171 0
152 171 0
150 170 0
156 175 0
152 173 0
155 174 0
148 166 0
153 171 0
154 171 0
161 180 0
148 168 0
151 169 0
156 176 0
156 175 0
147 166 0
153 172 0
156 176 0
157 176 0
161 182 0
156 174 0
150 168 0
154 172 0
159 179 0
156 177 0
156 175 0
158 177 0
149 168 0
153 170 0
151 170 0
152 171 0
154 170 0
151 168 0
160 178 0
153 171 0
143 161 0
149 166 0
151 169 0
153 171 0
155 173 0
152 169 0
155 171 0
151 169 0
152 169 0
161 180 0
155 173 0
149 167 0
151 168 0
150 165 0
152 171 0
145 162 0
155 172 0
154 173 0
153 171 0
150 168 0
156 174 0
153 172 0
149 165 0
149 166 0
156 172 0
150 167 0
156 173 0
156 174 0
155 173 0
150 168 0
151 167 0
151 167 0
149 164 0
153 171 0
149 165 0
145 159 0
154 171 0
155 172 0
151 168 0
152 168 0
153 167 0
158 175 0
155 173 0
157 172 0
149 166 0
151 164 0
151 167 0
155 171 0
152 166 0
155 171 0
149 165 0
158 172 0
159 172 0
158 173 0
156 170 0
157 169 0
155 168 0
157 173 0
154 169 0
156 172 0
151 165 0
156 169 0
156 172 0
156 170 0
155 172 0
157 172 0
157 172 0
153 165 0
156 170 0
156 172 0
159 172 0
160 175 0
159 174 0
154 171 0
153 167 0
149 160 0
168 190 0
170 192 0
168 190 0
168 190 0
168 191 0
168 190 0
168 190 0
160 183 0
167 189 0
166 189 0
169 192 0
165 189 0
168 191 0
166 189 0
170 192 0
169 192 0
169 191 0
165 188 0
166 188 0
161 182 0
168 190 0
165 189 0
171 193 0
167 190 0
161 184 0
168 190 0
159 182 0
166 188 0
164 186 0
166 189 0
164 188 0
162 186 0
165 187 0
165 187 0
165 188 0
166 189 0
162 183 0
166 188 0
163 186 0
168 190 0
165 187 0
166 188 0
163 186 0
165 188 0
162 184 0
163 186 0
162 185 0
163 186 0
161 184 0
164 186 0
164 186 0
160 183 0
158 180 0
167 189 0
165 187 0
168 191 0
162 183 0
161 183 0
166 188 0
163 186 0
166 189 0
162 185 0
161 184 0
163 186 0
165 188 0
163 185 0
163 186 0
159 181 0
162 185 0
158 181 0
157 181 0
159 182 0
159 182 0
162 184 0
166 189 0
164 186 0
163 185 0
158 180 0
156 179 0
163 185 0
163 185 0
156 178 0
164 186 0
158 181 0
157 179 0
159 182 0
161 184 0
163 186 0
160 182 0
164 187 0
157 180 0
166 189 0
161 183 0
164 186 0
162 184 0
157 180 0
157 179 0
164 186 0
157 180 0
162 184 0
160 184 0
155 177 0
160 183 0
158 181 0
164 187 0
160 184 0
157 180 0
157 180 0
155 178 0
157 180 0
156 179 0
153 176 0
157 179 0
155 177 0
160 184 0
161 184 0
153 176 0
159 182 0
153 176 0
160 183 0
154 176 0
159 182 0
162 184 0
156 178 0
159 183 0
156 179 0
153 175 0
153 177 0
155 178 0
152 175 0
156 179 0
156 178 0
153 176 0
151 173 0
160 182 0
158 181 0
159 183 0
162 185 0
155 177 0
158 180 0
157 181 0
153 176 0
157 180 0
155 177 0
153 175 0
157 179 0
153 176 0
146 168 0
159 181 0
150 173 0
152 174 0
160 182 0
153 175 0
152 174 0
152 173 0
154 177 0
152 176 0
151 173 0
152 174 0
157 180 0
150 172 0
146 168 0
159 181 0
152 175 0
154 176 0
146 169 0
153 175 0
157 180 0
154 177 0
157 178 0
149 172 0
155 178 0
148 169 0
155 177 0
149 170 0
149 171 0
154 178 0
158 179 0
153 174 0
157 179 0
149 171 0
149 171 0
146 169 0
149 171 0
148 169 0
155 177 0
149 172 0
153 176 0
148 170 0
149 170 0
144 166 0
151 174 0
152 174 0
157 179 0
146 168 0
152 175 0
154 175 0
159 180 0
148 171 0
155 177 0
157 180 0
153 175 0
154 175 0
150 171 0
145 167 0
144 166 0
155 177 0
160 183 0
155 176 0
153 175 0
152 174 0
156 179 0
153 175 0
153 175 0
152 173 0
154 175 0
149 169 0
152 173 0
152 173 0
156 178 0
156 179 0
153 175 0
155 178 0
149 171 0
156 180 0
150 172 0
147 167 0
154 175 0
154 175 0
152 172 0
149 171 0
157 178 0
152 173 0
145 166 0
153 174 0
147 168 0
150 172 0
153 175 0
149 171 0
148 168 0
150 170 0
150 170 0
152 172 0
161 183 0
158 180 0
154 173 0
158 179 0
151 171 0
148 168 0
157 180 0
151 170 0
147 166 0
149 170 0
153 174 0
158 178 0
156 178 0
157 178 0
154 175 0
155 176 0
156 178 0
153 174 0
145 165 0
153 175 0
142 162 0
151 170 0
153 173 0
153 173 0
148 168 0
148 168 0
152 174 0
152 172 0
149 171 0
153 173 0
147 167 0
160 181 0
154 175 0
149 170 0
158 177 0
151 169 0
150 171 0
151 170 0
146 164 0
151 173 0
153 172 0
155 175 0
153 173 0
152 172 0
149 169 0
156 175 0
148 168 0
150 169 0
149 167 0
151 171 0
158 179 0
151 171 0
155 175 0
149 168 0
159 180 0
154 173 0
151 172 0
150 169 0
150 168 0
144 163 0
155 172 0
149 169 0
151 171 0
155 173 0
150 168 0
153 172 0
144 163 0
151 171 0
154 172 0
147 165 0
152 171 0
155 174 0
148 167 0
149 165 0
149 164 0
154 175 0
155 174 0
151 170 0
147 166 0
156 174 0
153 170 0
153 169 0
150 167 0
150 170 0
156 175 0
155 173 0
155 173 0
152 168 0
147 162 0
152 170 0
156 174 0
159 177 0
153 171 0
157 176 0
152 169 0
152 171 0
153 172 0
152 170 0
151 168 0
153 170 0
156 170 0
148 163 0
159 177 0
151 170 0
158 177 0
158 175 0
155 173 0
152 169 0
152 168 0
152 168 0
153 170 0
155 172 0
153 172 0
155 172 0
157 176 0
149 166 0
152 169 0
159 177 0
160 178 0
156 175 0
153 169 0
149 165 0
159 175 0
153 170 0
158 176 0
152 168 0
153 169 0
149 165 0
162 178 0
153 169 0
156 170 0
151 165 0
155 171 0
153 166 0
145 159 0
149 163 0
154 169 0
152 167 0
146 161 0
155 170 0
150 163 0
152 166 0
165 182 0
158 172 0
157 173 0
149 163 0
158 175 0
162 176 0
158 172 0
157 172 0
154 169 0
161 177 0
161 178 0
156 169 0
153 168 0
158 174 0
158 173 0
167 189 0
169 191 0
170 193 0
164 187 0
170 193 0
166 189 0
170 192 0
168 189 0
165 188 0
166 189 0
168 190 0
169 190 0
166 188 0
164 187 0
166 188 0
166 188 0
168 191 0
169 191 0
169 191 0
168 190 0
170 193 0
166 188 0
169 190 0
167 190 0
163 186 0
160 182 0
163 186 0
167 189 0
170 192 0
168 191 0
163 187 0
164 186 0
158 181 0
162 185 0
162 184 0
164 186 0
163 186 0
155 177 0
164 187 0
165 187 0
164 187 0
168 190 0
164 187 0
162 185 0
159 182 0
165 188 0
167 189 0
167 190 0
164 187 0
165 188 0
160 183 0
167 190 0
168 192 0
155 177 0
168 191 0
162 184 0
166 189 0
160 184 0
160 182 0
166 190 0
157 180 0
162 184 0
167 189 0
160 183 0
158 181 0
163 185 0
161 184 0
159 181 0
152 175 0
154 177 0
160 184 0
166 189 0
166 189 0
166 190 0
155 179 0
162 186 0
160 184 0
157 180 0
163 185 0
162 184 0
160 182 0
152 175 0
164 187 0
159 181 0
162 186 0
160 183 0
162 184 0
165 188 0
166 188 0
163 186 0
153 176 0
161 184 0
153 174 0
158 181 0
162 184 0
160 183 0
159 182 0
156 179 0
157 179 0
164 187 0
157 179 0
156 179 0
156 180 0
163 186 0
162 185 0
163 186 0
156 179 0
162 184 0
163 186 0
155 178 0
148 172 0
162 184 0
161 184 0
160 181 0
159 181 0
154 177 0
152 175 0
156 179 0
156 179 0
158 182 0
158 180 0
151 173 0
162 185 0
158 180 0
157 180 0
155 179 0
154 177 0
164 187 0
158 180 0
158 180 0
162 183 0
160 183 0
160 183 0
156 178 0
148 171 0
152 175 0
154 177 0
156 178 0
158 179 0
157 180 0
153 176 0
157 180 0
156 179 0
149 172 0
154 176 0
153 175 0
161 184 0
152 175 0
153 175 0
150 172 0
151 174 0
158 181 0
146 168 0
161 185 0
157 180 0
155 178 0
155 179 0
150 173 0
151 174 0
154 177 0
155 178 0
148 169 0
156 178 0
156 178 0
155 178 0
150 173 0
155 178 0
155 177 0
156 177 0
156 179 0
150 173 0
151 174 0
154 176 0
156 178 0
155 178 0
150 172 0
159 180 0
147 167 0
159 182 0
147 169 0
159 181 0
154 174 0
154 177 0
151 173 0
148 170 0
150 172 0
149 172 0
152 173 0
158 180 0
158 180 0
150 171 0
158 180 0
153 175 0
152 174 0
150 171 0
154 176 0
149 171 0
150 172 0
151 173 0
154 176 0
142 164 0
148 170 0
151 173 0
148 169 0
156 177 0
158 181 0
151 173 0
149 171 0
152 173 0
149 171 0
140 161 0
156 178 0
152 173 0
151 173 0
153 175 0
153 175 0
152 173 0
150 172 0
148 170 0
152 173 0
158 181 0
152 173 0
146 168 0
151 173 0
145 165 0
152 173 0
151 173 0
154 175 0
151 171 0
156 177 0
157 178 0
155 176 0
157 179 0
151 172 0
146 166 0
151 173 0
162 183 0
153 173 0
153 174 0
151 173 0
156 177 0
150 171 0
150 171 0
154 173 0
151 172 0
151 172 0
156 178 0
152 174 0
152 174 0
146 166 0
150 172 0
150 171 0
145 166 0
148 168 0
158 180 0
156 176 0
150 169 0
155 177 0
152 173 0
153 175 0
149 170 0
147 168 0
153 174 0
155 176 0
153 173 0
153 173 0
148 170 0
154 175 0
160 180 0
149 169 0
157 178 0
156 178 0
148 166 0
152 174 0
152 173 0
156 175 0
157 177 0
152 171 0
146 166 0
152 173 0
152 172 0
151 172 0
150 172 0
149 169 0
154 173 0
153 174 0
146 166 0
152 173 0
153 173 0
153 173 0
154 175 0
153 175 0
149 167 0
153 174 0
153 174 0
151 172 0
157 176 0
151 170 0
156 176 0
154 175 0
149 169 0
149 169 0
155 174 0
155 174 0
150 170 0
153 174 0
157 178 0
147 166 0
155 172 0
151 170 0
152 171 0
148 167 0
151 171 0
149 167 0
150 169 0
156 173 0
157 176 0
150 169 0
154 173 0
153 173 0
155 174 0
153 171 0
150 167 0
152 169 0
153 172 0
161 179 0
149 168 0
151 169 0
150 169 0
148 165 0
151 170 0
161 179 0
151 168 0
152 170 0
157 176 0
158 178 0
155 173 0
160 178 0
158 176 0
158 176 0
150 168 0
149 167 0
150 168 0
155 171 0
149 165 0
154 169 0
149 167 0
153 171 0
160 178 0
150 166 0
153 171 0
148 162 0
151 169 0
155 171 0
154 171 0
153 169 0
147 162 0
147 163 0
151 166 0
156 174 0
147 162 0
156 172 0
151 168 0
160 176 0
159 176 0
148 161 0
156 174 0
150 166 0
157 172 0
153 168 0
154 170 0
156 174 0
151 167 0
159 175 0
157 172 0
151 166 0
147 163 0
159 174 0
152 167 0
153 169 0
153 166 0
157 172 0
157 173 0
155 170 0
146 160 0
154 169 0
159 172 0
156 171 0
158 173 0
148 161 0
157 173 0
154 170 0
156 172 0
158 173 0
155 171 0
151 164 0
156 171 0
164 180 0
158 173 0
156 171 0
168 190 0
170 191 0
167 190 0
170 193 0
172 194 0
169 192 0
170 192 0
166 189 0
170 192 0
168 191 0
168 191 0
168 191 0
167 190 0
166 189 0
166 188 0
167 189 0
172 194 0
169 191 0
164 187 0
164 185 0
171 193 0
168 190 0
171 193 0
169 191 0
168 190 0
164 186 0
164 186 0
165 188 0
161 183 0
170 193 0
163 186 0
168 190 0
165 187 0
160 182 0
165 188 0
161 183 0
157 180 0
166 189 0
164 187 0
167 189 0
168 190 0
167 189 0
166 189 0
161 183 0
163 186 0
166 189 0
165 188 0
164 187 0
168 190 0
162 184 0
166 188 0
163 186 0
163 186 0
162 184 0
165 187 0
158 181 0
162 184 0
164 187 0
165 187 0
160 184 0
168 190 0
167 190 0
164 187 0
163 186 0
162 185 0
164 187 0
166 189 0
164 186 0
160 183 0
160 183 0
164 187 0
164 186 0
158 181 0
161 185 0
159 181 0
158 181 0
161 183 0
161 184 0
159 180 0
166 190 0
156 179 0
162 186 0
156 179 0
160 183 0
170 192 0
158 181 0
157 180 0
162 185 0
164 187 0
161 185 0
157 179 0
160 183 0
158 181 0
164 188 0
155 177 0
158 181 0
158 181 0
157 180 0
158 181 0
161 184 0
160 182 0
153 176 0
163 186 0
163 186 0
156 179 0
159 182 0
160 182 0
158 181 0
160 184 0
156 178 0
157 180 0
156 179 0
152 175 0
164 186 0
160 183 0
161 185 0
162 185 0
160 183 0
155 176 0
165 189 0
153 176 0
156 178 0
161 183 0
154 177 0
155 177 0
151 174 0
156 178 0
155 179 0
160 183 0
157 181 0
153 176 0
163 186 0
158 180 0
157 179 0
159 181 0
152 175 0
159 181 0
151 173 0
156 179 0
161 185 0
159 181 0
158 180 0
152 173 0
155 178 0
162 184 0
144 167 0
155 179 0
158 181 0
158 180 0
156 179 0
156 179 0
151 173 0
162 184 0
157 181 0
155 179 0
155 178 0
157 178 0
155 178 0
149 171 0
152 173 0
158 179 0
155 178 0
158 179 0
156 178 0
155 177 0
157 180 0
151 173 0
152 174 0
157 180 0
152 175 0
157 178 0
152 174 0
146 169 0
151 172 0
161 183 0
153 174 0
148 169 0
156 179 0
156 178 0
154 176 0
155 177 0
155 177 0
153 176 0
154 176 0
155 176 0
153 175 0
149 172 0
154 175 0
155 177 0
154 177 0
156 177 0
149 172 0
153 174 0
144 166 0
152 174 0
150 171 0
149 171 0
156 179 0
157 179 0
158 179 0
149 171 0
149 171 0
156 178 0
151 173 0
151 172 0
148 170 0
149 170 0
156 177 0
152 175 0
150 171 0
149 171 0
156 179 0
149 171 0
148 169 0
149 169 0
149 170 0
154 176 0
151 173 0
154 175 0
148 171 0
154 175 0
154 175 0
146 166 0
149 168 0
150 171 0
154 177 0
152 172 0
145 165 0
162 183 0
149 171 0
151 172 0
152 174 0
156 178 0
152 173 0
151 171 0
155 176 0
153 175 0
150 172 0
148 169 0
137 158 0
144 165 0
147 167 0
149 171 0
156 178 0
162 183 0
147 169 0
141 162 0
144 165 0
154 174 0
159 181 0
155 177 0
157 177 0
150 171 0
157 178 0
153 173 0
156 178 0
159 181 0
160 180 0
148 170 0
146 167 0
146 167 0
155 176 0
151 170 0
150 169 0
148 169 0
156 176 0
156 177 0
159 179 0
150 172 0
153 174 0
148 169 0
161 181 0
158 179 0
160 181 0
149 170 0
149 169 0
160 181 0
157 176 0
148 168 0
158 179 0
152 174 0
146 166 0
154 175 0
152 170 0
150 169 0
147 167 0
151 173 0
155 177 0
148 168 0
155 175 0
164 184 0
155 175 0
152 171 0
161 183 0
153 171 0
154 175 0
155 175 0
151 171 0
154 174 0
149 168 0
160 179 0
152 171 0
152 173 0
151 169 0
154 173 0
155 174 0
152 172 0
151 169 0
149 168 0
153 173 0
154 172 0
161 179 0
156 177 0
157 175 0
152 172 0
155 172 0
157 177 0
153 171 0
149 168 0
149 168 0
152 171 0
154 173 0
145 161 0
151 168 0
150 168 0
157 175 0
155 174 0
153 170 0
152 168 0
158 176 0
150 168 0
159 176 0
153 173 0
153 172 0
152 168 0
156 175 0
148 166 0
154 173 0
158 176 0
149 168 0
147 164 0
159 175 0
159 176 0
156 175 0
153 170 0
155 172 0
150 167 0
153 169 0
150 167 0
150 167 0
156 173 0
158 173 0
153 170 0
152 168 0
150 168 0
152 169 0
149 163 0
158 174 0
148 165 0
157 177 0
148 163 0
152 168 0
156 173 0
156 172 0
153 167 0
159 175 0
152 168 0
155 172 0
155 171 0
146 162 0
148 163 0
155 172 0
150 166 0
148 164 0
151 165 0
158 173 0
155 169 0
161 177 0
157 171 0
152 165 0
160 177 0
155 171 0
158 173 0
154 168 0
155 170 0
157 174 0
159 176 0
154 170 0
155 168 0
153 170 0
153 166 0
163 179 0
155 173 0
163 178 0
151 165 0
158 176 0
154 169 0
153 168 0
156 170 0
155 173 0
